luts/original/afrobeat-warm-cover.cube
TITLE "Afrobeat Warm Cover"
LUT_3D_SIZE 9
DOMAIN_MIN 0.0 0.0 0.0
DOMAIN_MAX 1.0 1.0 1.0
0.000000 0.000000 0.000000
0.085574 0.000000 0.000000
0.228217 0.000000 0.000000
0.407142 0.000000 0.000000
0.599838 0.000000 0.000000
0.782011 0.000000 0.000000
0.927527 0.000000 0.000000
1.000000 0.000000 0.000000
1.000000 0.000000 0.000000
0.000000 0.056980 0.000000
0.080893 0.055738 0.000000
0.225038 0.054474 0.000000
0.407327 0.053191 0.000000
0.603825 0.051888 0.000000
0.788744 0.050566 0.000000
0.934382 0.049226 0.000000
1.000000 0.047870 0.000000
1.000000 0.046490 0.000000
0.000000 0.158048 0.000000
0.075583 0.157868 0.000000
0.220843 0.157644 0.000000
0.406327 0.157378 0.000000
0.606628 0.157068 0.000000
0.797900 0.156752 0.000000
0.949243 0.156394 0.000000
1.000000 0.155928 0.000000
1.000000 0.155354 0.000000
0.000000 0.301127 0.000000
0.069696 0.302824 0.000000
0.218237 0.304779 0.000000
0.414332 0.306695 0.000000
0.629310 0.308487 0.000000
0.828957 0.310154 0.000000
0.972746 0.311694 0.000000
1.000000 0.313104 0.000000
1.000000 0.308581 0.000000
0.000000 0.478993 0.000000
0.066690 0.483433 0.000000
0.223111 0.487744 0.000000
0.430535 0.491923 0.000000
0.654086 0.492963 0.000000
0.852500 0.488363 0.000000
0.985828 0.483672 0.000000
1.000000 0.478891 0.000000
1.000000 0.474020 0.000000
0.000000 0.674839 0.000000
0.063184 0.673760 0.000000
0.224838 0.669678 0.000000
0.438145 0.665497 0.000000
0.665831 0.661218 0.000000
0.866512 0.656840 0.000000
0.994510 0.652362 0.000000
1.000000 0.647785 0.000000
1.000000 0.643108 0.000000
0.000000 0.828397 0.000000
0.058924 0.825071 0.000000
0.223947 0.821650 0.000000
0.443688 0.818134 0.000000
0.677398 0.814522 0.000000
0.879974 0.810813 0.000000
1.000000 0.807005 0.000000
1.000000 0.803098 0.000000
1.000000 0.799090 0.000000
0.000000 0.944921 0.000000
0.054711 0.942664 0.000000
0.222973 0.940327 0.000000
0.449139 0.937907 0.000000
0.688782 0.935402 0.000000
0.892871 0.932811 0.000000
1.000000 0.930132 0.000000
1.000000 0.927120 0.000000
1.000000 0.923741 0.000000
0.000000 1.000000 0.000000
0.050552 1.000000 0.000000
0.221914 1.000000 0.000000
0.454496 1.000000 0.000000
0.694128 1.000000 0.000000
0.893545 1.000000 0.000000
1.000000 1.000000 0.000000
1.000000 1.000000 0.000000
1.000000 0.999799 0.000000
0.000000 0.000000 0.041723
0.085288 0.000000 0.041033
0.228155 0.000000 0.040320
0.407451 0.000000 0.039584
0.600526 0.000000 0.038824
0.782936 0.000000 0.038043
0.928394 0.000000 0.037240
1.000000 0.000000 0.036416
1.000000 0.000000 0.035572
0.000000 0.056877 0.040958
0.080528 0.055617 0.040140
0.224857 0.054337 0.039300
0.407499 0.053037 0.038438
0.604376 0.051718 0.037556
0.789544 0.050381 0.036654
0.935142 0.049026 0.035733
1.000000 0.047655 0.034792
1.000000 0.046230 0.033504
0.000000 0.158405 0.039615
0.075143 0.158199 0.038674
0.220544 0.157950 0.037714
0.406364 0.157659 0.036735
0.607043 0.157324 0.035737
0.801279 0.157018 0.034139
0.951921 0.156633 0.032314
1.000000 0.156141 0.030427
1.000000 0.155540 0.028482
0.000000 0.302165 0.037713
0.069344 0.303895 0.036561
0.218937 0.305904 0.034782
0.416202 0.307790 0.032937
0.632206 0.309554 0.031030
0.832183 0.311192 0.029065
0.974972 0.312703 0.027047
1.000000 0.312157 0.024702
1.000000 0.307562 0.021805
0.000000 0.481026 0.033569
0.066507 0.485436 0.031642
0.223770 0.489717 0.029657
0.432388 0.493867 0.027620
0.655527 0.491989 0.024971
0.854143 0.487386 0.022108
0.986870 0.482691 0.019304
1.000000 0.477906 0.016563
1.000000 0.473032 0.013891
0.000000 0.676933 0.028157
0.062900 0.672943 0.025277
0.224989 0.668854 0.022449
0.438996 0.664668 0.019675
0.667295 0.660383 0.016961
0.868126 0.655999 0.014313
0.995410 0.651516 0.011734
1.000000 0.646933 0.009231
1.000000 0.642250 0.006808
0.000000 0.827796 0.020083
0.058665 0.824463 0.017396
0.224128 0.821035 0.014770
0.444575 0.817513 0.012211
0.678884 0.813894 0.009724
0.881554 0.810177 0.007313
1.000000 0.806362 0.004986
1.000000 0.802448 0.002746
1.000000 0.798433 0.000601
0.000000 0.944566 0.012724
0.054477 0.942302 0.010252
0.223183 0.939958 0.007853
0.450061 0.937531 0.005533
0.690288 0.935019 0.003297
0.894413 0.932420 0.001151
1.000000 0.929734 0.000000
1.000000 0.926522 0.000000
1.000000 0.923134 0.000000
0.000000 1.000000 0.006115
0.050342 1.000000 0.003883
0.222154 1.000000 0.001736
0.454593 1.000000 0.000000
0.693186 1.000000 0.000000
0.892864 1.000000 0.000000
1.000000 1.000000 0.000000
1.000000 1.000000 0.000000
1.000000 0.999521 0.000000
0.000000 0.000000 0.106379
0.084992 0.000000 0.107416
0.228079 0.000000 0.108418
0.407745 0.000000 0.109385
0.601198 0.000000 0.110317
0.783847 0.000000 0.111213
0.929249 0.000000 0.112074
1.000000 0.000000 0.112897
1.000000 0.000000 0.113684
0.000000 0.056764 0.112031
0.080153 0.055488 0.112898
0.224662 0.054192 0.113729
0.407657 0.052876 0.114524
0.604911 0.051541 0.115281
0.790329 0.050188 0.116001
0.935890 0.048819 0.116684
1.000000 0.047432 0.117329
1.000000 0.045966 0.116304
0.000000 0.158750 0.116944
0.074695 0.158519 0.117634
0.220233 0.158245 0.118286
0.406386 0.157928 0.118900
0.608327 0.157583 0.119234
0.804645 0.157278 0.117659
0.954555 0.156867 0.115908
1.000000 0.156348 0.113984
1.000000 0.155721 0.111889
0.000000 0.303190 0.121082
0.069202 0.305043 0.120633
0.219634 0.307023 0.119022
0.418073 0.308881 0.117235
0.635101 0.310616 0.115276
0.835393 0.312225 0.113145
0.977149 0.313707 0.110845
1.000000 0.311146 0.106220
1.000000 0.306551 0.100526
0.000000 0.483053 0.118571
0.066321 0.487434 0.116576
0.224428 0.491685 0.114410
0.434149 0.495539 0.111973
0.656974 0.491023 0.106307
0.855785 0.486416 0.100682
0.987899 0.481718 0.095104
1.000000 0.476930 0.089578
1.000000 0.472052 0.084111
0.000000 0.676129 0.112050
0.062621 0.672132 0.106454
0.225148 0.668038 0.100897
0.439855 0.663846 0.095383
0.668765 0.659555 0.089920
0.869738 0.655165 0.084511
0.996293 0.650676 0.079164
1.000000 0.646088 0.073884
1.000000 0.641399 0.068677
0.000000 0.827201 0.095722
0.058411 0.823861 0.090319
0.224316 0.820426 0.084969
0.445469 0.816897 0.079676
0.680375 0.813271 0.074447
0.883132 0.809547 0.069288
1.000000 0.805725 0.064206
1.000000 0.801804 0.059205
1.000000 0.797782 0.054294
0.000000 0.944214 0.080244
0.054248 0.941944 0.075066
0.223400 0.939593 0.069954
0.450990 0.937158 0.064914
0.691800 0.934639 0.059954
0.895954 0.932034 0.055079
1.000000 0.929267 0.050516
1.000000 0.925923 0.047582
1.000000 0.922526 0.044707
0.000000 1.000000 0.065677
0.050137 1.000000 0.060755
0.222400 1.000000 0.055915
0.453588 1.000000 0.052005
0.692243 1.000000 0.049042
0.892182 1.000000 0.046138
1.000000 1.000000 0.043291
1.000000 1.000000 0.040503
1.000000 0.999241 0.037775
0.000000 0.000000 0.190592
0.084687 0.000000 0.194268
0.227989 0.000000 0.197919
0.408023 0.000000 0.201545
0.601854 0.000000 0.205144
0.784743 0.000000 0.208715
0.930091 0.000000 0.212256
1.000000 0.000000 0.215768
1.000000 0.000000 0.219249
0.000000 0.056644 0.205649
0.079770 0.055351 0.209182
0.224454 0.054038 0.212685
0.407799 0.052706 0.216158
0.605431 0.051356 0.219599
0.791101 0.049988 0.223009
0.936626 0.048603 0.226385
1.000000 0.047197 0.229372
1.000000 0.045699 0.228766
0.000000 0.159083 0.220022
0.074239 0.158827 0.223391
0.219908 0.158527 0.226728
0.406392 0.158185 0.230029
0.611254 0.157865 0.231592
0.807997 0.157533 0.230930
0.957145 0.157095 0.229991
1.000000 0.156550 0.228776
1.000000 0.155896 0.227284
0.000000 0.304201 0.233631
0.069057 0.306186 0.233816
0.220330 0.308137 0.233097
0.419946 0.309967 0.232102
0.637995 0.311673 0.230830
0.838588 0.313254 0.229282
0.979257 0.314667 0.227413
1.000000 0.310143 0.218859
1.000000 0.305549 0.210325
0.000000 0.485075 0.234216
0.066133 0.489427 0.232889
0.225085 0.493649 0.231285
0.434981 0.494585 0.226995
0.658428 0.490066 0.218536
0.857427 0.485455 0.210095
0.988913 0.480753 0.201679
1.000000 0.475962 0.193293
1.000000 0.471080 0.184945
0.000000 0.675331 0.226654
0.062346 0.671329 0.218289
0.225313 0.667229 0.209941
0.440722 0.663031 0.201615
0.670241 0.658735 0.193318
0.871350 0.654339 0.185055
0.997161 0.649844 0.176834
1.000000 0.645250 0.168661
1.000000 0.640556 0.160543
0.000000 0.826611 0.201626
0.058162 0.823264 0.193416
0.224511 0.819823 0.185239
0.446372 0.816286 0.177100
0.681872 0.812654 0.169006
0.884709 0.808923 0.160965
1.000000 0.805094 0.152983
1.000000 0.801166 0.145068
1.000000 0.797136 0.137227
0.000000 0.943866 0.177437
0.054023 0.941590 0.169423
0.223625 0.939231 0.161457
0.451928 0.936790 0.153549
0.693317 0.934264 0.145703
0.897491 0.931651 0.137929
1.000000 0.928676 0.131880
1.000000 0.925322 0.127791
1.000000 0.921916 0.123746
0.000000 1.000000 0.154183
0.049936 1.000000 0.146406
0.222654 1.000000 0.138698
0.452584 1.000000 0.133942
0.691299 1.000000 0.129831
0.891498 1.000000 0.125764
1.000000 1.000000 0.121741
1.000000 1.000000 0.117763
1.000000 0.998959 0.113830
0.000000 0.000000 0.290505
0.084372 0.000000 0.297368
0.227886 0.000000 0.304217
0.408286 0.000000 0.311050
0.602495 0.000000 0.317864
0.785625 0.000000 0.324657
0.930920 0.000000 0.331429
1.000000 0.000000 0.338175
1.000000 0.000000 0.344896
0.000000 0.056515 0.316643
0.079378 0.055205 0.323386
0.224233 0.053876 0.330105
0.407926 0.052529 0.336800
0.605936 0.051163 0.343468
0.791859 0.049779 0.350109
0.937350 0.048380 0.356719
1.000000 0.046941 0.360884
1.000000 0.045428 0.361629
0.000000 0.159404 0.342123
0.073774 0.159123 0.348712
0.219570 0.158798 0.355271
0.406382 0.158430 0.361798
0.614180 0.158141 0.363904
0.811335 0.157783 0.364568
0.959690 0.157318 0.364868
1.000000 0.156747 0.364802
1.000000 0.156067 0.364369
0.000000 0.305280 0.365970
0.068908 0.307323 0.366916
0.221025 0.309246 0.367501
0.421819 0.311048 0.367722
0.640888 0.312726 0.367578
0.841767 0.314278 0.367066
0.980395 0.313673 0.362701
1.000000 0.309149 0.351619
1.000000 0.304554 0.340516
0.000000 0.487092 0.370571
0.065943 0.491415 0.370348
0.225741 0.495608 0.369759
0.435821 0.493639 0.361741
0.659888 0.489116 0.350767
0.859069 0.484502 0.339771
0.989912 0.479797 0.328759
1.000000 0.475001 0.317738
1.000000 0.470116 0.306715
0.000000 0.674541 0.360868
0.062076 0.670533 0.350001
0.225485 0.666427 0.339111
0.441598 0.662224 0.328204
0.671723 0.657921 0.317288
0.872960 0.653520 0.306368
0.998013 0.649020 0.295453
1.000000 0.644420 0.284550
1.000000 0.639719 0.273667
0.000000 0.826027 0.327735
0.057917 0.822673 0.316922
0.224713 0.819225 0.306105
0.447283 0.815682 0.295291
0.683375 0.812042 0.284487
0.886284 0.808305 0.273701
1.000000 0.804469 0.262941
1.000000 0.800534 0.252215
1.000000 0.796497 0.241532
0.000000 0.943522 0.295211
0.053803 0.941239 0.284505
0.223856 0.938874 0.273816
0.452874 0.936425 0.263150
0.694840 0.933892 0.252517
0.899026 0.931272 0.241924
1.000000 0.928083 0.235866
1.000000 0.924719 0.230937
1.000000 0.921304 0.226039
0.000000 1.000000 0.263440
0.049739 1.000000 0.252898
0.222359 1.000000 0.243315
0.451580 1.000000 0.238342
0.690355 1.000000 0.233399
0.890812 1.000000 0.228485
1.000000 1.000000 0.223602
1.000000 1.000000 0.218750
1.000000 0.998675 0.213929
0.000000 0.000000 0.401760
0.084049 0.000000 0.411966
0.227770 0.000000 0.422147
0.408533 0.000000 0.432301
0.603120 0.000000 0.442423
0.786492 0.000000 0.452508
0.931737 0.000000 0.462554
1.000000 0.000000 0.472557
1.000000 0.000000 0.482513
0.000000 0.056377 0.439247
0.078977 0.055051 0.449279
0.223999 0.053706 0.459272
0.408037 0.052343 0.469222
0.606425 0.050961 0.479127
0.792603 0.049563 0.488983
0.938063 0.048149 0.498785
1.000000 0.046682 0.502998
1.000000 0.045154 0.505199
0.000000 0.159713 0.475826
0.073301 0.159407 0.485631
0.219219 0.159057 0.495385
0.407134 0.158690 0.504136
0.617105 0.158411 0.506664
0.814659 0.158027 0.508760
0.962189 0.157536 0.510423
1.000000 0.156938 0.511652
1.000000 0.156233 0.512445
0.000000 0.306440 0.507887
0.068757 0.308455 0.510310
0.221718 0.310351 0.512303
0.423694 0.312124 0.513864
0.643780 0.313774 0.514992
0.844930 0.315298 0.515684
0.981519 0.312688 0.506945
1.000000 0.308163 0.493938
1.000000 0.303568 0.480844
0.000000 0.489105 0.517288
0.065750 0.493398 0.518315
0.226322 0.497137 0.518250
0.436669 0.492702 0.505445
0.661354 0.488174 0.492545
0.860711 0.483556 0.479558
0.990897 0.478848 0.466490
1.000000 0.474049 0.453350
1.000000 0.469161 0.440146
0.000000 0.673758 0.504035
0.061812 0.669744 0.491241
0.225664 0.665633 0.478361
0.442481 0.661423 0.465401
0.673212 0.657115 0.452369
0.874569 0.652708 0.439273
0.998848 0.648202 0.426121
1.000000 0.643596 0.412922
1.000000 0.638891 0.399684
0.000000 0.825448 0.464401
0.057677 0.822088 0.451477
0.224922 0.818634 0.438488
0.448201 0.815084 0.425444
0.684885 0.811437 0.412352
0.887857 0.807693 0.399222
1.000000 0.803850 0.386062
1.000000 0.799907 0.372881
1.000000 0.795864 0.359690
0.000000 0.943182 0.424856
0.053588 0.940891 0.411871
0.224094 0.938519 0.398847
0.453828 0.936064 0.385793
0.696369 0.933524 0.372717
0.899633 0.930807 0.360719
1.000000 0.927488 0.355251
1.000000 0.924115 0.349800
1.000000 0.920690 0.344364
0.000000 1.000000 0.385612
0.049547 1.000000 0.372641
0.221494 1.000000 0.363459
0.450576 1.000000 0.357984
0.689410 1.000000 0.352525
0.890125 1.000000 0.347081
1.000000 1.000000 0.341654
1.000000 0.999969 0.336244
1.000000 0.998388 0.330852
0.000000 0.000000 0.519476
0.083715 0.000000 0.532759
0.227640 0.000000 0.545966
0.408765 0.000000 0.559091
0.603730 0.000000 0.572125
0.787346 0.000000 0.585062
0.932541 0.000000 0.597896
1.000000 0.000000 0.610619
1.000000 0.000000 0.623224
0.000000 0.056231 0.567074
0.078567 0.054889 0.579980
0.223751 0.053528 0.592786
0.408133 0.052149 0.605484
0.606899 0.050752 0.618068
0.793333 0.049339 0.630533
0.939485 0.047908 0.641959
1.000000 0.046420 0.645896
1.000000 0.044876 0.649355
0.000000 0.160011 0.612984
0.072820 0.159679 0.625428
0.218855 0.159303 0.637749
0.409026 0.158981 0.646128
0.620030 0.158676 0.649936
0.817969 0.158266 0.653268
0.964641 0.157749 0.656125
1.000000 0.157126 0.658507
1.000000 0.156394 0.660415
0.000000 0.307595 0.650262
0.068602 0.309583 0.653942
0.222409 0.311450 0.657149
0.425571 0.313196 0.659882
0.646671 0.314817 0.662143
0.847966 0.316163 0.663541
0.982630 0.311710 0.649711
1.000000 0.307185 0.635686
1.000000 0.302590 0.621476
0.000000 0.491112 0.663609
0.065555 0.495377 0.665749
0.226479 0.496211 0.661523
0.437525 0.491772 0.647780
0.662827 0.487241 0.633844
0.862351 0.482619 0.619725
0.991867 0.477907 0.605431
1.000000 0.473105 0.590971
1.000000 0.468213 0.576354
0.000000 0.672982 0.645933
0.061552 0.668962 0.632087
0.225850 0.664845 0.618061
0.443373 0.660630 0.603862
0.674706 0.656317 0.589499
0.876177 0.651904 0.574981
0.999667 0.647392 0.560318
1.000000 0.642781 0.545519
1.000000 0.638069 0.530594
0.000000 0.824875 0.602380
0.057442 0.821509 0.588114
0.225137 0.818048 0.573696
0.449128 0.814491 0.559134
0.686400 0.810838 0.544438
0.889427 0.807087 0.529618
1.000000 0.803237 0.514684
1.000000 0.799287 0.499648
1.000000 0.795160 0.485646
0.000000 0.942845 0.558040
0.053377 0.940548 0.543447
0.224339 0.938169 0.528731
0.454791 0.935707 0.513902
0.697903 0.933160 0.498972
0.898966 0.930220 0.488478
1.000000 0.926891 0.482817
1.000000 0.923509 0.477158
1.000000 0.920075 0.471502
0.000000 1.000000 0.513210
0.049360 1.000000 0.498385
0.220630 1.000000 0.491310
0.449572 1.000000 0.485649
0.688465 1.000000 0.479989
0.889437 1.000000 0.474331
1.000000 1.000000 0.468676
1.000000 0.999693 0.463025
1.000000 0.998100 0.457377
0.000000 0.000000 0.638222
0.083373 0.000000 0.653868
0.227496 0.000000 0.669323
0.408982 0.000000 0.684574
0.604325 0.000000 0.699610
0.788185 0.000000 0.714418
0.933334 0.000000 0.728986
1.000000 0.000000 0.743303
1.000000 0.000000 0.757358
0.000000 0.056077 0.693089
0.078148 0.054719 0.707930
0.223489 0.053342 0.722539
0.408214 0.051947 0.736903
0.607357 0.050535 0.751012
0.794049 0.049107 0.764854
0.942324 0.047657 0.774615
1.000000 0.046154 0.779333
1.000000 0.044595 0.783558
0.000000 0.160296 0.744696
0.072331 0.159939 0.758595
0.218477 0.159538 0.772223
0.410918 0.159267 0.778792
0.622953 0.158936 0.783360
0.821265 0.158500 0.787439
0.967047 0.157957 0.791034
1.000000 0.157308 0.794151
1.000000 0.156547 0.796777
0.000000 0.308745 0.782916
0.068445 0.310705 0.787336
0.223099 0.312545 0.791272
0.427449 0.314263 0.794727
0.649562 0.315857 0.797709
0.849636 0.315195 0.794509
0.983728 0.310741 0.780998
1.000000 0.306216 0.767156
1.000000 0.301620 0.752993
0.000000 0.493115 0.798375
0.065357 0.497351 0.801224
0.226642 0.495293 0.792308
0.438389 0.490850 0.778847
0.664306 0.486315 0.765059
0.863991 0.481690 0.750955
0.992821 0.476974 0.736544
1.000000 0.472169 0.721836
1.000000 0.467273 0.706843
0.000000 0.672213 0.776766
0.061296 0.668188 0.763034
0.226043 0.664065 0.748991
0.444273 0.659845 0.734646
0.676207 0.655525 0.720009
0.877783 0.651107 0.705090
1.000000 0.646589 0.689901
1.000000 0.641972 0.674453
1.000000 0.637255 0.658757
0.000000 0.824308 0.732826
0.057212 0.820935 0.718261
0.225360 0.817468 0.703418
0.450063 0.813904 0.688309
0.687921 0.810244 0.672944
0.890996 0.806486 0.657336
1.000000 0.802630 0.641495
1.000000 0.798673 0.625436
1.000000 0.794316 0.614112
0.000000 0.942512 0.686799
0.053170 0.940208 0.671519
0.224591 0.937823 0.655998
0.455761 0.935354 0.640249
0.699443 0.932800 0.624284
0.898297 0.929632 0.616880
1.000000 0.926293 0.611343
1.000000 0.922902 0.605793
1.000000 0.919458 0.600232
0.000000 1.000000 0.639089
0.048990 1.000000 0.625164
0.219767 1.000000 0.619646
0.448568 1.000000 0.614114
0.687519 1.000000 0.608570
0.888747 1.000000 0.603015
1.000000 1.000000 0.597449
1.000000 0.999414 0.591872
1.000000 0.997808 0.586285
0.000000 0.000000 0.751996
0.083021 0.000000 0.768812
0.227339 0.000000 0.785236
0.409183 0.000000 0.801246
0.604903 0.000000 0.816823
0.789009 0.000000 0.831948
0.934114 0.000000 0.846601
1.000000 0.000000 0.860763
1.000000 0.000000 0.874418
0.000000 0.055915 0.809588
0.077721 0.054540 0.824867
0.223215 0.053148 0.839687
0.408279 0.051737 0.854029
0.607800 0.050310 0.867875
0.794751 0.048867 0.881207
0.945121 0.047403 0.887964
1.000000 0.045885 0.892644
1.000000 0.044311 0.896853
0.000000 0.160570 0.861283
0.071833 0.160187 0.874810
0.218602 0.159800 0.886646
0.412811 0.159548 0.891640
0.625875 0.159191 0.896155
0.824546 0.158729 0.900207
0.969405 0.158161 0.903810
1.000000 0.157486 0.906977
1.000000 0.155677 0.904986
0.000000 0.309890 0.895247
0.068285 0.311823 0.899600
0.223789 0.313635 0.903497
0.429329 0.315326 0.906953
0.652451 0.316892 0.909981
0.851305 0.314234 0.902890
0.984811 0.309780 0.891231
1.000000 0.305254 0.879059
1.000000 0.300659 0.866386
0.000000 0.495113 0.910036
0.065143 0.498738 0.911992
0.226812 0.494383 0.900838
0.439262 0.489936 0.889170
0.665792 0.485398 0.876997
0.865631 0.480769 0.864332
0.993760 0.476050 0.851185
1.000000 0.471241 0.837569
1.000000 0.466342 0.823496
0.000000 0.671451 0.887157
0.061046 0.667421 0.874988
0.226243 0.663292 0.862333
0.445180 0.659066 0.849205
0.677714 0.654741 0.835614
0.879388 0.650317 0.821574
1.000000 0.645794 0.807096
1.000000 0.641171 0.792195
1.000000 0.636449 0.776884
0.000000 0.823747 0.847284
0.056986 0.820368 0.833722
0.225589 0.816893 0.819716
0.451006 0.813324 0.805280
0.689448 0.809657 0.790427
0.892562 0.805892 0.775170
1.000000 0.802029 0.759523
1.000000 0.798065 0.743502
1.000000 0.793470 0.736159
0.000000 0.942182 0.803533
0.052968 0.939872 0.788730
0.224850 0.937480 0.773529
0.456739 0.935005 0.757944
0.699805 0.932336 0.743778
0.897627 0.929041 0.738706
1.000000 0.925693 0.733607
1.000000 0.922292 0.728483
1.000000 0.918839 0.723333
0.000000 1.000000 0.756441
0.048469 1.000000 0.746305
0.218906 1.000000 0.741246
0.447564 1.000000 0.736161
0.686572 1.000000 0.731049
0.888056 1.000000 0.725912
1.000000 1.000000 0.720750
1.000000 0.999134 0.715564
1.000000 0.997515 0.710354
