luts/original/afrobeat-warm-cover.cube
TITLE "Afrobeat Warm Cover"
LUT_3D_SIZE 33
DOMAIN_MIN 0.0 0.0 0.0
DOMAIN_MAX 1.0 1.0 1.0
0.000000 0.000000 0.000000
0.014970 0.000000 0.000000
0.034421 0.000000 0.000000
0.058056 0.000000 0.000000
0.085574 0.000000 0.000000
0.116668 0.000000 0.000000
0.151022 0.000000 0.000000
0.188314 0.000000 0.000000
0.228217 0.000000 0.000000
0.270396 0.000000 0.000000
0.314510 0.000000 0.000000
0.360211 0.000000 0.000000
0.407142 0.000000 0.000000
0.454944 0.000000 0.000000
0.503245 0.000000 0.000000
0.551671 0.000000 0.000000
0.599838 0.000000 0.000000
0.647357 0.000000 0.000000
0.693830 0.000000 0.000000
0.738851 0.000000 0.000000
0.782011 0.000000 0.000000
0.822888 0.000000 0.000000
0.861058 0.000000 0.000000
0.896085 0.000000 0.000000
0.927527 0.000000 0.000000
0.954937 0.000000 0.000000
0.977857 0.000000 0.000000
0.995822 0.000000 0.000000
1.000000 0.000000 0.000000
1.000000 0.000000 0.000000
1.000000 0.000000 0.000000
1.000000 0.000000 0.000000
1.000000 0.000000 0.000000
0.000000 0.010201 0.000000
0.014047 0.009874 0.000000
0.033379 0.009549 0.000000
0.056954 0.009223 0.000000
0.084466 0.008899 0.000000
0.115601 0.008575 0.000000
0.150041 0.008252 0.000000
0.187458 0.007930 0.000000
0.227518 0.007609 0.000000
0.269883 0.007289 0.000000
0.314205 0.006970 0.000000
0.360131 0.006651 0.000000
0.407299 0.006334 0.000000
0.455343 0.006017 0.000000
0.503888 0.005702 0.000000
0.552552 0.005387 0.000000
0.600946 0.005074 0.000000
0.648675 0.004762 0.000000
0.695334 0.004451 0.000000
0.740514 0.004141 0.000000
0.783796 0.003832 0.000000
0.824755 0.003524 0.000000
0.862958 0.003218 0.000000
0.897966 0.002912 0.000000
0.929329 0.002609 0.000000
0.956592 0.002306 0.000000
0.979293 0.002005 0.000000
0.996959 0.001705 0.000000
1.000000 0.001406 0.000000
1.000000 0.001109 0.000000
1.000000 0.000813 0.000000
1.000000 0.000519 0.000000
1.000000 0.000226 0.000000
0.000000 0.023063 0.000000
0.013111 0.022723 0.000000
0.032313 0.022384 0.000000
0.055818 0.022044 0.000000
0.083316 0.021704 0.000000
0.114486 0.021364 0.000000
0.149006 0.021024 0.000000
0.186541 0.020684 0.000000
0.226756 0.020344 0.000000
0.269302 0.020004 0.000000
0.313830 0.019664 0.000000
0.359978 0.019324 0.000000
0.407382 0.018984 0.000000
0.455668 0.018645 0.000000
0.504456 0.018305 0.000000
0.553358 0.017966 0.000000
0.601980 0.017627 0.000000
0.649919 0.017288 0.000000
0.696766 0.016950 0.000000
0.742106 0.016611 0.000000
0.785513 0.016273 0.000000
0.826555 0.015936 0.000000
0.864795 0.015598 0.000000
0.899785 0.015261 0.000000
0.931071 0.014924 0.000000
0.958191 0.014588 0.000000
0.980674 0.014252 0.000000
0.998043 0.013916 0.000000
1.000000 0.013581 0.000000
1.000000 0.013247 0.000000
1.000000 0.012913 0.000000
1.000000 0.012579 0.000000
1.000000 0.012246 0.000000
0.000000 0.038643 0.000000
0.012161 0.038309 0.000000
0.031223 0.037975 0.000000
0.054650 0.037640 0.000000
0.082124 0.037304 0.000000
0.113323 0.036968 0.000000
0.147916 0.036630 0.000000
0.185566 0.036292 0.000000
0.225929 0.035954 0.000000
0.268654 0.035614 0.000000
0.313384 0.035275 0.000000
0.359753 0.034934 0.000000
0.407391 0.034593 0.000000
0.455919 0.034251 0.000000
0.504949 0.033909 0.000000
0.554090 0.033566 0.000000
0.602939 0.033222 0.000000
0.651090 0.032878 0.000000
0.698128 0.032534 0.000000
0.743628 0.032189 0.000000
0.787162 0.031843 0.000000
0.828291 0.031497 0.000000
0.866569 0.031151 0.000000
0.901544 0.030804 0.000000
0.932755 0.030456 0.000000
0.959733 0.030109 0.000000
0.982002 0.029761 0.000000
0.999077 0.029412 0.000000
1.000000 0.029063 0.000000
1.000000 0.028714 0.000000
1.000000 0.028365 0.000000
1.000000 0.028015 0.000000
1.000000 0.027665 0.000000
0.000000 0.056980 0.000000
0.011199 0.056672 0.000000
0.030111 0.056362 0.000000
0.053450 0.056050 0.000000
0.080893 0.055738 0.000000
0.112113 0.055424 0.000000
0.146773 0.055109 0.000000
0.184531 0.054792 0.000000
0.225038 0.054474 0.000000
0.267938 0.054155 0.000000
0.312867 0.053835 0.000000
0.359456 0.053513 0.000000
0.407327 0.053191 0.000000
0.456094 0.052867 0.000000
0.505367 0.052542 0.000000
0.554746 0.052215 0.000000
0.603825 0.051888 0.000000
0.652189 0.051559 0.000000
0.699417 0.051229 0.000000
0.745081 0.050898 0.000000
0.788744 0.050566 0.000000
0.829961 0.050233 0.000000
0.868281 0.049898 0.000000
0.903244 0.049563 0.000000
0.934382 0.049226 0.000000
0.961222 0.048889 0.000000
0.983278 0.048550 0.000000
1.000000 0.048211 0.000000
1.000000 0.047870 0.000000
1.000000 0.047528 0.000000
1.000000 0.047186 0.000000
1.000000 0.046842 0.000000
1.000000 0.046490 0.000000
0.000000 0.078098 0.000000
0.010227 0.077832 0.000000
0.028978 0.077564 0.000000
0.052219 0.077295 0.000000
0.079623 0.077023 0.000000
0.110855 0.076750 0.000000
0.145576 0.076476 0.000000
0.183437 0.076199 0.000000
0.224084 0.075921 0.000000
0.267155 0.075641 0.000000
0.312281 0.075359 0.000000
0.359086 0.075075 0.000000
0.407188 0.074790 0.000000
0.456195 0.074503 0.000000
0.505710 0.074214 0.000000
0.555328 0.073924 0.000000
0.604636 0.073631 0.000000
0.653215 0.073338 0.000000
0.700636 0.073042 0.000000
0.746465 0.072745 0.000000
0.790259 0.072446 0.000000
0.831566 0.072146 0.000000
0.869930 0.071844 0.000000
0.904884 0.071540 0.000000
0.935953 0.071235 0.000000
0.962656 0.070928 0.000000
0.984504 0.070619 0.000000
1.000000 0.070309 0.000000
1.000000 0.069997 0.000000
1.000000 0.069673 0.000000
1.000000 0.069338 0.000000
1.000000 0.068999 0.000000
1.000000 0.068656 0.000000
0.000000 0.101998 0.000000
0.009246 0.101791 0.000000
0.027825 0.101583 0.000000
0.050958 0.101372 0.000000
0.078314 0.101160 0.000000
0.109552 0.100945 0.000000
0.144326 0.100728 0.000000
0.182285 0.100508 0.000000
0.223066 0.100287 0.000000
0.266304 0.100063 0.000000
0.311624 0.099838 0.000000
0.358644 0.099610 0.000000
0.406975 0.099380 0.000000
0.456221 0.099148 0.000000
0.505978 0.098914 0.000000
0.555835 0.098677 0.000000
0.605374 0.098439 0.000000
0.654168 0.098199 0.000000
0.701784 0.097956 0.000000
0.747780 0.097711 0.000000
0.791707 0.097464 0.000000
0.833108 0.097216 0.000000
0.871519 0.096965 0.000000
0.906466 0.096712 0.000000
0.937469 0.096457 0.000000
0.964080 0.096199 0.000000
0.986840 0.095933 0.000000
1.000000 0.095662 0.000000
1.000000 0.095385 0.000000
1.000000 0.095103 0.000000
1.000000 0.094815 0.000000
1.000000 0.094521 0.000000
1.000000 0.094223 0.000000
0.000000 0.128661 0.000000
0.008258 0.128531 0.000000
0.026654 0.128397 0.000000
0.049669 0.128261 0.000000
0.076967 0.128123 0.000000
0.108202 0.127982 0.000000
0.143024 0.127839 0.000000
0.181074 0.127694 0.000000
0.221986 0.127546 0.000000
0.265387 0.127395 0.000000
0.310897 0.127242 0.000000
0.358129 0.127086 0.000000
0.406688 0.126929 0.000000
0.456172 0.126768 0.000000
0.506170 0.126605 0.000000
0.556267 0.126440 0.000000
0.606038 0.126272 0.000000
0.655049 0.126102 0.000000
0.702861 0.125930 0.000000
0.749027 0.125755 0.000000
0.793090 0.125577 0.000000
0.834587 0.125398 0.000000
0.873782 0.125218 0.000000
0.910424 0.125039 0.000000
0.942703 0.124854 0.000000
0.969969 0.124662 0.000000
0.991547 0.124464 0.000000
1.000000 0.124260 0.000000
1.000000 0.124050 0.000000
1.000000 0.123833 0.000000
1.000000 0.123611 0.000000
1.000000 0.123382 0.000000
1.000000 0.123147 0.000000
0.000000 0.158048 0.000000
0.007264 0.158007 0.000000
0.025464 0.157963 0.000000
0.048352 0.157917 0.000000
0.075583 0.157868 0.000000
0.106808 0.157816 0.000000
0.141670 0.157761 0.000000
0.179806 0.157704 0.000000
0.220843 0.157644 0.000000
0.264403 0.157582 0.000000
0.310100 0.157516 0.000000
0.357542 0.157448 0.000000
0.406327 0.157378 0.000000
0.456048 0.157304 0.000000
0.506288 0.157228 0.000000
0.556625 0.157149 0.000000
0.606628 0.157068 0.000000
0.655857 0.156984 0.000000
0.703868 0.156897 0.000000
0.751719 0.156825 0.000000
0.797900 0.156752 0.000000
0.841356 0.156672 0.000000
0.881486 0.156586 0.000000
0.917664 0.156493 0.000000
0.949243 0.156394 0.000000
0.975546 0.156288 0.000000
0.995873 0.156175 0.000000
1.000000 0.156055 0.000000
1.000000 0.155928 0.000000
1.000000 0.155795 0.000000
1.000000 0.155655 0.000000
1.000000 0.155508 0.000000
1.000000 0.155354 0.000000
0.000000 0.190093 0.000000
0.006265 0.190154 0.000000
0.024259 0.190213 0.000000
0.047007 0.190269 0.000000
0.074163 0.190322 0.000000
0.105369 0.190372 0.000000
0.140265 0.190420 0.000000
0.178480 0.190464 0.000000
0.219637 0.190506 0.000000
0.263352 0.190544 0.000000
0.309234 0.190580 0.000000
0.356883 0.190613 0.000000
0.405892 0.190643 0.000000
0.455849 0.190670 0.000000
0.506331 0.190695 0.000000
0.557122 0.190721 0.000000
0.609230 0.190779 0.000000
0.660694 0.190830 0.000000
0.710984 0.190874 0.000000
0.759550 0.190911 0.000000
0.805816 0.190941 0.000000
0.849183 0.190964 0.000000
0.889027 0.190980 0.000000
0.924699 0.190988 0.000000
0.955525 0.190989 0.000000
0.980804 0.190984 0.000000
0.999808 0.190971 0.000000
1.000000 0.190950 0.000000
1.000000 0.190923 0.000000
1.000000 0.190888 0.000000
1.000000 0.190846 0.000000
1.000000 0.190797 0.000000
1.000000 0.190740 0.000000
0.000000 0.224704 0.000000
0.005263 0.224880 0.000000
0.023038 0.225052 0.000000
0.045638 0.225222 0.000000
0.072708 0.225389 0.000000
0.103887 0.225552 0.000000
0.138809 0.225713 0.000000
0.177097 0.225870 0.000000
0.218369 0.226025 0.000000
0.262235 0.226176 0.000000
0.308297 0.226325 0.000000
0.356151 0.226471 0.000000
0.406063 0.226643 0.000000
0.457857 0.226839 0.000000
0.510430 0.227028 0.000000
0.563298 0.227210 0.000000
0.615958 0.227385 0.000000
0.667884 0.227553 0.000000
0.718525 0.227713 0.000000
0.767307 0.227865 0.000000
0.813633 0.228010 0.000000
0.856880 0.228148 0.000000
0.896401 0.228278 0.000000
0.931521 0.228401 0.000000
0.961541 0.228516 0.000000
0.985733 0.228624 0.000000
1.000000 0.228724 0.000000
1.000000 0.228817 0.000000
1.000000 0.228902 0.000000
1.000000 0.228979 0.000000
1.000000 0.229048 0.000000
1.000000 0.229110 0.000000
1.000000 0.229164 0.000000
0.000000 0.261765 0.000000
0.004260 0.262063 0.000000
0.021805 0.262359 0.000000
0.044244 0.262652 0.000000
0.071219 0.262941 0.000000
0.102363 0.263228 0.000000
0.137303 0.263511 0.000000
0.175658 0.263791 0.000000
0.217039 0.264068 0.000000
0.261862 0.264410 0.000000
0.309339 0.264757 0.000000
0.358934 0.265096 0.000000
0.410211 0.265428 0.000000
0.462712 0.265752 0.000000
0.515957 0.266069 0.000000
0.569445 0.266378 0.000000
0.622652 0.266680 0.000000
0.675030 0.266974 0.000000
0.726007 0.267260 0.000000
0.774986 0.267539 0.000000
0.821348 0.267810 0.000000
0.864444 0.268073 0.000000
0.903603 0.268329 0.000000
0.938125 0.268576 0.000000
0.967283 0.268816 0.000000
0.990323 0.269048 0.000000
1.000000 0.269272 0.000000
1.000000 0.269489 0.000000
1.000000 0.269697 0.000000
1.000000 0.269897 0.000000
1.000000 0.270090 0.000000
1.000000 0.270274 0.000000
1.000000 0.269690 0.000000
0.000000 0.301127 0.000000
0.003258 0.301556 0.000000
0.020559 0.301982 0.000000
0.042826 0.302404 0.000000
0.069696 0.302824 0.000000
0.100879 0.303263 0.000000
0.136375 0.303776 0.000000
0.175618 0.304281 0.000000
0.218237 0.304779 0.000000
0.263841 0.305269 0.000000
0.312017 0.305752 0.000000
0.362332 0.306227 0.000000
0.414332 0.306695 0.000000
0.467540 0.307154 0.000000
0.521458 0.307606 0.000000
0.575563 0.308051 0.000000
0.629310 0.308487 0.000000
0.682130 0.308916 0.000000
0.733429 0.309336 0.000000
0.782586 0.309749 0.000000
0.828957 0.310154 0.000000
0.871871 0.310551 0.000000
0.910629 0.310940 0.000000
0.944505 0.311321 0.000000
0.972746 0.311694 0.000000
0.994568 0.312059 0.000000
1.000000 0.312415 0.000000
1.000000 0.312764 0.000000
1.000000 0.313104 0.000000
1.000000 0.312034 0.000000
1.000000 0.310887 0.000000
1.000000 0.309737 0.000000
1.000000 0.308581 0.000000
0.000000 0.342612 0.000000
0.002258 0.343176 0.000000
0.019354 0.343808 0.000000
0.041655 0.344486 0.000000
0.068838 0.345156 0.000000
0.100574 0.345818 0.000000
0.136513 0.346473 0.000000
0.176290 0.347120 0.000000
0.219516 0.347760 0.000000
0.265783 0.348391 0.000000
0.314661 0.349015 0.000000
0.365700 0.349631 0.000000
0.418426 0.350240 0.000000
0.472343 0.350840 0.000000
0.526932 0.351433 0.000000
0.581651 0.352017 0.000000
0.635932 0.352594 0.000000
0.689184 0.353162 0.000000
0.740788 0.353723 0.000000
0.790103 0.354275 0.000000
0.836458 0.354819 0.000000
0.879156 0.355355 0.000000
0.917473 0.355883 0.000000
0.950655 0.356403 0.000000
0.977920 0.356915 0.000000
0.998290 0.356896 0.000000
1.000000 0.355741 0.000000
1.000000 0.354581 0.000000
1.000000 0.353416 0.000000
1.000000 0.352246 0.000000
1.000000 0.351072 0.000000
1.000000 0.349892 0.000000
1.000000 0.348708 0.000000
0.000000 0.386284 0.000000
0.001351 0.387122 0.000000
0.018385 0.387952 0.000000
0.040762 0.388774 0.000000
0.068158 0.389588 0.000000
0.100228 0.390395 0.000000
0.136610 0.391194 0.000000
0.176921 0.391985 0.000000
0.220755 0.392768 0.000000
0.267688 0.393543 0.000000
0.317272 0.394311 0.000000
0.369037 0.395070 0.000000
0.422491 0.395822 0.000000
0.477118 0.396565 0.000000
0.532378 0.397300 0.000000
0.587707 0.398028 0.000000
0.642515 0.398747 0.000000
0.696188 0.399458 0.000000
0.748085 0.400160 0.000000
0.797536 0.400855 0.000000
0.843848 0.401541 0.000000
0.886297 0.402219 0.000000
0.923480 0.401649 0.000000
0.955158 0.400490 0.000000
0.980967 0.399325 0.000000
1.000000 0.398156 0.000000
1.000000 0.396981 0.000000
1.000000 0.395801 0.000000
1.000000 0.394616 0.000000
1.000000 0.393425 0.000000
1.000000 0.392230 0.000000
1.000000 0.391030 0.000000
1.000000 0.389824 0.000000
0.000000 0.431901 0.000000
0.000457 0.432882 0.000000
0.017400 0.433856 0.000000
0.039841 0.434822 0.000000
0.067441 0.435780 0.000000
0.099842 0.436731 0.000000
0.136665 0.437673 0.000000
0.177509 0.438607 0.000000
0.221954 0.439534 0.000000
0.269555 0.440452 0.000000
0.319848 0.441362 0.000000
0.372343 0.442264 0.000000
0.426527 0.443158 0.000000
0.481865 0.444044 0.000000
0.537795 0.444921 0.000000
0.593731 0.445791 0.000000
0.649060 0.446652 0.000000
0.703143 0.447504 0.000000
0.755266 0.448261 0.000000
0.803724 0.447112 0.000000
0.848913 0.445958 0.000000
0.890168 0.444798 0.000000
0.926809 0.443632 0.000000
0.958138 0.442461 0.000000
0.983440 0.441285 0.000000
1.000000 0.440103 0.000000
1.000000 0.438915 0.000000
1.000000 0.437723 0.000000
1.000000 0.436525 0.000000
1.000000 0.435321 0.000000
1.000000 0.434112 0.000000
1.000000 0.432898 0.000000
1.000000 0.431679 0.000000
0.000000 0.478993 0.000000
0.000000 0.480115 0.000000
0.016400 0.481229 0.000000
0.038893 0.482335 0.000000
0.066690 0.483433 0.000000
0.099416 0.484523 0.000000
0.136677 0.485605 0.000000
0.178055 0.486678 0.000000
0.223111 0.487744 0.000000
0.271384 0.488801 0.000000
0.322389 0.489850 0.000000
0.375617 0.490891 0.000000
0.430535 0.491923 0.000000
0.486585 0.492947 0.000000
0.543184 0.493963 0.000000
0.599316 0.494098 0.000000
0.654086 0.492963 0.000000
0.707428 0.491821 0.000000
0.758712 0.490674 0.000000
0.807290 0.489521 0.000000
0.852500 0.488363 0.000000
0.893663 0.487199 0.000000
0.930083 0.486029 0.000000
0.961048 0.484853 0.000000
0.985828 0.483672 0.000000
1.000000 0.482485 0.000000
1.000000 0.481293 0.000000
1.000000 0.480095 0.000000
1.000000 0.478891 0.000000
1.000000 0.477682 0.000000
1.000000 0.476466 0.000000
1.000000 0.475246 0.000000
1.000000 0.474020 0.000000
0.000000 0.527231 0.000000
0.000000 0.528487 0.000000
0.015386 0.529733 0.000000
0.037919 0.530972 0.000000
0.065903 0.532202 0.000000
0.098950 0.533425 0.000000
0.136646 0.534638 0.000000
0.178558 0.535844 0.000000
0.224228 0.537041 0.000000
0.273175 0.538230 0.000000
0.324895 0.539410 0.000000
0.378859 0.540582 0.000000
0.433927 0.539991 0.000000
0.489777 0.538877 0.000000
0.545980 0.537757 0.000000
0.601938 0.536631 0.000000
0.657039 0.535499 0.000000
0.710654 0.534361 0.000000
0.762138 0.533218 0.000000
0.810830 0.532068 0.000000
0.856054 0.530913 0.000000
0.897115 0.529752 0.000000
0.933302 0.528585 0.000000
0.963889 0.527412 0.000000
0.988129 0.526233 0.000000
1.000000 0.525048 0.000000
1.000000 0.523858 0.000000
1.000000 0.522661 0.000000
1.000000 0.521459 0.000000
1.000000 0.520251 0.000000
1.000000 0.519037 0.000000
1.000000 0.517818 0.000000
1.000000 0.516592 0.000000
0.000000 0.576242 0.000000
0.000000 0.577619 0.000000
0.014360 0.578988 0.000000
0.036919 0.580348 0.000000
0.065082 0.581700 0.000000
0.098443 0.583043 0.000000
0.136573 0.584377 0.000000
0.179018 0.585703 0.000000
0.225252 0.586695 0.000000
0.274395 0.585616 0.000000
0.326158 0.584531 0.000000
0.379994 0.583440 0.000000
0.435339 0.582343 0.000000
0.491612 0.581240 0.000000
0.548220 0.580131 0.000000
0.604552 0.579016 0.000000
0.659981 0.577895 0.000000
0.713865 0.576768 0.000000
0.765545 0.575634 0.000000
0.814345 0.574495 0.000000
0.859574 0.573350 0.000000
0.900523 0.572199 0.000000
0.936466 0.571042 0.000000
0.966659 0.569878 0.000000
0.990344 0.568709 0.000000
1.000000 0.567534 0.000000
1.000000 0.566353 0.000000
1.000000 0.565165 0.000000
1.000000 0.563972 0.000000
1.000000 0.562773 0.000000
1.000000 0.561567 0.000000
1.000000 0.560356 0.000000
1.000000 0.559139 0.000000
0.000000 0.625602 0.000000
0.000000 0.627086 0.000000
0.013322 0.628561 0.000000
0.035894 0.630028 0.000000
0.064227 0.631486 0.000000
0.097837 0.631692 0.000000
0.136165 0.630649 0.000000
0.178740 0.629601 0.000000
0.225047 0.628546 0.000000
0.274555 0.627485 0.000000
0.326717 0.626418 0.000000
0.380973 0.625345 0.000000
0.436745 0.624266 0.000000
0.493441 0.623181 0.000000
0.550453 0.622090 0.000000
0.607157 0.620992 0.000000
0.662912 0.619889 0.000000
0.717061 0.618779 0.000000
0.768932 0.617663 0.000000
0.817834 0.616541 0.000000
0.863060 0.615413 0.000000
0.903887 0.614279 0.000000
0.939573 0.613139 0.000000
0.969360 0.611993 0.000000
0.992471 0.610840 0.000000
1.000000 0.609681 0.000000
1.000000 0.608516 0.000000
1.000000 0.607345 0.000000
1.000000 0.606168 0.000000
1.000000 0.604985 0.000000
1.000000 0.603796 0.000000
1.000000 0.602600 0.000000
1.000000 0.601398 0.000000
0.000000 0.674839 0.000000
0.000000 0.676411 0.000000
0.012295 0.675765 0.000000
0.034833 0.674766 0.000000
0.063184 0.673760 0.000000
0.096866 0.672749 0.000000
0.135381 0.671731 0.000000
0.178214 0.670708 0.000000
0.224838 0.669678 0.000000
0.274710 0.668642 0.000000
0.327270 0.667600 0.000000
0.381945 0.666551 0.000000
0.438145 0.665497 0.000000
0.495263 0.664437 0.000000
0.552679 0.663370 0.000000
0.609753 0.662297 0.000000
0.665831 0.661218 0.000000
0.720243 0.660133 0.000000
0.772300 0.659041 0.000000
0.821297 0.657944 0.000000
0.866512 0.656840 0.000000
0.907207 0.655730 0.000000
0.942624 0.654613 0.000000
0.971989 0.653491 0.000000
0.994510 0.652362 0.000000
1.000000 0.651227 0.000000
1.000000 0.650086 0.000000
1.000000 0.648939 0.000000
1.000000 0.647785 0.000000
1.000000 0.646625 0.000000
1.000000 0.645459 0.000000
1.000000 0.644287 0.000000
1.000000 0.643108 0.000000
0.000000 0.717640 0.000000
0.000000 0.716684 0.000000
0.011330 0.715722 0.000000
0.033761 0.714755 0.000000
0.062115 0.713781 0.000000
0.095896 0.712801 0.000000
0.134593 0.711815 0.000000
0.177683 0.710823 0.000000
0.224623 0.709824 0.000000
0.274859 0.708820 0.000000
0.327817 0.707809 0.000000
0.382912 0.706793 0.000000
0.439539 0.705770 0.000000
0.497080 0.704741 0.000000
0.554898 0.703705 0.000000
0.612341 0.702664 0.000000
0.668740 0.701616 0.000000
0.723410 0.700562 0.000000
0.775648 0.699502 0.000000
0.824733 0.698436 0.000000
0.869930 0.697363 0.000000
0.910482 0.696284 0.000000
0.945618 0.695199 0.000000
0.974547 0.694108 0.000000
0.996460 0.693010 0.000000
1.000000 0.691906 0.000000
1.000000 0.690796 0.000000
1.000000 0.689680 0.000000
1.000000 0.688557 0.000000
1.000000 0.687428 0.000000
1.000000 0.686292 0.000000
1.000000 0.685151 0.000000
1.000000 0.684003 0.000000
0.000000 0.756228 0.000000
0.000000 0.755310 0.000000
0.010379 0.754387 0.000000
0.032698 0.753457 0.000000
0.061048 0.752521 0.000000
0.094924 0.751579 0.000000
0.133803 0.750631 0.000000
0.177147 0.749677 0.000000
0.224403 0.748717 0.000000
0.275002 0.747751 0.000000
0.328359 0.746778 0.000000
0.383873 0.745800 0.000000
0.440928 0.744815 0.000000
0.498890 0.743824 0.000000
0.557110 0.742827 0.000000
0.614920 0.741824 0.000000
0.671637 0.740814 0.000000
0.726562 0.739799 0.000000
0.778976 0.738777 0.000000
0.828144 0.737749 0.000000
0.873313 0.736715 0.000000
0.913713 0.735674 0.000000
0.948555 0.734627 0.000000
0.977033 0.733574 0.000000
0.998322 0.732515 0.000000
1.000000 0.731449 0.000000
1.000000 0.730377 0.000000
1.000000 0.729299 0.000000
1.000000 0.728214 0.000000
1.000000 0.727123 0.000000
1.000000 0.726026 0.000000
1.000000 0.724922 0.000000
1.000000 0.723812 0.000000
0.000000 0.793239 0.000000
0.000000 0.792365 0.000000
0.009442 0.791486 0.000000
0.031641 0.790601 0.000000
0.059985 0.789709 0.000000
0.093952 0.788812 0.000000
0.133010 0.787908 0.000000
0.176607 0.786999 0.000000
0.224178 0.786084 0.000000
0.275140 0.785162 0.000000
0.328895 0.784235 0.000000
0.384829 0.783301 0.000000
0.442311 0.782361 0.000000
0.500694 0.781416 0.000000
0.559314 0.780464 0.000000
0.617490 0.779506 0.000000
0.674524 0.778541 0.000000
0.729699 0.777571 0.000000
0.782284 0.776594 0.000000
0.831527 0.775612 0.000000
0.876661 0.774623 0.000000
0.916898 0.773628 0.000000
0.951434 0.772626 0.000000
0.979446 0.771619 0.000000
1.000000 0.770605 0.000000
1.000000 0.769584 0.000000
1.000000 0.768558 0.000000
1.000000 0.767525 0.000000
1.000000 0.766486 0.000000
1.000000 0.765441 0.000000
1.000000 0.764389 0.000000
1.000000 0.763331 0.000000
1.000000 0.762266 0.000000
0.000000 0.828397 0.000000
0.000000 0.827575 0.000000
0.008518 0.826746 0.000000
0.030592 0.825911 0.000000
0.058924 0.825071 0.000000
0.092980 0.824225 0.000000
0.132214 0.823372 0.000000
0.176063 0.822514 0.000000
0.223947 0.821650 0.000000
0.275272 0.820780 0.000000
0.329425 0.819904 0.000000
0.385779 0.819022 0.000000
0.443688 0.818134 0.000000
0.502492 0.817240 0.000000
0.561512 0.816340 0.000000
0.620052 0.815434 0.000000
0.677398 0.814522 0.000000
0.732821 0.813604 0.000000
0.785572 0.812680 0.000000
0.834884 0.811750 0.000000
0.879974 0.810813 0.000000
0.920038 0.809870 0.000000
0.954256 0.808922 0.000000
0.981787 0.807966 0.000000
1.000000 0.807005 0.000000
1.000000 0.806038 0.000000
1.000000 0.805064 0.000000
1.000000 0.804084 0.000000
1.000000 0.803098 0.000000
1.000000 0.802106 0.000000
1.000000 0.801107 0.000000
1.000000 0.800102 0.000000
1.000000 0.799090 0.000000
0.000000 0.861426 0.000000
0.000000 0.860660 0.000000
0.007609 0.859889 0.000000
0.029551 0.859112 0.000000
0.057866 0.858329 0.000000
0.092007 0.857540 0.000000
0.131415 0.856745 0.000000
0.175514 0.855945 0.000000
0.223712 0.855139 0.000000
0.275398 0.854327 0.000000
0.329950 0.853510 0.000000
0.386723 0.852686 0.000000
0.445060 0.851857 0.000000
0.504284 0.851022 0.000000
0.563702 0.850180 0.000000
0.622604 0.849333 0.000000
0.680261 0.848480 0.000000
0.735928 0.847621 0.000000
0.788840 0.846756 0.000000
0.838214 0.845885 0.000000
0.883252 0.845008 0.000000
0.923132 0.844125 0.000000
0.957019 0.843236 0.000000
0.984054 0.842341 0.000000
1.000000 0.841440 0.000000
1.000000 0.840532 0.000000
1.000000 0.839619 0.000000
1.000000 0.838699 0.000000
1.000000 0.837773 0.000000
1.000000 0.836841 0.000000
1.000000 0.835902 0.000000
1.000000 0.834958 0.000000
1.000000 0.834007 0.000000
0.000000 0.892046 0.000000
0.000000 0.891343 0.000000
0.006713 0.890635 0.000000
0.028518 0.889922 0.000000
0.056811 0.889203 0.000000
0.091034 0.888478 0.000000
0.130614 0.887748 0.000000
0.174961 0.887012 0.000000
0.223470 0.886271 0.000000
0.275519 0.885524 0.000000
0.330468 0.884771 0.000000
0.387661 0.884013 0.000000
0.446425 0.883249 0.000000
0.506069 0.882479 0.000000
0.565886 0.881704 0.000000
0.625148 0.880922 0.000000
0.683113 0.880135 0.000000
0.739020 0.879342 0.000000
0.792087 0.878544 0.000000
0.841517 0.877739 0.000000
0.886494 0.876929 0.000000
0.926181 0.876112 0.000000
0.959723 0.875290 0.000000
0.986248 0.874462 0.000000
1.000000 0.873628 0.000000
1.000000 0.872788 0.000000
1.000000 0.871941 0.000000
