luts/original/afrobeat-warm-cover.cube
TITLE "Afrobeat Warm Cover"
LUT_3D_SIZE 5
DOMAIN_MIN 0.0 0.0 0.0
DOMAIN_MAX 1.0 1.0 1.0
0.000000 0.000000 0.000000
0.228217 0.000000 0.000000
0.599838 0.000000 0.000000
0.927527 0.000000 0.000000
1.000000 0.000000 0.000000
0.000000 0.158048 0.000000
0.220843 0.157644 0.000000
0.606628 0.157068 0.000000
0.949243 0.156394 0.000000
1.000000 0.155354 0.000000
0.000000 0.478993 0.000000
0.223111 0.487744 0.000000
0.654086 0.492963 0.000000
0.985828 0.483672 0.000000
1.000000 0.474020 0.000000
0.000000 0.828397 0.000000
0.223947 0.821650 0.000000
0.677398 0.814522 0.000000
1.000000 0.807005 0.000000
1.000000 0.799090 0.000000
0.000000 1.000000 0.000000
0.221914 1.000000 0.000000
0.694128 1.000000 0.000000
1.000000 1.000000 0.000000
1.000000 0.999799 0.000000
0.000000 0.000000 0.106379
0.228079 0.000000 0.108418
0.601198 0.000000 0.110317
0.929249 0.000000 0.112074
1.000000 0.000000 0.113684
0.000000 0.158750 0.116944
0.220233 0.158245 0.118286
0.608327 0.157583 0.119234
0.954555 0.156867 0.115908
1.000000 0.155721 0.111889
0.000000 0.483053 0.118571
0.224428 0.491685 0.114410
0.656974 0.491023 0.106307
0.987899 0.481718 0.095104
1.000000 0.472052 0.084111
0.000000 0.827201 0.095722
0.224316 0.820426 0.084969
0.680375 0.813271 0.074447
1.000000 0.805725 0.064206
1.000000 0.797782 0.054294
0.000000 1.000000 0.065677
0.222400 1.000000 0.055915
0.692243 1.000000 0.049042
1.000000 1.000000 0.043291
1.000000 0.999241 0.037775
0.000000 0.000000 0.290505
0.227886 0.000000 0.304217
0.602495 0.000000 0.317864
0.930920 0.000000 0.331429
1.000000 0.000000 0.344896
0.000000 0.159404 0.342123
0.219570 0.158798 0.355271
0.614180 0.158141 0.363904
0.959690 0.157318 0.364868
1.000000 0.156067 0.364369
0.000000 0.487092 0.370571
0.225741 0.495608 0.369759
0.659888 0.489116 0.350767
0.989912 0.479797 0.328759
1.000000 0.470116 0.306715
0.000000 0.826027 0.327735
0.224713 0.819225 0.306105
0.683375 0.812042 0.284487
1.000000 0.804469 0.262941
1.000000 0.796497 0.241532
0.000000 1.000000 0.263440
0.222359 1.000000 0.243315
0.690355 1.000000 0.233399
1.000000 1.000000 0.223602
1.000000 0.998675 0.213929
0.000000 0.000000 0.519476
0.227640 0.000000 0.545966
0.603730 0.000000 0.572125
0.932541 0.000000 0.597896
1.000000 0.000000 0.623224
0.000000 0.160011 0.612984
0.218855 0.159303 0.637749
0.620030 0.158676 0.649936
0.964641 0.157749 0.656125
1.000000 0.156394 0.660415
0.000000 0.491112 0.663609
0.226479 0.496211 0.661523
0.662827 0.487241 0.633844
0.991867 0.477907 0.605431
1.000000 0.468213 0.576354
0.000000 0.824875 0.602380
0.225137 0.818048 0.573696
0.686400 0.810838 0.544438
1.000000 0.803237 0.514684
1.000000 0.795160 0.485646
0.000000 1.000000 0.513210
0.220630 1.000000 0.491310
0.688465 1.000000 0.479989
1.000000 1.000000 0.468676
1.000000 0.998100 0.457377
0.000000 0.000000 0.751996
0.227339 0.000000 0.785236
0.604903 0.000000 0.816823
0.934114 0.000000 0.846601
1.000000 0.000000 0.874418
0.000000 0.160570 0.861283
0.218602 0.159800 0.886646
0.625875 0.159191 0.896155
0.969405 0.158161 0.903810
1.000000 0.155677 0.904986
0.000000 0.495113 0.910036
0.226812 0.494383 0.900838
0.665792 0.485398 0.876997
0.993760 0.476050 0.851185
1.000000 0.466342 0.823496
0.000000 0.823747 0.847284
0.225589 0.816893 0.819716
0.689448 0.809657 0.790427
1.000000 0.802029 0.759523
1.000000 0.793470 0.736159
0.000000 1.000000 0.756441
0.218906 1.000000 0.741246
0.686572 1.000000 0.731049
1.000000 1.000000 0.720750
1.000000 0.997515 0.710354
