luts/original/alley-flash.cube
TITLE "Alley Flash"
LUT_3D_SIZE 33
DOMAIN_MIN 0.0 0.0 0.0
DOMAIN_MAX 1.0 1.0 1.0
0.003150 0.000000 0.000000
0.036203 0.000000 0.000000
0.069434 0.000000 0.000000
0.102842 0.000000 0.000000
0.136428 0.000000 0.000000
0.170192 0.000000 0.000000
0.204134 0.000000 0.000000
0.238253 0.000000 0.000000
0.272550 0.000000 0.000000
0.307025 0.000000 0.000000
0.341677 0.000000 0.000000
0.376508 0.000000 0.000000
0.411516 0.000000 0.000000
0.446701 0.000000 0.000000
0.482065 0.000000 0.000000
0.517606 0.000000 0.000000
0.553325 0.000000 0.000000
0.589222 0.000000 0.000000
0.625296 0.000000 0.000000
0.661548 0.000000 0.000000
0.697978 0.000000 0.000000
0.734586 0.000000 0.000000
0.771371 0.000000 0.000000
0.808334 0.000000 0.000000
0.845475 0.000000 0.000000
0.882794 0.000000 0.000000
0.920290 0.000000 0.000000
0.957964 0.000000 0.000000
0.989844 0.000000 0.000000
0.994287 0.000000 0.000000
0.997461 0.000000 0.000000
0.999365 0.000000 0.000000
1.000000 0.000000 0.000000
0.003333 0.023538 0.000000
0.036203 0.023538 0.000000
0.069434 0.023115 0.000000
0.102842 0.022692 0.000000
0.136428 0.022269 0.000000
0.170192 0.021846 0.000000
0.204134 0.021423 0.000000
0.238253 0.021000 0.000000
0.272550 0.020577 0.000000
0.307025 0.020154 0.000000
0.341677 0.019731 0.000000
0.376508 0.019308 0.000000
0.411516 0.018885 0.000000
0.446701 0.018462 0.000000
0.482065 0.018039 0.000000
0.517606 0.017616 0.000000
0.553325 0.017193 0.000000
0.589222 0.016770 0.000000
0.625296 0.016347 0.000000
0.661548 0.015924 0.000000
0.697978 0.015501 0.000000
0.734586 0.015078 0.000000
0.771371 0.014655 0.000000
0.808334 0.014232 0.000000
0.845475 0.013809 0.000000
0.882794 0.013386 0.000000
0.920290 0.012963 0.000000
0.957964 0.012540 0.000000
0.989844 0.012117 0.000000
0.994287 0.011694 0.000000
0.997461 0.011271 0.000000
0.999365 0.010848 0.000000
1.000000 0.010425 0.000000
0.003516 0.056074 0.000000
0.036475 0.056074 0.000000
0.069434 0.056074 0.000000
0.102842 0.055740 0.000000
0.136428 0.055406 0.000000
0.170192 0.055072 0.000000
0.204134 0.054738 0.000000
0.238253 0.054404 0.000000
0.272550 0.054069 0.000000
0.307025 0.053735 0.000000
0.341677 0.053401 0.000000
0.376508 0.053067 0.000000
0.411516 0.052733 0.000000
0.446701 0.052399 0.000000
0.482065 0.052065 0.000000
0.517606 0.051730 0.000000
0.553325 0.051396 0.000000
0.589222 0.051062 0.000000
0.625296 0.050728 0.000000
0.661548 0.050394 0.000000
0.697978 0.050060 0.000000
0.734586 0.049726 0.000000
0.771371 0.049391 0.000000
0.808334 0.049057 0.000000
0.845475 0.048723 0.000000
0.882794 0.048389 0.000000
0.920290 0.048055 0.000000
0.957964 0.047721 0.000000
0.989844 0.047387 0.000000
0.994287 0.047052 0.000000
0.997461 0.046718 0.000000
0.999365 0.046384 0.000000
1.000000 0.046050 0.000000
0.003698 0.088788 0.000000
0.036746 0.088788 0.000000
0.069794 0.088788 0.000000
0.102842 0.088788 0.000000
0.136428 0.088543 0.000000
0.170192 0.088297 0.000000
0.204134 0.088052 0.000000
0.238253 0.087807 0.000000
0.272550 0.087562 0.000000
0.307025 0.087316 0.000000
0.341677 0.087071 0.000000
0.376508 0.086826 0.000000
0.411516 0.086580 0.000000
0.446701 0.086335 0.000000
0.482065 0.086090 0.000000
0.517606 0.085845 0.000000
0.553325 0.085599 0.000000
0.589222 0.085354 0.000000
0.625296 0.085109 0.000000
0.661548 0.084864 0.000000
0.697978 0.084618 0.000000
0.734586 0.084373 0.000000
0.771371 0.084128 0.000000
0.808334 0.083882 0.000000
0.845475 0.083637 0.000000
0.882794 0.083392 0.000000
0.920290 0.083147 0.000000
0.957964 0.082901 0.000000
0.989844 0.082656 0.000000
0.994287 0.082411 0.000000
0.997461 0.082166 0.000000
0.999365 0.081920 0.000000
1.000000 0.081675 0.000000
0.003881 0.121679 0.000000
0.037018 0.121679 0.000000
0.070155 0.121679 0.000000
0.103291 0.121679 0.000000
0.136428 0.121679 0.000000
0.170192 0.121523 0.000000
0.204134 0.121367 0.000000
0.238253 0.121210 0.000000
0.272550 0.121054 0.000000
0.307025 0.120897 0.000000
0.341677 0.120741 0.000000
0.376508 0.120585 0.000000
0.411516 0.120428 0.000000
0.446701 0.120272 0.000000
0.482065 0.120115 0.000000
0.517606 0.119959 0.000000
0.553325 0.119802 0.000000
0.589222 0.119646 0.000000
0.625296 0.119490 0.000000
0.661548 0.119333 0.000000
0.697978 0.119177 0.000000
0.734586 0.119020 0.000000
0.771371 0.118864 0.000000
0.808334 0.118708 0.000000
0.845475 0.118551 0.000000
0.882794 0.118395 0.000000
0.920290 0.118238 0.000000
0.957964 0.118082 0.000000
0.989844 0.117926 0.000000
0.994287 0.117769 0.000000
0.997461 0.117613 0.000000
0.999365 0.117456 0.000000
1.000000 0.117300 0.000000
0.004064 0.154749 0.000000
0.037290 0.154749 0.000000
0.070515 0.154749 0.000000
0.103741 0.154749 0.000000
0.136966 0.154749 0.000000
0.170192 0.154749 0.000000
0.204134 0.154681 0.000000
0.238253 0.154613 0.000000
0.272550 0.154546 0.000000
0.307025 0.154478 0.000000
0.341677 0.154411 0.000000
0.376508 0.154343 0.000000
0.411516 0.154276 0.000000
0.446701 0.154208 0.000000
0.482065 0.154141 0.000000
0.517606 0.154073 0.000000
0.553325 0.154006 0.000000
0.589222 0.153938 0.000000
0.625296 0.153871 0.000000
0.661548 0.153803 0.000000
0.697978 0.153735 0.000000
0.734586 0.153668 0.000000
0.771371 0.153600 0.000000
0.808334 0.153533 0.000000
0.845475 0.153465 0.000000
0.882794 0.153398 0.000000
0.920290 0.153330 0.000000
0.957964 0.153263 0.000000
0.989844 0.153195 0.000000
0.994287 0.153128 0.000000
0.997461 0.153060 0.000000
0.999365 0.152993 0.000000
1.000000 0.152925 0.000000
0.004247 0.187995 0.000000
0.037561 0.187995 0.000000
0.070876 0.187995 0.000000
0.104190 0.187995 0.000000
0.137505 0.187995 0.000000
0.170819 0.187995 0.000000
0.204134 0.187995 0.000000
0.238253 0.188017 0.000000
0.272550 0.188038 0.000000
0.307025 0.188059 0.000000
0.341677 0.188081 0.000000
0.376508 0.188102 0.000000
0.411516 0.188123 0.000000
0.446701 0.188145 0.000000
0.482065 0.188166 0.000000
0.517606 0.188187 0.000000
0.553325 0.188209 0.000000
0.589222 0.188230 0.000000
0.625296 0.188251 0.000000
0.661548 0.188273 0.000000
0.697978 0.188294 0.000000
0.734586 0.188315 0.000000
0.771371 0.188337 0.000000
0.808334 0.188358 0.000000
0.845475 0.188379 0.000000
0.882794 0.188401 0.000000
0.920290 0.188422 0.000000
0.957964 0.188443 0.000000
0.989844 0.188465 0.000000
0.994287 0.188486 0.000000
0.997461 0.188507 0.000000
0.999365 0.188529 0.000000
1.000000 0.188550 0.000000
0.004430 0.221420 0.000000
0.037833 0.221420 0.000000
0.071236 0.221420 0.000000
0.104640 0.221420 0.000000
0.138043 0.221420 0.000000
0.171446 0.221420 0.000000
0.204850 0.221420 0.000000
0.238253 0.221420 0.000000
0.272550 0.221530 0.000000
0.307025 0.221641 0.000000
0.341677 0.221751 0.000000
0.376508 0.221861 0.000000
0.411516 0.221971 0.000000
0.446701 0.222081 0.000000
0.482065 0.222191 0.000000
0.517606 0.222302 0.000000
0.553325 0.222412 0.000000
0.589222 0.222522 0.000000
0.625296 0.222632 0.000000
0.661548 0.222742 0.000000
0.697978 0.222853 0.000000
0.734586 0.222963 0.000000
0.771371 0.223073 0.000000
0.808334 0.223183 0.000000
0.845475 0.223293 0.000000
0.882794 0.223404 0.000000
0.920290 0.223514 0.000000
0.957964 0.223624 0.000000
0.989844 0.223734 0.000000
0.994287 0.223844 0.000000
0.997461 0.223955 0.000000
0.999365 0.224065 0.000000
1.000000 0.224175 0.000000
0.004612 0.255022 0.000000
0.038105 0.255022 0.000000
0.071597 0.255022 0.000000
0.105089 0.255022 0.000000
0.138581 0.255022 0.000000
0.172073 0.255022 0.000000
0.205566 0.255022 0.000000
0.239058 0.255022 0.000000
0.272550 0.255022 0.000000
0.307025 0.255222 0.000000
0.341677 0.255421 0.000000
0.376508 0.255620 0.000000
0.411516 0.255819 0.000000
0.446701 0.256018 0.000000
0.482065 0.256217 0.000000
0.517606 0.256416 0.000000
0.553325 0.256615 0.000000
0.589222 0.256814 0.000000
0.625296 0.257013 0.000000
0.661548 0.257212 0.000000
0.697978 0.257411 0.000000
0.734586 0.257610 0.000000
0.771371 0.257809 0.000000
0.808334 0.258008 0.000000
0.845475 0.258207 0.000000
0.882794 0.258407 0.000000
0.920290 0.258606 0.000000
0.957964 0.258805 0.000000
0.989844 0.259004 0.000000
0.994287 0.259203 0.000000
0.997461 0.259402 0.000000
0.999365 0.259601 0.000000
1.000000 0.259800 0.000000
0.004795 0.288803 0.000000
0.038376 0.288803 0.000000
0.071957 0.288803 0.000000
0.105538 0.288803 0.000000
0.139120 0.288803 0.000000
0.172701 0.288803 0.000000
0.206282 0.288803 0.000000
0.239863 0.288803 0.000000
0.273444 0.288803 0.000000
0.307025 0.288803 0.000000
0.341677 0.289091 0.000000
0.376508 0.289378 0.000000
0.411516 0.289666 0.000000
0.446701 0.289954 0.000000
0.482065 0.290242 0.000000
0.517606 0.290530 0.000000
0.553325 0.290818 0.000000
0.589222 0.291106 0.000000
0.625296 0.291394 0.000000
0.661548 0.291682 0.000000
0.697978 0.291970 0.000000
0.734586 0.292258 0.000000
0.771371 0.292546 0.000000
0.808334 0.292834 0.000000
0.845475 0.293122 0.000000
0.882794 0.293409 0.000000
0.920290 0.293697 0.000000
0.957964 0.293985 0.000000
0.989844 0.294273 0.000000
0.994287 0.294561 0.000000
0.997461 0.294849 0.000000
0.999365 0.295137 0.000000
1.000000 0.295425 0.000000
0.004978 0.322760 0.000000
0.038648 0.322760 0.000000
0.072318 0.322760 0.000000
0.105988 0.322760 0.000000
0.139658 0.322760 0.000000
0.173328 0.322760 0.000000
0.206998 0.322760 0.000000
0.240668 0.322760 0.000000
0.274338 0.322760 0.000000
0.308007 0.322760 0.000000
0.341677 0.322760 0.000000
0.376508 0.323137 0.000000
0.411516 0.323514 0.000000
0.446701 0.323891 0.000000
0.482065 0.324268 0.000000
0.517606 0.324644 0.000000
0.553325 0.325021 0.000000
0.589222 0.325398 0.000000
0.625296 0.325775 0.000000
0.661548 0.326152 0.000000
0.697978 0.326528 0.000000
0.734586 0.326905 0.000000
0.771371 0.327282 0.000000
0.808334 0.327659 0.000000
0.845475 0.328036 0.000000
0.882794 0.328412 0.000000
0.920290 0.328789 0.000000
0.957964 0.329166 0.000000
0.989844 0.329543 0.000000
0.994287 0.329920 0.000000
0.997461 0.330296 0.000000
0.999365 0.330673 0.000000
1.000000 0.331050 0.000000
0.005161 0.356896 0.000000
0.038920 0.356896 0.000000
0.072679 0.356896 0.000000
0.106437 0.356896 0.000000
0.140196 0.356896 0.000000
0.173955 0.356896 0.000000
0.207714 0.356896 0.000000
0.241472 0.356896 0.000000
0.275231 0.356896 0.000000
0.308990 0.356896 0.000000
0.342749 0.356896 0.000000
0.376508 0.356896 0.000000
0.411516 0.357362 0.000000
0.446701 0.357827 0.000000
0.482065 0.358293 0.000000
0.517606 0.358759 0.000000
0.553325 0.359224 0.000000
0.589222 0.359690 0.000000
0.625296 0.360156 0.000000
0.661548 0.360621 0.000000
0.697978 0.361087 0.000000
0.734586 0.361553 0.000000
0.771371 0.362018 0.000000
0.808334 0.362484 0.000000
0.845475 0.362950 0.000000
0.882794 0.363415 0.000000
0.920290 0.363881 0.000000
0.957964 0.364347 0.000000
0.989844 0.364812 0.000000
0.994287 0.365278 0.000000
0.997461 0.365744 0.000000
0.999365 0.366209 0.000000
1.000000 0.366675 0.000000
0.005344 0.391209 0.000000
0.039191 0.391209 0.000000
0.073039 0.391209 0.000000
0.106887 0.391209 0.000000
0.140734 0.391209 0.000000
0.174582 0.391209 0.000000
0.208430 0.391209 0.000000
0.242277 0.391209 0.000000
0.276125 0.391209 0.000000
0.309973 0.391209 0.000000
0.343820 0.391209 0.000000
0.377668 0.391209 0.000000
0.411516 0.391209 0.000000
0.446701 0.391764 0.000000
0.482065 0.392318 0.000000
0.517606 0.392873 0.000000
0.553325 0.393427 0.000000
0.589222 0.393982 0.000000
0.625296 0.394537 0.000000
0.661548 0.395091 0.000000
0.697978 0.395646 0.000000
0.734586 0.396200 0.000000
0.771371 0.396755 0.000000
0.808334 0.397309 0.000000
0.845475 0.397864 0.000000
0.882794 0.398418 0.000000
0.920290 0.398973 0.000000
0.957964 0.399527 0.000000
0.989844 0.400082 0.000000
0.994287 0.400636 0.000000
0.997461 0.401191 0.000000
0.999365 0.401745 0.000000
1.000000 0.402300 0.000000
0.005527 0.425700 0.000000
0.039463 0.425700 0.000000
0.073400 0.425700 0.000000
0.107336 0.425700 0.000000
0.141273 0.425700 0.000000
0.175209 0.425700 0.000000
0.209146 0.425700 0.000000
0.243082 0.425700 0.000000
0.277019 0.425700 0.000000
0.310955 0.425700 0.000000
0.344892 0.425700 0.000000
0.378828 0.425700 0.000000
0.412765 0.425700 0.000000
0.446701 0.425700 0.000000
0.482065 0.426344 0.000000
0.517606 0.426987 0.000000
0.553325 0.427631 0.000000
0.589222 0.428274 0.000000
0.625296 0.428917 0.000000
0.661548 0.429561 0.000000
0.697978 0.430204 0.000000
0.734586 0.430848 0.000000
0.771371 0.431491 0.000000
0.808334 0.432134 0.000000
0.845475 0.432778 0.000000
0.882794 0.433421 0.000000
0.920290 0.434065 0.000000
0.957964 0.434708 0.000000
0.989844 0.435351 0.000000
0.994287 0.435995 0.000000
0.997461 0.436638 0.000000
0.999365 0.437282 0.000000
1.000000 0.437925 0.000000
0.005709 0.460369 0.000000
0.039735 0.460369 0.000000
0.073760 0.460369 0.000000
0.107786 0.460369 0.000000
0.141811 0.460369 0.000000
0.175836 0.460369 0.000000
0.209862 0.460369 0.000000
0.243887 0.460369 0.000000
0.277912 0.460369 0.000000
0.311938 0.460369 0.000000
0.345963 0.460369 0.000000
0.379989 0.460369 0.000000
0.414014 0.460369 0.000000
0.448039 0.460369 0.000000
0.482065 0.460369 0.000000
0.517606 0.461101 0.000000
0.553325 0.461834 0.000000
0.589222 0.462566 0.000000
0.625296 0.463298 0.000000
0.661548 0.464031 0.000000
0.697978 0.464763 0.000000
0.734586 0.465495 0.000000
0.771371 0.466227 0.000000
0.808334 0.466960 0.000000
0.845475 0.467692 0.000000
0.882794 0.468424 0.000000
0.920290 0.469156 0.000000
0.957964 0.469889 0.000000
0.989844 0.470621 0.000000
0.994287 0.471353 0.000000
0.997461 0.472085 0.000000
0.999365 0.472818 0.000000
1.000000 0.473550 0.000000
0.005892 0.495216 0.000000
0.040006 0.495216 0.000000
0.074121 0.495216 0.000000
0.108235 0.495216 0.000000
0.142349 0.495216 0.000000
0.176463 0.495216 0.000000
0.210578 0.495216 0.000000
0.244692 0.495216 0.000000
0.278806 0.495216 0.000000
0.312921 0.495216 0.000000
0.347035 0.495216 0.000000
0.381149 0.495216 0.000000
0.415263 0.495216 0.000000
0.449378 0.495216 0.000000
0.483492 0.495216 0.000000
0.517606 0.495216 0.000000
0.553325 0.496037 0.000000
0.589222 0.496858 0.000000
0.625296 0.497679 0.000000
0.661548 0.498500 0.000000
0.697978 0.499321 0.000000
0.734586 0.500143 0.000000
0.771371 0.500964 0.000000
0.808334 0.501785 0.000000
0.845475 0.502606 0.000000
0.882794 0.503427 0.000000
0.920290 0.504248 0.000000
0.957964 0.505069 0.000000
0.989844 0.505890 0.000000
0.994287 0.506712 0.000000
0.997461 0.507533 0.000000
0.999365 0.508354 0.000000
1.000000 0.509175 0.000000
0.006075 0.530240 0.000000
0.040278 0.530240 0.000000
0.074481 0.530240 0.000000
0.108684 0.530240 0.000000
0.142888 0.530240 0.000000
0.177091 0.530240 0.000000
0.211294 0.530240 0.000000
0.245497 0.530240 0.000000
0.279700 0.530240 0.000000
0.313903 0.530240 0.000000
0.348106 0.530240 0.000000
0.382309 0.530240 0.000000
0.416512 0.530240 0.000000
0.450716 0.530240 0.000000
0.484919 0.530240 0.000000
0.519122 0.530240 0.000000
0.553325 0.530240 0.000000
0.589222 0.531150 0.000000
0.625296 0.532060 0.000000
0.661548 0.532970 0.000000
0.697978 0.533880 0.000000
0.734586 0.534790 0.000000
0.771371 0.535700 0.000000
0.808334 0.536610 0.000000
0.845475 0.537520 0.000000
0.882794 0.538430 0.000000
0.920290 0.539340 0.000000
0.957964 0.540250 0.000000
0.989844 0.541160 0.000000
0.994287 0.542070 0.000000
0.997461 0.542980 0.000000
0.999365 0.543890 0.000000
1.000000 0.544800 0.000000
0.006258 0.565442 0.000000
0.040550 0.565442 0.000000
0.074842 0.565442 0.000000
0.109134 0.565442 0.000000
0.143426 0.565442 0.000000
0.177718 0.565442 0.000000
0.212010 0.565442 0.000000
0.246302 0.565442 0.000000
0.280594 0.565442 0.000000
0.314886 0.565442 0.000000
0.349178 0.565442 0.000000
0.383470 0.565442 0.000000
0.417762 0.565442 0.000000
0.452054 0.565442 0.000000
0.486346 0.565442 0.000000
0.520638 0.565442 0.000000
0.554930 0.565442 0.000000
0.589222 0.565442 0.000000
0.625296 0.566441 0.000000
0.661548 0.567440 0.000000
0.697978 0.568439 0.000000
0.734586 0.569437 0.000000
0.771371 0.570436 0.000000
0.808334 0.571435 0.000000
0.845475 0.572434 0.000000
0.882794 0.573433 0.000000
0.920290 0.574432 0.000000
0.957964 0.575431 0.000000
0.989844 0.576430 0.000000
0.994287 0.577428 0.000000
0.997461 0.578427 0.000000
0.999365 0.579426 0.000000
1.000000 0.580425 0.000000
0.006441 0.600822 0.000000
0.040821 0.600822 0.000000
0.075202 0.600822 0.000000
0.109583 0.600822 0.000000
0.143964 0.600822 0.000000
0.178345 0.600822 0.000000
0.212726 0.600822 0.000000
0.247107 0.600822 0.000000
0.281487 0.600822 0.000000
0.315868 0.600822 0.000000
0.350249 0.600822 0.000000
0.384630 0.600822 0.000000
0.419011 0.600822 0.000000
0.453392 0.600822 0.000000
0.487773 0.600822 0.000000
0.522153 0.600822 0.000000
0.556534 0.600822 0.000000
0.590915 0.600822 0.000000
0.625296 0.600822 0.000000
0.661548 0.601909 0.000000
0.697978 0.602997 0.000000
0.734586 0.604085 0.000000
0.771371 0.605173 0.000000
0.808334 0.606260 0.000000
0.845475 0.607348 0.000000
0.882794 0.608436 0.000000
0.920290 0.609524 0.000000
0.957964 0.610611 0.000000
0.989844 0.611699 0.000000
0.994287 0.612787 0.000000
0.997461 0.613875 0.000000
0.999365 0.614962 0.000000
1.000000 0.616050 0.000000
0.006623 0.636379 0.000000
0.041093 0.636379 0.000000
0.075563 0.636379 0.000000
0.110033 0.636379 0.000000
0.144502 0.636379 0.000000
0.178972 0.636379 0.000000
0.213442 0.636379 0.000000
0.247912 0.636379 0.000000
0.282381 0.636379 0.000000
0.316851 0.636379 0.000000
0.351321 0.636379 0.000000
0.385790 0.636379 0.000000
0.420260 0.636379 0.000000
0.454730 0.636379 0.000000
0.489200 0.636379 0.000000
0.523669 0.636379 0.000000
0.558139 0.636379 0.000000
0.592609 0.636379 0.000000
0.627079 0.636379 0.000000
0.661548 0.636379 0.000000
0.697978 0.637556 0.000000
0.734586 0.638732 0.000000
0.771371 0.639909 0.000000
0.808334 0.641086 0.000000
0.845475 0.642262 0.000000
0.882794 0.643439 0.000000
0.920290 0.644615 0.000000
0.957964 0.645792 0.000000
0.989844 0.646969 0.000000
0.994287 0.648145 0.000000
0.997461 0.649322 0.000000
0.999365 0.650498 0.000000
1.000000 0.651675 0.000000
0.006806 0.672114 0.000000
0.041365 0.672114 0.000000
0.075923 0.672114 0.000000
0.110482 0.672114 0.000000
0.145041 0.672114 0.000000
0.179599 0.672114 0.000000
0.214158 0.672114 0.000000
0.248716 0.672114 0.000000
0.283275 0.672114 0.000000
0.317834 0.672114 0.000000
0.352392 0.672114 0.000000
0.386951 0.672114 0.000000
0.421509 0.672114 0.000000
0.456068 0.672114 0.000000
0.490627 0.672114 0.000000
0.525185 0.672114 0.000000
0.559744 0.672114 0.000000
0.594302 0.672114 0.000000
0.628861 0.672114 0.000000
0.663420 0.672114 0.000000
0.697978 0.672114 0.000000
0.734586 0.673380 0.000000
0.771371 0.674645 0.000000
0.808334 0.675911 0.000000
0.845475 0.677176 0.000000
0.882794 0.678442 0.000000
0.920290 0.679707 0.000000
0.957964 0.680973 0.000000
0.989844 0.682238 0.000000
0.994287 0.683504 0.000000
0.997461 0.684769 0.000000
0.999365 0.686035 0.000000
1.000000 0.687300 0.000000
0.006989 0.708027 0.000000
0.041637 0.708027 0.000000
0.076284 0.708027 0.000000
0.110931 0.708027 0.000000
0.145579 0.708027 0.000000
0.180226 0.708027 0.000000
0.214874 0.708027 0.000000
0.249521 0.708027 0.000000
0.284169 0.708027 0.000000
0.318816 0.708027 0.000000
0.353464 0.708027 0.000000
0.388111 0.708027 0.000000
0.422759 0.708027 0.000000
0.457406 0.708027 0.000000
0.492054 0.708027 0.000000
0.526701 0.708027 0.000000
0.561348 0.708027 0.000000
0.595996 0.708027 0.000000
0.630643 0.708027 0.000000
0.665291 0.708027 0.000000
0.699938 0.708027 0.000000
0.734586 0.708027 0.000000
0.771371 0.709382 0.000000
0.808334 0.710736 0.000000
0.845475 0.712090 0.000000
0.882794 0.713445 0.000000
0.920290 0.714799 0.000000
0.957964 0.716153 0.000000
0.989844 0.717508 0.000000
0.994287 0.718862 0.000000
0.997461 0.720216 0.000000
0.999365 0.721571 0.000000
1.000000 0.722925 0.000000
0.007172 0.744118 0.000000
0.041908 0.744118 0.000000
0.076645 0.744118 0.000000
0.111381 0.744118 0.000000
0.146117 0.744118 0.000000
0.180854 0.744118 0.000000
0.215590 0.744118 0.000000
0.250326 0.744118 0.000000
0.285062 0.744118 0.000000
0.319799 0.744118 0.000000
0.354535 0.744118 0.000000
0.389271 0.744118 0.000000
0.424008 0.744118 0.000000
0.458744 0.744118 0.000000
0.493480 0.744118 0.000000
0.528217 0.744118 0.000000
0.562953 0.744118 0.000000
0.597689 0.744118 0.000000
0.632426 0.744118 0.000000
0.667162 0.744118 0.000000
0.701898 0.744118 0.000000
0.736635 0.744118 0.000000
0.771371 0.744118 0.000000
0.808334 0.745561 0.000000
0.845475 0.747004 0.000000
0.882794 0.748448 0.000000
0.920290 0.749891 0.000000
0.957964 0.751334 0.000000
0.989844 0.752777 0.000000
0.994287 0.754220 0.000000
0.997461 0.755664 0.000000
0.999365 0.757107 0.000000
1.000000 0.758550 0.000000
0.007355 0.780386 0.000000
0.042180 0.780386 0.000000
0.077005 0.780386 0.000000
0.111830 0.780386 0.000000
0.146655 0.780386 0.000000
0.181481 0.780386 0.000000
0.216306 0.780386 0.000000
0.251131 0.780386 0.000000
0.285956 0.780386 0.000000
0.320781 0.780386 0.000000
0.355607 0.780386 0.000000
0.390432 0.780386 0.000000
0.425257 0.780386 0.000000
0.460082 0.780386 0.000000
0.494907 0.780386 0.000000
0.529733 0.780386 0.000000
0.564558 0.780386 0.000000
0.599383 0.780386 0.000000
0.634208 0.780386 0.000000
0.669033 0.780386 0.000000
0.703859 0.780386 0.000000
0.738684 0.780386 0.000000
0.773509 0.780386 0.000000
0.808334 0.780386 0.000000
0.845475 0.781918 0.000000
0.882794 0.783450 0.000000
0.920290 0.784983 0.000000
0.957964 0.786515 0.000000
0.989844 0.788047 0.000000
0.994287 0.789579 0.000000
0.997461 0.791111 0.000000
0.999365 0.792643 0.000000
1.000000 0.794175 0.000000
0.007538 0.816832 0.000000
0.042452 0.816832 0.000000
0.077366 0.816832 0.000000
0.112280 0.816832 0.000000
0.147194 0.816832 0.000000
0.182108 0.816832 0.000000
0.217022 0.816832 0.000000
0.251936 0.816832 0.000000
0.286850 0.816832 0.000000
0.321764 0.816832 0.000000
0.356678 0.816832 0.000000
0.391592 0.816832 0.000000
0.426506 0.816832 0.000000
0.461420 0.816832 0.000000
0.496334 0.816832 0.000000
0.531248 0.816832 0.000000
0.566163 0.816832 0.000000
0.601077 0.816832 0.000000
0.635991 0.816832 0.000000
0.670905 0.816832 0.000000
0.705819 0.816832 0.000000
0.740733 0.816832 0.000000
0.775647 0.816832 0.000000
0.810561 0.816832 0.000000
0.845475 0.816832 0.000000
0.882794 0.818453 0.000000
0.920290 0.820074 0.000000
0.957964 0.821695 0.000000
0.989844 0.823316 0.000000
0.994287 0.824937 0.000000
0.997461 0.826558 0.000000
0.999365 0.828179 0.000000
1.000000 0.829800 0.000000
0.007720 0.853456 0.000000
0.042723 0.853456 0.000000
0.077726 0.853456 0.000000
0.112729 0.853456 0.000000
0.147732 0.853456 0.000000
0.182735 0.853456 0.000000
0.217738 0.853456 0.000000
0.252741 0.853456 0.000000
0.287744 0.853456 0.000000
0.322747 0.853456 0.000000
0.357750 0.853456 0.000000
0.392753 0.853456 0.000000
0.427755 0.853456 0.000000
0.462758 0.853456 0.000000
0.497761 0.853456 0.000000
0.532764 0.853456 0.000000
0.567767 0.853456 0.000000
0.602770 0.853456 0.000000
0.637773 0.853456 0.000000
0.672776 0.853456 0.000000
0.707779 0.853456 0.000000
0.742782 0.853456 0.000000
0.777785 0.853456 0.000000
0.812788 0.853456 0.000000
0.847791 0.853456 0.000000
0.882794 0.853456 0.000000
0.920290 0.855166 0.000000
0.957964 0.856876 0.000000
0.989844 0.858586 0.000000
0.994287 0.860296 0.000000
0.997461 0.862005 0.000000
0.999365 0.863715 0.000000
1.000000 0.865425 0.000000
0.007903 0.890258 0.000000
0.042995 0.890258 0.000000
0.078087 0.890258 0.000000
0.113179 0.890258 0.000000
0.148270 0.890258 0.000000
0.183362 0.890258 0.000000
0.218454 0.890258 0.000000
0.253546 0.890258 0.000000
0.288637 0.890258 0.000000
0.323729 0.890258 0.000000
0.358821 0.890258 0.000000
0.393913 0.890258 0.000000
0.429005 0.890258 0.000000
0.464096 0.890258 0.000000
0.499188 0.890258 0.000000
0.534280 0.890258 0.000000
0.569372 0.890258 0.000000
0.604464 0.890258 0.000000
0.639555 0.890258 0.000000
0.674647 0.890258 0.000000
0.709739 0.890258 0.000000
0.744831 0.890258 0.000000
0.779923 0.890258 0.000000
0.815014 0.890258 0.000000
0.850106 0.890258 0.000000
0.885198 0.890258 0.000000
0.920290 0.890258 0.000000
