luts/original/alley-flash.cube
TITLE "Alley Flash"
LUT_3D_SIZE 5
DOMAIN_MIN 0.0 0.0 0.0
DOMAIN_MAX 1.0 1.0 1.0
0.003150 0.000000 0.000000
0.272550 0.000000 0.000000
0.553325 0.000000 0.000000
0.845475 0.000000 0.000000
1.000000 0.000000 0.000000
0.004612 0.255022 0.000000
0.272550 0.255022 0.000000
0.553325 0.256615 0.000000
0.845475 0.258207 0.000000
1.000000 0.259800 0.000000
0.006075 0.530240 0.000000
0.279700 0.530240 0.000000
0.553325 0.530240 0.000000
0.845475 0.537520 0.000000
1.000000 0.544800 0.000000
0.007538 0.816832 0.000000
0.286850 0.816832 0.000000
0.566163 0.816832 0.000000
0.845475 0.816832 0.000000
1.000000 0.829800 0.000000
0.009000 1.000000 0.000000
0.294000 1.000000 0.000000
0.579000 1.000000 0.000000
0.864000 1.000000 0.000000
1.000000 1.000000 0.000000
0.004612 0.000000 0.237495
0.272550 0.000000 0.237495
0.553325 0.000000 0.233530
0.845475 0.000000 0.229565
1.000000 0.000000 0.225600
0.000000 0.255022 0.236866
0.272550 0.248995 0.225441
0.553325 0.228375 0.202264
0.845475 0.203421 0.171677
1.000000 0.183333 0.145600
0.000000 0.530240 0.229911
0.256585 0.530240 0.204111
0.553325 0.527214 0.202264
0.845475 0.508576 0.171677
1.000000 0.497775 0.145600
0.000000 0.816832 0.224017
0.237547 0.816832 0.173968
0.543085 0.816832 0.173968
0.845475 0.813731 0.171677
1.000000 0.812217 0.145600
0.000000 1.000000 0.218567
0.221066 1.000000 0.145600
0.535508 1.000000 0.145600
0.849950 1.000000 0.145600
1.000000 1.000000 0.145600
0.006075 0.000000 0.507155
0.279700 0.000000 0.507155
0.553325 0.000000 0.507155
0.845475 0.000000 0.508878
1.000000 0.000000 0.510600
0.000000 0.253578 0.507155
0.255887 0.229043 0.507155
0.553325 0.225349 0.500455
0.845475 0.200319 0.475018
1.000000 0.179800 0.457706
0.000000 0.530240 0.506767
0.250281 0.530240 0.503143
0.553325 0.514607 0.475889
0.845475 0.485234 0.450990
1.000000 0.470391 0.430600
0.000000 0.816832 0.505946
0.231253 0.816832 0.475756
0.522479 0.816832 0.453281
0.845475 0.811230 0.450990
1.000000 0.801978 0.430600
0.000000 1.000000 0.506155
0.214000 1.000000 0.455144
0.510181 1.000000 0.430600
0.841769 1.000000 0.430600
1.000000 1.000000 0.430600
0.007538 0.000000 0.788190
0.286850 0.000000 0.788190
0.566163 0.000000 0.788190
0.845475 0.000000 0.788190
1.000000 0.000000 0.795600
0.000000 0.253073 0.788190
0.236947 0.204902 0.788190
0.544614 0.204902 0.788190
0.845475 0.200319 0.781637
1.000000 0.179800 0.773509
0.000000 0.535117 0.788190
0.233545 0.510867 0.788190
0.520126 0.484215 0.788190
0.845475 0.479632 0.775785
1.000000 0.464800 0.759677
0.000000 0.816832 0.787876
0.231253 0.816832 0.784641
0.510566 0.816832 0.780609
0.845475 0.787889 0.730302
1.000000 0.763186 0.715600
0.000000 1.000000 0.793744
0.214000 1.000000 0.772439
0.499000 1.000000 0.756759
0.810771 1.000000 0.715600
1.000000 1.000000 0.715600
0.009000 0.000000 1.000000
0.294000 0.000000 1.000000
0.579000 0.000000 1.000000
0.864000 0.000000 1.000000
1.000000 0.000000 1.000000
0.000000 0.253078 1.000000
0.217696 0.179800 1.000000
0.533499 0.179800 1.000000
0.849301 0.179800 1.000000
1.000000 0.179800 1.000000
0.000000 0.540666 1.000000
0.214000 0.493219 1.000000
0.505011 0.464800 1.000000
0.840098 0.464800 1.000000
1.000000 0.464800 1.000000
0.000000 0.828254 1.000000
0.214000 0.810514 1.000000
0.499000 0.797458 1.000000
0.800075 0.749800 1.000000
1.000000 0.749800 1.000000
0.000000 1.000000 1.000000
0.214000 1.000000 1.000000
0.499000 1.000000 1.000000
0.784000 1.000000 1.000000
1.000000 0.920000 0.920000
