luts/original/alley-flash.cube
TITLE "Alley Flash"
LUT_3D_SIZE 9
DOMAIN_MIN 0.0 0.0 0.0
DOMAIN_MAX 1.0 1.0 1.0
0.003150 0.000000 0.000000
0.136428 0.000000 0.000000
0.272550 0.000000 0.000000
0.411516 0.000000 0.000000
0.553325 0.000000 0.000000
0.697978 0.000000 0.000000
0.845475 0.000000 0.000000
0.989844 0.000000 0.000000
1.000000 0.000000 0.000000
0.003881 0.121679 0.000000
0.136428 0.121679 0.000000
0.272550 0.121054 0.000000
0.411516 0.120428 0.000000
0.553325 0.119802 0.000000
0.697978 0.119177 0.000000
0.845475 0.118551 0.000000
0.989844 0.117926 0.000000
1.000000 0.117300 0.000000
0.004612 0.255022 0.000000
0.138581 0.255022 0.000000
0.272550 0.255022 0.000000
0.411516 0.255819 0.000000
0.553325 0.256615 0.000000
0.697978 0.257411 0.000000
0.845475 0.258207 0.000000
0.989844 0.259004 0.000000
1.000000 0.259800 0.000000
0.005344 0.391209 0.000000
0.140734 0.391209 0.000000
0.276125 0.391209 0.000000
0.411516 0.391209 0.000000
0.553325 0.393427 0.000000
0.697978 0.395646 0.000000
0.845475 0.397864 0.000000
0.989844 0.400082 0.000000
1.000000 0.402300 0.000000
0.006075 0.530240 0.000000
0.142888 0.530240 0.000000
0.279700 0.530240 0.000000
0.416512 0.530240 0.000000
0.553325 0.530240 0.000000
0.697978 0.533880 0.000000
0.845475 0.537520 0.000000
0.989844 0.541160 0.000000
1.000000 0.544800 0.000000
0.006806 0.672114 0.000000
0.145041 0.672114 0.000000
0.283275 0.672114 0.000000
0.421509 0.672114 0.000000
0.559744 0.672114 0.000000
0.697978 0.672114 0.000000
0.845475 0.677176 0.000000
0.989844 0.682238 0.000000
1.000000 0.687300 0.000000
0.007538 0.816832 0.000000
0.147194 0.816832 0.000000
0.286850 0.816832 0.000000
0.426506 0.816832 0.000000
0.566163 0.816832 0.000000
0.705819 0.816832 0.000000
0.845475 0.816832 0.000000
0.989844 0.823316 0.000000
1.000000 0.829800 0.000000
0.008269 0.964394 0.000000
0.149347 0.964394 0.000000
0.290425 0.964394 0.000000
0.431503 0.964394 0.000000
0.572581 0.964394 0.000000
0.713659 0.964394 0.000000
0.854738 0.964394 0.000000
0.989844 0.964394 0.000000
1.000000 0.972300 0.000000
0.009000 1.000000 0.000000
0.151500 1.000000 0.000000
0.294000 1.000000 0.000000
0.436500 1.000000 0.000000
0.579000 1.000000 0.000000
0.721500 1.000000 0.000000
0.864000 1.000000 0.000000
1.000000 1.000000 0.000000
1.000000 1.000000 0.000000
0.003881 0.000000 0.106931
0.136428 0.000000 0.106931
0.272550 0.000000 0.103526
0.411516 0.000000 0.100122
0.553325 0.000000 0.096717
0.697978 0.000000 0.093313
0.845475 0.000000 0.089909
0.989844 0.000000 0.086504
1.000000 0.000000 0.083100
0.000000 0.121679 0.105705
0.136428 0.119066 0.101704
0.272550 0.110954 0.091472
0.411516 0.101701 0.079388
0.553325 0.090693 0.065452
0.697978 0.077865 0.049662
0.845475 0.063198 0.032021
0.989844 0.047167 0.013004
1.000000 0.040284 0.003100
0.000000 0.255022 0.100277
0.132053 0.255022 0.092874
0.272550 0.253068 0.091472
0.411516 0.245452 0.079388
0.553325 0.236490 0.065452
0.697978 0.225842 0.049662
0.845475 0.213418 0.032021
0.989844 0.199668 0.013004
1.000000 0.195217 0.003100
0.000000 0.391209 0.095785
0.125720 0.391209 0.081013
0.269642 0.391209 0.081013
0.411516 0.389203 0.079388
0.553325 0.382287 0.065452
0.697978 0.373820 0.049662
0.845475 0.363638 0.032021
0.989844 0.352169 0.013004
1.000000 0.350150 0.003100
0.000000 0.530240 0.091483
0.117827 0.530240 0.067298
0.263719 0.530240 0.067298
0.409612 0.530240 0.067298
0.553325 0.528084 0.065452
0.697978 0.521798 0.049662
0.845475 0.513858 0.032021
0.989844 0.504671 0.013004
1.000000 0.505084 0.003100
0.000000 0.672114 0.087250
0.108166 0.672114 0.051731
0.256208 0.672114 0.051731
0.404249 0.672114 0.051731
0.552290 0.672114 0.051731
0.697978 0.669776 0.049662
0.845475 0.664078 0.032021
0.989844 0.657172 0.013004
1.000000 0.660017 0.003100
0.000000 0.816832 0.083052
0.096690 0.816832 0.034312
0.246956 0.816832 0.034312
0.397223 0.816832 0.034312
0.547489 0.816832 0.034312
0.697755 0.816832 0.034312
0.845475 0.814297 0.032021
0.989844 0.809673 0.013004
1.000000 0.814950 0.003100
0.000000 0.964394 0.078872
0.083380 0.964394 0.015040
0.235911 0.964394 0.015040
0.388441 0.964394 0.015040
0.540972 0.964394 0.015040
0.693503 0.964394 0.015040
0.846034 0.964394 0.015040
0.989844 0.962174 0.013004
1.000000 0.969883 0.003100
0.000000 1.000000 0.074773
0.077468 1.000000 0.003100
0.232401 1.000000 0.003100
0.387334 1.000000 0.003100
0.542268 1.000000 0.003100
0.697201 1.000000 0.003100
0.852134 1.000000 0.003100
1.000000 1.000000 0.003100
1.000000 1.000000 0.003100
0.004612 0.000000 0.237495
0.138581 0.000000 0.237495
0.272550 0.000000 0.237495
0.411516 0.000000 0.235512
0.553325 0.000000 0.233530
0.697978 0.000000 0.231548
0.845475 0.000000 0.229565
0.989844 0.000000 0.227582
1.000000 0.000000 0.225600
0.000000 0.118748 0.237495
0.132253 0.111804 0.237495
0.272550 0.109000 0.232829
0.411516 0.099694 0.221813
0.553325 0.088537 0.209598
0.697978 0.075526 0.195721
0.845475 0.060663 0.180073
0.989844 0.044426 0.163100
1.000000 0.037300 0.155415
0.000000 0.255022 0.236866
0.127929 0.255022 0.234131
0.272550 0.248995 0.225441
0.411516 0.238447 0.214779
0.553325 0.228375 0.202264
0.697978 0.216771 0.187897
0.845475 0.203421 0.171677
0.989844 0.188750 0.154083
1.000000 0.183333 0.145600
0.000000 0.391209 0.233112
0.121625 0.391209 0.222049
0.264413 0.391209 0.216403
0.411516 0.387847 0.214779
0.553325 0.377795 0.202264
0.697978 0.367549 0.187897
0.845475 0.355998 0.171677
0.989844 0.343353 0.154083
1.000000 0.340554 0.145600
0.000000 0.530240 0.229911
0.113468 0.530240 0.209654
0.256585 0.530240 0.204111
0.406531 0.530240 0.204111
0.553325 0.527214 0.202264
0.697978 0.518326 0.187897
0.845475 0.508576 0.171677
0.989844 0.497956 0.154083
1.000000 0.497775 0.145600
0.000000 0.672114 0.226915
0.103459 0.672114 0.195717
0.247854 0.672114 0.189966
0.398922 0.672114 0.189966
0.549990 0.672114 0.189966
0.697978 0.669104 0.187897
0.845475 0.661154 0.171677
0.989844 0.652559 0.154083
1.000000 0.654996 0.145600
0.000000 0.816832 0.224017
0.091597 0.816832 0.180042
0.237547 0.816832 0.173968
0.390316 0.816832 0.173968
0.543085 0.816832 0.173968
0.695853 0.816832 0.173968
0.845475 0.813731 0.171677
0.989844 0.807162 0.154083
1.000000 0.812217 0.145600
0.000000 0.964394 0.221173
0.077883 0.964394 0.162570
0.225507 0.964394 0.156118
0.380224 0.964394 0.156118
0.534940 0.964394 0.156118
0.689656 0.964394 0.156118
0.844373 0.964394 0.156118
0.989844 0.961765 0.154083
1.000000 0.969438 0.145600
0.000000 1.000000 0.218567
0.071500 1.000000 0.152586
0.221066 1.000000 0.145600
0.378287 1.000000 0.145600
0.535508 1.000000 0.145600
0.692729 1.000000 0.145600
0.849950 1.000000 0.145600
1.000000 1.000000 0.145600
1.000000 1.000000 0.145600
0.005344 0.000000 0.370903
0.140734 0.000000 0.370903
0.276125 0.000000 0.370903
0.411516 0.000000 0.370903
0.553325 0.000000 0.370342
0.697978 0.000000 0.369782
0.845475 0.000000 0.369221
0.989844 0.000000 0.368661
1.000000 0.000000 0.368100
0.000000 0.116696 0.370903
0.125634 0.102943 0.370903
0.270959 0.102943 0.370903
0.411516 0.099694 0.366460
0.553325 0.088537 0.356061
0.697978 0.075526 0.344250
0.845475 0.060663 0.330777
0.989844 0.044426 0.316044
1.000000 0.037300 0.310830
0.000000 0.254207 0.370903
0.123250 0.247076 0.370903
0.264162 0.238334 0.370903
0.411516 0.235085 0.362877
0.553325 0.225349 0.349685
0.697978 0.213760 0.336370
0.845475 0.200319 0.321709
0.989844 0.185504 0.305915
1.000000 0.179800 0.299805
0.000000 0.391209 0.370438
0.121625 0.391209 0.368297
0.257016 0.391209 0.364869
0.411516 0.380843 0.350169
0.553325 0.367232 0.339076
0.697978 0.356219 0.326131
0.845475 0.343968 0.311333
0.989844 0.330560 0.295161
1.000000 0.326630 0.288100
0.000000 0.530240 0.368339
0.113468 0.530240 0.357125
0.250281 0.530240 0.349615
0.398481 0.530240 0.340923
0.553325 0.525170 0.339076
0.697978 0.512055 0.326131
0.845475 0.500259 0.311333
0.989844 0.488213 0.295161
1.000000 0.487171 0.288100
0.000000 0.672114 0.366579
0.103459 0.672114 0.345010
0.241693 0.672114 0.336034
0.388838 0.672114 0.328200
0.545636 0.672114 0.328200
0.697978 0.667890 0.326131
0.845475 0.656550 0.311333
0.989844 0.645866 0.295161
1.000000 0.647711 0.288100
0.000000 0.816832 0.364981
0.091597 0.816832 0.331378
0.231253 0.816832 0.321314
0.379146 0.816832 0.313625
0.535962 0.816832 0.313625
0.692778 0.816832 0.313625
0.845475 0.812840 0.311333
0.989844 0.803519 0.295161
1.000000 0.808252 0.288100
0.000000 0.964394 0.363474
0.077883 0.964394 0.316055
0.218961 0.964394 0.305004
0.368129 0.964394 0.297197
0.526062 0.964394 0.297197
0.683995 0.964394 0.297197
0.841928 0.964394 0.297197
0.989844 0.961172 0.295161
1.000000 0.968793 0.288100
0.000000 1.000000 0.362361
0.071500 1.000000 0.308522
0.214000 1.000000 0.296497
0.365160 1.000000 0.288100
0.525700 1.000000 0.288100
0.686241 1.000000 0.288100
0.846782 1.000000 0.288100
1.000000 1.000000 0.288100
1.000000 1.000000 0.288100
0.006075 0.000000 0.507155
0.142888 0.000000 0.507155
0.279700 0.000000 0.507155
0.416512 0.000000 0.507155
0.553325 0.000000 0.507155
0.697978 0.000000 0.508016
0.845475 0.000000 0.508878
0.989844 0.000000 0.509739
1.000000 0.000000 0.510600
0.000000 0.115039 0.507155
0.117713 0.092230 0.507155
0.264515 0.092230 0.507155
0.411318 0.092230 0.507155
0.553325 0.088537 0.502523
0.697978 0.075526 0.492780
0.845475 0.060663 0.481480
0.989844 0.044426 0.468988
1.000000 0.037300 0.466245
0.000000 0.253578 0.507155
0.115315 0.237358 0.507155
0.255887 0.229043 0.507155
0.408366 0.229043 0.507155
0.553325 0.225349 0.500455
0.697978 0.213760 0.488077
0.845475 0.200319 0.475018
0.989844 0.185504 0.461143
1.000000 0.179800 0.457706
0.000000 0.392116 0.507155
0.115315 0.385112 0.507155
0.252128 0.379641 0.507155
0.397647 0.365855 0.507155
0.553325 0.362161 0.495052
0.697978 0.351995 0.479176
0.845475 0.339976 0.464568
0.989844 0.326582 0.449557
1.000000 0.322300 0.445096
0.000000 0.530240 0.506767
0.113468 0.530240 0.504597
0.250281 0.530240 0.503143
0.387093 0.530240 0.497865
0.553325 0.514607 0.475889
0.697978 0.497308 0.464366
0.845475 0.485234 0.450990
0.989844 0.472796 0.436239
1.000000 0.470391 0.430600
0.000000 0.672114 0.506243
0.103459 0.672114 0.494303
0.241693 0.672114 0.489335
0.379928 0.672114 0.478720
0.534258 0.672114 0.466435
0.697978 0.665036 0.464366
0.845475 0.648232 0.450990
0.989844 0.635276 0.436239
1.000000 0.636184 0.430600
0.000000 0.816832 0.505946
0.091597 0.816832 0.482714
0.231253 0.816832 0.475756
0.370910 0.816832 0.463756
0.522479 0.816832 0.453281
0.686956 0.816832 0.453281
0.845475 0.811230 0.450990
0.989844 0.797755 0.436239
1.000000 0.801978 0.430600
0.000000 0.964394 0.505776
0.077883 0.964394 0.469540
0.218961 0.964394 0.461095
0.360039 0.964394 0.448158
0.511704 0.964394 0.438275
0.674839 0.964394 0.438275
0.837974 0.964394 0.438275
0.989844 0.960234 0.436239
1.000000 0.967772 0.430600
0.000000 1.000000 0.506155
0.071500 1.000000 0.464457
0.214000 1.000000 0.455144
0.356500 1.000000 0.441120
0.510181 1.000000 0.430600
0.675975 1.000000 0.430600
0.841769 1.000000 0.430600
1.000000 1.000000 0.430600
1.000000 1.000000 0.430600
0.006806 0.000000 0.646251
0.145041 0.000000 0.646251
0.283275 0.000000 0.646251
0.421509 0.000000 0.646251
0.559744 0.000000 0.646251
0.697978 0.000000 0.646251
0.845475 0.000000 0.648534
0.989844 0.000000 0.650817
1.000000 0.000000 0.653100
0.000000 0.113515 0.646251
0.108050 0.079664 0.646251
0.256793 0.079664 0.646251
0.405536 0.079664 0.646251
0.554279 0.079664 0.646251
0.697978 0.075526 0.641309
0.845475 0.060663 0.632184
0.989844 0.044426 0.621931
1.000000 0.037300 0.621660
0.000000 0.253255 0.646251
0.105528 0.226430 0.646251
0.247198 0.217899 0.646251
0.399749 0.217899 0.646251
0.552299 0.217899 0.646251
0.697978 0.213760 0.639784
0.845475 0.200319 0.628328
0.989844 0.185504 0.616371
1.000000 0.179800 0.615607
0.000000 0.392995 0.646251
0.105528 0.375889 0.646251
0.243762 0.368050 0.646251
0.387385 0.356133 0.646251
0.548070 0.356133 0.646251
0.697978 0.351995 0.636897
0.845475 0.339976 0.622091
0.989844 0.326582 0.608158
1.000000 0.322300 0.606669
0.000000 0.532736 0.646251
0.105528 0.525349 0.646251
0.243762 0.521964 0.646251
0.381997 0.514124 0.646251
0.532709 0.494367 0.646251
0.697978 0.490229 0.629354
0.845475 0.479632 0.610286
0.989844 0.467660 0.594804
1.000000 0.464800 0.592133
0.000000 0.672114 0.645907
0.103459 0.672114 0.643596
0.241693 0.672114 0.642635
0.379928 0.672114 0.640580
0.518162 0.672114 0.633120
0.697978 0.650289 0.602600
0.845475 0.628676 0.590646
0.989844 0.615984 0.577317
1.000000 0.615187 0.573100
0.000000 0.816832 0.646911
0.091597 0.816832 0.634051
0.231253 0.816832 0.630199
0.370910 0.816832 0.623556
0.510566 0.816832 0.609363
0.671743 0.816832 0.592937
0.845475 0.807445 0.590646
0.989844 0.787255 0.577317
1.000000 0.790550 0.573100
0.000000 0.964394 0.648077
0.077883 0.964394 0.623025
0.218961 0.964394 0.617187
0.360039 0.964394 0.608243
0.501117 0.964394 0.592817
0.657509 0.964394 0.579353
0.830491 0.964394 0.579353
0.989844 0.958525 0.577317
1.000000 0.965912 0.573100
0.000000 1.000000 0.649950
0.071500 1.000000 0.620393
0.214000 1.000000 0.613791
0.356500 1.000000 0.603851
0.499000 1.000000 0.587181
0.657274 1.000000 0.573100
0.832636 1.000000 0.573100
1.000000 1.000000 0.573100
1.000000 1.000000 0.573100
0.007538 0.000000 0.788190
0.147194 0.000000 0.788190
0.286850 0.000000 0.788190
0.426506 0.000000 0.788190
0.566163 0.000000 0.788190
0.705819 0.000000 0.788190
0.845475 0.000000 0.788190
0.989844 0.000000 0.791895
1.000000 0.000000 0.795600
0.000000 0.112052 0.788190
0.096576 0.065246 0.788190
0.247431 0.065246 0.788190
0.398286 0.065246 0.788190
0.549141 0.065246 0.788190
0.699996 0.065246 0.788190
0.845475 0.060663 0.782887
0.989844 0.044426 0.774875
1.000000 0.037300 0.777075
0.000000 0.253073 0.788190
0.093889 0.213865 0.788190
0.236947 0.204902 0.788190
0.390780 0.204902 0.788190
0.544614 0.204902 0.788190
0.698447 0.204902 0.788190
0.845475 0.200319 0.781637
0.989844 0.185504 0.771599
1.000000 0.179800 0.773509
0.000000 0.394095 0.788190
0.093889 0.365315 0.788190
0.233545 0.356068 0.788190
0.377836 0.344559 0.788190
0.536806 0.344559 0.788190
0.695776 0.344559 0.788190
0.845475 0.339976 0.779614
0.989844 0.326582 0.766760
1.000000 0.322300 0.768242
0.000000 0.535117 0.788190
0.093889 0.516764 0.788190
0.233545 0.510867 0.788190
0.373201 0.500291 0.788190
0.520126 0.484215 0.788190
0.690069 0.484215 0.788190
0.845475 0.479632 0.775785
0.989844 0.467660 0.758891
1.000000 0.464800 0.759677
0.000000 0.676138 0.788190
0.093889 0.668213 0.788190
0.233545 0.665667 0.788190
0.373201 0.661100 0.788190
0.512857 0.650524 0.788190
0.669347 0.623871 0.788190
0.845475 0.619288 0.765782
0.989844 0.608738 0.743851
1.000000 0.607300 0.743307
0.000000 0.816832 0.787876
0.091597 0.816832 0.785387
0.231253 0.816832 0.784641
0.370910 0.816832 0.783356
0.510566 0.816832 0.780609
0.650222 0.816832 0.770633
0.845475 0.787889 0.730302
0.989844 0.762114 0.718395
1.000000 0.763186 0.715600
0.000000 0.964394 0.790378
0.077883 0.964394 0.776510
0.218961 0.964394 0.773278
0.360039 0.964394 0.768327
0.501117 0.964394 0.759788
0.642195 0.964394 0.741545
0.810937 0.964394 0.720431
0.989844 0.954434 0.718395
1.000000 0.961459 0.715600
0.000000 1.000000 0.793744
0.071500 1.000000 0.776328
0.214000 1.000000 0.772439
0.356500 1.000000 0.766581
0.499000 1.000000 0.756759
0.641500 1.000000 0.736885
0.810771 1.000000 0.715600
1.000000 1.000000 0.715600
1.000000 1.000000 0.715600
0.008269 0.000000 0.932973
0.149347 0.000000 0.932973
0.290425 0.000000 0.932973
0.431503 0.000000 0.932973
0.572581 0.000000 0.932973
0.713659 0.000000 0.932973
0.854738 0.000000 0.932973
0.989844 0.000000 0.932973
1.000000 0.000000 0.938100
0.000000 0.110621 0.932973
0.083269 0.048975 0.932973
0.236318 0.048975 0.932973
0.389367 0.048975 0.932973
0.542415 0.048975 0.932973
0.695464 0.048975 0.932973
0.848513 0.048975 0.932973
0.989844 0.044426 0.927819
1.000000 0.037300 0.932490
0.000000 0.252967 0.932973
0.080397 0.199547 0.932973
0.224951 0.190053 0.932973
0.380515 0.190053 0.932973
0.536078 0.190053 0.932973
0.691642 0.190053 0.932973
0.847205 0.190053 0.932973
0.989844 0.185504 0.926827
1.000000 0.179800 0.931410
0.000000 0.395313 0.932973
0.080397 0.353116 0.932973
0.221475 0.342725 0.932973
0.366954 0.331132 0.932973
0.526370 0.331132 0.932973
0.685786 0.331132 0.932973
0.845202 0.331132 0.932973
0.989844 0.326582 0.925361
1.000000 0.322300 0.929815
0.000000 0.537660 0.932973
0.080397 0.506685 0.932973
0.221475 0.499058 0.932973
0.362553 0.487097 0.932973
0.509627 0.472210 0.932973
0.675687 0.472210 0.932973
0.841747 0.472210 0.932973
0.989844 0.467660 0.922978
1.000000 0.464800 0.927221
0.000000 0.680006 0.932973
0.080397 0.660254 0.932973
0.221475 0.655390 0.932973
0.362553 0.647763 0.932973
0.503631 0.634082 0.932973
0.654111 0.613288 0.932973
0.834366 0.613288 0.932973
0.989844 0.608738 0.918424
1.000000 0.607300 0.922264
0.000000 0.822352 0.932973
0.080397 0.813823 0.932973
0.221475 0.811723 0.932973
0.362553 0.808429 0.932973
0.503631 0.802522 0.932973
0.644709 0.788841 0.932973
0.807561 0.754366 0.932973
0.989844 0.749816 0.906242
1.000000 0.749800 0.909005
0.000000 0.964394 0.932680
0.077883 0.964394 0.929995
0.218961 0.964394 0.929370
0.360039 0.964394 0.928412
0.501117 0.964394 0.926759
0.642195 0.964394 0.923228
0.783273 0.964394 0.910406
0.989844 0.931503 0.859473
1.000000 0.936500 0.858100
0.000000 1.000000 0.937538
0.071500 1.000000 0.932264
0.214000 1.000000 0.931086
0.356500 1.000000 0.929312
0.499000 1.000000 0.926338
0.641500 1.000000 0.920319
0.784000 1.000000 0.901688
1.000000 1.000000 0.858100
1.000000 1.000000 0.858100
0.009000 0.000000 1.000000
0.151500 0.000000 1.000000
0.294000 0.000000 1.000000
0.436500 0.000000 1.000000
0.579000 0.000000 1.000000
0.721500 0.000000 1.000000
0.864000 0.000000 1.000000
1.000000 0.000000 1.000000
1.000000 0.000000 1.000000
0.000000 0.109284 1.000000
0.074600 0.037300 1.000000
0.230015 0.037300 1.000000
0.385429 0.037300 1.000000
0.540844 0.037300 1.000000
0.696259 0.037300 1.000000
0.851674 0.037300 1.000000
1.000000 0.037300 1.000000
1.000000 0.037300 1.000000
0.000000 0.253078 1.000000
0.071500 0.190011 1.000000
0.217696 0.179800 1.000000
0.375598 0.179800 1.000000
0.533499 0.179800 1.000000
0.691400 0.179800 1.000000
0.849301 0.179800 1.000000
1.000000 0.179800 1.000000
1.000000 0.179800 1.000000
0.000000 0.396872 1.000000
0.071500 0.345946 1.000000
0.214000 0.334572 1.000000
0.361078 0.322300 1.000000
0.522651 0.322300 1.000000
0.684224 0.322300 1.000000
0.845797 0.322300 1.000000
1.000000 0.322300 1.000000
1.000000 0.322300 1.000000
0.000000 0.540666 1.000000
0.071500 0.501882 1.000000
0.214000 0.493219 1.000000
0.356500 0.480175 1.000000
0.505011 0.464800 1.000000
0.672554 0.464800 1.000000
0.840098 0.464800 1.000000
1.000000 0.464800 1.000000
1.000000 0.464800 1.000000
0.000000 0.684460 1.000000
0.071500 0.657817 1.000000
0.214000 0.651867 1.000000
0.356500 0.642906 1.000000
0.499000 0.627880 1.000000
0.650250 0.607300 1.000000
0.829206 0.607300 1.000000
1.000000 0.607300 1.000000
1.000000 0.607300 1.000000
0.000000 0.828254 1.000000
0.071500 0.813753 1.000000
0.214000 0.810514 1.000000
0.356500 0.805637 1.000000
0.499000 0.797458 1.000000
0.641500 0.780910 1.000000
0.800075 0.749800 1.000000
1.000000 0.749800 1.000000
1.000000 0.749800 1.000000
0.000000 0.972048 1.000000
0.071500 0.969688 1.000000
0.214000 0.969161 1.000000
0.356500 0.968367 1.000000
0.499000 0.967036 1.000000
0.641500 0.964343 1.000000
0.784000 0.956006 1.000000
1.000000 0.892300 1.000000
1.000000 0.892300 1.000000
0.000000 1.000000 1.000000
0.071500 1.000000 1.000000
0.214000 1.000000 1.000000
0.356500 1.000000 1.000000
0.499000 1.000000 1.000000
0.641500 1.000000 1.000000
0.784000 1.000000 1.000000
1.000000 0.920000 0.920000
1.000000 0.920000 0.920000
