luts/original/alt-indie-soft.cube
TITLE "Alt Indie Soft"
LUT_3D_SIZE 9
DOMAIN_MIN 0.0 0.0 0.0
DOMAIN_MAX 1.0 1.0 1.0
0.028000 0.021000 0.014000
0.156266 0.030468 0.021843
0.283312 0.039821 0.029571
0.409141 0.050320 0.038445
0.533750 0.061965 0.048465
0.657141 0.074755 0.059630
0.779312 0.088691 0.071941
0.900266 0.103773 0.085398
1.000000 0.120000 0.100000
0.039093 0.147641 0.021843
0.156266 0.147641 0.021843
0.283312 0.156442 0.029571
0.409141 0.165969 0.038445
0.533750 0.176536 0.048465
0.657141 0.188207 0.059630
0.779312 0.201003 0.071941
0.900266 0.214933 0.085398
1.000000 0.230000 0.100000
0.050071 0.273062 0.029571
0.166692 0.273062 0.029571
0.283312 0.273062 0.029571
0.409141 0.281617 0.038445
0.533750 0.291108 0.048465
0.657141 0.301659 0.059630
0.779312 0.313315 0.071941
0.900266 0.326092 0.085398
1.000000 0.340000 0.100000
0.062195 0.397266 0.038445
0.177844 0.397266 0.038445
0.293492 0.397266 0.038445
0.409141 0.397266 0.038445
0.533750 0.405679 0.048465
0.657141 0.415112 0.059630
0.779312 0.425627 0.071941
0.900266 0.437252 0.085398
1.000000 0.450000 0.100000
0.075465 0.520250 0.048465
0.190036 0.520250 0.048465
0.304608 0.520250 0.048465
0.419179 0.520250 0.048465
0.533750 0.520250 0.048465
0.657141 0.528564 0.059630
0.779312 0.537939 0.071941
0.900266 0.548412 0.085398
1.000000 0.560000 0.100000
0.089880 0.642016 0.059630
0.203332 0.642016 0.059630
0.316784 0.642016 0.059630
0.430236 0.642016 0.059630
0.543689 0.642016 0.059630
0.657141 0.642016 0.059630
0.779312 0.650251 0.071941
0.900266 0.659571 0.085398
1.000000 0.670000 0.100000
0.105441 0.762563 0.071941
0.217753 0.762563 0.071941
0.330065 0.762563 0.071941
0.442377 0.762563 0.071941
0.554689 0.762563 0.071941
0.667001 0.762563 0.071941
0.779312 0.762563 0.071941
0.900266 0.770731 0.085398
1.000000 0.780000 0.100000
0.122148 0.881891 0.085398
0.233307 0.881891 0.085398
0.344467 0.881891 0.085398
0.455627 0.881891 0.085398
0.566787 0.881891 0.085398
0.677946 0.881891 0.085398
0.789106 0.881891 0.085398
0.900266 0.881891 0.085398
1.000000 0.890000 0.100000
0.140000 1.000000 0.100000
0.250000 1.000000 0.100000
0.360000 1.000000 0.100000
0.470000 1.000000 0.100000
0.580000 1.000000 0.100000
0.690000 1.000000 0.100000
0.800000 1.000000 0.100000
0.910000 1.000000 0.100000
1.000000 1.000000 0.100000
0.039093 0.030468 0.139016
0.156266 0.030468 0.139016
0.283312 0.039821 0.146192
0.409141 0.050320 0.154094
0.533750 0.061965 0.163036
0.657141 0.074755 0.173082
0.779312 0.088691 0.184253
0.900266 0.103773 0.196558
1.000000 0.120000 0.210000
0.039093 0.147641 0.139016
0.156266 0.147641 0.139016
0.283312 0.160977 0.150727
0.409141 0.170867 0.158992
0.533750 0.181902 0.168402
0.657141 0.194083 0.178958
0.779312 0.207410 0.190660
0.900266 0.221882 0.203507
1.000000 0.237500 0.217500
0.050071 0.273062 0.146192
0.171227 0.273062 0.150727
0.283312 0.273062 0.150727
0.409141 0.284066 0.158992
0.533750 0.294685 0.168402
0.657141 0.306066 0.178958
0.779312 0.318440 0.190660
0.900266 0.331884 0.203507
1.000000 0.346429 0.217500
0.062195 0.397266 0.154094
0.182742 0.397266 0.158992
0.295941 0.397266 0.158992
0.409141 0.397266 0.158992
0.533750 0.407468 0.168402
0.657141 0.418050 0.178958
0.779312 0.429471 0.190660
0.900266 0.441885 0.203507
1.000000 0.455357 0.217500
0.075465 0.520250 0.163036
0.195403 0.520250 0.168402
0.308185 0.520250 0.168402
0.420967 0.520250 0.168402
0.533750 0.520250 0.168402
0.657141 0.530033 0.178958
0.779312 0.540501 0.190660
0.900266 0.551886 0.203507
1.000000 0.564286 0.217500
0.089880 0.642016 0.173082
0.209208 0.642016 0.178958
0.321191 0.642016 0.178958
0.433175 0.642016 0.178958
0.545158 0.642016 0.178958
0.657141 0.642016 0.178958
0.779312 0.651532 0.190660
0.900266 0.661888 0.203507
1.000000 0.673214 0.217500
0.105441 0.762563 0.184253
0.224160 0.762563 0.190660
0.335191 0.762563 0.190660
0.446221 0.762563 0.190660
0.557252 0.762563 0.190660
0.668282 0.762563 0.190660
0.779312 0.762563 0.190660
0.900266 0.771889 0.203507
1.000000 0.782143 0.217500
0.122148 0.881891 0.196558
0.240257 0.881891 0.203507
0.350259 0.881891 0.203507
0.460260 0.881891 0.203507
0.570261 0.881891 0.203507
0.680263 0.881891 0.203507
0.790264 0.881891 0.203507
0.900266 0.881891 0.203507
1.000000 0.891071 0.217500
0.140000 1.000000 0.210000
0.257500 1.000000 0.217500
0.366429 1.000000 0.217500
0.475357 1.000000 0.217500
0.584286 1.000000 0.217500
0.693214 1.000000 0.217500
0.802143 1.000000 0.217500
0.911071 1.000000 0.217500
1.000000 1.000000 0.217500
0.050071 0.039821 0.262812
0.166692 0.039821 0.262812
0.283312 0.039821 0.262812
0.409141 0.050320 0.269742
0.533750 0.061965 0.277608
0.657141 0.074755 0.286534
0.779312 0.088691 0.296565
0.900266 0.103773 0.307717
1.000000 0.120000 0.320000
0.050071 0.156442 0.262812
0.171227 0.160977 0.262812
0.283312 0.160977 0.262812
0.409141 0.170867 0.272191
0.533750 0.181902 0.281185
0.657141 0.194083 0.290941
0.779312 0.207410 0.301690
0.900266 0.221882 0.313509
1.000000 0.237500 0.326429
0.050071 0.273062 0.262812
0.171227 0.273062 0.262812
0.283312 0.273062 0.262812
0.409141 0.291414 0.279539
0.533750 0.301840 0.288340
0.657141 0.313412 0.298287
0.779312 0.326129 0.309379
0.900266 0.339992 0.321617
1.000000 0.355000 0.335000
0.062195 0.397266 0.269742
0.182742 0.397266 0.272191
0.303289 0.397266 0.279539
0.409141 0.397266 0.279539
0.533750 0.411045 0.288340
0.657141 0.422946 0.298287
0.779312 0.435237 0.309379
0.900266 0.448371 0.321617
1.000000 0.462500 0.335000
0.075465 0.520250 0.277608
0.195403 0.520250 0.281185
0.315340 0.520250 0.288340
0.424545 0.520250 0.288340
0.533750 0.520250 0.288340
0.657141 0.532481 0.298287
0.779312 0.544346 0.309379
0.900266 0.556751 0.321617
1.000000 0.570000 0.335000
0.089880 0.642016 0.286534
0.209208 0.642016 0.290941
0.328537 0.642016 0.298287
0.438071 0.642016 0.298287
0.547606 0.642016 0.298287
0.657141 0.642016 0.298287
0.779312 0.653454 0.309379
0.900266 0.665131 0.321617
1.000000 0.677500 0.335000
0.105441 0.762563 0.296565
0.224160 0.762563 0.301690
0.342879 0.762563 0.309379
0.451987 0.762563 0.309379
0.561096 0.762563 0.309379
0.670204 0.762563 0.309379
0.779312 0.762563 0.309379
0.900266 0.773511 0.321617
1.000000 0.785000 0.335000
0.122148 0.881891 0.307717
0.240257 0.881891 0.313509
0.358367 0.881891 0.321617
0.466746 0.881891 0.321617
0.575126 0.881891 0.321617
0.683506 0.881891 0.321617
0.791886 0.881891 0.321617
0.900266 0.881891 0.321617
1.000000 0.892500 0.335000
0.140000 1.000000 0.320000
0.257500 1.000000 0.326429
0.375000 1.000000 0.335000
0.482500 1.000000 0.335000
0.590000 1.000000 0.335000
0.697500 1.000000 0.335000
0.805000 1.000000 0.335000
0.912500 1.000000 0.335000
1.000000 1.000000 0.335000
0.062195 0.050320 0.385391
0.177844 0.050320 0.385391
0.293492 0.050320 0.385391
0.409141 0.050320 0.385391
0.533750 0.061965 0.392179
0.657141 0.074755 0.399987
0.779312 0.088691 0.408877
0.900266 0.103773 0.418877
1.000000 0.120000 0.430000
0.062195 0.165969 0.385391
0.182742 0.170867 0.385391
0.295941 0.170867 0.385391
0.409141 0.170867 0.385391
0.533750 0.181902 0.393968
0.657141 0.194083 0.402925
0.779312 0.207410 0.412721
0.900266 0.221882 0.423510
1.000000 0.237500 0.435357
0.062195 0.281617 0.385391
0.182742 0.284066 0.385391
0.303289 0.291414 0.385391
0.409141 0.291414 0.385391
0.533750 0.301840 0.397545
0.657141 0.313412 0.407821
0.779312 0.326129 0.418487
0.900266 0.339992 0.429996
1.000000 0.355000 0.442500
0.062195 0.397266 0.385391
0.182742 0.397266 0.385391
0.303289 0.397266 0.385391
0.409141 0.397266 0.385391
0.533750 0.421777 0.408278
0.657141 0.432740 0.417615
0.779312 0.444847 0.428097
0.900266 0.458101 0.439726
1.000000 0.472500 0.452500
0.075465 0.520250 0.392179
0.195403 0.520250 0.393968
0.315340 0.520250 0.397545
0.435277 0.520250 0.408278
0.533750 0.520250 0.408278
0.657141 0.537378 0.417615
0.779312 0.550753 0.428097
0.900266 0.564048 0.439726
1.000000 0.578000 0.452500
0.089880 0.642016 0.399987
0.209208 0.642016 0.402925
0.328537 0.642016 0.407821
0.447865 0.642016 0.417615
0.552503 0.642016 0.417615
0.657141 0.642016 0.417615
0.779312 0.656658 0.428097
0.900266 0.669996 0.439726
1.000000 0.683500 0.452500
0.105441 0.762563 0.408877
0.224160 0.762563 0.412721
0.342879 0.762563 0.418487
0.461598 0.762563 0.428097
0.567502 0.762563 0.428097
0.673407 0.762563 0.428097
0.779312 0.762563 0.428097
0.900266 0.775943 0.439726
1.000000 0.789000 0.452500
0.122148 0.881891 0.418877
0.240257 0.881891 0.423510
0.358367 0.881891 0.429996
0.476476 0.881891 0.439726
0.582423 0.881891 0.439726
0.688371 0.881891 0.439726
0.794318 0.881891 0.439726
0.900266 0.881891 0.439726
1.000000 0.894500 0.452500
0.140000 1.000000 0.430000
0.257500 1.000000 0.435357
0.375000 1.000000 0.442500
0.492500 1.000000 0.452500
0.598000 1.000000 0.452500
0.703500 1.000000 0.452500
0.809000 1.000000 0.452500
0.914500 1.000000 0.452500
1.000000 1.000000 0.452500
0.075465 0.061965 0.506750
0.190036 0.061965 0.506750
0.304608 0.061965 0.506750
0.419179 0.061965 0.506750
0.533750 0.061965 0.506750
0.657141 0.074755 0.513439
0.779312 0.088691 0.521189
0.900266 0.103773 0.530037
1.000000 0.120000 0.540000
0.075465 0.176536 0.506750
0.195403 0.181902 0.506750
0.308185 0.181902 0.506750
0.420967 0.181902 0.506750
0.533750 0.181902 0.506750
0.657141 0.194083 0.514908
0.779312 0.207410 0.523751
0.900266 0.221882 0.533511
1.000000 0.237500 0.544286
0.075465 0.291108 0.506750
0.195403 0.294685 0.506750
0.315340 0.301840 0.506750
0.424545 0.301840 0.506750
0.533750 0.301840 0.506750
0.657141 0.313412 0.517356
0.779312 0.326129 0.527596
0.900266 0.339992 0.538376
1.000000 0.355000 0.550000
0.075465 0.405679 0.506750
0.195403 0.407468 0.506750
0.315340 0.411045 0.506750
0.435277 0.421777 0.506750
0.533750 0.421777 0.506750
0.657141 0.432740 0.522253
0.779312 0.444847 0.534002
0.900266 0.458101 0.545673
1.000000 0.472500 0.558000
0.075465 0.520250 0.506750
0.195403 0.520250 0.506750
0.315340 0.520250 0.506750
0.435277 0.520250 0.506750
0.533750 0.520250 0.506750
0.657141 0.552068 0.536943
0.779312 0.563566 0.546816
0.900266 0.576210 0.557835
1.000000 0.590000 0.570000
0.089880 0.642016 0.513439
0.209208 0.642016 0.514908
0.328537 0.642016 0.517356
0.447865 0.642016 0.522253
0.567193 0.642016 0.536943
0.657141 0.642016 0.536943
0.779312 0.663064 0.546816
0.900266 0.678104 0.557835
1.000000 0.692500 0.570000
0.105441 0.762563 0.521189
0.224160 0.762563 0.523751
0.342879 0.762563 0.527596
0.461598 0.762563 0.534002
0.580316 0.762563 0.546816
0.679814 0.762563 0.546816
0.779312 0.762563 0.546816
0.900266 0.779997 0.557835
1.000000 0.795000 0.570000
0.122148 0.881891 0.530037
0.240257 0.881891 0.533511
0.358367 0.881891 0.538376
0.476476 0.881891 0.545673
0.594585 0.881891 0.557835
0.696479 0.881891 0.557835
0.798372 0.881891 0.557835
0.900266 0.881891 0.557835
1.000000 0.897500 0.570000
0.140000 1.000000 0.540000
0.257500 1.000000 0.544286
0.375000 1.000000 0.550000
0.492500 1.000000 0.558000
0.610000 1.000000 0.570000
0.712500 1.000000 0.570000
0.815000 1.000000 0.570000
0.917500 1.000000 0.570000
1.000000 1.000000 0.570000
0.089880 0.074755 0.626891
0.203332 0.074755 0.626891
0.316784 0.074755 0.626891
0.430236 0.074755 0.626891
0.543689 0.074755 0.626891
0.657141 0.074755 0.626891
0.779312 0.088691 0.633501
0.900266 0.103773 0.641196
1.000000 0.120000 0.650000
0.089880 0.188207 0.626891
0.209208 0.194083 0.626891
0.321191 0.194083 0.626891
0.433175 0.194083 0.626891
0.545158 0.194083 0.626891
0.657141 0.194083 0.626891
0.779312 0.207410 0.634782
0.900266 0.221882 0.643513
1.000000 0.237500 0.653214
0.089880 0.301659 0.626891
0.209208 0.306066 0.626891
0.328537 0.313412 0.626891
0.438071 0.313412 0.626891
0.547606 0.313412 0.626891
0.657141 0.313412 0.626891
0.779312 0.326129 0.636704
0.900266 0.339992 0.646756
1.000000 0.355000 0.657500
0.089880 0.415112 0.626891
0.209208 0.418050 0.626891
0.328537 0.422946 0.626891
0.447865 0.432740 0.626891
0.552503 0.432740 0.626891
0.657141 0.432740 0.626891
0.779312 0.444847 0.639907
0.900266 0.458101 0.651621
1.000000 0.472500 0.663500
0.089880 0.528564 0.626891
0.209208 0.530033 0.626891
0.328537 0.532481 0.626891
0.447865 0.537378 0.626891
0.567193 0.552068 0.626891
0.657141 0.552068 0.626891
0.779312 0.563566 0.646314
0.900266 0.576210 0.659729
1.000000 0.590000 0.672500
0.089880 0.642016 0.626891
0.209208 0.642016 0.626891
0.328537 0.642016 0.626891
0.447865 0.642016 0.626891
0.567193 0.642016 0.626891
0.657141 0.642016 0.626891
0.779312 0.682285 0.665535
0.900266 0.694320 0.675945
1.000000 0.707500 0.687500
0.105441 0.762563 0.633501
0.224160 0.762563 0.634782
0.342879 0.762563 0.636704
0.461598 0.762563 0.639907
0.580316 0.762563 0.646314
0.699035 0.762563 0.665535
0.779312 0.762563 0.665535
0.900266 0.788105 0.675945
1.000000 0.805000 0.687500
0.122148 0.881891 0.641196
0.240257 0.881891 0.643513
0.358367 0.881891 0.646756
0.476476 0.881891 0.651621
0.594585 0.881891 0.659729
0.712695 0.881891 0.675945
0.806480 0.881891 0.675945
0.900266 0.881891 0.675945
1.000000 0.902500 0.687500
0.140000 1.000000 0.650000
0.257500 1.000000 0.653214
0.375000 1.000000 0.657500
0.492500 1.000000 0.663500
0.610000 1.000000 0.672500
0.727500 1.000000 0.687500
0.825000 1.000000 0.687500
0.922500 1.000000 0.687500
1.000000 1.000000 0.687500
0.105441 0.088691 0.745812
0.217753 0.088691 0.745812
0.330065 0.088691 0.745812
0.442377 0.088691 0.745812
0.554689 0.088691 0.745812
0.667001 0.088691 0.745812
0.779312 0.088691 0.745812
0.900266 0.103773 0.752356
1.000000 0.120000 0.760000
0.105441 0.201003 0.745812
0.224160 0.207410 0.745812
0.335191 0.207410 0.745812
0.446221 0.207410 0.745812
0.557252 0.207410 0.745812
0.668282 0.207410 0.745812
0.779312 0.207410 0.745812
0.900266 0.221882 0.753514
1.000000 0.237500 0.762143
0.105441 0.313315 0.745812
0.224160 0.318440 0.745812
0.342879 0.326129 0.745812
0.451987 0.326129 0.745812
0.561096 0.326129 0.745812
0.670204 0.326129 0.745812
0.779312 0.326129 0.745812
0.900266 0.339992 0.755136
1.000000 0.355000 0.765000
0.105441 0.425627 0.745812
0.224160 0.429471 0.745812
0.342879 0.435237 0.745812
0.461598 0.444847 0.745812
0.567502 0.444847 0.745812
0.673407 0.444847 0.745812
0.779312 0.444847 0.745812
0.900266 0.458101 0.757568
1.000000 0.472500 0.769000
0.105441 0.537939 0.745812
0.224160 0.540501 0.745812
0.342879 0.544346 0.745812
0.461598 0.550753 0.745812
0.580316 0.563566 0.745812
0.679814 0.563566 0.745812
0.779312 0.563566 0.745812
0.900266 0.576210 0.761622
1.000000 0.590000 0.775000
0.105441 0.650251 0.745812
0.224160 0.651532 0.745812
0.342879 0.653454 0.745812
0.461598 0.656658 0.745812
0.580316 0.663064 0.745812
0.699035 0.682285 0.745812
0.779312 0.682285 0.745812
0.900266 0.694320 0.769730
1.000000 0.707500 0.785000
0.105441 0.762563 0.745812
0.224160 0.762563 0.745812
0.342879 0.762563 0.745812
0.461598 0.762563 0.745812
0.580316 0.762563 0.745812
0.699035 0.762563 0.745812
0.779312 0.762563 0.745812
0.900266 0.812429 0.794054
1.000000 0.825000 0.805000
0.122148 0.881891 0.752356
0.240257 0.881891 0.753514
0.358367 0.881891 0.755136
0.476476 0.881891 0.757568
0.594585 0.881891 0.761622
0.712695 0.881891 0.769730
0.830804 0.881891 0.794054
0.900266 0.881891 0.794054
1.000000 0.912500 0.805000
0.140000 1.000000 0.760000
0.257500 1.000000 0.762143
0.375000 1.000000 0.765000
0.492500 1.000000 0.769000
0.610000 1.000000 0.775000
0.727500 1.000000 0.785000
0.845000 1.000000 0.805000
0.932500 1.000000 0.805000
1.000000 1.000000 0.805000
0.122148 0.103773 0.863516
0.233307 0.103773 0.863516
0.344467 0.103773 0.863516
0.455627 0.103773 0.863516
0.566787 0.103773 0.863516
0.677946 0.103773 0.863516
0.789106 0.103773 0.863516
0.900266 0.103773 0.863516
1.000000 0.120000 0.870000
0.122148 0.214933 0.863516
0.240257 0.221882 0.863516
0.350259 0.221882 0.863516
0.460260 0.221882 0.863516
0.570261 0.221882 0.863516
0.680263 0.221882 0.863516
0.790264 0.221882 0.863516
0.900266 0.221882 0.863516
1.000000 0.237500 0.871071
0.122148 0.326092 0.863516
0.240257 0.331884 0.863516
0.358367 0.339992 0.863516
0.466746 0.339992 0.863516
0.575126 0.339992 0.863516
0.683506 0.339992 0.863516
0.791886 0.339992 0.863516
0.900266 0.339992 0.863516
1.000000 0.355000 0.872500
0.122148 0.437252 0.863516
0.240257 0.441885 0.863516
0.358367 0.448371 0.863516
0.476476 0.458101 0.863516
0.582423 0.458101 0.863516
0.688371 0.458101 0.863516
0.794318 0.458101 0.863516
0.900266 0.458101 0.863516
1.000000 0.472500 0.874500
0.122148 0.548412 0.863516
0.240257 0.551886 0.863516
0.358367 0.556751 0.863516
0.476476 0.564048 0.863516
0.594585 0.576210 0.863516
0.696479 0.576210 0.863516
0.798372 0.576210 0.863516
0.900266 0.576210 0.863516
1.000000 0.590000 0.877500
0.122148 0.659571 0.863516
0.240257 0.661888 0.863516
0.358367 0.665131 0.863516
0.476476 0.669996 0.863516
0.594585 0.678104 0.863516
0.712695 0.694320 0.863516
0.806480 0.694320 0.863516
0.900266 0.694320 0.863516
1.000000 0.707500 0.882500
0.122148 0.770731 0.863516
0.240257 0.771889 0.863516
0.358367 0.773511 0.863516
0.476476 0.775943 0.863516
0.594585 0.779997 0.863516
0.712695 0.788105 0.863516
0.830804 0.812429 0.863516
0.900266 0.812429 0.863516
1.000000 0.825000 0.892500
0.122148 0.881891 0.863516
0.240257 0.881891 0.863516
0.358367 0.881891 0.863516
0.476476 0.881891 0.863516
0.594585 0.881891 0.863516
0.712695 0.881891 0.863516
0.830804 0.881891 0.863516
0.900266 0.881891 0.863516
1.000000 0.942500 0.922500
0.140000 1.000000 0.870000
0.257500 1.000000 0.871071
0.375000 1.000000 0.872500
0.492500 1.000000 0.874500
0.610000 1.000000 0.877500
0.727500 1.000000 0.882500
0.845000 1.000000 0.892500
0.962500 1.000000 0.922500
1.000000 1.000000 0.922500
0.140000 0.120000 0.980000
0.250000 0.120000 0.980000
0.360000 0.120000 0.980000
0.470000 0.120000 0.980000
0.580000 0.120000 0.980000
0.690000 0.120000 0.980000
0.800000 0.120000 0.980000
0.910000 0.120000 0.980000
1.000000 0.120000 0.980000
0.140000 0.230000 0.980000
0.257500 0.237500 0.980000
0.366429 0.237500 0.980000
0.475357 0.237500 0.980000
0.584286 0.237500 0.980000
0.693214 0.237500 0.980000
0.802143 0.237500 0.980000
0.911071 0.237500 0.980000
1.000000 0.237500 0.980000
0.140000 0.340000 0.980000
0.257500 0.346429 0.980000
0.375000 0.355000 0.980000
0.482500 0.355000 0.980000
0.590000 0.355000 0.980000
0.697500 0.355000 0.980000
0.805000 0.355000 0.980000
0.912500 0.355000 0.980000
1.000000 0.355000 0.980000
0.140000 0.450000 0.980000
0.257500 0.455357 0.980000
0.375000 0.462500 0.980000
0.492500 0.472500 0.980000
0.598000 0.472500 0.980000
0.703500 0.472500 0.980000
0.809000 0.472500 0.980000
0.914500 0.472500 0.980000
1.000000 0.472500 0.980000
0.140000 0.560000 0.980000
0.257500 0.564286 0.980000
0.375000 0.570000 0.980000
0.492500 0.578000 0.980000
0.610000 0.590000 0.980000
0.712500 0.590000 0.980000
0.815000 0.590000 0.980000
0.917500 0.590000 0.980000
1.000000 0.590000 0.980000
0.140000 0.670000 0.980000
0.257500 0.673214 0.980000
0.375000 0.677500 0.980000
0.492500 0.683500 0.980000
0.610000 0.692500 0.980000
0.727500 0.707500 0.980000
0.825000 0.707500 0.980000
0.922500 0.707500 0.980000
1.000000 0.707500 0.980000
0.140000 0.780000 0.980000
0.257500 0.782143 0.980000
0.375000 0.785000 0.980000
0.492500 0.789000 0.980000
0.610000 0.795000 0.980000
0.727500 0.805000 0.980000
0.845000 0.825000 0.980000
0.932500 0.825000 0.980000
1.000000 0.825000 0.980000
0.140000 0.890000 0.980000
0.257500 0.891071 0.980000
0.375000 0.892500 0.980000
0.492500 0.894500 0.980000
0.610000 0.897500 0.980000
0.727500 0.902500 0.980000
0.845000 0.912500 0.980000
0.962500 0.942500 0.980000
1.000000 0.942500 0.980000
0.140000 1.000000 0.980000
0.257500 1.000000 0.980000
0.375000 1.000000 0.980000
0.492500 1.000000 0.980000
0.610000 1.000000 0.980000
0.727500 1.000000 0.980000
0.845000 1.000000 0.980000
0.962500 1.000000 0.980000
1.000000 1.000000 0.980000
