luts/original/alt-indie-soft.cube
TITLE "Alt Indie Soft"
LUT_3D_SIZE 33
DOMAIN_MIN 0.0 0.0 0.0
DOMAIN_MAX 1.0 1.0 1.0
0.028000 0.021000 0.014000
0.060181 0.024205 0.016798
0.092285 0.026221 0.018408
0.124313 0.028308 0.020090
0.156266 0.030468 0.021843
0.188142 0.032699 0.023668
0.219941 0.035001 0.025564
0.251665 0.037375 0.027532
0.283312 0.039821 0.029571
0.314884 0.042339 0.031682
0.346379 0.044928 0.033865
0.377798 0.047588 0.036119
0.409141 0.050320 0.038445
0.440407 0.053124 0.040843
0.471598 0.055999 0.043312
0.502712 0.058946 0.045853
0.533750 0.061965 0.048465
0.564712 0.065055 0.051149
0.595598 0.068217 0.053904
0.626407 0.071450 0.056732
0.657141 0.074755 0.059630
0.687798 0.078132 0.062601
0.718379 0.081580 0.065643
0.748884 0.085100 0.068756
0.779312 0.088691 0.071941
0.809665 0.092354 0.075198
0.839941 0.096089 0.078526
0.870142 0.099895 0.081926
0.900266 0.103773 0.085398
0.930313 0.107722 0.088941
0.960285 0.111743 0.092556
0.990181 0.115836 0.096242
1.000000 0.120000 0.100000
0.031611 0.052774 0.016798
0.060181 0.052774 0.016798
0.092285 0.055347 0.018408
0.124313 0.057571 0.020090
0.156266 0.059761 0.021843
0.188142 0.061981 0.023668
0.219941 0.064252 0.025564
0.251665 0.066582 0.027532
0.283312 0.068976 0.029571
0.314884 0.071437 0.031682
0.346379 0.073966 0.033865
0.377798 0.076565 0.036119
0.409141 0.079232 0.038445
0.440407 0.081970 0.040843
0.471598 0.084779 0.043312
0.502712 0.087658 0.045853
0.533750 0.090608 0.048465
0.564712 0.093629 0.051149
0.595598 0.096721 0.053904
0.626407 0.099884 0.056732
0.657141 0.103118 0.059630
0.687798 0.106424 0.062601
0.718379 0.109801 0.065643
0.748884 0.113249 0.068756
0.779312 0.116769 0.071941
0.809665 0.120360 0.075198
0.839941 0.124023 0.078526
0.870142 0.127757 0.081926
0.900266 0.131563 0.085398
0.930313 0.135440 0.088941
0.960285 0.139388 0.092556
0.990181 0.143408 0.096242
1.000000 0.147500 0.100000
0.034033 0.084473 0.018408
0.063159 0.084473 0.018408
0.092285 0.084473 0.018408
0.124313 0.086833 0.020090
0.156266 0.089054 0.021843
0.188142 0.091263 0.023668
0.219941 0.093502 0.025564
0.251665 0.095789 0.027532
0.283312 0.098132 0.029571
0.314884 0.100536 0.031682
0.346379 0.103005 0.033865
0.377798 0.105541 0.036119
0.409141 0.108145 0.038445
0.440407 0.110817 0.040843
0.471598 0.113558 0.043312
0.502712 0.116369 0.045853
0.533750 0.119251 0.048465
0.564712 0.122202 0.051149
0.595598 0.125225 0.053904
0.626407 0.128318 0.056732
0.657141 0.131481 0.059630
0.687798 0.134716 0.062601
0.718379 0.138022 0.065643
0.748884 0.141399 0.068756
0.779312 0.144847 0.071941
0.809665 0.148367 0.075198
0.839941 0.151957 0.078526
0.870142 0.155619 0.081926
0.900266 0.159353 0.085398
0.930313 0.163157 0.088941
0.960285 0.167033 0.092556
0.990181 0.170981 0.096242
1.000000 0.175000 0.100000
0.036527 0.116095 0.020090
0.065789 0.116095 0.020090
0.095051 0.116095 0.020090
0.124313 0.116095 0.020090
0.156266 0.118347 0.021843
0.188142 0.120546 0.023668
0.219941 0.122753 0.025564
0.251665 0.124995 0.027532
0.283312 0.127287 0.029571
0.314884 0.129635 0.031682
0.346379 0.132044 0.033865
0.377798 0.134517 0.036119
0.409141 0.137057 0.038445
0.440407 0.139663 0.040843
0.471598 0.142337 0.043312
0.502712 0.145081 0.045853
0.533750 0.147893 0.048465
0.564712 0.150776 0.051149
0.595598 0.153728 0.053904
0.626407 0.156751 0.056732
0.657141 0.159844 0.059630
0.687798 0.163008 0.062601
0.718379 0.166243 0.065643
0.748884 0.169549 0.068756
0.779312 0.172925 0.071941
0.809665 0.176373 0.075198
0.839941 0.179892 0.078526
0.870142 0.183481 0.081926
0.900266 0.187143 0.085398
0.930313 0.190875 0.088941
0.960285 0.194679 0.092556
0.990181 0.198554 0.096242
1.000000 0.202500 0.100000
0.039093 0.147641 0.021843
0.068386 0.147641 0.021843
0.097679 0.147641 0.021843
0.126972 0.147641 0.021843
0.156266 0.147641 0.021843
0.188142 0.149828 0.023668
0.219941 0.152003 0.025564
0.251665 0.154202 0.027532
0.283312 0.156442 0.029571
0.314884 0.158734 0.031682
0.346379 0.161083 0.033865
0.377798 0.163494 0.036119
0.409141 0.165969 0.038445
0.440407 0.168509 0.040843
0.471598 0.171117 0.043312
0.502712 0.173792 0.045853
0.533750 0.176536 0.048465
0.564712 0.179349 0.051149
0.595598 0.182232 0.053904
0.626407 0.185185 0.056732
0.657141 0.188207 0.059630
0.687798 0.191300 0.062601
0.718379 0.194464 0.065643
0.748884 0.197698 0.068756
0.779312 0.201003 0.071941
0.809665 0.204379 0.075198
0.839941 0.207826 0.078526
0.870142 0.211344 0.081926
0.900266 0.214933 0.085398
0.930313 0.218593 0.088941
0.960285 0.222324 0.092556
0.990181 0.226126 0.096242
1.000000 0.230000 0.100000
0.041730 0.179110 0.023668
0.071012 0.179110 0.023668
0.100295 0.179110 0.023668
0.129577 0.179110 0.023668
0.158859 0.179110 0.023668
0.188142 0.179110 0.023668
0.219941 0.181253 0.025564
0.251665 0.183408 0.027532
0.283312 0.185597 0.029571
0.314884 0.187832 0.031682
0.346379 0.190122 0.033865
0.377798 0.192470 0.036119
0.409141 0.194881 0.038445
0.440407 0.197356 0.040843
0.471598 0.199896 0.043312
0.502712 0.202504 0.045853
0.533750 0.205179 0.048465
0.564712 0.207923 0.051149
0.595598 0.210736 0.053904
0.626407 0.213618 0.056732
0.657141 0.216570 0.059630
0.687798 0.219593 0.062601
0.718379 0.222685 0.065643
0.748884 0.225848 0.068756
0.779312 0.229081 0.071941
0.809665 0.232385 0.075198
0.839941 0.235760 0.078526
0.870142 0.239206 0.081926
0.900266 0.242722 0.085398
0.930313 0.246310 0.088941
0.960285 0.249969 0.092556
0.990181 0.253699 0.096242
1.000000 0.257500 0.100000
0.044439 0.210504 0.025564
0.073689 0.210504 0.025564
0.102940 0.210504 0.025564
0.132190 0.210504 0.025564
0.161441 0.210504 0.025564
0.190691 0.210504 0.025564
0.219941 0.210504 0.025564
0.251665 0.212615 0.027532
0.283312 0.214752 0.029571
0.314884 0.216931 0.031682
0.346379 0.219161 0.033865
0.377798 0.221447 0.036119
0.409141 0.223793 0.038445
0.440407 0.226202 0.040843
0.471598 0.228675 0.043312
0.502712 0.231215 0.045853
0.533750 0.233822 0.048465
0.564712 0.236497 0.051149
0.595598 0.239240 0.053904
0.626407 0.242052 0.056732
0.657141 0.244933 0.059630
0.687798 0.247885 0.062601
0.718379 0.250906 0.065643
0.748884 0.253997 0.068756
0.779312 0.257159 0.071941
0.809665 0.260391 0.075198
0.839941 0.263694 0.078526
0.870142 0.267068 0.081926
0.900266 0.270512 0.085398
0.930313 0.274028 0.088941
0.960285 0.277614 0.092556
0.990181 0.281271 0.096242
1.000000 0.285000 0.100000
0.047219 0.241821 0.027532
0.076426 0.241821 0.027532
0.105632 0.241821 0.027532
0.134839 0.241821 0.027532
0.164045 0.241821 0.027532
0.193252 0.241821 0.027532
0.222458 0.241821 0.027532
0.251665 0.241821 0.027532
0.283312 0.243907 0.029571
0.314884 0.246030 0.031682
0.346379 0.248200 0.033865
0.377798 0.250423 0.036119
0.409141 0.252705 0.038445
0.440407 0.255048 0.040843
0.471598 0.257455 0.043312
0.502712 0.259927 0.045853
0.533750 0.262465 0.048465
0.564712 0.265070 0.051149
0.595598 0.267743 0.053904
0.626407 0.270485 0.056732
0.657141 0.273296 0.059630
0.687798 0.276177 0.062601
0.718379 0.279127 0.065643
0.748884 0.282147 0.068756
0.779312 0.285237 0.071941
0.809665 0.288398 0.075198
0.839941 0.291628 0.078526
0.870142 0.294930 0.081926
0.900266 0.298302 0.085398
0.930313 0.301745 0.088941
0.960285 0.305259 0.092556
0.990181 0.308844 0.096242
1.000000 0.312500 0.100000
0.050071 0.273062 0.029571
0.079226 0.273062 0.029571
0.108382 0.273062 0.029571
0.137537 0.273062 0.029571
0.166692 0.273062 0.029571
0.195847 0.273062 0.029571
0.225002 0.273062 0.029571
0.254157 0.273062 0.029571
0.283312 0.273062 0.029571
0.314884 0.275129 0.031682
0.346379 0.277239 0.033865
0.377798 0.279400 0.036119
0.409141 0.281617 0.038445
0.440407 0.283894 0.040843
0.471598 0.286234 0.043312
0.502712 0.288638 0.045853
0.533750 0.291108 0.048465
0.564712 0.293644 0.051149
0.595598 0.296247 0.053904
0.626407 0.298919 0.056732
0.657141 0.301659 0.059630
0.687798 0.304469 0.062601
0.718379 0.307348 0.065643
0.748884 0.310296 0.068756
0.779312 0.313315 0.071941
0.809665 0.316404 0.075198
0.839941 0.319563 0.078526
0.870142 0.322792 0.081926
0.900266 0.326092 0.085398
0.930313 0.329463 0.088941
0.960285 0.332904 0.092556
0.990181 0.336417 0.096242
1.000000 0.340000 0.100000
0.052995 0.304228 0.031682
0.082094 0.304228 0.031682
0.111192 0.304228 0.031682
0.140291 0.304228 0.031682
0.169390 0.304228 0.031682
0.198489 0.304228 0.031682
0.227587 0.304228 0.031682
0.256686 0.304228 0.031682
0.285785 0.304228 0.031682
0.314884 0.304228 0.031682
0.346379 0.306278 0.033865
0.377798 0.308376 0.036119
0.409141 0.310529 0.038445
0.440407 0.312741 0.040843
0.471598 0.315013 0.043312
0.502712 0.317349 0.045853
0.533750 0.319750 0.048465
0.564712 0.322217 0.051149
0.595598 0.324751 0.053904
0.626407 0.327353 0.056732
0.657141 0.330022 0.059630
0.687798 0.332761 0.062601
0.718379 0.335569 0.065643
0.748884 0.338446 0.068756
0.779312 0.341393 0.071941
0.809665 0.344410 0.075198
0.839941 0.347497 0.078526
0.870142 0.350654 0.081926
0.900266 0.353882 0.085398
0.930313 0.357180 0.088941
0.960285 0.360550 0.092556
0.990181 0.363989 0.096242
1.000000 0.367500 0.100000
0.055990 0.335316 0.033865
0.085029 0.335316 0.033865
0.114068 0.335316 0.033865
0.143107 0.335316 0.033865
0.172146 0.335316 0.033865
0.201184 0.335316 0.033865
0.230223 0.335316 0.033865
0.259262 0.335316 0.033865
0.288301 0.335316 0.033865
0.317340 0.335316 0.033865
0.346379 0.335316 0.033865
0.377798 0.337353 0.036119
0.409141 0.339441 0.038445
0.440407 0.341587 0.040843
0.471598 0.343793 0.043312
0.502712 0.346061 0.045853
0.533750 0.348393 0.048465
0.564712 0.350791 0.051149
0.595598 0.353255 0.053904
0.626407 0.355786 0.056732
0.657141 0.358385 0.059630
0.687798 0.361053 0.062601
0.718379 0.363790 0.065643
0.748884 0.366596 0.068756
0.779312 0.369471 0.071941
0.809665 0.372416 0.075198
0.839941 0.375431 0.078526
0.870142 0.378516 0.081926
0.900266 0.381672 0.085398
0.930313 0.384898 0.088941
0.960285 0.388195 0.092556
0.990181 0.391562 0.096242
1.000000 0.395000 0.100000
0.059057 0.366329 0.036119
0.088033 0.366329 0.036119
0.117010 0.366329 0.036119
0.145986 0.366329 0.036119
0.174963 0.366329 0.036119
0.203939 0.366329 0.036119
0.232916 0.366329 0.036119
0.261892 0.366329 0.036119
0.290868 0.366329 0.036119
0.319845 0.366329 0.036119
0.348821 0.366329 0.036119
0.377798 0.366329 0.036119
0.409141 0.368354 0.038445
0.440407 0.370433 0.040843
0.471598 0.372572 0.043312
0.502712 0.374772 0.045853
0.533750 0.377036 0.048465
0.564712 0.379364 0.051149
0.595598 0.381759 0.053904
0.626407 0.384220 0.056732
0.657141 0.386748 0.059630
0.687798 0.389345 0.062601
0.718379 0.392011 0.065643
0.748884 0.394745 0.068756
0.779312 0.397549 0.071941
0.809665 0.400422 0.075198
0.839941 0.403365 0.078526
0.870142 0.406379 0.081926
0.900266 0.409462 0.085398
0.930313 0.412616 0.088941
0.960285 0.415840 0.092556
0.990181 0.419135 0.096242
1.000000 0.422500 0.100000
0.062195 0.397266 0.038445
0.091107 0.397266 0.038445
0.120020 0.397266 0.038445
0.148932 0.397266 0.038445
0.177844 0.397266 0.038445
0.206756 0.397266 0.038445
0.235668 0.397266 0.038445
0.264580 0.397266 0.038445
0.293492 0.397266 0.038445
0.322404 0.397266 0.038445
0.351316 0.397266 0.038445
0.380229 0.397266 0.038445
0.409141 0.397266 0.038445
0.440407 0.399280 0.040843
0.471598 0.401351 0.043312
0.502712 0.403484 0.045853
0.533750 0.405679 0.048465
0.564712 0.407938 0.051149
0.595598 0.410262 0.053904
0.626407 0.412653 0.056732
0.657141 0.415112 0.059630
0.687798 0.417637 0.062601
0.718379 0.420232 0.065643
0.748884 0.422895 0.068756
0.779312 0.425627 0.071941
0.809665 0.428428 0.075198
0.839941 0.431300 0.078526
0.870142 0.434241 0.081926
0.900266 0.437252 0.085398
0.930313 0.440333 0.088941
0.960285 0.443485 0.092556
0.990181 0.446707 0.096242
1.000000 0.450000 0.100000
0.065405 0.428126 0.040843
0.094252 0.428126 0.040843
0.123098 0.428126 0.040843
0.151944 0.428126 0.040843
0.180791 0.428126 0.040843
0.209637 0.428126 0.040843
0.238483 0.428126 0.040843
0.267329 0.428126 0.040843
0.296176 0.428126 0.040843
0.325022 0.428126 0.040843
0.353868 0.428126 0.040843
0.382715 0.428126 0.040843
0.411561 0.428126 0.040843
0.440407 0.428126 0.040843
0.471598 0.430131 0.043312
0.502712 0.432195 0.045853
0.533750 0.434322 0.048465
0.564712 0.436511 0.051149
0.595598 0.438766 0.053904
0.626407 0.441087 0.056732
0.657141 0.443475 0.059630
0.687798 0.445930 0.062601
0.718379 0.448453 0.065643
0.748884 0.451044 0.068756
0.779312 0.453705 0.071941
0.809665 0.456435 0.075198
0.839941 0.459234 0.078526
0.870142 0.462103 0.081926
0.900266 0.465042 0.085398
0.930313 0.468051 0.088941
0.960285 0.471130 0.092556
0.990181 0.474280 0.096242
1.000000 0.477500 0.100000
0.068687 0.458910 0.043312
0.097466 0.458910 0.043312
0.126246 0.458910 0.043312
0.155025 0.458910 0.043312
0.183804 0.458910 0.043312
0.212584 0.458910 0.043312
0.241363 0.458910 0.043312
0.270142 0.458910 0.043312
0.298922 0.458910 0.043312
0.327701 0.458910 0.043312
0.356480 0.458910 0.043312
0.385260 0.458910 0.043312
0.414039 0.458910 0.043312
0.442818 0.458910 0.043312
0.471598 0.458910 0.043312
0.502712 0.460907 0.045853
0.533750 0.462964 0.048465
0.564712 0.465085 0.051149
0.595598 0.467270 0.053904
0.626407 0.469521 0.056732
0.657141 0.471838 0.059630
0.687798 0.474222 0.062601
0.718379 0.476674 0.065643
0.748884 0.479194 0.068756
0.779312 0.481783 0.071941
0.809665 0.484441 0.075198
0.839941 0.487168 0.078526
0.870142 0.489965 0.081926
0.900266 0.492832 0.085398
0.930313 0.495768 0.088941
0.960285 0.498775 0.092556
0.990181 0.501852 0.096242
1.000000 0.505000 0.100000
0.072040 0.489618 0.045853
0.100752 0.489618 0.045853
0.129463 0.489618 0.045853
0.158175 0.489618 0.045853
0.186886 0.489618 0.045853
0.215597 0.489618 0.045853
0.244309 0.489618 0.045853
0.273020 0.489618 0.045853
0.301732 0.489618 0.045853
0.330443 0.489618 0.045853
0.359155 0.489618 0.045853
0.387866 0.489618 0.045853
0.416578 0.489618 0.045853
0.445289 0.489618 0.045853
0.474000 0.489618 0.045853
0.502712 0.489618 0.045853
0.533750 0.491607 0.048465
0.564712 0.493659 0.051149
0.595598 0.495774 0.053904
0.626407 0.497954 0.056732
0.657141 0.500201 0.059630
0.687798 0.502514 0.062601
0.718379 0.504895 0.065643
0.748884 0.507343 0.068756
0.779312 0.509861 0.071941
0.809665 0.512447 0.075198
0.839941 0.515102 0.078526
0.870142 0.517827 0.081926
0.900266 0.520622 0.085398
0.930313 0.523486 0.088941
0.960285 0.526420 0.092556
0.990181 0.529425 0.096242
1.000000 0.532500 0.100000
0.075465 0.520250 0.048465
0.104108 0.520250 0.048465
0.132751 0.520250 0.048465
0.161393 0.520250 0.048465
0.190036 0.520250 0.048465
0.218679 0.520250 0.048465
0.247322 0.520250 0.048465
0.275965 0.520250 0.048465
0.304608 0.520250 0.048465
0.333250 0.520250 0.048465
0.361893 0.520250 0.048465
0.390536 0.520250 0.048465
0.419179 0.520250 0.048465
0.447822 0.520250 0.048465
0.476464 0.520250 0.048465
0.505107 0.520250 0.048465
0.533750 0.520250 0.048465
0.564712 0.522232 0.051149
0.595598 0.524278 0.053904
0.626407 0.526388 0.056732
0.657141 0.528564 0.059630
0.687798 0.530806 0.062601
0.718379 0.533116 0.065643
0.748884 0.535493 0.068756
0.779312 0.537939 0.071941
0.809665 0.540453 0.075198
0.839941 0.543037 0.078526
0.870142 0.545689 0.081926
0.900266 0.548412 0.085398
0.930313 0.551204 0.088941
0.960285 0.554066 0.092556
0.990181 0.556998 0.096242
1.000000 0.560000 0.100000
0.078961 0.550806 0.051149
0.107535 0.550806 0.051149
0.136109 0.550806 0.051149
0.164682 0.550806 0.051149
0.193256 0.550806 0.051149
0.221829 0.550806 0.051149
0.250403 0.550806 0.051149
0.278976 0.550806 0.051149
0.307550 0.550806 0.051149
0.336123 0.550806 0.051149
0.364697 0.550806 0.051149
0.393271 0.550806 0.051149
0.421844 0.550806 0.051149
0.450418 0.550806 0.051149
0.478991 0.550806 0.051149
0.507565 0.550806 0.051149
0.536138 0.550806 0.051149
0.564712 0.550806 0.051149
0.595598 0.552781 0.053904
0.626407 0.554821 0.056732
0.657141 0.556927 0.059630
0.687798 0.559098 0.062601
0.718379 0.561337 0.065643
0.748884 0.563643 0.068756
0.779312 0.566017 0.071941
0.809665 0.568459 0.075198
0.839941 0.570971 0.078526
0.870142 0.573551 0.081926
0.900266 0.576201 0.085398
0.930313 0.578921 0.088941
0.960285 0.581711 0.092556
0.990181 0.584570 0.096242
1.000000 0.587500 0.100000
0.082529 0.581285 0.053904
0.111033 0.581285 0.053904
0.139537 0.581285 0.053904
0.168041 0.581285 0.053904
0.196545 0.581285 0.053904
0.225048 0.581285 0.053904
0.253552 0.581285 0.053904
0.282056 0.581285 0.053904
0.310560 0.581285 0.053904
0.339064 0.581285 0.053904
0.367567 0.581285 0.053904
0.396071 0.581285 0.053904
0.424575 0.581285 0.053904
0.453079 0.581285 0.053904
0.481582 0.581285 0.053904
0.510086 0.581285 0.053904
0.538590 0.581285 0.053904
0.567094 0.581285 0.053904
0.595598 0.581285 0.053904
0.626407 0.583255 0.056732
0.657141 0.585290 0.059630
0.687798 0.587390 0.062601
0.718379 0.589558 0.065643
0.748884 0.591792 0.068756
0.779312 0.594095 0.071941
0.809665 0.596466 0.075198
0.839941 0.598905 0.078526
0.870142 0.601414 0.081926
0.900266 0.603991 0.085398
0.930313 0.606639 0.088941
0.960285 0.609356 0.092556
0.990181 0.612143 0.096242
1.000000 0.615000 0.100000
0.086169 0.611688 0.056732
0.114603 0.611688 0.056732
0.143036 0.611688 0.056732
0.171470 0.611688 0.056732
0.199903 0.611688 0.056732
0.228337 0.611688 0.056732
0.256771 0.611688 0.056732
0.285204 0.611688 0.056732
0.313638 0.611688 0.056732
0.342071 0.611688 0.056732
0.370505 0.611688 0.056732
0.398939 0.611688 0.056732
0.427372 0.611688 0.056732
0.455806 0.611688 0.056732
0.484239 0.611688 0.056732
0.512673 0.611688 0.056732
0.541106 0.611688 0.056732
0.569540 0.611688 0.056732
0.597974 0.611688 0.056732
0.626407 0.611688 0.056732
0.657141 0.613653 0.059630
0.687798 0.615682 0.062601
0.718379 0.617778 0.065643
0.748884 0.619942 0.068756
0.779312 0.622173 0.071941
0.809665 0.624472 0.075198
0.839941 0.626839 0.078526
0.870142 0.629276 0.081926
0.900266 0.631781 0.085398
0.930313 0.634356 0.088941
0.960285 0.637001 0.092556
0.990181 0.639715 0.096242
1.000000 0.642500 0.100000
0.089880 0.642016 0.059630
0.118243 0.642016 0.059630
0.146606 0.642016 0.059630
0.174969 0.642016 0.059630
0.203332 0.642016 0.059630
0.231695 0.642016 0.059630
0.260058 0.642016 0.059630
0.288421 0.642016 0.059630
0.316784 0.642016 0.059630
0.345147 0.642016 0.059630
0.373510 0.642016 0.059630
0.401873 0.642016 0.059630
0.430236 0.642016 0.059630
0.458600 0.642016 0.059630
0.486963 0.642016 0.059630
0.515326 0.642016 0.059630
0.543689 0.642016 0.059630
0.572052 0.642016 0.059630
0.600415 0.642016 0.059630
0.628778 0.642016 0.059630
0.657141 0.642016 0.059630
0.687798 0.643974 0.062601
0.718379 0.645999 0.065643
0.748884 0.648091 0.068756
0.779312 0.650251 0.071941
0.809665 0.652478 0.075198
0.839941 0.654774 0.078526
0.870142 0.657138 0.081926
0.900266 0.659571 0.085398
0.930313 0.662074 0.088941
0.960285 0.664646 0.092556
0.990181 0.667288 0.096242
1.000000 0.670000 0.100000
0.093663 0.672267 0.062601
0.121955 0.672267 0.062601
0.150247 0.672267 0.062601
0.178540 0.672267 0.062601
0.206832 0.672267 0.062601
0.235124 0.672267 0.062601
0.263416 0.672267 0.062601
0.291708 0.672267 0.062601
0.320000 0.672267 0.062601
0.348292 0.672267 0.062601
0.376584 0.672267 0.062601
0.404877 0.672267 0.062601
0.433169 0.672267 0.062601
0.461461 0.672267 0.062601
0.489753 0.672267 0.062601
0.518045 0.672267 0.062601
0.546337 0.672267 0.062601
0.574629 0.672267 0.062601
0.602921 0.672267 0.062601
0.631214 0.672267 0.062601
0.659506 0.672267 0.062601
0.687798 0.672267 0.062601
0.718379 0.674220 0.065643
0.748884 0.676241 0.068756
0.779312 0.678329 0.071941
0.809665 0.680484 0.075198
0.839941 0.682708 0.078526
0.870142 0.685000 0.081926
0.900266 0.687361 0.085398
0.930313 0.689792 0.088941
0.960285 0.692291 0.092556
0.990181 0.694861 0.096242
1.000000 0.697500 0.100000
0.097518 0.702441 0.065643
0.125739 0.702441 0.065643
0.153960 0.702441 0.065643
0.182180 0.702441 0.065643
0.210401 0.702441 0.065643
0.238622 0.702441 0.065643
0.266843 0.702441 0.065643
0.295064 0.702441 0.065643
0.323285 0.702441 0.065643
0.351506 0.702441 0.065643
0.379727 0.702441 0.065643
0.407948 0.702441 0.065643
0.436169 0.702441 0.065643
0.464390 0.702441 0.065643
0.492611 0.702441 0.065643
0.520832 0.702441 0.065643
0.549053 0.702441 0.065643
0.577274 0.702441 0.065643
0.605495 0.702441 0.065643
0.633716 0.702441 0.065643
0.661937 0.702441 0.065643
0.690158 0.702441 0.065643
0.718379 0.702441 0.065643
0.748884 0.704390 0.068756
0.779312 0.706407 0.071941
0.809665 0.708490 0.075198
0.839941 0.710642 0.078526
0.870142 0.712862 0.081926
0.900266 0.715151 0.085398
0.930313 0.717509 0.088941
0.960285 0.719936 0.092556
0.990181 0.722433 0.096242
1.000000 0.725000 0.100000
0.101444 0.732540 0.068756
0.129593 0.732540 0.068756
0.157743 0.732540 0.068756
0.185892 0.732540 0.068756
0.214042 0.732540 0.068756
0.242191 0.732540 0.068756
0.270341 0.732540 0.068756
0.298491 0.732540 0.068756
0.326640 0.732540 0.068756
0.354790 0.732540 0.068756
0.382939 0.732540 0.068756
0.411089 0.732540 0.068756
0.439238 0.732540 0.068756
0.467388 0.732540 0.068756
0.495538 0.732540 0.068756
0.523687 0.732540 0.068756
0.551837 0.732540 0.068756
0.579986 0.732540 0.068756
0.608136 0.732540 0.068756
0.636285 0.732540 0.068756
0.664435 0.732540 0.068756
0.692585 0.732540 0.068756
0.720734 0.732540 0.068756
0.748884 0.732540 0.068756
0.779312 0.734485 0.071941
0.809665 0.736496 0.075198
0.839941 0.738576 0.078526
0.870142 0.740724 0.081926
0.900266 0.742941 0.085398
0.930313 0.745227 0.088941
0.960285 0.747582 0.092556
0.990181 0.750006 0.096242
1.000000 0.752500 0.100000
0.105441 0.762563 0.071941
0.133519 0.762563 0.071941
0.161597 0.762563 0.071941
0.189675 0.762563 0.071941
0.217753 0.762563 0.071941
0.245831 0.762563 0.071941
0.273909 0.762563 0.071941
0.301987 0.762563 0.071941
0.330065 0.762563 0.071941
0.358143 0.762563 0.071941
0.386221 0.762563 0.071941
0.414299 0.762563 0.071941
0.442377 0.762563 0.071941
0.470455 0.762563 0.071941
0.498533 0.762563 0.071941
0.526611 0.762563 0.071941
0.554689 0.762563 0.071941
0.582767 0.762563 0.071941
0.610845 0.762563 0.071941
0.638923 0.762563 0.071941
0.667001 0.762563 0.071941
0.695079 0.762563 0.071941
0.723157 0.762563 0.071941
0.751235 0.762563 0.071941
0.779312 0.762563 0.071941
0.809665 0.764503 0.075198
0.839941 0.766510 0.078526
0.870142 0.768586 0.081926
0.900266 0.770731 0.085398
0.930313 0.772944 0.088941
0.960285 0.775227 0.092556
0.990181 0.777579 0.096242
1.000000 0.780000 0.100000
0.109510 0.792509 0.075198
0.137517 0.792509 0.075198
0.165523 0.792509 0.075198
0.193529 0.792509 0.075198
0.221535 0.792509 0.075198
0.249541 0.792509 0.075198
0.277548 0.792509 0.075198
0.305554 0.792509 0.075198
0.333560 0.792509 0.075198
0.361566 0.792509 0.075198
0.389572 0.792509 0.075198
0.417578 0.792509 0.075198
0.445585 0.792509 0.075198
0.473591 0.792509 0.075198
0.501597 0.792509 0.075198
0.529603 0.792509 0.075198
0.557609 0.792509 0.075198
0.585616 0.792509 0.075198
0.613622 0.792509 0.075198
0.641628 0.792509 0.075198
0.669634 0.792509 0.075198
0.697640 0.792509 0.075198
0.725646 0.792509 0.075198
0.753653 0.792509 0.075198
0.781659 0.792509 0.075198
0.809665 0.792509 0.075198
0.839941 0.794445 0.078526
0.870142 0.796449 0.081926
0.900266 0.798521 0.085398
0.930313 0.800662 0.088941
0.960285 0.802872 0.092556
0.990181 0.805151 0.096242
1.000000 0.807500 0.100000
0.113651 0.822379 0.078526
0.141586 0.822379 0.078526
0.169520 0.822379 0.078526
0.197454 0.822379 0.078526
0.225388 0.822379 0.078526
0.253322 0.822379 0.078526
0.281257 0.822379 0.078526
0.309191 0.822379 0.078526
0.337125 0.822379 0.078526
0.365059 0.822379 0.078526
0.392994 0.822379 0.078526
0.420928 0.822379 0.078526
0.448862 0.822379 0.078526
0.476796 0.822379 0.078526
0.504731 0.822379 0.078526
0.532665 0.822379 0.078526
0.560599 0.822379 0.078526
0.588533 0.822379 0.078526
0.616468 0.822379 0.078526
0.644402 0.822379 0.078526
0.672336 0.822379 0.078526
0.700270 0.822379 0.078526
0.728204 0.822379 0.078526
0.756139 0.822379 0.078526
0.784073 0.822379 0.078526
0.812007 0.822379 0.078526
0.839941 0.822379 0.078526
