luts/original/alt-indie-soft.cube
TITLE "Alt Indie Soft"
LUT_3D_SIZE 5
DOMAIN_MIN 0.0 0.0 0.0
DOMAIN_MAX 1.0 1.0 1.0
0.028000 0.021000 0.014000
0.283312 0.039821 0.029571
0.533750 0.061965 0.048465
0.779312 0.088691 0.071941
1.000000 0.120000 0.100000
0.050071 0.273062 0.029571
0.283312 0.273062 0.029571
0.533750 0.291108 0.048465
0.779312 0.313315 0.071941
1.000000 0.340000 0.100000
0.075465 0.520250 0.048465
0.304608 0.520250 0.048465
0.533750 0.520250 0.048465
0.779312 0.537939 0.071941
1.000000 0.560000 0.100000
0.105441 0.762563 0.071941
0.330065 0.762563 0.071941
0.554689 0.762563 0.071941
0.779312 0.762563 0.071941
1.000000 0.780000 0.100000
0.140000 1.000000 0.100000
0.360000 1.000000 0.100000
0.580000 1.000000 0.100000
0.800000 1.000000 0.100000
1.000000 1.000000 0.100000
0.050071 0.039821 0.262812
0.283312 0.039821 0.262812
0.533750 0.061965 0.277608
0.779312 0.088691 0.296565
1.000000 0.120000 0.320000
0.050071 0.273062 0.262812
0.283312 0.273062 0.262812
0.533750 0.301840 0.288340
0.779312 0.326129 0.309379
1.000000 0.355000 0.335000
0.075465 0.520250 0.277608
0.315340 0.520250 0.288340
0.533750 0.520250 0.288340
0.779312 0.544346 0.309379
1.000000 0.570000 0.335000
0.105441 0.762563 0.296565
0.342879 0.762563 0.309379
0.561096 0.762563 0.309379
0.779312 0.762563 0.309379
1.000000 0.785000 0.335000
0.140000 1.000000 0.320000
0.375000 1.000000 0.335000
0.590000 1.000000 0.335000
0.805000 1.000000 0.335000
1.000000 1.000000 0.335000
0.075465 0.061965 0.506750
0.304608 0.061965 0.506750
0.533750 0.061965 0.506750
0.779312 0.088691 0.521189
1.000000 0.120000 0.540000
0.075465 0.291108 0.506750
0.315340 0.301840 0.506750
0.533750 0.301840 0.506750
0.779312 0.326129 0.527596
1.000000 0.355000 0.550000
0.075465 0.520250 0.506750
0.315340 0.520250 0.506750
0.533750 0.520250 0.506750
0.779312 0.563566 0.546816
1.000000 0.590000 0.570000
0.105441 0.762563 0.521189
0.342879 0.762563 0.527596
0.580316 0.762563 0.546816
0.779312 0.762563 0.546816
1.000000 0.795000 0.570000
0.140000 1.000000 0.540000
0.375000 1.000000 0.550000
0.610000 1.000000 0.570000
0.815000 1.000000 0.570000
1.000000 1.000000 0.570000
0.105441 0.088691 0.745812
0.330065 0.088691 0.745812
0.554689 0.088691 0.745812
0.779312 0.088691 0.745812
1.000000 0.120000 0.760000
0.105441 0.313315 0.745812
0.342879 0.326129 0.745812
0.561096 0.326129 0.745812
0.779312 0.326129 0.745812
1.000000 0.355000 0.765000
0.105441 0.537939 0.745812
0.342879 0.544346 0.745812
0.580316 0.563566 0.745812
0.779312 0.563566 0.745812
1.000000 0.590000 0.775000
0.105441 0.762563 0.745812
0.342879 0.762563 0.745812
0.580316 0.762563 0.745812
0.779312 0.762563 0.745812
1.000000 0.825000 0.805000
0.140000 1.000000 0.760000
0.375000 1.000000 0.765000
0.610000 1.000000 0.775000
0.845000 1.000000 0.805000
1.000000 1.000000 0.805000
0.140000 0.120000 0.980000
0.360000 0.120000 0.980000
0.580000 0.120000 0.980000
0.800000 0.120000 0.980000
1.000000 0.120000 0.980000
0.140000 0.340000 0.980000
0.375000 0.355000 0.980000
0.590000 0.355000 0.980000
0.805000 0.355000 0.980000
1.000000 0.355000 0.980000
0.140000 0.560000 0.980000
0.375000 0.570000 0.980000
0.610000 0.590000 0.980000
0.815000 0.590000 0.980000
1.000000 0.590000 0.980000
0.140000 0.780000 0.980000
0.375000 0.785000 0.980000
0.610000 0.795000 0.980000
0.845000 0.825000 0.980000
1.000000 0.825000 0.980000
0.140000 1.000000 0.980000
0.375000 1.000000 0.980000
0.610000 1.000000 0.980000
0.845000 1.000000 0.980000
1.000000 1.000000 0.980000
