luts/original/amapiano-neon-warm.cube
TITLE "Amapiano Neon Warm"
LUT_3D_SIZE 33
DOMAIN_MIN 0.0 0.0 0.0
DOMAIN_MAX 1.0 1.0 1.0
0.000000 0.000000 0.000000
0.010299 0.000000 0.000000
0.025312 0.000000 0.000000
0.044793 0.000000 0.000000
0.068486 0.000000 0.000000
0.096122 0.000000 0.000000
0.127419 0.000000 0.000000
0.162084 0.000000 0.000000
0.199809 0.000000 0.000000
0.240273 0.000000 0.000000
0.283142 0.000000 0.000000
0.328070 0.000000 0.000000
0.374695 0.000000 0.000000
0.422642 0.000000 0.000000
0.471522 0.000000 0.000000
0.520930 0.000000 0.000000
0.570449 0.000000 0.000000
0.619644 0.000000 0.000000
0.668067 0.000000 0.000000
0.715256 0.000000 0.000000
0.760729 0.000000 0.000000
0.803993 0.000000 0.000000
0.844537 0.000000 0.000000
0.881832 0.000000 0.000000
0.915336 0.000000 0.000000
0.944489 0.000000 0.000000
0.968713 0.000000 0.000000
0.987414 0.000000 0.000000
0.999981 0.000000 0.000000
1.000000 0.000000 0.000000
1.000000 0.000000 0.000000
1.000000 0.000000 0.000000
1.000000 0.000000 0.000000
0.000000 0.005335 0.000000
0.009546 0.005029 0.000000
0.024460 0.004724 0.000000
0.043946 0.004422 0.000000
0.067739 0.004121 0.000000
0.095560 0.003823 0.000000
0.127118 0.003526 0.000000
0.162108 0.003232 0.000000
0.200213 0.002940 0.000000
0.241103 0.002651 0.000000
0.284433 0.002364 0.000000
0.329844 0.002080 0.000000
0.376965 0.001798 0.000000
0.425407 0.001519 0.000000
0.474771 0.001244 0.000000
0.524640 0.000971 0.000000
0.574584 0.000702 0.000000
0.624156 0.000436 0.000000
0.672896 0.000173 0.000000
0.720325 0.000000 0.000000
0.765953 0.000000 0.000000
0.809268 0.000000 0.000000
0.849748 0.000000 0.000000
0.886850 0.000000 0.000000
0.920016 0.000000 0.000000
0.948670 0.000000 0.000000
0.972222 0.000000 0.000000
0.990060 0.000000 0.000000
1.000000 0.000000 0.000000
1.000000 0.000000 0.000000
1.000000 0.000000 0.000000
1.000000 0.000000 0.000000
1.000000 0.000000 0.000000
0.000000 0.012685 0.000000
0.008759 0.012360 0.000000
0.023550 0.012034 0.000000
0.043020 0.011708 0.000000
0.066893 0.011382 0.000000
0.094882 0.011056 0.000000
0.126685 0.010730 0.000000
0.161988 0.010404 0.000000
0.200464 0.010079 0.000000
0.241771 0.009754 0.000000
0.285554 0.009430 0.000000
0.331443 0.009106 0.000000
0.379054 0.008782 0.000000
0.427989 0.008460 0.000000
0.477835 0.008138 0.000000
0.528163 0.007817 0.000000
0.578530 0.007497 0.000000
0.628478 0.007179 0.000000
0.677532 0.006861 0.000000
0.725202 0.006545 0.000000
0.770980 0.006230 0.000000
0.814346 0.005916 0.000000
0.854758 0.005604 0.000000
0.891662 0.005294 0.000000
0.924483 0.004985 0.000000
0.952633 0.004678 0.000000
0.975502 0.004373 0.000000
0.992466 0.004070 0.000000
1.000000 0.003769 0.000000
1.000000 0.003471 0.000000
1.000000 0.003175 0.000000
1.000000 0.002881 0.000000
1.000000 0.002590 0.000000
0.000000 0.022263 0.000000
0.007944 0.021943 0.000000
0.022586 0.021622 0.000000
0.042016 0.021299 0.000000
0.065949 0.020974 0.000000
0.094088 0.020647 0.000000
0.126122 0.020319 0.000000
0.161726 0.019990 0.000000
0.200562 0.019659 0.000000
0.242277 0.019327 0.000000
0.286505 0.018993 0.000000
0.332866 0.018658 0.000000
0.380963 0.018322 0.000000
0.430387 0.017985 0.000000
0.480712 0.017647 0.000000
0.531498 0.017307 0.000000
0.582288 0.016967 0.000000
0.632611 0.016626 0.000000
0.681978 0.016285 0.000000
0.729886 0.015942 0.000000
0.775815 0.015599 0.000000
0.819228 0.015255 0.000000
0.859571 0.014911 0.000000
0.896272 0.014567 0.000000
0.928745 0.014222 0.000000
0.956383 0.013877 0.000000
0.978562 0.013531 0.000000
0.994642 0.013186 0.000000
1.000000 0.012841 0.000000
1.000000 0.012495 0.000000
1.000000 0.012150 0.000000
1.000000 0.011805 0.000000
1.000000 0.011460 0.000000
0.000000 0.034269 0.000000
0.007103 0.033982 0.000000
0.021569 0.033692 0.000000
0.040936 0.033398 0.000000
0.064909 0.033102 0.000000
0.093180 0.032802 0.000000
0.125429 0.032500 0.000000
0.161320 0.032195 0.000000
0.200505 0.031886 0.000000
0.242619 0.031575 0.000000
0.287286 0.031261 0.000000
0.334113 0.030945 0.000000
0.382692 0.030625 0.000000
0.432602 0.030303 0.000000
0.483404 0.029978 0.000000
0.534645 0.029651 0.000000
0.585857 0.029321 0.000000
0.636554 0.028989 0.000000
0.686234 0.028654 0.000000
0.734381 0.028317 0.000000
0.780460 0.027978 0.000000
0.823919 0.027636 0.000000
0.864190 0.027292 0.000000
0.900687 0.026946 0.000000
0.932806 0.026598 0.000000
0.959927 0.026248 0.000000
0.981410 0.025896 0.000000
0.996597 0.025542 0.000000
1.000000 0.025186 0.000000
1.000000 0.024829 0.000000
1.000000 0.024469 0.000000
1.000000 0.024108 0.000000
1.000000 0.023720 0.000000
0.000000 0.048891 0.000000
0.006241 0.048663 0.000000
0.020504 0.048431 0.000000
0.039784 0.048195 0.000000
0.063775 0.047955 0.000000
0.092160 0.047710 0.000000
0.124608 0.047461 0.000000
0.160773 0.047208 0.000000
0.200294 0.046951 0.000000
0.242798 0.046690 0.000000
0.287896 0.046425 0.000000
0.335183 0.046155 0.000000
0.384240 0.045882 0.000000
0.434632 0.045605 0.000000
0.485909 0.045324 0.000000
0.537605 0.045039 0.000000
0.589238 0.044750 0.000000
0.640309 0.044457 0.000000
0.690303 0.044160 0.000000
0.738688 0.043860 0.000000
0.784916 0.043556 0.000000
0.828421 0.043248 0.000000
0.868619 0.042937 0.000000
0.904910 0.042622 0.000000
0.936673 0.042304 0.000000
0.963273 0.041982 0.000000
0.984053 0.041656 0.000000
0.998340 0.041327 0.000000
1.000000 0.040995 0.000000
1.000000 0.040587 0.000000
1.000000 0.040137 0.000000
1.000000 0.039680 0.000000
1.000000 0.039215 0.000000
0.000000 0.066299 0.000000
0.005363 0.066158 0.000000
0.019395 0.066011 0.000000
0.038561 0.065859 0.000000
0.062548 0.065701 0.000000
0.091028 0.065539 0.000000
0.123658 0.065372 0.000000
0.160083 0.065199 0.000000
0.199930 0.065021 0.000000
0.242814 0.064839 0.000000
0.288335 0.064651 0.000000
0.336076 0.064458 0.000000
0.385606 0.064260 0.000000
0.436478 0.064057 0.000000
0.488228 0.063849 0.000000
0.540378 0.063636 0.000000
0.592431 0.063418 0.000000
0.643877 0.063195 0.000000
0.694185 0.062968 0.000000
0.742809 0.062735 0.000000
0.789187 0.062497 0.000000
0.832738 0.062255 0.000000
0.872863 0.062008 0.000000
0.908946 0.061756 0.000000
0.940352 0.061499 0.000000
0.966465 0.061234 0.000000
0.987501 0.060835 0.000000
1.000000 0.060426 0.000000
1.000000 0.060008 0.000000
1.000000 0.059580 0.000000
1.000000 0.059142 0.000000
1.000000 0.058695 0.000000
1.000000 0.058238 0.000000
0.000000 0.086643 0.000000
0.004473 0.086614 0.000000
0.018244 0.086578 0.000000
0.037272 0.086537 0.000000
0.061232 0.086490 0.000000
0.089787 0.086436 0.000000
0.122582 0.086377 0.000000
0.159251 0.086312 0.000000
0.199412 0.086242 0.000000
0.242667 0.086165 0.000000
0.288603 0.086082 0.000000
0.336792 0.085994 0.000000
0.386791 0.085900 0.000000
0.438139 0.085800 0.000000
0.490361 0.085694 0.000000
0.542963 0.085582 0.000000
0.595438 0.085464 0.000000
0.647258 0.085341 0.000000
0.697881 0.085212 0.000000
0.746746 0.085077 0.000000
0.793276 0.084936 0.000000
0.836874 0.084789 0.000000
0.877675 0.084576 0.000000
0.915231 0.084259 0.000000
0.947496 0.083930 0.000000
0.973605 0.083589 0.000000
0.992652 0.083235 0.000000
1.000000 0.082870 0.000000
1.000000 0.082494 0.000000
1.000000 0.082105 0.000000
1.000000 0.081704 0.000000
1.000000 0.081292 0.000000
1.000000 0.080867 0.000000
0.000000 0.110046 0.000000
0.003578 0.110154 0.000000
0.017058 0.110255 0.000000
0.035920 0.110350 0.000000
0.059829 0.110438 0.000000
0.088437 0.110520 0.000000
0.121380 0.110595 0.000000
0.158280 0.110664 0.000000
0.198741 0.110727 0.000000
0.242356 0.110783 0.000000
0.288699 0.110832 0.000000
0.337331 0.110875 0.000000
0.387794 0.110912 0.000000
0.439615 0.110942 0.000000
0.492307 0.110965 0.000000
0.545362 0.110982 0.000000
0.598258 0.110993 0.000000
0.650454 0.110997 0.000000
0.701393 0.110994 0.000000
0.752090 0.110849 0.000000
0.800826 0.110648 0.000000
0.846353 0.110432 0.000000
0.887888 0.110203 0.000000
0.924609 0.109960 0.000000
0.955650 0.109703 0.000000
0.980103 0.109432 0.000000
0.997014 0.109148 0.000000
1.000000 0.108849 0.000000
1.000000 0.108536 0.000000
1.000000 0.108210 0.000000
1.000000 0.107870 0.000000
1.000000 0.107515 0.000000
1.000000 0.107147 0.000000
0.000000 0.136603 0.000000
0.002681 0.136871 0.000000
0.015839 0.137133 0.000000
0.034507 0.137388 0.000000
0.058342 0.137636 0.000000
0.086983 0.137877 0.000000
0.120055 0.138111 0.000000
0.157168 0.138338 0.000000
0.197918 0.138558 0.000000
0.241882 0.138772 0.000000
0.288624 0.138978 0.000000
0.337691 0.139177 0.000000
0.388614 0.139370 0.000000
0.440907 0.139555 0.000000
0.494066 0.139734 0.000000
0.547801 0.139881 0.000000
0.603108 0.139841 0.000000
0.657816 0.139785 0.000000
0.711261 0.139714 0.000000
0.762741 0.139628 0.000000
0.811513 0.139526 0.000000
0.856797 0.139408 0.000000
0.897768 0.139275 0.000000
0.933562 0.139126 0.000000
0.963269 0.138961 0.000000
0.985935 0.138781 0.000000
1.000000 0.138585 0.000000
1.000000 0.138374 0.000000
1.000000 0.138146 0.000000
1.000000 0.137903 0.000000
1.000000 0.137644 0.000000
1.000000 0.137369 0.000000
1.000000 0.137078 0.000000
0.000000 0.166373 0.000000
0.001790 0.166824 0.000000
0.014592 0.167268 0.000000
0.033038 0.167704 0.000000
0.056773 0.168134 0.000000
0.085424 0.168556 0.000000
0.118606 0.168971 0.000000
0.155918 0.169379 0.000000
0.196942 0.169779 0.000000
0.241245 0.170173 0.000000
0.288378 0.170559 0.000000
0.337874 0.170938 0.000000
0.389973 0.171200 0.000000
0.444443 0.171333 0.000000
0.500050 0.171450 0.000000
0.556206 0.171549 0.000000
0.612283 0.171632 0.000000
0.667622 0.171698 0.000000
0.721521 0.171746 0.000000
0.773240 0.171778 0.000000
0.821998 0.171793 0.000000
0.866975 0.171791 0.000000
0.907304 0.171771 0.000000
0.942075 0.171734 0.000000
0.970334 0.171680 0.000000
0.991078 0.171608 0.000000
1.000000 0.171520 0.000000
1.000000 0.171413 0.000000
1.000000 0.171289 0.000000
1.000000 0.171148 0.000000
1.000000 0.170989 0.000000
1.000000 0.170813 0.000000
1.000000 0.170618 0.000000
0.000000 0.199378 0.000000
0.000910 0.200031 0.000000
0.013324 0.200676 0.000000
0.031518 0.201313 0.000000
0.055125 0.201944 0.000000
0.083765 0.202567 0.000000
0.117038 0.203182 0.000000
0.154531 0.203790 0.000000
0.195816 0.204391 0.000000
0.241298 0.204773 0.000000
0.290129 0.205102 0.000000
0.341699 0.205412 0.000000
0.395495 0.205705 0.000000
0.450964 0.205979 0.000000
0.507524 0.206236 0.000000
0.564552 0.206474 0.000000
0.621389 0.206694 0.000000
0.677338 0.206896 0.000000
0.731662 0.207079 0.000000
0.783581 0.207244 0.000000
0.832274 0.207391 0.000000
0.876878 0.207518 0.000000
0.916483 0.207627 0.000000
0.950133 0.207718 0.000000
0.976826 0.207789 0.000000
0.995509 0.207842 0.000000
1.000000 0.207876 0.000000
1.000000 0.207891 0.000000
1.000000 0.207886 0.000000
1.000000 0.207863 0.000000
1.000000 0.207820 0.000000
1.000000 0.207759 0.000000
1.000000 0.206557 0.000000
0.000000 0.235596 0.000000
0.000047 0.236466 0.000000
0.012038 0.237329 0.000000
0.029949 0.238183 0.000000
0.053403 0.239031 0.000000
0.082090 0.239814 0.000000
0.115992 0.240374 0.000000
0.154520 0.240916 0.000000
0.197260 0.241438 0.000000
0.243767 0.241942 0.000000
0.293566 0.242427 0.000000
0.346146 0.242893 0.000000
0.400962 0.243340 0.000000
0.457434 0.243767 0.000000
0.514945 0.244175 0.000000
0.572840 0.244564 0.000000
0.630424 0.244933 0.000000
0.686963 0.245282 0.000000
0.741681 0.245612 0.000000
0.793759 0.245922 0.000000
0.842334 0.246212 0.000000
0.886497 0.246482 0.000000
0.925294 0.246732 0.000000
0.957720 0.246962 0.000000
0.982724 0.247172 0.000000
0.999202 0.247362 0.000000
1.000000 0.247531 0.000000
1.000000 0.247680 0.000000
1.000000 0.247808 0.000000
1.000000 0.245801 0.000000
1.000000 0.243685 0.000000
1.000000 0.241566 0.000000
1.000000 0.239445 0.000000
0.000000 0.274956 0.000000
0.000000 0.276056 0.000000
0.010788 0.276983 0.000000
0.028593 0.277771 0.000000
0.052299 0.278539 0.000000
0.081558 0.279288 0.000000
0.115996 0.280017 0.000000
0.155206 0.280727 0.000000
0.198753 0.281417 0.000000
0.246164 0.282086 0.000000
0.296937 0.282735 0.000000
0.350532 0.283365 0.000000
0.406375 0.283974 0.000000
0.463852 0.284562 0.000000
0.522313 0.285130 0.000000
0.581068 0.285677 0.000000
0.639387 0.286204 0.000000
0.696495 0.286709 0.000000
0.751577 0.287194 0.000000
0.803771 0.287658 0.000000
0.852171 0.288101 0.000000
0.895823 0.288522 0.000000
0.933724 0.288922 0.000000
0.964821 0.289301 0.000000
0.988010 0.289659 0.000000
1.000000 0.289190 0.000000
1.000000 0.286970 0.000000
1.000000 0.284746 0.000000
1.000000 0.282518 0.000000
1.000000 0.280287 0.000000
1.000000 0.278052 0.000000
1.000000 0.275814 0.000000
1.000000 0.273574 0.000000
0.000000 0.316724 0.000000
0.000000 0.317730 0.000000
0.009753 0.318715 0.000000
0.027488 0.319680 0.000000
0.051345 0.320624 0.000000
0.080955 0.321547 0.000000
0.115921 0.322450 0.000000
0.155814 0.323332 0.000000
0.200169 0.324192 0.000000
0.248490 0.325032 0.000000
0.300243 0.325851 0.000000
0.354860 0.326648 0.000000
0.411733 0.327424 0.000000
0.470218 0.328178 0.000000
0.529628 0.328910 0.000000
0.589238 0.329621 0.000000
0.648276 0.330310 0.000000
0.705931 0.330977 0.000000
0.761345 0.331622 0.000000
0.813611 0.332245 0.000000
0.861779 0.332846 0.000000
0.904847 0.333424 0.000000
0.940700 0.332037 0.000000
0.969298 0.329726 0.000000
0.990318 0.327411 0.000000
1.000000 0.325092 0.000000
1.000000 0.322767 0.000000
1.000000 0.320438 0.000000
1.000000 0.318105 0.000000
1.000000 0.315767 0.000000
1.000000 0.313425 0.000000
1.000000 0.311079 0.000000
1.000000 0.308729 0.000000
0.000000 0.360671 0.000000
0.000000 0.361856 0.000000
0.008711 0.363019 0.000000
0.026347 0.364161 0.000000
0.050334 0.365281 0.000000
0.080283 0.366380 0.000000
0.115771 0.367456 0.000000
0.156343 0.368511 0.000000
0.201509 0.369544 0.000000
0.250743 0.370554 0.000000
0.303483 0.371542 0.000000
0.359128 0.372508 0.000000
0.417038 0.373452 0.000000
0.476533 0.374373 0.000000
0.536891 0.375271 0.000000
0.597347 0.376147 0.000000
0.657091 0.376999 0.000000
0.715270 0.377829 0.000000
0.770893 0.378496 0.000000
0.821202 0.376119 0.000000
0.867278 0.373736 0.000000
0.908269 0.371347 0.000000
0.943302 0.368953 0.000000
0.971483 0.366552 0.000000
0.991896 0.364146 0.000000
1.000000 0.361734 0.000000
1.000000 0.359316 0.000000
1.000000 0.356894 0.000000
1.000000 0.354465 0.000000
1.000000 0.352032 0.000000
1.000000 0.349594 0.000000
1.000000 0.347150 0.000000
1.000000 0.344701 0.000000
0.000000 0.406943 0.000000
0.000000 0.408303 0.000000
0.007665 0.409640 0.000000
0.025173 0.410955 0.000000
0.049270 0.412248 0.000000
0.079543 0.413518 0.000000
0.115546 0.414765 0.000000
0.156795 0.415989 0.000000
0.202774 0.417190 0.000000
0.252926 0.418368 0.000000
0.306659 0.419523 0.000000
0.363338 0.420654 0.000000
0.422289 0.421763 0.000000
0.482797 0.422847 0.000000
0.544100 0.423908 0.000000
0.604650 0.423535 0.000000
0.663123 0.421104 0.000000
0.719735 0.418665 0.000000
0.773679 0.416219 0.000000
0.824124 0.413767 0.000000
0.870222 0.411307 0.000000
0.911101 0.408841 0.000000
0.945870 0.406368 0.000000
0.973615 0.403889 0.000000
0.993402 0.401403 0.000000
1.000000 0.398910 0.000000
1.000000 0.396411 0.000000
1.000000 0.393906 0.000000
1.000000 0.391394 0.000000
1.000000 0.388876 0.000000
1.000000 0.386353 0.000000
1.000000 0.383823 0.000000
1.000000 0.381287 0.000000
0.000000 0.455233 0.000000
0.000000 0.456760 0.000000
0.006621 0.458264 0.000000
0.023969 0.459745 0.000000
0.048153 0.461202 0.000000
0.078737 0.462635 0.000000
0.115246 0.464044 0.000000
0.157171 0.465430 0.000000
0.203964 0.466792 0.000000
0.255039 0.468130 0.000000
0.309770 0.469444 0.000000
0.367490 0.470733 0.000000
0.426434 0.469123 0.000000
0.486290 0.466655 0.000000
0.546580 0.464178 0.000000
0.606540 0.461694 0.000000
0.665382 0.459201 0.000000
0.722302 0.456701 0.000000
0.776473 0.454192 0.000000
0.827048 0.451676 0.000000
0.873157 0.449152 0.000000
0.913913 0.446620 0.000000
0.948402 0.444081 0.000000
0.975693 0.441534 0.000000
0.994832 0.438980 0.000000
1.000000 0.436419 0.000000
1.000000 0.433850 0.000000
1.000000 0.431274 0.000000
1.000000 0.428691 0.000000
1.000000 0.426100 0.000000
1.000000 0.423503 0.000000
1.000000 0.420899 0.000000
1.000000 0.418288 0.000000
0.000000 0.505176 0.000000
0.000000 0.506858 0.000000
0.005582 0.508515 0.000000
0.022738 0.510148 0.000000
0.046987 0.511757 0.000000
0.077866 0.513341 0.000000
0.114873 0.514901 0.000000
0.157470 0.516436 0.000000
0.204996 0.517405 0.000000
0.256182 0.514927 0.000000
0.310723 0.512439 0.000000
0.367915 0.509943 0.000000
0.427037 0.507437 0.000000
0.487345 0.504922 0.000000
0.548077 0.502399 0.000000
0.608450 0.499866 0.000000
0.667660 0.497325 0.000000
0.724884 0.494774 0.000000
0.779276 0.492215 0.000000
0.829972 0.489648 0.000000
0.876083 0.487072 0.000000
0.916702 0.484487 0.000000
0.950897 0.481894 0.000000
0.977716 0.479292 0.000000
0.996185 0.476682 0.000000
1.000000 0.474064 0.000000
1.000000 0.471438 0.000000
1.000000 0.468803 0.000000
1.000000 0.466161 0.000000
1.000000 0.463510 0.000000
1.000000 0.460851 0.000000
1.000000 0.458185 0.000000
1.000000 0.455511 0.000000
0.000000 0.556340 0.000000
0.000000 0.558159 0.000000
0.004554 0.559953 0.000000
0.021484 0.561721 0.000000
0.045774 0.563464 0.000000
0.076860 0.563090 0.000000
0.114019 0.560611 0.000000
0.156632 0.558123 0.000000
0.204036 0.555624 0.000000
0.255551 0.553116 0.000000
0.310477 0.550597 0.000000
0.368094 0.548069 0.000000
0.427662 0.545531 0.000000
0.488423 0.542983 0.000000
0.549596 0.540425 0.000000
0.610380 0.537857 0.000000
0.669955 0.535280 0.000000
0.727478 0.532693 0.000000
0.782087 0.530096 0.000000
0.832896 0.527490 0.000000
0.878999 0.524874 0.000000
0.919469 0.522249 0.000000
0.953354 0.519615 0.000000
0.979683 0.516971 0.000000
0.997460 0.514318 0.000000
1.000000 0.511656 0.000000
1.000000 0.508984 0.000000
1.000000 0.506304 0.000000
1.000000 0.503615 0.000000
1.000000 0.500916 0.000000
1.000000 0.498209 0.000000
1.000000 0.495493 0.000000
1.000000 0.492769 0.000000
0.000000 0.608227 0.000000
0.000000 0.610160 0.000000
0.003586 0.608303 0.000000
0.020266 0.605844 0.000000
0.044420 0.603373 0.000000
0.075429 0.600891 0.000000
0.112653 0.598398 0.000000
0.155434 0.595895 0.000000
0.203096 0.593380 0.000000
0.254940 0.590855 0.000000
0.310252 0.588319 0.000000
0.368294 0.585772 0.000000
0.428310 0.583214 0.000000
0.489523 0.580646 0.000000
0.551136 0.578067 0.000000
0.612331 0.575477 0.000000
0.672268 0.572877 0.000000
0.730087 0.570266 0.000000
0.784905 0.567645 0.000000
0.835820 0.565014 0.000000
0.881905 0.562372 0.000000
0.922212 0.559720 0.000000
0.955772 0.557057 0.000000
0.981592 0.554384 0.000000
0.998655 0.551702 0.000000
1.000000 0.549009 0.000000
1.000000 0.546305 0.000000
1.000000 0.543592 0.000000
1.000000 0.540869 0.000000
1.000000 0.538137 0.000000
1.000000 0.535394 0.000000
1.000000 0.532641 0.000000
1.000000 0.529879 0.000000
0.000000 0.650291 0.000000
0.000000 0.647856 0.000000
0.002778 0.645410 0.000000
0.019112 0.642952 0.000000
0.043072 0.640482 0.000000
0.074022 0.638001 0.000000
0.111308 0.635507 0.000000
0.154257 0.633002 0.000000
0.202175 0.630485 0.000000
0.254350 0.627957 0.000000
0.310047 0.625417 0.000000
0.368515 0.622865 0.000000
0.428979 0.620302 0.000000
0.490646 0.617727 0.000000
0.552699 0.615141 0.000000
0.614302 0.612543 0.000000
0.674598 0.609934 0.000000
0.732708 0.607313 0.000000
0.787731 0.604681 0.000000
0.838742 0.602038 0.000000
0.884799 0.599383 0.000000
0.924931 0.596717 0.000000
0.958150 0.594040 0.000000
0.983441 0.591352 0.000000
0.999768 0.588653 0.000000
1.000000 0.585943 0.000000
1.000000 0.583222 0.000000
1.000000 0.580489 0.000000
1.000000 0.577746 0.000000
1.000000 0.574992 0.000000
1.000000 0.572228 0.000000
1.000000 0.569452 0.000000
1.000000 0.566666 0.000000
0.000000 0.686445 0.000000
0.000000 0.684029 0.000000
0.002009 0.681599 0.000000
0.017990 0.679157 0.000000
0.041749 0.676703 0.000000
0.072638 0.674236 0.000000
0.109984 0.671756 0.000000
0.153100 0.669263 0.000000
0.201275 0.666759 0.000000
0.253780 0.664241 0.000000
0.309864 0.661711 0.000000
0.368759 0.659169 0.000000
0.429671 0.656614 0.000000
0.491790 0.654047 0.000000
0.554283 0.651467 0.000000
0.616293 0.648875 0.000000
0.676946 0.646271 0.000000
0.735343 0.643655 0.000000
0.790563 0.641026 0.000000
0.841664 0.638385 0.000000
0.887680 0.635732 0.000000
0.927625 0.633066 0.000000
0.960486 0.630389 0.000000
0.985229 0.627699 0.000000
1.000000 0.624998 0.000000
1.000000 0.622284 0.000000
1.000000 0.619559 0.000000
1.000000 0.616821 0.000000
1.000000 0.614072 0.000000
1.000000 0.611311 0.000000
1.000000 0.608538 0.000000
1.000000 0.605753 0.000000
1.000000 0.602957 0.000000
0.000000 0.721475 0.000000
0.000000 0.719090 0.000000
0.001278 0.716693 0.000000
0.016898 0.714281 0.000000
0.040453 0.711856 0.000000
0.071276 0.709418 0.000000
0.108681 0.706967 0.000000
0.151962 0.704502 0.000000
0.200394 0.702023 0.000000
0.253230 0.699532 0.000000
0.309702 0.697027 0.000000
0.369024 0.694508 0.000000
0.430386 0.691976 0.000000
0.492958 0.689431 0.000000
0.555889 0.686873 0.000000
0.618305 0.684302 0.000000
0.679311 0.681717 0.000000
0.737990 0.679119 0.000000
0.793401 0.676508 0.000000
0.844583 0.673884 0.000000
0.890549 0.671246 0.000000
0.930292 0.668596 0.000000
0.962779 0.665932 0.000000
0.986956 0.663256 0.000000
1.000000 0.660566 0.000000
1.000000 0.657863 0.000000
1.000000 0.655148 0.000000
1.000000 0.652420 0.000000
1.000000 0.649679 0.000000
1.000000 0.646925 0.000000
1.000000 0.644158 0.000000
1.000000 0.641379 0.000000
1.000000 0.638586 0.000000
0.000000 0.755205 0.000000
0.000000 0.752868 0.000000
0.000584 0.750516 0.000000
0.015838 0.748151 0.000000
0.039183 0.745771 0.000000
0.069937 0.743377 0.000000
0.107399 0.740969 0.000000
0.150845 0.738546 0.000000
0.199533 0.736109 0.000000
0.252700 0.733658 0.000000
0.309561 0.731193 0.000000
0.369310 0.728713 0.000000
0.431122 0.726220 0.000000
0.494147 0.723712 0.000000
0.557516 0.721190 0.000000
0.620336 0.718653 0.000000
0.681693 0.716103 0.000000
0.740649 0.713539 0.000000
0.796246 0.710960 0.000000
0.847500 0.708367 0.000000
0.893405 0.705760 0.000000
0.932933 0.703140 0.000000
0.965029 0.700505 0.000000
0.988618 0.697856 0.000000
1.000000 0.695193 0.000000
1.000000 0.692517 0.000000
1.000000 0.689826 0.000000
1.000000 0.687121 0.000000
1.000000 0.684403 0.000000
1.000000 0.681671 0.000000
1.000000 0.678925 0.000000
1.000000 0.676166 0.000000
1.000000 0.673392 0.000000
0.000000 0.787466 0.000000
0.000000 0.785192 0.000000
0.000000 0.782903 0.000000
0.014808 0.780598 0.000000
0.037938 0.778279 0.000000
0.068621 0.775945 0.000000
0.106137 0.773595 0.000000
0.149747 0.771230 0.000000
0.198691 0.768850 0.000000
0.252190 0.766455 0.000000
0.309440 0.764045 0.000000
0.369619 0.761620 0.000000
0.431881 0.759180 0.000000
0.495359 0.756724 0.000000
0.559165 0.754254 0.000000
0.622387 0.751768 0.000000
0.684092 0.749267 0.000000
0.743321 0.746751 0.000000
0.799096 0.744221 0.000000
0.850413 0.741675 0.000000
0.896246 0.739114 0.000000
0.935545 0.736538 0.000000
0.967234 0.733947 0.000000
0.990216 0.731341 0.000000
1.000000 0.728720 0.000000
1.000000 0.726085 0.000000
1.000000 0.723434 0.000000
1.000000 0.720768 0.000000
1.000000 0.718088 0.000000
1.000000 0.715393 0.000000
1.000000 0.712683 0.000000
1.000000 0.709958 0.000000
1.000000 0.707218 0.000000
0.000000 0.818095 0.000000
0.000000 0.815900 0.000000
0.000000 0.813689 0.000000
0.013807 0.811462 0.000000
0.036719 0.809219 0.000000
0.067327 0.806960 0.000000
0.104895 0.804685 0.000000
0.148668 0.802394 0.000000
0.197869 0.800086 0.000000
0.251700 0.797763 0.000000
0.309340 0.795424 0.000000
0.369949 0.793069 0.000000
0.432662 0.790698 0.000000
0.496594 0.788310 0.000000
0.560836 0.785907 0.000000
0.624459 0.783488 0.000000
0.686507 0.781052 0.000000
0.746005 0.778601 0.000000
0.801952 0.776133 0.000000
0.853323 0.773650 0.000000
0.899073 0.771151 0.000000
0.938128 0.768635 0.000000
0.969393 0.766104 0.000000
0.991747 0.763556 0.000000
1.000000 0.760993 0.000000
1.000000 0.758413 0.000000
1.000000 0.755818 0.000000
