luts/original/amapiano-neon-warm.cube
TITLE "Amapiano Neon Warm"
LUT_3D_SIZE 5
DOMAIN_MIN 0.0 0.0 0.0
DOMAIN_MAX 1.0 1.0 1.0
0.000000 0.000000 0.000000
0.199809 0.000000 0.000000
0.570449 0.000000 0.000000
0.915336 0.000000 0.000000
1.000000 0.000000 0.000000
0.000000 0.110046 0.000000
0.198741 0.110727 0.000000
0.598258 0.110993 0.000000
0.955650 0.109703 0.000000
1.000000 0.107147 0.000000
0.000000 0.406943 0.000000
0.202774 0.417190 0.000000
0.663123 0.421104 0.000000
0.993402 0.401403 0.000000
1.000000 0.381287 0.000000
0.000000 0.755205 0.000000
0.199533 0.736109 0.000000
0.681693 0.716103 0.000000
1.000000 0.695193 0.000000
1.000000 0.673392 0.000000
0.000000 0.959092 0.000000
0.193343 0.947556 0.000000
0.694679 0.936264 0.000000
1.000000 0.926591 0.000000
1.000000 0.916392 0.000000
0.000000 0.000000 0.111367
0.199980 0.000000 0.110562
0.573654 0.000000 0.109345
0.919075 0.000000 0.107722
1.000000 0.000000 0.105699
0.000000 0.111168 0.115934
0.198068 0.111696 0.113210
0.601364 0.111728 0.109924
0.961894 0.109832 0.103300
1.000000 0.107048 0.095895
0.000000 0.411961 0.108826
0.203923 0.421843 0.101212
0.665207 0.416104 0.090745
0.994634 0.396389 0.078356
1.000000 0.376269 0.066377
0.000000 0.750465 0.082909
0.199131 0.731226 0.071187
0.683974 0.711080 0.059879
1.000000 0.690037 0.049078
1.000000 0.668109 0.038884
0.000000 0.956426 0.054721
0.193139 0.944600 0.044501
0.691516 0.934425 0.036202
1.000000 0.924649 0.028967
1.000000 0.914349 0.022356
0.000000 0.000000 0.327153
0.200081 0.000000 0.336669
0.576773 0.000000 0.345647
0.922697 0.000000 0.354074
1.000000 0.000000 0.361940
0.000000 0.112237 0.369629
0.197324 0.112611 0.376626
0.608872 0.112035 0.379749
0.967795 0.109911 0.376545
1.000000 0.106900 0.371616
0.000000 0.416901 0.387236
0.205070 0.426417 0.382113
0.667320 0.411145 0.360825
0.995813 0.391418 0.336743
1.000000 0.371295 0.312494
0.000000 0.745729 0.342905
0.198757 0.726348 0.319457
0.686283 0.706066 0.295875
1.000000 0.684892 0.272247
1.000000 0.662839 0.248666
0.000000 0.953711 0.281424
0.192322 0.941908 0.259087
0.688344 0.932566 0.243665
1.000000 0.922686 0.228526
1.000000 0.912287 0.213687
0.000000 0.000000 0.592091
0.200111 0.000000 0.612952
0.579803 0.000000 0.633033
0.926205 0.000000 0.652318
1.000000 0.000000 0.670799
0.000000 0.113252 0.671323
0.196512 0.113471 0.688677
0.616387 0.112292 0.696569
0.973340 0.109942 0.699626
1.000000 0.106704 0.700750
0.000000 0.421763 0.712025
0.205248 0.425536 0.707733
0.669462 0.406227 0.680673
0.996939 0.386489 0.652532
1.000000 0.366365 0.623369
0.000000 0.740998 0.657519
0.198411 0.721478 0.629364
0.688618 0.701061 0.600265
1.000000 0.679758 0.570295
1.000000 0.657934 0.540347
0.000000 0.950949 0.579067
0.189569 0.940134 0.554661
0.685165 0.930686 0.537278
1.000000 0.920704 0.519855
1.000000 0.910207 0.502411
0.000000 0.000000 0.839787
0.200070 0.000000 0.863911
0.582747 0.000000 0.886147
0.929602 0.000000 0.906467
1.000000 0.000000 0.924856
0.000000 0.114212 0.920886
0.196161 0.114190 0.936849
0.623909 0.112500 0.943172
0.978511 0.109924 0.948070
1.000000 0.105068 0.948269
0.000000 0.426547 0.955717
0.204729 0.420676 0.948900
0.671633 0.401350 0.931278
0.998008 0.381603 0.911330
1.000000 0.361479 0.889095
0.000000 0.736272 0.913747
0.198093 0.716614 0.892363
0.690981 0.696066 0.868829
1.000000 0.674637 0.843198
1.000000 0.654689 0.821318
0.000000 0.948141 0.848931
0.186830 0.938339 0.832594
0.681979 0.928786 0.818871
1.000000 0.918702 0.804786
1.000000 0.908107 0.790358
