luts/original/amapiano-neon-warm.cube
TITLE "Amapiano Neon Warm"
LUT_3D_SIZE 9
DOMAIN_MIN 0.0 0.0 0.0
DOMAIN_MAX 1.0 1.0 1.0
0.000000 0.000000 0.000000
0.068486 0.000000 0.000000
0.199809 0.000000 0.000000
0.374695 0.000000 0.000000
0.570449 0.000000 0.000000
0.760729 0.000000 0.000000
0.915336 0.000000 0.000000
0.999981 0.000000 0.000000
1.000000 0.000000 0.000000
0.000000 0.034269 0.000000
0.064909 0.033102 0.000000
0.200505 0.031886 0.000000
0.382692 0.030625 0.000000
0.585857 0.029321 0.000000
0.780460 0.027978 0.000000
0.932806 0.026598 0.000000
1.000000 0.025186 0.000000
1.000000 0.023720 0.000000
0.000000 0.110046 0.000000
0.059829 0.110438 0.000000
0.198741 0.110727 0.000000
0.387794 0.110912 0.000000
0.598258 0.110993 0.000000
0.800826 0.110648 0.000000
0.955650 0.109703 0.000000
1.000000 0.108536 0.000000
1.000000 0.107147 0.000000
0.000000 0.235596 0.000000
0.053403 0.239031 0.000000
0.197260 0.241438 0.000000
0.400962 0.243340 0.000000
0.630424 0.244933 0.000000
0.842334 0.246212 0.000000
0.982724 0.247172 0.000000
1.000000 0.247808 0.000000
1.000000 0.239445 0.000000
0.000000 0.406943 0.000000
0.049270 0.412248 0.000000
0.202774 0.417190 0.000000
0.422289 0.421763 0.000000
0.663123 0.421104 0.000000
0.870222 0.411307 0.000000
0.993402 0.401403 0.000000
1.000000 0.391394 0.000000
1.000000 0.381287 0.000000
0.000000 0.608227 0.000000
0.044420 0.603373 0.000000
0.203096 0.593380 0.000000
0.428310 0.583214 0.000000
0.672268 0.572877 0.000000
0.881905 0.562372 0.000000
0.998655 0.551702 0.000000
1.000000 0.540869 0.000000
1.000000 0.529879 0.000000
0.000000 0.755205 0.000000
0.039183 0.745771 0.000000
0.199533 0.736109 0.000000
0.431122 0.726220 0.000000
0.681693 0.716103 0.000000
0.893405 0.705760 0.000000
1.000000 0.695193 0.000000
1.000000 0.684403 0.000000
1.000000 0.673392 0.000000
0.000000 0.873830 0.000000
0.034355 0.865771 0.000000
0.196283 0.857428 0.000000
0.434291 0.848798 0.000000
0.691387 0.839881 0.000000
0.904678 0.830675 0.000000
1.000000 0.821181 0.000000
1.000000 0.812667 0.000000
1.000000 0.805590 0.000000
0.000000 0.959092 0.000000
0.029917 0.953497 0.000000
0.193343 0.947556 0.000000
0.437817 0.941265 0.000000
0.694679 0.936264 0.000000
0.903414 0.931495 0.000000
1.000000 0.926591 0.000000
1.000000 0.921556 0.000000
1.000000 0.916392 0.000000
0.000000 0.000000 0.039590
0.068130 0.000000 0.038110
0.199903 0.000000 0.036584
0.375543 0.000000 0.035017
0.572062 0.000000 0.033410
0.762804 0.000000 0.031769
0.917220 0.000000 0.030096
1.000000 0.000000 0.028396
1.000000 0.000000 0.026674
0.000000 0.034153 0.037596
0.064422 0.032964 0.035841
0.200388 0.031726 0.034054
0.383292 0.030444 0.032237
0.587210 0.029120 0.030395
0.782263 0.027757 0.028533
0.934386 0.026360 0.026656
1.000000 0.024931 0.024768
1.000000 0.023336 0.022650
0.000000 0.110614 0.034368
0.059223 0.110968 0.032381
0.198413 0.111218 0.030376
0.388143 0.111364 0.028359
0.599353 0.111407 0.026335
0.805188 0.110776 0.023947
0.958814 0.109774 0.021434
1.000000 0.108550 0.018909
1.000000 0.107104 0.016387
0.000000 0.237312 0.030040
0.052848 0.240555 0.027826
0.197901 0.242683 0.025279
0.403208 0.244508 0.022706
0.634125 0.246023 0.020121
0.846406 0.247224 0.017538
0.984970 0.248104 0.014974
1.000000 0.245750 0.012366
1.000000 0.237291 0.009708
0.000000 0.409462 0.024017
0.048865 0.414677 0.021372
0.203349 0.419527 0.018730
0.424517 0.424006 0.016105
0.664161 0.418599 0.013381
0.871509 0.408799 0.010720
0.994024 0.398891 0.008207
1.000000 0.388880 0.005853
1.000000 0.378772 0.003671
0.000000 0.610655 0.017269
0.043937 0.600817 0.014481
0.202841 0.590803 0.011817
0.428727 0.580618 0.009290
0.673356 0.570262 0.006909
0.883187 0.559738 0.004687
0.999146 0.549051 0.002635
1.000000 0.538202 0.000765
1.000000 0.527197 0.000000
0.000000 0.752835 0.010464
0.038749 0.743365 0.008058
0.199329 0.733667 0.005797
0.431599 0.723742 0.003693
0.682830 0.713591 0.001758
0.894678 0.703214 0.000004
1.000000 0.692614 0.000000
1.000000 0.681791 0.000000
1.000000 0.670749 0.000000
0.000000 0.871859 0.004854
0.033967 0.863747 0.002856
0.196129 0.855350 0.001026
0.434827 0.846667 0.000000
0.692571 0.837698 0.000000
0.905934 0.828441 0.000000
1.000000 0.818895 0.000000
1.000000 0.811297 0.000000
1.000000 0.804204 0.000000
0.000000 0.957765 0.000423
0.029573 0.952098 0.000000
0.193237 0.946084 0.000000
0.437413 0.940007 0.000000
0.693098 0.935347 0.000000
0.902336 0.930551 0.000000
1.000000 0.925622 0.000000
1.000000 0.920562 0.000000
1.000000 0.915373 0.000000
0.000000 0.000000 0.111367
0.067764 0.000000 0.111016
0.199980 0.000000 0.110562
0.376370 0.000000 0.110005
0.573654 0.000000 0.109345
0.764856 0.000000 0.108584
0.919075 0.000000 0.107722
1.000000 0.000000 0.106760
1.000000 0.000000 0.105699
0.000000 0.034029 0.114650
0.063924 0.032817 0.113819
0.200253 0.031558 0.112886
0.383871 0.030255 0.111851
0.588542 0.028911 0.110715
0.784044 0.027529 0.109481
0.935940 0.026114 0.108149
1.000000 0.024668 0.106721
1.000000 0.022949 0.103959
0.000000 0.111168 0.115934
0.058608 0.111484 0.114621
0.198068 0.111696 0.113210
0.388472 0.111804 0.111701
0.601364 0.111728 0.109924
0.809529 0.110891 0.106714
0.961894 0.109832 0.103300
1.000000 0.108551 0.099692
1.000000 0.107048 0.095895
0.000000 0.239013 0.115192
0.052498 0.241859 0.112777
0.198540 0.243912 0.109509
0.405459 0.245660 0.106040
0.637827 0.247098 0.102377
0.850449 0.248219 0.098528
0.987115 0.249019 0.094499
1.000000 0.243598 0.088846
1.000000 0.235151 0.082514
0.000000 0.411961 0.108826
0.048459 0.417085 0.105112
0.203923 0.421843 0.101212
0.426579 0.425797 0.097066
0.665207 0.416104 0.090745
0.872796 0.406300 0.084505
0.994634 0.396389 0.078356
1.000000 0.386377 0.072309
1.000000 0.376269 0.066377
0.000000 0.608125 0.099002
0.043459 0.598266 0.092781
0.202593 0.588233 0.086632
0.429153 0.578027 0.080563
0.674452 0.567653 0.074586
0.884470 0.557111 0.068712
0.999623 0.546407 0.062953
1.000000 0.535543 0.057320
1.000000 0.524523 0.051827
0.000000 0.750465 0.082909
0.038320 0.740959 0.077002
0.199131 0.731226 0.071187
0.432084 0.721266 0.065476
0.683974 0.711080 0.059879
0.895950 0.700670 0.054409
1.000000 0.690037 0.049078
1.000000 0.679183 0.043898
1.000000 0.668109 0.038884
0.000000 0.869883 0.068145
0.033584 0.861717 0.062585
0.195981 0.853268 0.057140
0.435371 0.844533 0.051821
0.693762 0.835511 0.046641
0.907190 0.826202 0.041612
1.000000 0.816948 0.036869
1.000000 0.809925 0.033148
1.000000 0.802815 0.029580
0.000000 0.956426 0.054721
0.029234 0.950686 0.049542
0.193139 0.944600 0.044501
0.435728 0.939111 0.040047
0.691516 0.934425 0.036202
0.901255 0.929603 0.032508
1.000000 0.924649 0.028967
1.000000 0.919563 0.025583
1.000000 0.914349 0.022356
0.000000 0.000000 0.209411
0.067386 0.000000 0.211322
0.200039 0.000000 0.213108
0.377176 0.000000 0.214767
0.575224 0.000000 0.216299
0.766883 0.000000 0.217703
0.920900 0.000000 0.218978
1.000000 0.000000 0.220122
1.000000 0.000000 0.221137
0.000000 0.033895 0.221443
0.063417 0.032661 0.222787
0.200100 0.031380 0.223999
0.384429 0.030057 0.225081
0.589852 0.028693 0.226031
0.785802 0.027293 0.226848
0.937467 0.025861 0.227534
1.000000 0.024370 0.227809
1.000000 0.022557 0.225178
0.000000 0.111709 0.231103
0.057984 0.111987 0.231855
0.197705 0.112160 0.232472
0.388780 0.112229 0.232956
0.605117 0.111887 0.232041
0.813847 0.110994 0.229348
0.964888 0.109878 0.226318
1.000000 0.108540 0.222953
1.000000 0.106980 0.219253
0.000000 0.240700 0.238284
0.052145 0.243147 0.236307
0.199179 0.245124 0.233556
0.407715 0.246796 0.230472
0.641530 0.248155 0.227055
0.854465 0.249197 0.223307
0.989133 0.249857 0.219192
1.000000 0.241459 0.209545
1.000000 0.233024 0.199921
0.000000 0.414441 0.234671
0.048051 0.419474 0.231207
0.204497 0.424140 0.227413
0.426954 0.423317 0.221343
0.666260 0.413620 0.211867
0.874085 0.403812 0.202407
0.995230 0.393898 0.192973
1.000000 0.383885 0.183576
1.000000 0.373776 0.174227
0.000000 0.605602 0.223666
0.042987 0.595721 0.214360
0.202353 0.585668 0.205063
0.429587 0.575443 0.195784
0.675555 0.565050 0.186533
0.885753 0.554492 0.177322
1.000000 0.543770 0.168161
1.000000 0.532891 0.159062
1.000000 0.521856 0.150037
0.000000 0.748097 0.198767
0.037896 0.738555 0.189663
0.198941 0.728786 0.180590
0.432577 0.718792 0.171558
0.685125 0.708572 0.162578
0.897221 0.698129 0.153662
1.000000 0.687463 0.144822
1.000000 0.676577 0.136070
1.000000 0.665472 0.127419
0.000000 0.867902 0.175130
0.033207 0.859683 0.166270
0.195840 0.851181 0.157464
0.435924 0.842394 0.148724
0.694960 0.833321 0.140060
0.908443 0.823961 0.131486
1.000000 0.815589 0.124099
1.000000 0.808549 0.118078
1.000000 0.801422 0.112170
0.000000 0.955075 0.152807
0.028899 0.949263 0.144233
0.193047 0.943104 0.135738
0.434044 0.938211 0.129142
0.689931 0.933498 0.123029
0.900168 0.928650 0.117028
1.000000 0.923670 0.111140
1.000000 0.918559 0.105367
1.000000 0.913321 0.099712
0.000000 0.000000 0.327153
0.066997 0.000000 0.331977
0.200081 0.000000 0.336669
0.377962 0.000000 0.341226
0.576773 0.000000 0.345647
0.768886 0.000000 0.349930
0.922697 0.000000 0.354074
1.000000 0.000000 0.358078
1.000000 0.000000 0.361940
0.000000 0.033753 0.349693
0.062900 0.032496 0.353906
0.199930 0.031195 0.357979
0.384966 0.029851 0.361910
0.591140 0.028468 0.365699
0.787538 0.027050 0.369344
0.938969 0.025600 0.372844
1.000000 0.023993 0.374323
1.000000 0.022162 0.373003
0.000000 0.112237 0.369629
0.057351 0.112476 0.373200
0.197324 0.112611 0.376626
0.389067 0.112641 0.379905
0.608872 0.112035 0.379749
0.818142 0.111084 0.378361
0.967795 0.109911 0.376545
1.000000 0.108516 0.374298
1.000000 0.106900 0.371616
0.000000 0.242216 0.386226
0.051789 0.244419 0.385197
0.199816 0.246321 0.383747
0.409976 0.247915 0.381874
0.645234 0.249197 0.379573
0.858451 0.250160 0.376842
0.989838 0.247719 0.370623
1.000000 0.239332 0.358451
1.000000 0.230910 0.346222
0.000000 0.416901 0.387236
0.047641 0.421843 0.384887
0.205070 0.426417 0.382113
0.427337 0.420847 0.372779
0.667320 0.411145 0.360825
0.875374 0.401334 0.348810
0.995813 0.391418 0.336743
1.000000 0.381403 0.324634
1.000000 0.371295 0.312494
0.000000 0.603083 0.375125
0.042520 0.593183 0.363389
0.202119 0.583110 0.351587
0.430030 0.572866 0.339729
0.676664 0.562455 0.327823
0.887036 0.551879 0.315880
1.000000 0.541141 0.303910
1.000000 0.530246 0.291924
1.000000 0.519197 0.279934
0.000000 0.745729 0.342905
0.037479 0.736152 0.331202
0.198757 0.726348 0.319457
0.433079 0.716319 0.307677
0.686283 0.706066 0.295875
0.898492 0.695590 0.284062
1.000000 0.684892 0.272247
1.000000 0.673974 0.260445
1.000000 0.662839 0.248666
0.000000 0.865915 0.311637
0.032834 0.857644 0.300019
0.195706 0.849090 0.288383
0.436485 0.840251 0.276738
0.696164 0.831126 0.265096
0.909696 0.821716 0.253469
1.000000 0.814227 0.245014
1.000000 0.807170 0.237395
1.000000 0.800026 0.229849
0.000000 0.953711 0.281424
0.028569 0.947827 0.269944
0.192322 0.941908 0.259087
0.432361 0.937305 0.251342
0.688344 0.932566 0.243665
0.899077 0.927692 0.236059
1.000000 0.922686 0.228526
1.000000 0.917550 0.221068
1.000000 0.912287 0.213687
0.000000 0.000000 0.457357
0.066598 0.000000 0.465234
0.200104 0.000000 0.472964
0.378727 0.000000 0.480543
0.578299 0.000000 0.487971
0.770866 0.000000 0.495246
0.924465 0.000000 0.502366
1.000000 0.000000 0.509329
1.000000 0.000000 0.516136
0.000000 0.033602 0.490344
0.062372 0.032324 0.497535
0.199742 0.031001 0.504572
0.385483 0.029637 0.511452
0.592407 0.028236 0.518175
0.789251 0.026799 0.524739
0.940445 0.025333 0.531145
1.000000 0.023612 0.533157
1.000000 0.021763 0.533484
0.000000 0.112751 0.520382
0.056711 0.112952 0.526862
0.196927 0.113048 0.533183
0.390153 0.112955 0.538643
0.612629 0.112170 0.539367
0.822414 0.111162 0.539619
0.970613 0.109933 0.539393
1.000000 0.108481 0.538686
1.000000 0.106808 0.537493
0.000000 0.243547 0.544933
0.051431 0.245675 0.545580
0.200452 0.247502 0.545760
0.412242 0.249019 0.545469
0.648939 0.250222 0.544703
0.862407 0.251105 0.543457
0.990532 0.245594 0.533667
1.000000 0.237219 0.519974
1.000000 0.228810 0.506127
0.000000 0.419342 0.551558
0.047229 0.424193 0.550737
0.205519 0.427981 0.548859
0.427729 0.418387 0.535572
0.668388 0.408681 0.522121
0.876665 0.398866 0.508515
0.996383 0.388948 0.494762
1.000000 0.378933 0.480871
1.000000 0.368824 0.466852
0.000000 0.600571 0.537669
0.042060 0.590650 0.524461
0.201892 0.580558 0.511096
0.430481 0.570295 0.497583
0.677781 0.559866 0.483930
0.888320 0.549273 0.470146
1.000000 0.538519 0.456241
1.000000 0.527609 0.442225
1.000000 0.516545 0.428109
0.000000 0.743363 0.500597
0.037066 0.733750 0.487182
0.198581 0.723912 0.473635
0.433589 0.713849 0.459963
0.687447 0.703562 0.446176
0.899763 0.693053 0.432285
1.000000 0.682323 0.418300
1.000000 0.671374 0.404232
1.000000 0.660209 0.390095
0.000000 0.863924 0.463878
0.032467 0.855601 0.450322
0.195579 0.846995 0.436657
0.437055 0.838104 0.422893
0.697375 0.828929 0.409042
0.909980 0.819847 0.395886
1.000000 0.812861 0.387342
1.000000 0.805787 0.378828
1.000000 0.798627 0.370347
0.000000 0.952336 0.427683
0.028244 0.946381 0.414049
0.190944 0.941023 0.402944
0.430678 0.936394 0.394377
0.686756 0.931628 0.385838
0.897982 0.926729 0.377330
1.000000 0.921697 0.368855
1.000000 0.916537 0.360414
1.000000 0.911249 0.352011
0.000000 0.000000 0.592091
0.066187 0.000000 0.602618
0.200111 0.000000 0.612952
0.379472 0.000000 0.623091
0.579803 0.000000 0.633033
0.772822 0.000000 0.642775
0.926205 0.000000 0.652318
1.000000 0.000000 0.661659
1.000000 0.000000 0.670799
0.000000 0.033442 0.633542
0.061836 0.032142 0.643202
0.199537 0.030799 0.652662
0.385978 0.029415 0.661922
0.593652 0.027995 0.670981
0.790942 0.026541 0.679839
0.942599 0.025028 0.687823
1.000000 0.023226 0.690168
1.000000 0.021361 0.692027
0.000000 0.113252 0.671323
0.056062 0.113414 0.680100
0.196512 0.113471 0.688677
0.392443 0.113135 0.694322
0.616387 0.112292 0.696569
0.826661 0.111228 0.698338
0.973340 0.109942 0.699626
1.000000 0.108433 0.700431
1.000000 0.106704 0.700750
0.000000 0.244862 0.700787
0.051070 0.246916 0.702941
0.201088 0.248666 0.704624
0.414513 0.250106 0.705835
0.652645 0.251231 0.706570
0.866135 0.251806 0.706482
0.991214 0.243482 0.692853
1.000000 0.235118 0.678944
1.000000 0.226722 0.664760
0.000000 0.421763 0.712025
0.046816 0.426522 0.712696
0.205248 0.425536 0.707733
0.428129 0.415937 0.694342
0.669462 0.406227 0.680673
0.877956 0.396409 0.666734
0.996939 0.386489 0.652532
1.000000 0.376473 0.638074
1.000000 0.366365 0.623369
0.000000 0.598065 0.696008
0.041605 0.588124 0.682582
0.201673 0.578012 0.668889
0.430940 0.567731 0.654935
0.678905 0.557284 0.640727
0.889603 0.546674 0.626274
1.000000 0.535905 0.611584
1.000000 0.524979 0.596667
1.000000 0.513902 0.581532
0.000000 0.740998 0.657519
0.036659 0.731350 0.643563
0.198411 0.721478 0.629364
0.434108 0.711381 0.614928
0.688618 0.701061 0.600265
0.901033 0.690519 0.585384
1.000000 0.679758 0.570295
1.000000 0.668778 0.555008
1.000000 0.657934 0.540347
0.000000 0.861928 0.618455
0.032105 0.853553 0.604048
0.195459 0.844896 0.589422
0.437633 0.835954 0.574588
0.698592 0.826728 0.559554
0.908932 0.818495 0.547508
1.000000 0.811492 0.538813
1.000000 0.804401 0.530106
1.000000 0.797225 0.521392
0.000000 0.950949 0.579067
0.027924 0.944923 0.564287
0.189569 0.940134 0.554661
0.428996 0.935478 0.545976
0.685165 0.930686 0.537278
0.896882 0.925760 0.528570
1.000000 0.920704 0.519855
1.000000 0.915518 0.511135
1.000000 0.910207 0.502411
0.000000 0.000000 0.722701
0.065766 0.000000 0.734903
0.200099 0.000000 0.746812
0.380196 0.000000 0.758428
0.581286 0.000000 0.769745
0.774755 0.000000 0.780764
0.927917 0.000000 0.791483
1.000000 0.000000 0.801900
1.000000 0.000000 0.812015
0.000000 0.033274 0.768606
0.061289 0.031952 0.779571
0.199314 0.030589 0.790239
0.386453 0.029186 0.800608
0.594875 0.027747 0.810678
0.792611 0.026276 0.820448
0.946105 0.024657 0.827300
1.000000 0.022837 0.830570
1.000000 0.020956 0.833389
0.000000 0.113739 0.809474
0.055405 0.113862 0.819200
0.196080 0.113880 0.828630
0.394738 0.113301 0.833229
0.620147 0.112402 0.836379
0.830883 0.111282 0.839088
0.975973 0.109939 0.841361
1.000000 0.108374 0.843201
1.000000 0.106583 0.844594
0.000000 0.246161 0.839083
0.050706 0.248141 0.842118
0.201722 0.249815 0.844722
0.416789 0.251178 0.846901
0.656351 0.252223 0.848656
0.867430 0.249696 0.845238
0.991884 0.241382 0.833133
1.000000 0.233030 0.820603
1.000000 0.224647 0.807654
0.000000 0.424165 0.852379
0.046401 0.428832 0.854054
0.204985 0.423101 0.846026
0.428537 0.413498 0.834128
0.670544 0.403783 0.821813
0.879248 0.393963 0.809086
0.997480 0.384041 0.795955
1.000000 0.374024 0.782424
1.000000 0.363916 0.768502
0.000000 0.595565 0.835270
0.041156 0.585604 0.823173
0.201460 0.575473 0.810672
0.431408 0.565174 0.797773
0.680035 0.554709 0.784483
0.890887 0.544083 0.770807
1.000000 0.533298 0.756753
1.000000 0.522358 0.742329
1.000000 0.511267 0.727544
0.000000 0.738634 0.799746
0.036257 0.728952 0.786698
0.198248 0.719045 0.773270
0.434635 0.708915 0.759470
0.689796 0.698562 0.745305
0.902301 0.687988 0.730783
1.000000 0.677196 0.715913
1.000000 0.666186 0.700706
1.000000 0.656312 0.688594
0.000000 0.859928 0.762346
0.031747 0.851502 0.748441
0.195346 0.842793 0.734184
0.438219 0.833801 0.719583
0.699816 0.824525 0.704647
0.907878 0.817141 0.695299
1.000000 0.810120 0.687154
1.000000 0.803012 0.678958
1.000000 0.795819 0.670714
0.000000 0.949550 0.723416
0.027418 0.943784 0.710016
0.188198 0.939239 0.701968
0.427315 0.934556 0.693867
0.683573 0.929738 0.685712
0.895778 0.924787 0.677508
1.000000 0.919705 0.669256
1.000000 0.914495 0.660958
1.000000 0.909159 0.652617
0.000000 0.000000 0.839787
0.065335 0.000000 0.852083
0.200070 0.000000 0.863911
0.380899 0.000000 0.875267
0.582747 0.000000 0.886147
0.776665 0.000000 0.896547
0.929602 0.000000 0.906467
1.000000 0.000000 0.915903
1.000000 0.000000 0.924856
0.000000 0.033096 0.884001
0.060734 0.031754 0.894423
0.199073 0.030370 0.904370
0.386907 0.028948 0.913840
0.596077 0.027491 0.922832
0.794257 0.026003 0.931347
0.949532 0.024282 0.935802
1.000000 0.022445 0.938924
1.000000 0.020548 0.941677
0.000000 0.114212 0.920886
0.054741 0.114296 0.929441
0.196161 0.114190 0.936849
0.397037 0.113456 0.940196
0.623909 0.112500 0.943172
0.835079 0.111323 0.945792
0.978511 0.109924 0.948070
1.000000 0.108303 0.950020
1.000000 0.105068 0.948269
0.000000 0.247446 0.944463
0.050340 0.249350 0.947297
0.202356 0.250948 0.949789
0.419070 0.252233 0.951951
0.660058 0.253200 0.953797
0.868725 0.247598 0.948537
0.992541 0.239295 0.939870
1.000000 0.230955 0.930604
1.000000 0.222585 0.920742
0.000000 0.426547 0.955717
0.045970 0.430170 0.956829
0.204729 0.420676 0.948900
0.428954 0.411068 0.940382
0.671633 0.401350 0.931278
0.880540 0.391526 0.921593
0.998008 0.381603 0.911330
1.000000 0.371586 0.900495
1.000000 0.361479 0.889095
0.000000 0.593070 0.940993
0.040713 0.583090 0.932057
0.201254 0.572940 0.922552
0.431884 0.562623 0.912483
0.681173 0.552141 0.901853
0.892170 0.541499 0.890669
1.000000 0.530698 0.878937
1.000000 0.519744 0.866663
1.000000 0.508640 0.853856
0.000000 0.736272 0.913747
0.035861 0.726555 0.903327
0.198093 0.716614 0.892363
0.435170 0.706451 0.880861
0.690981 0.696066 0.868829
0.903569 0.685460 0.856272
1.000000 0.674637 0.843198
1.000000 0.663596 0.829618
1.000000 0.654689 0.821318
0.000000 0.857924 0.882906
0.031395 0.849446 0.871117
0.195239 0.840686 0.858813
0.438814 0.831644 0.846001
0.699710 0.822731 0.833786
0.906820 0.815782 0.826987
1.000000 0.808745 0.820095
1.000000 0.801620 0.813113
1.000000 0.794411 0.806042
0.000000 0.948141 0.848931
0.026761 0.942911 0.839314
0.186830 0.938339 0.832594
0.425634 0.933630 0.825779
0.681979 0.928786 0.818871
0.894669 0.923809 0.811872
1.000000 0.918702 0.804786
1.000000 0.913467 0.797614
1.000000 0.908107 0.790358
