luts/original/amber-glow-portrait.cube
TITLE "Amber Glow Portrait"
LUT_3D_SIZE 33
DOMAIN_MIN 0.0 0.0 0.0
DOMAIN_MAX 1.0 1.0 1.0
0.027927 0.003781 0.003781
0.060761 0.003387 0.003387
0.093591 0.002925 0.002925
0.126417 0.002396 0.002396
0.159239 0.001800 0.001800
0.192056 0.001137 0.001137
0.224870 0.000406 0.000406
0.257680 0.000000 0.000000
0.290485 0.000000 0.000000
0.323287 0.000000 0.000000
0.356084 0.000000 0.000000
0.388878 0.000000 0.000000
0.421667 0.000000 0.000000
0.454452 0.000000 0.000000
0.487233 0.000000 0.000000
0.520011 0.000000 0.000000
0.552784 0.000000 0.000000
0.585553 0.000000 0.000000
0.618318 0.000000 0.000000
0.651079 0.000000 0.000000
0.683836 0.000000 0.000000
0.716589 0.000000 0.000000
0.749338 0.000000 0.000000
0.782083 0.000000 0.000000
0.814823 0.000000 0.000000
0.847560 0.000000 0.000000
0.880293 0.000000 0.000000
0.913021 0.000000 0.000000
0.945746 0.000000 0.000000
0.978466 0.000000 0.000000
0.997461 0.000000 0.000000
0.999365 0.000000 0.000000
1.000000 0.000000 0.000000
0.029424 0.035840 0.003883
0.060637 0.035184 0.003269
0.093460 0.034729 0.002801
0.126279 0.034215 0.002266
0.159094 0.033637 0.001663
0.191905 0.032993 0.000993
0.224712 0.032283 0.000256
0.257515 0.031996 0.000000
0.290313 0.031945 0.000000
0.323108 0.031902 0.000000
0.355899 0.031866 0.000000
0.388685 0.031836 0.000000
0.421468 0.031809 0.000000
0.454246 0.031786 0.000000
0.487021 0.031765 0.000000
0.519791 0.031747 0.000000
0.552558 0.031730 0.000000
0.585320 0.031715 0.000000
0.618078 0.031701 0.000000
0.650832 0.031689 0.000000
0.683582 0.031677 0.000000
0.716329 0.031666 0.000000
0.749071 0.031656 0.000000
0.781809 0.031646 0.000000
0.814543 0.031637 0.000000
0.847272 0.031629 0.000000
0.879998 0.031621 0.000000
0.912720 0.031614 0.000000
0.945438 0.031606 0.000000
0.978152 0.031600 0.000000
0.997461 0.031598 0.000000
0.999365 0.031605 0.000000
1.000000 0.031613 0.000000
0.030907 0.067957 0.003971
0.062118 0.067222 0.003324
0.093329 0.066530 0.002676
0.126141 0.066031 0.002135
0.158950 0.065471 0.001526
0.191754 0.064847 0.000849
0.224554 0.064159 0.000105
0.257350 0.063955 0.000000
0.290142 0.063855 0.000000
0.322929 0.063772 0.000000
0.355713 0.063702 0.000000
0.388493 0.063642 0.000000
0.421269 0.063590 0.000000
0.454040 0.063545 0.000000
0.486808 0.063504 0.000000
0.519572 0.063468 0.000000
0.552331 0.063435 0.000000
0.585087 0.063406 0.000000
0.617838 0.063379 0.000000
0.650586 0.063354 0.000000
0.683329 0.063331 0.000000
0.716068 0.063309 0.000000
0.748803 0.063290 0.000000
0.781535 0.063271 0.000000
0.814262 0.063253 0.000000
0.846985 0.063237 0.000000
0.879704 0.063221 0.000000
0.912419 0.063206 0.000000
0.945130 0.063192 0.000000
0.977837 0.063179 0.000000
0.997461 0.063176 0.000000
0.999365 0.063190 0.000000
1.000000 0.063204 0.000000
0.031699 0.099416 0.003456
0.063586 0.099316 0.003366
0.094795 0.098566 0.002685
0.126004 0.097844 0.002004
0.158805 0.097302 0.001388
0.191602 0.096699 0.000705
0.224395 0.096061 0.000000
0.257185 0.095879 0.000000
0.289970 0.095731 0.000000
0.322751 0.095610 0.000000
0.355528 0.095507 0.000000
0.388301 0.095419 0.000000
0.421070 0.095343 0.000000
0.453835 0.095276 0.000000
0.486595 0.095217 0.000000
0.519352 0.095163 0.000000
0.552105 0.095116 0.000000
0.584854 0.095072 0.000000
0.617598 0.095032 0.000000
0.650339 0.094996 0.000000
0.683075 0.094962 0.000000
0.715808 0.094930 0.000000
0.748536 0.094901 0.000000
0.781261 0.094874 0.000000
0.813981 0.094848 0.000000
0.846697 0.094823 0.000000
0.879410 0.094800 0.000000
0.912118 0.094778 0.000000
0.944822 0.094758 0.000000
0.977522 0.094738 0.000000
0.997461 0.094732 0.000000
0.999365 0.094753 0.000000
1.000000 0.094774 0.000000
0.032399 0.130801 0.002816
0.064353 0.130758 0.002775
0.096246 0.130656 0.002680
0.127453 0.129884 0.001965
0.158660 0.129131 0.001251
0.191451 0.128549 0.000561
0.224237 0.128003 0.000000
0.257020 0.127765 0.000000
0.289798 0.127574 0.000000
0.322572 0.127415 0.000000
0.355342 0.127281 0.000000
0.388109 0.127167 0.000000
0.420871 0.127067 0.000000
0.453629 0.126980 0.000000
0.486383 0.126903 0.000000
0.519133 0.126833 0.000000
0.551879 0.126771 0.000000
0.584620 0.126714 0.000000
0.617358 0.126662 0.000000
0.650092 0.126614 0.000000
0.682822 0.126570 0.000000
0.715548 0.126529 0.000000
0.748269 0.126490 0.000000
0.780987 0.126454 0.000000
0.813700 0.126421 0.000000
0.846410 0.126389 0.000000
0.879115 0.126359 0.000000
0.911817 0.126330 0.000000
0.944514 0.126303 0.000000
0.977207 0.126276 0.000000
0.997461 0.126269 0.000000
0.999365 0.126296 0.000000
1.000000 0.126323 0.000000
0.033041 0.162173 0.002099
0.065012 0.162128 0.002056
0.096982 0.162083 0.002013
0.128889 0.161977 0.001914
0.160094 0.161180 0.001166
0.191299 0.160397 0.000418
0.224079 0.159905 0.000000
0.256855 0.159616 0.000000
0.289626 0.159382 0.000000
0.322394 0.159188 0.000000
0.355157 0.159025 0.000000
0.387916 0.158885 0.000000
0.420672 0.158763 0.000000
0.453423 0.158657 0.000000
0.486170 0.158562 0.000000
0.518913 0.158477 0.000000
0.551652 0.158401 0.000000
0.584387 0.158331 0.000000
0.617118 0.158268 0.000000
0.649845 0.158209 0.000000
0.682568 0.158155 0.000000
0.715287 0.158105 0.000000
0.748002 0.158058 0.000000
0.780713 0.158013 0.000000
0.813419 0.157972 0.000000
0.846122 0.157933 0.000000
0.878821 0.157896 0.000000
0.911515 0.157861 0.000000
0.944206 0.157827 0.000000
0.976892 0.157795 0.000000
0.997461 0.157785 0.000000
0.999365 0.157817 0.000000
1.000000 0.157850 0.000000
0.033616 0.193531 0.001306
0.065607 0.193484 0.001261
0.097598 0.193437 0.001216
0.129588 0.193390 0.001172
0.161515 0.193280 0.001068
0.192718 0.192456 0.000286
0.223921 0.191769 0.000000
0.256690 0.191430 0.000000
0.289454 0.191156 0.000000
0.322215 0.190929 0.000000
0.354971 0.190738 0.000000
0.387724 0.190574 0.000000
0.420473 0.190431 0.000000
0.453217 0.190306 0.000000
0.485957 0.190195 0.000000
0.518694 0.190096 0.000000
0.551426 0.190006 0.000000
0.584154 0.189924 0.000000
0.616879 0.189849 0.000000
0.649599 0.189781 0.000000
0.682315 0.189717 0.000000
0.715027 0.189658 0.000000
0.747735 0.189602 0.000000
0.780439 0.189551 0.000000
0.813139 0.189502 0.000000
0.845835 0.189456 0.000000
0.878526 0.189412 0.000000
0.911214 0.189370 0.000000
0.943898 0.189331 0.000000
0.976578 0.189293 0.000000
0.997461 0.189280 0.000000
0.999365 0.189318 0.000000
1.000000 0.189356 0.000000
0.034119 0.224876 0.000436
0.066134 0.224827 0.000390
0.098149 0.224778 0.000343
0.130162 0.224729 0.000296
0.162175 0.224680 0.000250
0.194123 0.224566 0.000142
0.225324 0.223802 0.000000
0.256525 0.223208 0.000000
0.289282 0.222896 0.000000
0.322036 0.222638 0.000000
0.354786 0.222420 0.000000
0.387532 0.222233 0.000000
0.420273 0.222071 0.000000
0.453011 0.221928 0.000000
0.485745 0.221802 0.000000
0.518474 0.221688 0.000000
0.551200 0.221586 0.000000
0.583921 0.221493 0.000000
0.616639 0.221407 0.000000
0.649352 0.221329 0.000000
0.682061 0.221256 0.000000
0.714766 0.221188 0.000000
0.747468 0.221125 0.000000
0.780165 0.221066 0.000000
0.812858 0.221010 0.000000
0.845547 0.220957 0.000000
0.878232 0.220907 0.000000
0.910913 0.220860 0.000000
0.943590 0.220814 0.000000
0.976263 0.220771 0.000000
0.997461 0.220755 0.000000
0.999365 0.220798 0.000000
1.000000 0.220840 0.000000
0.034926 0.256207 0.000000
0.066932 0.256156 0.000000
0.098926 0.256105 0.000000
0.130906 0.256054 0.000000
0.162874 0.256002 0.000000
0.194829 0.255951 0.000000
0.226713 0.255842 0.000000
0.257912 0.255154 0.000000
0.289111 0.254602 0.000000
0.321858 0.254314 0.000000
0.354601 0.254071 0.000000
0.387340 0.253863 0.000000
0.420074 0.253682 0.000000
0.452805 0.253523 0.000000
0.485532 0.253382 0.000000
0.518255 0.253255 0.000000
0.550973 0.253141 0.000000
0.583688 0.253037 0.000000
0.616399 0.252941 0.000000
0.649105 0.252854 0.000000
0.681808 0.252772 0.000000
0.714506 0.252697 0.000000
0.747200 0.252626 0.000000
0.779891 0.252559 0.000000
0.812577 0.252497 0.000000
0.845259 0.252438 0.000000
0.877938 0.252382 0.000000
0.910612 0.252328 0.000000
0.943282 0.252277 0.000000
0.975948 0.252229 0.000000
0.997461 0.252210 0.000000
0.999365 0.252256 0.000000
1.000000 0.252303 0.000000
0.036083 0.287524 0.000000
0.068012 0.287471 0.000000
0.099929 0.287418 0.000000
0.131834 0.287365 0.000000
0.163728 0.287312 0.000000
0.195610 0.287259 0.000000
0.227480 0.287206 0.000000
0.259285 0.287100 0.000000
0.290482 0.286473 0.000000
0.321679 0.285958 0.000000
0.354415 0.285692 0.000000
0.387147 0.285464 0.000000
0.419875 0.285265 0.000000
0.452599 0.285091 0.000000
0.485319 0.284936 0.000000
0.518035 0.284797 0.000000
0.550747 0.284671 0.000000
0.583455 0.284556 0.000000
0.616159 0.284452 0.000000
0.648858 0.284355 0.000000
0.681554 0.284265 0.000000
0.714246 0.284182 0.000000
0.746933 0.284104 0.000000
0.779617 0.284031 0.000000
0.812296 0.283962 0.000000
0.844972 0.283897 0.000000
0.877643 0.283835 0.000000
0.910311 0.283776 0.000000
0.942974 0.283720 0.000000
0.975633 0.283666 0.000000
0.997461 0.283644 0.000000
0.999365 0.283695 0.000000
1.000000 0.283745 0.000000
0.037269 0.318828 0.000000
0.069135 0.318773 0.000000
0.100990 0.318718 0.000000
0.132834 0.318662 0.000000
0.164666 0.318607 0.000000
0.196488 0.318552 0.000000
0.228299 0.318497 0.000000
0.260098 0.318442 0.000000
0.291840 0.318340 0.000000
0.323035 0.317763 0.000000
0.354230 0.317282 0.000000
0.386955 0.317035 0.000000
0.419676 0.316820 0.000000
0.452394 0.316631 0.000000
0.485107 0.316463 0.000000
0.517816 0.316312 0.000000
0.550521 0.316176 0.000000
0.583222 0.316052 0.000000
0.615919 0.315938 0.000000
0.648612 0.315833 0.000000
0.681301 0.315736 0.000000
0.713985 0.315645 0.000000
0.746666 0.315560 0.000000
0.779343 0.315481 0.000000
0.812016 0.315406 0.000000
0.844684 0.315335 0.000000
0.877349 0.315267 0.000000
0.910009 0.315203 0.000000
0.942666 0.315142 0.000000
0.975318 0.315083 0.000000
0.997461 0.315058 0.000000
0.999365 0.315112 0.000000
1.000000 0.315166 0.000000
0.038478 0.350118 0.000000
0.070290 0.350061 0.000000
0.102093 0.350004 0.000000
0.133885 0.349947 0.000000
0.165667 0.349889 0.000000
0.197438 0.349832 0.000000
0.229199 0.349775 0.000000
0.260950 0.349718 0.000000
0.292690 0.349661 0.000000
0.324377 0.349561 0.000000
0.355570 0.349028 0.000000
0.386763 0.348577 0.000000
0.419477 0.348347 0.000000
0.452188 0.348144 0.000000
0.484894 0.347964 0.000000
0.517596 0.347802 0.000000
0.550295 0.347656 0.000000
0.582989 0.347522 0.000000
0.615679 0.347400 0.000000
0.648365 0.347287 0.000000
0.681047 0.347183 0.000000
0.713725 0.347086 0.000000
0.746399 0.346994 0.000000
0.779069 0.346909 0.000000
0.811735 0.346828 0.000000
0.844397 0.346751 0.000000
0.877054 0.346679 0.000000
0.909708 0.346610 0.000000
0.942358 0.346544 0.000000
0.975003 0.346480 0.000000
0.997461 0.346451 0.000000
0.999365 0.346508 0.000000
1.000000 0.346565 0.000000
0.039702 0.381395 0.000000
0.071470 0.381335 0.000000
0.103228 0.381276 0.000000
0.134976 0.381217 0.000000
0.166714 0.381158 0.000000
0.198442 0.381099 0.000000
0.230160 0.381040 0.000000
0.261869 0.380980 0.000000
0.293568 0.380921 0.000000
0.325256 0.380862 0.000000
0.356897 0.380764 0.000000
0.388087 0.380269 0.000000
0.419278 0.379845 0.000000
0.451982 0.379629 0.000000
0.484681 0.379438 0.000000
0.517377 0.379266 0.000000
0.550068 0.379111 0.000000
0.582756 0.378969 0.000000
0.615439 0.378839 0.000000
0.648118 0.378719 0.000000
0.680794 0.378607 0.000000
0.713465 0.378503 0.000000
0.746132 0.378406 0.000000
0.778795 0.378315 0.000000
0.811454 0.378228 0.000000
0.844109 0.378147 0.000000
0.876760 0.378069 0.000000
0.909407 0.377995 0.000000
0.942050 0.377925 0.000000
0.974689 0.377857 0.000000
0.997461 0.377824 0.000000
0.999365 0.377884 0.000000
1.000000 0.377943 0.000000
0.040939 0.412657 0.000000
0.072668 0.412596 0.000000
0.104387 0.412535 0.000000
0.136096 0.412474 0.000000
0.167796 0.412413 0.000000
0.199487 0.412351 0.000000
0.231168 0.412290 0.000000
0.262840 0.412229 0.000000
0.294503 0.412168 0.000000
0.326156 0.412107 0.000000
0.357799 0.412045 0.000000
0.389398 0.411949 0.000000
0.420587 0.411488 0.000000
0.451776 0.411088 0.000000
0.484469 0.410886 0.000000
0.517157 0.410705 0.000000
0.549842 0.410540 0.000000
0.582523 0.410391 0.000000
0.615199 0.410253 0.000000
0.647872 0.410126 0.000000
0.680540 0.410009 0.000000
0.713204 0.409899 0.000000
0.745865 0.409796 0.000000
0.778521 0.409699 0.000000
0.811173 0.409608 0.000000
0.843821 0.409521 0.000000
0.876466 0.409439 0.000000
0.909106 0.409360 0.000000
0.941742 0.409285 0.000000
0.974374 0.409213 0.000000
0.997461 0.409176 0.000000
0.999365 0.409238 0.000000
1.000000 0.409300 0.000000
0.042186 0.443907 0.000000
0.073880 0.443843 0.000000
0.105565 0.443780 0.000000
0.137240 0.443717 0.000000
0.168907 0.443654 0.000000
0.200564 0.443591 0.000000
0.232213 0.443527 0.000000
0.263853 0.443464 0.000000
0.295483 0.443401 0.000000
0.327105 0.443338 0.000000
0.358717 0.443274 0.000000
0.390320 0.443211 0.000000
0.421882 0.443116 0.000000
0.453069 0.442685 0.000000
0.484256 0.442307 0.000000
0.516938 0.442117 0.000000
0.549616 0.441945 0.000000
0.582289 0.441788 0.000000
0.614959 0.441644 0.000000
0.647625 0.441511 0.000000
0.680286 0.441387 0.000000
0.712944 0.441271 0.000000
0.745598 0.441163 0.000000
0.778247 0.441061 0.000000
0.810893 0.440965 0.000000
0.843534 0.440874 0.000000
0.876171 0.440787 0.000000
0.908805 0.440704 0.000000
0.941434 0.440625 0.000000
0.974059 0.440549 0.000000
0.997461 0.440509 0.000000
0.999365 0.440573 0.000000
1.000000 0.440636 0.000000
0.043441 0.475142 0.000000
0.075104 0.475077 0.000000
0.106758 0.475012 0.000000
0.138403 0.474947 0.000000
0.170040 0.474881 0.000000
0.201668 0.474816 0.000000
0.233287 0.474751 0.000000
0.264898 0.474686 0.000000
0.296500 0.474620 0.000000
0.328093 0.474555 0.000000
0.359677 0.474490 0.000000
0.391253 0.474425 0.000000
0.422820 0.474359 0.000000
0.454349 0.474265 0.000000
0.485534 0.473861 0.000000
0.516718 0.473504 0.000000
0.549389 0.473325 0.000000
0.582056 0.473161 0.000000
0.614719 0.473011 0.000000
0.647378 0.472872 0.000000
0.680033 0.472742 0.000000
0.712684 0.472622 0.000000
0.745330 0.472508 0.000000
0.777973 0.472402 0.000000
0.810612 0.472301 0.000000
0.843246 0.472206 0.000000
0.875877 0.472115 0.000000
0.908503 0.472028 0.000000
0.941126 0.471945 0.000000
0.973744 0.471865 0.000000
0.997461 0.471821 0.000000
0.999365 0.471886 0.000000
1.000000 0.471951 0.000000
0.044702 0.506364 0.000000
0.076337 0.506297 0.000000
0.107964 0.506230 0.000000
0.139582 0.506163 0.000000
0.171191 0.506095 0.000000
0.202792 0.506028 0.000000
0.234385 0.505961 0.000000
0.265970 0.505894 0.000000
0.297546 0.505826 0.000000
0.329113 0.505759 0.000000
0.360672 0.505692 0.000000
0.392223 0.505624 0.000000
0.423765 0.505557 0.000000
0.455299 0.505490 0.000000
0.486798 0.505396 0.000000
0.517980 0.505017 0.000000
0.549163 0.504680 0.000000
0.581823 0.504510 0.000000
0.614479 0.504354 0.000000
0.647131 0.504209 0.000000
0.679779 0.504075 0.000000
0.712423 0.503949 0.000000
0.745063 0.503832 0.000000
0.777699 0.503721 0.000000
0.810331 0.503616 0.000000
0.842959 0.503516 0.000000
0.875582 0.503421 0.000000
0.908202 0.503331 0.000000
0.940818 0.503244 0.000000
0.973429 0.503161 0.000000
0.997461 0.503113 0.000000
0.999365 0.503179 0.000000
1.000000 0.503244 0.000000
0.045969 0.537573 0.000000
0.077578 0.537503 0.000000
0.109180 0.537434 0.000000
0.140773 0.537365 0.000000
0.172358 0.537296 0.000000
0.203934 0.537226 0.000000
0.235503 0.537157 0.000000
0.267063 0.537088 0.000000
0.298616 0.537018 0.000000
0.330160 0.536949 0.000000
0.361696 0.536880 0.000000
0.393224 0.536811 0.000000
0.424743 0.536741 0.000000
0.456255 0.536672 0.000000
0.487758 0.536603 0.000000
0.519229 0.536509 0.000000
0.550409 0.536153 0.000000
0.581590 0.535834 0.000000
0.614239 0.535673 0.000000
0.646885 0.535523 0.000000
0.679526 0.535384 0.000000
0.712163 0.535254 0.000000
0.744796 0.535132 0.000000
0.777425 0.535017 0.000000
0.810050 0.534909 0.000000
0.842671 0.534805 0.000000
0.875288 0.534707 0.000000
0.907901 0.534613 0.000000
0.940510 0.534523 0.000000
0.973114 0.534436 0.000000
0.997461 0.534384 0.000000
0.999365 0.534450 0.000000
1.000000 0.534517 0.000000
0.047240 0.568768 0.000000
0.078826 0.568696 0.000000
0.110404 0.568625 0.000000
0.141974 0.568554 0.000000
0.173536 0.568482 0.000000
0.205091 0.568411 0.000000
0.236637 0.568340 0.000000
0.268175 0.568268 0.000000
0.299706 0.568197 0.000000
0.331229 0.568126 0.000000
0.362743 0.568054 0.000000
0.394250 0.567983 0.000000
0.425749 0.567912 0.000000
0.457240 0.567840 0.000000
0.488723 0.567769 0.000000
0.520198 0.567698 0.000000
0.551642 0.567604 0.000000
0.582821 0.567269 0.000000
0.614000 0.566968 0.000000
0.646638 0.566814 0.000000
0.679272 0.566671 0.000000
0.711903 0.566537 0.000000
0.744529 0.566411 0.000000
0.777151 0.566292 0.000000
0.809769 0.566180 0.000000
0.842384 0.566073 0.000000
0.874994 0.565971 0.000000
0.907600 0.565874 0.000000
0.940202 0.565781 0.000000
0.972800 0.565691 0.000000
0.997461 0.565635 0.000000
0.999365 0.565702 0.000000
1.000000 0.565768 0.000000
0.048515 0.599949 0.000000
0.080079 0.599875 0.000000
0.111636 0.599802 0.000000
0.143184 0.599729 0.000000
0.174726 0.599655 0.000000
0.206259 0.599582 0.000000
0.237785 0.599509 0.000000
0.269303 0.599435 0.000000
0.300813 0.599362 0.000000
0.332316 0.599289 0.000000
0.363811 0.599215 0.000000
0.395298 0.599142 0.000000
0.426777 0.599069 0.000000
0.458249 0.598995 0.000000
0.489713 0.598922 0.000000
0.521169 0.598849 0.000000
0.552618 0.598775 0.000000
0.584038 0.598681 0.000000
0.615215 0.598366 0.000000
0.646391 0.598081 0.000000
0.679019 0.597934 0.000000
0.711642 0.597797 0.000000
0.744262 0.597668 0.000000
0.776877 0.597546 0.000000
0.809489 0.597430 0.000000
0.842096 0.597320 0.000000
0.874699 0.597215 0.000000
0.907299 0.597115 0.000000
0.939894 0.597019 0.000000
0.972485 0.596926 0.000000
0.997461 0.596866 0.000000
0.999365 0.596932 0.000000
1.000000 0.596998 0.000000
0.049792 0.631116 0.000000
0.081337 0.631041 0.000000
0.112873 0.630966 0.000000
0.144402 0.630890 0.000000
0.175924 0.630815 0.000000
0.207438 0.630740 0.000000
0.238945 0.630664 0.000000
0.270444 0.630589 0.000000
0.301935 0.630513 0.000000
0.333419 0.630438 0.000000
0.364895 0.630363 0.000000
0.396364 0.630287 0.000000
0.427825 0.630212 0.000000
0.459279 0.630137 0.000000
0.490725 0.630061 0.000000
0.522164 0.629986 0.000000
0.553595 0.629910 0.000000
0.585019 0.629835 0.000000
0.616416 0.629741 0.000000
0.647591 0.629444 0.000000
0.678765 0.629175 0.000000
0.711382 0.629034 0.000000
0.743995 0.628902 0.000000
0.776603 0.628777 0.000000
0.809208 0.628658 0.000000
0.841808 0.628545 0.000000
0.874405 0.628438 0.000000
0.906997 0.628335 0.000000
0.939586 0.628236 0.000000
0.972170 0.628141 0.000000
0.997461 0.628077 0.000000
0.999365 0.628142 0.000000
1.000000 0.628208 0.000000
0.051073 0.662270 0.000000
0.082598 0.662193 0.000000
0.114116 0.662116 0.000000
0.145627 0.662038 0.000000
0.177130 0.661961 0.000000
0.208626 0.661883 0.000000
0.240114 0.661806 0.000000
0.271595 0.661729 0.000000
0.303069 0.661651 0.000000
0.334535 0.661574 0.000000
0.365994 0.661496 0.000000
0.397446 0.661419 0.000000
0.428890 0.661342 0.000000
0.460327 0.661264 0.000000
0.491757 0.661187 0.000000
0.523179 0.661109 0.000000
0.554594 0.661032 0.000000
0.586001 0.660955 0.000000
0.617401 0.660877 0.000000
0.648776 0.660783 0.000000
0.679949 0.660504 0.000000
0.711122 0.660249 0.000000
0.743728 0.660114 0.000000
0.776329 0.659986 0.000000
0.808927 0.659865 0.000000
0.841521 0.659750 0.000000
0.874110 0.659640 0.000000
0.906696 0.659534 0.000000
0.939278 0.659433 0.000000
0.971855 0.659335 0.000000
0.997461 0.659268 0.000000
0.999365 0.659332 0.000000
1.000000 0.659396 0.000000
0.052356 0.693411 0.000000
0.083863 0.693331 0.000000
0.115364 0.693252 0.000000
0.146857 0.693172 0.000000
0.178343 0.693093 0.000000
0.209821 0.693014 0.000000
0.241293 0.692934 0.000000
0.272757 0.692855 0.000000
0.304214 0.692775 0.000000
0.335664 0.692696 0.000000
0.367106 0.692616 0.000000
0.398542 0.692537 0.000000
0.429970 0.692458 0.000000
0.461391 0.692378 0.000000
0.492804 0.692299 0.000000
0.524211 0.692219 0.000000
0.555610 0.692140 0.000000
0.587002 0.692061 0.000000
0.618387 0.691981 0.000000
0.649765 0.691902 0.000000
0.681119 0.691807 0.000000
0.712290 0.691544 0.000000
0.743460 0.691304 0.000000
0.776055 0.691174 0.000000
0.808646 0.691050 0.000000
0.841233 0.690933 0.000000
0.873816 0.690820 0.000000
0.906395 0.690713 0.000000
0.938970 0.690609 0.000000
0.971540 0.690509 0.000000
0.997461 0.690439 0.000000
0.999365 0.690501 0.000000
1.000000 0.690563 0.000000
0.053641 0.724537 0.000000
0.085131 0.724456 0.000000
0.116615 0.724374 0.000000
0.148091 0.724293 0.000000
0.179561 0.724212 0.000000
0.211023 0.724130 0.000000
0.242479 0.724049 0.000000
0.273927 0.723967 0.000000
0.305368 0.723886 0.000000
0.336802 0.723804 0.000000
0.368229 0.723723 0.000000
0.399649 0.723641 0.000000
0.431062 0.723560 0.000000
0.462467 0.723479 0.000000
0.493866 0.723397 0.000000
0.525258 0.723316 0.000000
0.556642 0.723234 0.000000
0.588020 0.723153 0.000000
0.619390 0.723071 0.000000
0.650753 0.722990 0.000000
0.682109 0.722909 0.000000
0.713444 0.722813 0.000000
0.744613 0.722566 0.000000
0.775781 0.722340 0.000000
0.808366 0.722214 0.000000
0.840946 0.722095 0.000000
0.873522 0.721980 0.000000
0.906094 0.721870 0.000000
0.938662 0.721765 0.000000
0.971226 0.721663 0.000000
0.997461 0.721589 0.000000
0.999365 0.721649 0.000000
1.000000 0.721709 0.000000
0.054927 0.755650 0.000000
0.086402 0.755567 0.000000
0.117870 0.755483 0.000000
0.149330 0.755400 0.000000
0.180784 0.755316 0.000000
0.212231 0.755233 0.000000
0.243671 0.755150 0.000000
0.275104 0.755066 0.000000
0.306530 0.754983 0.000000
0.337949 0.754899 0.000000
0.369361 0.754816 0.000000
0.400767 0.754732 0.000000
0.432165 0.754649 0.000000
0.463556 0.754565 0.000000
0.494940 0.754482 0.000000
0.526318 0.754398 0.000000
0.557688 0.754315 0.000000
0.589052 0.754232 0.000000
0.620408 0.754148 0.000000
0.651758 0.754065 0.000000
0.683100 0.753981 0.000000
0.714436 0.753898 0.000000
0.745752 0.753802 0.000000
0.776918 0.753570 0.000000
0.808085 0.753356 0.000000
0.840658 0.753235 0.000000
0.873227 0.753119 0.000000
0.905792 0.753007 0.000000
0.938354 0.752900 0.000000
0.970911 0.752797 0.000000
0.997461 0.752719 0.000000
0.999365 0.752777 0.000000
1.000000 0.752834 0.000000
0.056215 0.786750 0.000000
0.087675 0.786664 0.000000
0.119127 0.786579 0.000000
0.150573 0.786493 0.000000
0.182012 0.786408 0.000000
0.213444 0.786322 0.000000
0.244870 0.786237 0.000000
0.276288 0.786151 0.000000
0.307700 0.786066 0.000000
0.339104 0.785980 0.000000
0.370502 0.785895 0.000000
0.401893 0.785809 0.000000
0.433278 0.785724 0.000000
0.464655 0.785639 0.000000
0.496026 0.785553 0.000000
0.527389 0.785468 0.000000
0.558746 0.785382 0.000000
0.590096 0.785297 0.000000
0.621439 0.785211 0.000000
0.652776 0.785126 0.000000
0.684105 0.785040 0.000000
0.715428 0.784955 0.000000
0.746744 0.784869 0.000000
0.778041 0.784772 0.000000
0.809206 0.784555 0.000000
0.840370 0.784354 0.000000
0.872933 0.784237 0.000000
0.905491 0.784124 0.000000
0.938046 0.784015 0.000000
0.970596 0.783910 0.000000
0.997461 0.783830 0.000000
0.999365 0.783884 0.000000
1.000000 0.783939 0.000000
0.057505 0.817836 0.000000
0.088950 0.817748 0.000000
0.120388 0.817661 0.000000
0.151819 0.817573 0.000000
0.183244 0.817486 0.000000
0.214662 0.817398 0.000000
0.246073 0.817311 0.000000
0.277478 0.817223 0.000000
0.308875 0.817136 0.000000
0.340266 0.817048 0.000000
0.371651 0.816961 0.000000
0.403028 0.816873 0.000000
0.434399 0.816786 0.000000
0.465763 0.816698 0.000000
0.497120 0.816611 0.000000
0.528471 0.816523 0.000000
0.559815 0.816436 0.000000
0.591152 0.816348 0.000000
0.622482 0.816260 0.000000
0.653806 0.816173 0.000000
0.685123 0.816085 0.000000
0.716433 0.815998 0.000000
0.747737 0.815910 0.000000
0.779033 0.815823 0.000000
0.810314 0.815726 0.000000
0.841476 0.815522 0.000000
0.872639 0.815334 0.000000
