luts/original/amber-glow-portrait.cube
TITLE "Amber Glow Portrait"
LUT_3D_SIZE 5
DOMAIN_MIN 0.0 0.0 0.0
DOMAIN_MAX 1.0 1.0 1.0
0.027927 0.003781 0.003781
0.290485 0.000000 0.000000
0.552784 0.000000 0.000000
0.814823 0.000000 0.000000
1.000000 0.000000 0.000000
0.034926 0.256207 0.000000
0.289111 0.254602 0.000000
0.550973 0.253141 0.000000
0.812577 0.252497 0.000000
1.000000 0.252303 0.000000
0.044702 0.506364 0.000000
0.297546 0.505826 0.000000
0.549163 0.504680 0.000000
0.810331 0.503616 0.000000
1.000000 0.503244 0.000000
0.054927 0.755650 0.000000
0.306530 0.754983 0.000000
0.557688 0.754315 0.000000
0.808085 0.753356 0.000000
1.000000 0.752834 0.000000
0.065265 1.000000 0.000000
0.316033 1.000000 0.000000
0.566399 1.000000 0.000000
0.816366 1.000000 0.000000
1.000000 1.000000 0.000000
0.037474 0.002364 0.224166
0.290383 0.000000 0.220840
0.552649 0.000000 0.208998
0.814655 0.000000 0.197882
1.000000 0.000000 0.187173
0.032705 0.256104 0.220433
0.289008 0.251517 0.214026
0.550838 0.240868 0.193671
0.812409 0.227007 0.169008
1.000000 0.212961 0.143929
0.032918 0.506229 0.199909
0.289488 0.505691 0.194656
0.549028 0.501847 0.191951
0.810163 0.488518 0.166874
1.000000 0.475721 0.141247
0.028240 0.755483 0.174915
0.284887 0.754815 0.168730
0.548233 0.754147 0.168096
0.807917 0.749940 0.164740
1.000000 0.738379 0.138565
0.018864 1.000000 0.145308
0.276073 1.000000 0.138067
0.540648 1.000000 0.137270
0.805193 1.000000 0.136473
1.000000 1.000000 0.135883
0.045320 0.000000 0.465792
0.300486 0.000000 0.465254
0.552466 0.000000 0.462739
0.814429 0.000000 0.450895
1.000000 0.000000 0.439989
0.036658 0.250320 0.463982
0.291433 0.242271 0.463444
0.550655 0.237373 0.454896
0.812183 0.223230 0.430094
1.000000 0.208658 0.406135
0.032744 0.506046 0.459605
0.282233 0.505508 0.455607
0.548845 0.495311 0.441778
0.809936 0.476981 0.416658
1.000000 0.461790 0.390976
0.028024 0.755256 0.436255
0.277390 0.754588 0.427242
0.539798 0.753920 0.417881
0.807690 0.747387 0.414524
1.000000 0.731333 0.388294
0.018594 1.000000 0.408456
0.267796 1.000000 0.396591
0.528544 1.000000 0.386999
0.799902 1.000000 0.386202
1.000000 1.000000 0.385612
0.055554 0.000000 0.707330
0.309542 0.000000 0.706662
0.563042 0.000000 0.705995
0.814202 0.000000 0.703770
1.000000 0.000000 0.692667
0.034798 0.239062 0.705084
0.288516 0.229727 0.704416
0.554598 0.229092 0.703749
0.811956 0.223014 0.695142
1.000000 0.208387 0.672715
0.032665 0.498608 0.702838
0.282030 0.492100 0.702170
0.541579 0.476958 0.701502
0.809710 0.470880 0.686641
1.000000 0.455705 0.659419
0.027809 0.755029 0.697588
0.277175 0.754361 0.695198
0.526540 0.753694 0.688157
0.807463 0.735886 0.664309
1.000000 0.713441 0.638023
0.018323 1.000000 0.671596
0.267526 1.000000 0.664633
0.516728 1.000000 0.650576
0.786627 1.000000 0.635931
1.000000 1.000000 0.635341
0.065958 0.000000 0.948780
0.319374 0.000000 0.947983
0.572363 0.000000 0.947186
0.824927 0.000000 0.946388
1.000000 0.000000 0.945207
0.028793 0.223852 0.946098
0.282521 0.213036 0.945301
0.548995 0.212278 0.944504
0.815440 0.211521 0.943706
1.000000 0.208116 0.939283
0.026245 0.484831 0.943416
0.275488 0.474551 0.942619
0.531767 0.459731 0.941822
0.808045 0.458973 0.941024
1.000000 0.455434 0.934412
0.023697 0.745732 0.940734
0.272940 0.740914 0.939937
0.522183 0.730661 0.939140
0.787910 0.706425 0.938342
1.000000 0.702752 0.925164
0.018052 1.000000 0.934729
0.267255 1.000000 0.932660
0.516458 1.000000 0.929129
0.765660 1.000000 0.918209
1.000000 1.000000 0.885070
