luts/original/amber-glow-portrait.cube
TITLE "Amber Glow Portrait"
LUT_3D_SIZE 9
DOMAIN_MIN 0.0 0.0 0.0
DOMAIN_MAX 1.0 1.0 1.0
0.027927 0.003781 0.003781
0.159239 0.001800 0.001800
0.290485 0.000000 0.000000
0.421667 0.000000 0.000000
0.552784 0.000000 0.000000
0.683836 0.000000 0.000000
0.814823 0.000000 0.000000
0.945746 0.000000 0.000000
1.000000 0.000000 0.000000
0.032399 0.130801 0.002816
0.158660 0.129131 0.001251
0.289798 0.127574 0.000000
0.420871 0.127067 0.000000
0.551879 0.126771 0.000000
0.682822 0.126570 0.000000
0.813700 0.126421 0.000000
0.944514 0.126303 0.000000
1.000000 0.126323 0.000000
0.034926 0.256207 0.000000
0.162874 0.256002 0.000000
0.289111 0.254602 0.000000
0.420074 0.253682 0.000000
0.550973 0.253141 0.000000
0.681808 0.252772 0.000000
0.812577 0.252497 0.000000
0.943282 0.252277 0.000000
1.000000 0.252303 0.000000
0.039702 0.381395 0.000000
0.166714 0.381158 0.000000
0.293568 0.380921 0.000000
0.419278 0.379845 0.000000
0.550068 0.379111 0.000000
0.680794 0.378607 0.000000
0.811454 0.378228 0.000000
0.942050 0.377925 0.000000
1.000000 0.377943 0.000000
0.044702 0.506364 0.000000
0.171191 0.506095 0.000000
0.297546 0.505826 0.000000
0.423765 0.505557 0.000000
0.549163 0.504680 0.000000
0.679779 0.504075 0.000000
0.810331 0.503616 0.000000
0.940818 0.503244 0.000000
1.000000 0.503244 0.000000
0.049792 0.631116 0.000000
0.175924 0.630815 0.000000
0.301935 0.630513 0.000000
0.427825 0.630212 0.000000
0.553595 0.629910 0.000000
0.678765 0.629175 0.000000
0.809208 0.628658 0.000000
0.939586 0.628236 0.000000
1.000000 0.628208 0.000000
0.054927 0.755650 0.000000
0.180784 0.755316 0.000000
0.306530 0.754983 0.000000
0.432165 0.754649 0.000000
0.557688 0.754315 0.000000
0.683100 0.753981 0.000000
0.808085 0.753356 0.000000
0.938354 0.752900 0.000000
1.000000 0.752834 0.000000
0.060088 0.879966 0.000000
0.185718 0.879600 0.000000
0.311243 0.879234 0.000000
0.436664 0.878868 0.000000
0.561980 0.878502 0.000000
0.687191 0.878135 0.000000
0.812298 0.877769 0.000000
0.937122 0.877237 0.000000
1.000000 0.877126 0.000000
0.065265 1.000000 0.000000
0.190699 1.000000 0.000000
0.316033 1.000000 0.000000
0.441266 1.000000 0.000000
0.566399 1.000000 0.000000
0.691432 1.000000 0.000000
0.816366 1.000000 0.000000
0.941199 1.000000 0.000000
1.000000 1.000000 0.000000
0.034383 0.004632 0.103188
0.159211 0.001774 0.100134
0.290452 0.000000 0.093047
0.421628 0.000000 0.087502
0.552740 0.000000 0.082066
0.683787 0.000000 0.076681
0.814769 0.000000 0.071323
0.945686 0.000000 0.065981
1.000000 0.000000 0.060713
0.031050 0.130773 0.099758
0.158632 0.128413 0.098193
0.289765 0.125197 0.089745
0.420832 0.121110 0.080220
0.551835 0.115999 0.069618
0.682773 0.109831 0.057939
0.813646 0.102598 0.045182
0.944454 0.094293 0.031349
1.000000 0.088901 0.020405
0.032948 0.256173 0.091146
0.162164 0.255969 0.090952
0.289077 0.253634 0.089092
0.420036 0.249750 0.079464
0.550930 0.244940 0.068758
0.681759 0.239115 0.056975
0.812523 0.232243 0.044115
0.943222 0.224312 0.030178
1.000000 0.219269 0.019064
0.033681 0.381356 0.081312
0.162995 0.381119 0.081087
0.292300 0.380883 0.080862
0.419240 0.378363 0.078707
0.550024 0.373859 0.067898
0.680744 0.368378 0.056012
0.811400 0.361870 0.043048
0.941990 0.354314 0.029008
1.000000 0.349617 0.017723
0.033200 0.506321 0.070254
0.162824 0.506051 0.069999
0.292441 0.505782 0.069743
0.422050 0.505513 0.069488
0.549119 0.502756 0.067038
0.679730 0.497621 0.055048
0.810277 0.491478 0.041981
0.940758 0.484298 0.027837
1.000000 0.479946 0.016382
0.031499 0.631067 0.057975
0.161505 0.630766 0.057688
0.291504 0.630464 0.057402
0.421496 0.630163 0.057116
0.551482 0.629861 0.056829
0.678716 0.626844 0.054085
0.809153 0.621068 0.040915
0.939526 0.614264 0.026667
1.000000 0.610256 0.015041
0.028577 0.755596 0.044472
0.158997 0.755262 0.044155
0.289411 0.754928 0.043838
0.419819 0.754594 0.043521
0.550220 0.754261 0.043204
0.680616 0.753927 0.042887
0.808030 0.750639 0.039848
0.938294 0.744213 0.025496
1.000000 0.740547 0.013700
0.024433 0.879907 0.029747
0.155285 0.879541 0.029399
0.286131 0.879174 0.029052
0.416971 0.878808 0.028704
0.547806 0.878442 0.028356
0.678635 0.878076 0.028008
0.809459 0.877709 0.027660
0.937062 0.874145 0.024326
1.000000 0.870819 0.012359
0.019267 1.000000 0.014000
0.150543 1.000000 0.013601
0.281813 1.000000 0.013202
0.413077 1.000000 0.012804
0.544336 1.000000 0.012405
0.675589 1.000000 0.012007
0.806836 1.000000 0.011608
0.938078 1.000000 0.011209
1.000000 1.000000 0.011018
0.037474 0.002364 0.224166
0.165587 0.002042 0.223824
0.290383 0.000000 0.220840
0.421548 0.000000 0.214751
0.552649 0.000000 0.208998
0.683684 0.000000 0.203398
0.814655 0.000000 0.197882
0.945562 0.000000 0.192415
1.000000 0.000000 0.187173
0.035024 0.129251 0.223479
0.164900 0.126389 0.222875
0.289695 0.122992 0.217329
0.420752 0.118738 0.207700
0.551743 0.113406 0.197185
0.682670 0.106998 0.185657
0.813532 0.099512 0.173082
0.944330 0.090949 0.159445
1.000000 0.085270 0.148739
0.032705 0.256104 0.220433
0.158027 0.255900 0.215886
0.289008 0.251517 0.214026
0.419955 0.246392 0.204387
0.550838 0.240868 0.193671
0.681656 0.234441 0.181878
0.812409 0.227007 0.169008
0.943098 0.218532 0.155060
1.000000 0.212961 0.143929
0.033423 0.381276 0.210666
0.158499 0.381039 0.206010
0.290789 0.380802 0.205786
0.419159 0.377165 0.203631
0.522470 0.373367 0.224265
0.650039 0.370504 0.218912
0.811286 0.357774 0.167941
0.941866 0.349565 0.153890
1.000000 0.344354 0.142588
0.032918 0.506229 0.199909
0.157935 0.505960 0.194912
0.289488 0.505691 0.194656
0.421031 0.505422 0.194401
0.549028 0.501847 0.191951
0.649583 0.497999 0.218478
0.810163 0.488518 0.166874
0.940634 0.480577 0.152719
1.000000 0.475721 0.141247
0.031190 0.630965 0.188006
0.156175 0.630663 0.182591
0.287679 0.630362 0.182305
0.419174 0.630060 0.182018
0.550660 0.629759 0.181732
0.678614 0.626071 0.178988
0.809040 0.619241 0.165807
0.939402 0.611569 0.151549
1.000000 0.607063 0.139906
0.028240 0.755483 0.174915
0.153203 0.755149 0.169048
0.284887 0.754815 0.168730
0.416564 0.754481 0.168413
0.548233 0.754147 0.168096
0.679895 0.753813 0.167779
0.807917 0.749940 0.164740
0.938170 0.742541 0.150378
1.000000 0.738379 0.138565
0.024067 0.879782 0.160620
0.149012 0.879416 0.154281
0.280982 0.879050 0.153933
0.412946 0.878684 0.153585
0.544903 0.878317 0.153238
0.676853 0.877951 0.152890
0.808797 0.877585 0.152542
0.936938 0.873492 0.149208
1.000000 0.869671 0.137224
0.018864 1.000000 0.145308
0.143774 1.000000 0.138466
0.276073 1.000000 0.138067
0.408364 1.000000 0.137668
0.540648 1.000000 0.137270
0.672924 1.000000 0.136871
0.805193 1.000000 0.136473
0.937454 1.000000 0.136074
1.000000 1.000000 0.135883
0.040394 0.000000 0.344990
0.168710 0.000000 0.344753
0.296704 0.000000 0.344388
0.421468 0.000000 0.341954
0.552557 0.000000 0.335889
0.683582 0.000000 0.330079
0.814542 0.000000 0.324406
0.945437 0.000000 0.318816
1.000000 0.000000 0.313599
0.036789 0.125544 0.344194
0.164930 0.122970 0.343957
0.295908 0.122597 0.343465
0.420671 0.118661 0.337947
0.551652 0.113319 0.327625
0.682568 0.106900 0.316425
0.813419 0.099404 0.304238
0.944205 0.090831 0.291022
1.000000 0.085134 0.280830
0.036032 0.254652 0.343398
0.160808 0.251984 0.343161
0.295112 0.246841 0.342180
0.419875 0.242905 0.333535
0.550747 0.237459 0.322282
0.681554 0.230937 0.310389
0.812296 0.223337 0.297566
0.942973 0.214661 0.283733
1.000000 0.208793 0.272841
0.033346 0.381195 0.340202
0.158122 0.380958 0.338349
0.283775 0.380722 0.330709
0.419079 0.373817 0.328555
0.549842 0.366536 0.317725
0.680540 0.359491 0.305817
0.811173 0.351707 0.292833
0.941741 0.342982 0.278771
1.000000 0.337214 0.267452
0.032831 0.506138 0.329758
0.157575 0.505869 0.326471
0.282771 0.505600 0.319570
0.418792 0.505331 0.319314
0.548936 0.500136 0.316865
0.649536 0.496485 0.343434
0.777022 0.492867 0.337545
0.904479 0.488943 0.331170
1.000000 0.470002 0.266111
0.031093 0.630862 0.318248
0.155806 0.630561 0.314090
0.280899 0.630260 0.307207
0.415089 0.629958 0.306921
0.549267 0.629657 0.306635
0.678511 0.624855 0.303890
0.776517 0.621204 0.337065
0.903925 0.617284 0.330644
1.000000 0.602755 0.264770
0.028132 0.755369 0.305586
0.152815 0.755035 0.300724
0.277857 0.754701 0.293623
0.411524 0.754368 0.293306
0.545182 0.754034 0.292988
0.678830 0.753700 0.292671
0.807804 0.748952 0.289632
0.903370 0.745614 0.330117
1.000000 0.735473 0.263429
0.023949 0.879658 0.291739
0.148601 0.879292 0.286242
0.273610 0.878926 0.278815
0.407194 0.878559 0.278467
0.540770 0.878193 0.278119
0.674338 0.877827 0.277771
0.807898 0.877461 0.277424
0.936813 0.872628 0.274090
1.000000 0.868155 0.262088
0.018729 1.000000 0.276883
0.143330 1.000000 0.270768
0.268296 1.000000 0.262932
0.401988 1.000000 0.262533
0.535670 1.000000 0.262134
0.669342 1.000000 0.261736
0.803002 1.000000 0.261337
0.936653 1.000000 0.260939
1.000000 1.000000 0.260747
0.045320 0.000000 0.465792
0.172980 0.000000 0.465523
0.300486 0.000000 0.465254
0.427735 0.000000 0.464884
0.552466 0.000000 0.462739
0.683480 0.000000 0.456722
0.814429 0.000000 0.450895
0.945313 0.000000 0.445184
1.000000 0.000000 0.439989
0.037518 0.121094 0.464887
0.165429 0.118387 0.464618
0.296257 0.118131 0.464349
0.426830 0.117707 0.463838
0.551561 0.113233 0.458063
0.682466 0.106803 0.447190
0.813306 0.099297 0.435391
0.944081 0.090713 0.422597
1.000000 0.084999 0.412918
0.036658 0.250320 0.463982
0.161402 0.246215 0.463713
0.291433 0.242271 0.463444
0.425925 0.241847 0.462774
0.550655 0.237373 0.454896
0.681451 0.230840 0.442807
0.812183 0.223230 0.430094
0.942849 0.214542 0.416510
1.000000 0.208658 0.406135
0.035798 0.379514 0.463077
0.160542 0.378005 0.462807
0.285286 0.373912 0.462538
0.425019 0.365987 0.461103
0.549750 0.361513 0.448752
0.680437 0.354876 0.435750
0.811059 0.347163 0.422424
0.941617 0.338372 0.408276
1.000000 0.332317 0.397174
0.032744 0.506046 0.459605
0.157488 0.505777 0.458303
0.282233 0.505508 0.455607
0.408295 0.505239 0.444227
0.548845 0.495311 0.441778
0.679423 0.485631 0.429757
0.809936 0.476981 0.416658
0.940385 0.467796 0.402483
1.000000 0.461790 0.390976
0.030995 0.630760 0.448488
0.155709 0.630459 0.445861
0.280423 0.630157 0.441358
0.405765 0.629856 0.431824
0.546176 0.629554 0.431537
0.678409 0.622548 0.428793
0.776466 0.619241 0.462016
0.903869 0.614812 0.455591
1.000000 0.596588 0.389635
0.028024 0.755256 0.436255
0.152707 0.754922 0.432680
0.277390 0.754588 0.427242
0.402575 0.754254 0.418198
0.539798 0.753920 0.417881
0.677008 0.753587 0.417563
0.807690 0.747387 0.414524
0.903314 0.744103 0.455064
1.000000 0.731333 0.388294
0.023830 0.879534 0.422857
0.148483 0.879167 0.418496
0.273135 0.878801 0.412351
0.398245 0.878435 0.403349
0.534360 0.878069 0.403001
0.670464 0.877702 0.402653
0.806558 0.877336 0.402305
0.936689 0.871399 0.398972
1.000000 0.866026 0.386953
0.018594 1.000000 0.408456
0.143195 1.000000 0.403378
0.267796 1.000000 0.396591
0.392842 1.000000 0.387398
0.528544 1.000000 0.386999
0.664231 1.000000 0.386600
0.799902 1.000000 0.386202
0.935557 1.000000 0.385803
1.000000 1.000000 0.385612
0.050402 0.000000 0.586572
0.177694 0.000000 0.586271
0.304852 0.000000 0.585969
0.431875 0.000000 0.585668
0.558679 0.000000 0.585282
0.683377 0.000000 0.583327
0.814315 0.000000 0.577350
0.945189 0.000000 0.571519
1.000000 0.000000 0.566346
0.037210 0.115679 0.585558
0.165158 0.112767 0.585257
0.296085 0.112481 0.584955
0.427003 0.112194 0.584654
0.557665 0.111719 0.584105
0.682363 0.106706 0.577953
0.813192 0.099189 0.566543
0.943957 0.090595 0.554170
1.000000 0.084864 0.545004
0.036246 0.245167 0.584544
0.160960 0.240306 0.584242
0.290198 0.236517 0.583941
0.423604 0.236231 0.583639
0.556650 0.235755 0.582993
0.681349 0.230743 0.575222
0.812069 0.223122 0.562619
0.942725 0.214424 0.549286
1.000000 0.208523 0.539427
0.035283 0.374628 0.583530
0.159997 0.371612 0.583228
0.284710 0.365826 0.582927
0.416983 0.360267 0.582625
0.555636 0.359792 0.581753
0.680335 0.354779 0.571127
0.810946 0.347055 0.557104
0.941493 0.338254 0.542785
1.000000 0.332182 0.532154
0.034319 0.504065 0.582516
0.159033 0.502885 0.582214
0.283747 0.500809 0.581913
0.408460 0.495036 0.581611
0.554622 0.483829 0.579645
0.679321 0.478816 0.562980
0.809823 0.470988 0.548102
0.940261 0.462083 0.533291
1.000000 0.455841 0.521911
0.030898 0.630658 0.578726
0.155612 0.630356 0.577629
0.280325 0.630055 0.575890
0.405039 0.629753 0.572210
0.531588 0.629452 0.556440
0.678307 0.616001 0.553696
0.808700 0.603675 0.540484
0.939029 0.593336 0.526194
1.000000 0.586962 0.514500
0.027917 0.755142 0.566922
0.152599 0.754809 0.564634
0.277282 0.754475 0.561222
0.401965 0.754141 0.555328
0.527479 0.753807 0.542773
0.672938 0.753473 0.542456
0.807577 0.744400 0.539417
0.903258 0.741635 0.580011
1.000000 0.724906 0.513159
0.023712 0.879409 0.553973
0.148364 0.879043 0.550747
0.273016 0.878677 0.546245
0.397668 0.878311 0.539365
0.522961 0.877944 0.527883
0.663614 0.877578 0.527535
0.804253 0.877212 0.527187
0.936564 0.869444 0.523853
1.000000 0.862761 0.511818
0.018458 1.000000 0.540027
0.143060 1.000000 0.535986
0.267661 1.000000 0.530614
0.392262 1.000000 0.523020
0.517434 1.000000 0.511864
0.656287 1.000000 0.511465
0.795114 1.000000 0.511066
0.933915 1.000000 0.510668
1.000000 1.000000 0.510477
0.055554 0.000000 0.707330
0.182609 0.000000 0.706996
0.309542 0.000000 0.706662
0.436353 0.000000 0.706329
0.563042 0.000000 0.705995
0.689536 0.000000 0.705588
0.814202 0.000000 0.703770
0.945064 0.000000 0.697820
1.000000 0.000000 0.692667
0.035865 0.109255 0.706207
0.163938 0.106111 0.705873
0.295133 0.105794 0.705539
0.426320 0.105476 0.705205
0.557500 0.105159 0.704872
0.688413 0.104633 0.704278
0.813079 0.099081 0.697693
0.943832 0.090477 0.685741
1.000000 0.084728 0.677088
0.034798 0.239062 0.705084
0.159481 0.233576 0.704750
0.288516 0.229727 0.704416
0.421562 0.229410 0.704082
0.554598 0.229092 0.703749
0.687290 0.228566 0.703082
0.811956 0.223014 0.695142
0.942600 0.214306 0.682059
1.000000 0.208387 0.672715
0.033732 0.368846 0.703961
0.158414 0.364848 0.703627
0.283097 0.358374 0.703293
0.413872 0.353343 0.702959
0.550260 0.353025 0.702625
0.686167 0.352499 0.701828
0.810833 0.346947 0.691780
0.941368 0.338136 0.677292
1.000000 0.332046 0.667129
0.032665 0.498608 0.702838
0.157347 0.496091 0.702504
0.282030 0.492100 0.702170
0.406713 0.484377 0.701836
0.541579 0.476958 0.701502
0.685044 0.476432 0.700401
0.809710 0.470880 0.686641
0.940136 0.461965 0.670516
1.000000 0.455705 0.659419
0.031598 0.628347 0.701715
0.156281 0.627306 0.701381
0.280963 0.625788 0.701047
0.405646 0.623063 0.700713
0.530329 0.615354 0.700379
0.683920 0.600365 0.697806
0.808587 0.594813 0.676219
0.938904 0.585795 0.659341
1.000000 0.579364 0.647458
0.027809 0.755029 0.697588
0.152492 0.754695 0.696585
0.277175 0.754361 0.695198
0.401857 0.754028 0.692963
0.526540 0.753694 0.688157
0.653652 0.753360 0.667348
0.807463 0.735886 0.664309
0.937672 0.720669 0.649906
1.000000 0.713441 0.638023
0.023594 0.879285 0.685087
0.148246 0.878919 0.682997
0.272898 0.878552 0.680136
0.397550 0.878186 0.675841
0.522202 0.877820 0.668379
0.647915 0.877454 0.652417
0.799080 0.877087 0.652069
0.936440 0.865692 0.648735
1.000000 0.857003 0.636682
0.018323 1.000000 0.671596
0.142924 1.000000 0.668590
0.267526 1.000000 0.664633
0.392127 1.000000 0.659085
0.516728 1.000000 0.650576
0.642127 1.000000 0.636330
0.786627 1.000000 0.635931
0.931077 1.000000 0.635532
1.000000 1.000000 0.635341
0.060745 0.000000 0.828066
0.187632 0.000000 0.827700
0.314406 0.000000 0.827334
0.441067 0.000000 0.826967
0.567615 0.000000 0.826601
0.694050 0.000000 0.826235
0.820306 0.000000 0.825804
0.944940 0.000000 0.824089
1.000000 0.000000 0.818954
0.033485 0.101809 0.826834
0.161721 0.098418 0.826468
0.293260 0.098070 0.826102
0.424792 0.097722 0.825735
0.556318 0.097374 0.825369
0.687837 0.097026 0.825003
0.819074 0.096449 0.824362
0.943708 0.090358 0.817311
1.000000 0.084593 0.809170
0.032314 0.231963 0.825602
0.156966 0.225897 0.825236
0.285993 0.221899 0.824870
0.419051 0.221552 0.824503
0.552102 0.221204 0.824137
0.685144 0.220856 0.823771
0.817842 0.220278 0.823070
0.942476 0.214188 0.814830
1.000000 0.208252 0.806000
0.031144 0.362097 0.824370
0.155796 0.357310 0.824004
0.280448 0.350290 0.823637
0.410720 0.345381 0.823271
0.546171 0.345033 0.822905
0.681612 0.344685 0.822539
0.816610 0.344108 0.821743
0.941244 0.338018 0.811796
1.000000 0.331911 0.802100
0.029973 0.492210 0.823138
0.154625 0.488698 0.822772
0.279277 0.483598 0.822405
0.403929 0.475299 0.822039
0.536451 0.468863 0.821673
0.676224 0.468515 0.821307
0.815378 0.467937 0.820342
0.940012 0.461847 0.807738
1.000000 0.455570 0.796919
0.028803 0.622302 0.821906
0.153455 0.620062 0.821540
0.278107 0.616876 0.821173
0.402759 0.611783 0.820807
0.527411 0.601868 0.820441
0.665221 0.592344 0.820075
0.814146 0.591767 0.818717
0.938780 0.585677 0.801438
1.000000 0.579229 0.789177
0.027632 0.752374 0.820674
0.152284 0.751401 0.820308
0.276936 0.750122 0.819941
0.401589 0.748225 0.819575
0.526241 0.744767 0.819209
0.650893 0.734868 0.818843
0.812914 0.715596 0.815584
0.937548 0.709506 0.788468
1.000000 0.702888 0.775028
0.023476 0.879161 0.816200
0.148128 0.878794 0.815243
0.272780 0.878428 0.814024
0.397432 0.878062 0.812314
0.522084 0.877696 0.809521
0.646736 0.877329 0.803447
0.774488 0.876963 0.776951
0.936316 0.854966 0.773617
1.000000 0.843792 0.761547
0.018187 1.000000 0.803163
0.142789 1.000000 0.801193
0.267390 1.000000 0.798648
0.391992 1.000000 0.795145
0.516593 1.000000 0.789857
0.641194 1.000000 0.780624
0.767117 1.000000 0.760796
0.924679 1.000000 0.760397
1.000000 1.000000 0.760206
0.065958 0.000000 0.948780
0.192719 0.000000 0.948381
0.319374 0.000000 0.947983
0.445922 0.000000 0.947584
0.572363 0.000000 0.947186
0.698698 0.000000 0.946787
0.824927 0.000000 0.946388
0.950990 0.000000 0.945931
1.000000 0.000000 0.945207
0.030067 0.093334 0.947439
0.158488 0.089688 0.947040
0.290412 0.089310 0.946642
0.422330 0.088931 0.946243
0.554242 0.088552 0.945845
0.686148 0.088174 0.945446
0.818047 0.087795 0.945047
0.949649 0.087166 0.944357
1.000000 0.084457 0.941249
0.028793 0.223852 0.946098
0.153415 0.217223 0.945700
0.282521 0.213036 0.945301
0.415762 0.212657 0.944902
0.548995 0.212278 0.944504
0.682221 0.211900 0.944105
0.815440 0.211521 0.943706
0.948308 0.210892 0.942964
1.000000 0.208116 0.939283
0.027519 0.354351 0.944757
0.152141 0.348866 0.944358
0.276762 0.341329 0.943960
0.406859 0.336383 0.943561
0.542005 0.336004 0.943163
0.677141 0.335626 0.942764
0.812269 0.335247 0.942365
0.946967 0.334618 0.941548
1.000000 0.331775 0.937066
0.026245 0.484831 0.943416
0.150867 0.480486 0.943017
0.275488 0.474551 0.942619
0.400109 0.465820 0.942220
0.531767 0.459731 0.941822
0.669912 0.459352 0.941423
0.808045 0.458973 0.941024
0.945626 0.458344 0.940088
1.000000 0.455434 0.934412
0.024971 0.615291 0.942075
0.149593 0.612085 0.941676
0.274214 0.607746 0.941278
0.398835 0.601417 0.940879
0.523457 0.591082 0.940481
0.657934 0.583078 0.940082
0.801496 0.582699 0.939683
0.944285 0.582070 0.938535
1.000000 0.579093 0.930883
0.023697 0.745732 0.940734
0.148319 0.743660 0.940336
0.272940 0.740914 0.939937
0.397561 0.736981 0.939538
0.522183 0.730661 0.939140
0.646804 0.718299 0.938741
0.787910 0.706425 0.938342
0.942944 0.705797 0.936703
1.000000 0.702752 0.925164
0.022423 0.876154 0.939393
0.147045 0.875213 0.938994
0.271666 0.874054 0.938596
0.396287 0.872511 0.938197
0.520909 0.870195 0.937799
0.645530 0.865922 0.937400
0.770151 0.853576 0.937001
0.941603 0.829523 0.932981
1.000000 0.826411 0.910685
0.018052 1.000000 0.934729
0.142653 1.000000 0.933792
0.267255 1.000000 0.932660
0.391856 1.000000 0.931200
0.516458 1.000000 0.929129
0.641059 1.000000 0.925711
0.765660 1.000000 0.918209
0.894123 1.000000 0.885262
1.000000 1.000000 0.885070
