luts/original/analog-fade.cube
TITLE "Analog Fade"
LUT_3D_SIZE 5
DOMAIN_MIN 0.0 0.0 0.0
DOMAIN_MAX 1.0 1.0 1.0
0.000000 0.000000 0.000000
0.243594 0.000000 0.000000
0.483125 0.000000 0.000000
0.718594 0.000000 0.000000
0.950000 0.000000 0.000000
0.000000 0.239750 0.000000
0.243594 0.239750 0.000000
0.483125 0.236500 0.000000
0.718594 0.233250 0.000000
0.950000 0.230000 0.000000
0.000000 0.473000 0.000000
0.241562 0.473000 0.000000
0.483125 0.473000 0.000000
0.718594 0.466500 0.000000
0.950000 0.460000 0.000000
0.000000 0.699750 0.000000
0.239531 0.699750 0.000000
0.479063 0.699750 0.000000
0.718594 0.699750 0.000000
0.950000 0.690000 0.000000
0.000000 0.920000 0.000000
0.237500 0.920000 0.000000
0.475000 0.920000 0.000000
0.712500 0.920000 0.000000
0.950000 0.920000 0.000000
0.000000 0.000000 0.234625
0.243594 0.000000 0.234625
0.483125 0.000000 0.229750
0.718594 0.000000 0.224875
0.950000 0.000000 0.220000
0.000000 0.239750 0.234625
0.243594 0.239750 0.234625
0.483125 0.236500 0.229750
0.718594 0.233250 0.224875
0.950000 0.230000 0.220000
0.000000 0.473000 0.229750
0.241562 0.473000 0.229750
0.483125 0.473000 0.229750
0.718594 0.466500 0.224875
0.950000 0.460000 0.220000
0.000000 0.699750 0.224875
0.239531 0.699750 0.224875
0.479063 0.699750 0.224875
0.718594 0.699750 0.224875
0.950000 0.690000 0.220000
0.000000 0.920000 0.220000
0.237500 0.920000 0.220000
0.475000 0.920000 0.220000
0.712500 0.920000 0.220000
0.950000 0.920000 0.220000
0.000000 0.000000 0.459500
0.241562 0.000000 0.459500
0.483125 0.000000 0.459500
0.718594 0.000000 0.449750
0.950000 0.000000 0.440000
0.000000 0.236500 0.459500
0.241562 0.236500 0.459500
0.483125 0.236500 0.459500
0.718594 0.233250 0.449750
0.950000 0.230000 0.440000
0.000000 0.473000 0.459500
0.241562 0.473000 0.459500
0.483125 0.473000 0.459500
0.718594 0.466500 0.449750
0.950000 0.460000 0.440000
0.000000 0.699750 0.449750
0.239531 0.699750 0.449750
0.479063 0.699750 0.449750
0.718594 0.699750 0.449750
0.950000 0.690000 0.440000
0.000000 0.920000 0.440000
0.237500 0.920000 0.440000
0.475000 0.920000 0.440000
0.712500 0.920000 0.440000
0.950000 0.920000 0.440000
0.000000 0.000000 0.674625
0.239531 0.000000 0.674625
0.479063 0.000000 0.674625
0.718594 0.000000 0.674625
0.950000 0.000000 0.660000
0.000000 0.233250 0.674625
0.239531 0.233250 0.674625
0.479063 0.233250 0.674625
0.718594 0.233250 0.674625
0.950000 0.230000 0.660000
0.000000 0.466500 0.674625
0.239531 0.466500 0.674625
0.479063 0.466500 0.674625
0.718594 0.466500 0.674625
0.950000 0.460000 0.660000
0.000000 0.699750 0.674625
0.239531 0.699750 0.674625
0.479063 0.699750 0.674625
0.718594 0.699750 0.674625
0.950000 0.690000 0.660000
0.000000 0.920000 0.660000
0.237500 0.920000 0.660000
0.475000 0.920000 0.660000
0.712500 0.920000 0.660000
0.950000 0.920000 0.660000
0.000000 0.000000 0.880000
0.237500 0.000000 0.880000
0.475000 0.000000 0.880000
0.712500 0.000000 0.880000
0.950000 0.000000 0.880000
0.000000 0.230000 0.880000
0.237500 0.230000 0.880000
0.475000 0.230000 0.880000
0.712500 0.230000 0.880000
0.950000 0.230000 0.880000
0.000000 0.460000 0.880000
0.237500 0.460000 0.880000
0.475000 0.460000 0.880000
0.712500 0.460000 0.880000
0.950000 0.460000 0.880000
0.000000 0.690000 0.880000
0.237500 0.690000 0.880000
0.475000 0.690000 0.880000
0.712500 0.690000 0.880000
0.950000 0.690000 0.880000
0.000000 0.920000 0.880000
0.237500 0.920000 0.880000
0.475000 0.920000 0.880000
0.712500 0.920000 0.880000
0.950000 0.920000 0.880000
