luts/original/analog-fade.cube
TITLE "Analog Fade"
LUT_3D_SIZE 33
DOMAIN_MIN 0.0 0.0 0.0
DOMAIN_MAX 1.0 1.0 1.0
0.000000 0.000000 0.000000
0.030671 0.000000 0.000000
0.061279 0.000000 0.000000
0.091824 0.000000 0.000000
0.122305 0.000000 0.000000
0.152722 0.000000 0.000000
0.183076 0.000000 0.000000
0.213367 0.000000 0.000000
0.243594 0.000000 0.000000
0.273757 0.000000 0.000000
0.303857 0.000000 0.000000
0.333894 0.000000 0.000000
0.363867 0.000000 0.000000
0.393777 0.000000 0.000000
0.423623 0.000000 0.000000
0.453406 0.000000 0.000000
0.483125 0.000000 0.000000
0.512781 0.000000 0.000000
0.542373 0.000000 0.000000
0.571902 0.000000 0.000000
0.601367 0.000000 0.000000
0.630769 0.000000 0.000000
0.660107 0.000000 0.000000
0.689382 0.000000 0.000000
0.718594 0.000000 0.000000
0.747742 0.000000 0.000000
0.776826 0.000000 0.000000
0.805847 0.000000 0.000000
0.834805 0.000000 0.000000
0.863699 0.000000 0.000000
0.892529 0.000000 0.000000
0.921296 0.000000 0.000000
0.950000 0.000000 0.000000
0.000000 0.030324 0.000000
0.030671 0.030324 0.000000
0.061279 0.030273 0.000000
0.091824 0.030223 0.000000
0.122305 0.030172 0.000000
0.152722 0.030121 0.000000
0.183076 0.030070 0.000000
0.213367 0.030020 0.000000
0.243594 0.029969 0.000000
0.273757 0.029918 0.000000
0.303857 0.029867 0.000000
0.333894 0.029816 0.000000
0.363867 0.029766 0.000000
0.393777 0.029715 0.000000
0.423623 0.029664 0.000000
0.453406 0.029613 0.000000
0.483125 0.029563 0.000000
0.512781 0.029512 0.000000
0.542373 0.029461 0.000000
0.571902 0.029410 0.000000
0.601367 0.029359 0.000000
0.630769 0.029309 0.000000
0.660107 0.029258 0.000000
0.689382 0.029207 0.000000
0.718594 0.029156 0.000000
0.747742 0.029105 0.000000
0.776826 0.029055 0.000000
0.805847 0.029004 0.000000
0.834805 0.028953 0.000000
0.863699 0.028902 0.000000
0.892529 0.028852 0.000000
0.921296 0.028801 0.000000
0.950000 0.028750 0.000000
0.000000 0.060547 0.000000
0.030640 0.060547 0.000000
0.061279 0.060547 0.000000
0.091824 0.060445 0.000000
0.122305 0.060344 0.000000
0.152722 0.060242 0.000000
0.183076 0.060141 0.000000
0.213367 0.060039 0.000000
0.243594 0.059938 0.000000
0.273757 0.059836 0.000000
0.303857 0.059734 0.000000
0.333894 0.059633 0.000000
0.363867 0.059531 0.000000
0.393777 0.059430 0.000000
0.423623 0.059328 0.000000
0.453406 0.059227 0.000000
0.483125 0.059125 0.000000
0.512781 0.059023 0.000000
0.542373 0.058922 0.000000
0.571902 0.058820 0.000000
0.601367 0.058719 0.000000
0.630769 0.058617 0.000000
0.660107 0.058516 0.000000
0.689382 0.058414 0.000000
0.718594 0.058313 0.000000
0.747742 0.058211 0.000000
0.776826 0.058109 0.000000
0.805847 0.058008 0.000000
0.834805 0.057906 0.000000
0.863699 0.057805 0.000000
0.892529 0.057703 0.000000
0.921296 0.057602 0.000000
0.950000 0.057500 0.000000
0.000000 0.090668 0.000000
0.030608 0.090668 0.000000
0.061216 0.090668 0.000000
0.091824 0.090668 0.000000
0.122305 0.090516 0.000000
0.152722 0.090363 0.000000
0.183076 0.090211 0.000000
0.213367 0.090059 0.000000
0.243594 0.089906 0.000000
0.273757 0.089754 0.000000
0.303857 0.089602 0.000000
0.333894 0.089449 0.000000
0.363867 0.089297 0.000000
0.393777 0.089145 0.000000
0.423623 0.088992 0.000000
0.453406 0.088840 0.000000
0.483125 0.088688 0.000000
0.512781 0.088535 0.000000
0.542373 0.088383 0.000000
0.571902 0.088230 0.000000
0.601367 0.088078 0.000000
0.630769 0.087926 0.000000
0.660107 0.087773 0.000000
0.689382 0.087621 0.000000
0.718594 0.087469 0.000000
0.747742 0.087316 0.000000
0.776826 0.087164 0.000000
0.805847 0.087012 0.000000
0.834805 0.086859 0.000000
0.863699 0.086707 0.000000
0.892529 0.086555 0.000000
0.921296 0.086402 0.000000
0.950000 0.086250 0.000000
0.000000 0.120688 0.000000
0.030576 0.120688 0.000000
0.061152 0.120688 0.000000
0.091729 0.120688 0.000000
0.122305 0.120688 0.000000
0.152722 0.120484 0.000000
0.183076 0.120281 0.000000
0.213367 0.120078 0.000000
0.243594 0.119875 0.000000
0.273757 0.119672 0.000000
0.303857 0.119469 0.000000
0.333894 0.119266 0.000000
0.363867 0.119063 0.000000
0.393777 0.118859 0.000000
0.423623 0.118656 0.000000
0.453406 0.118453 0.000000
0.483125 0.118250 0.000000
0.512781 0.118047 0.000000
0.542373 0.117844 0.000000
0.571902 0.117641 0.000000
0.601367 0.117438 0.000000
0.630769 0.117234 0.000000
0.660107 0.117031 0.000000
0.689382 0.116828 0.000000
0.718594 0.116625 0.000000
0.747742 0.116422 0.000000
0.776826 0.116219 0.000000
0.805847 0.116016 0.000000
0.834805 0.115812 0.000000
0.863699 0.115609 0.000000
0.892529 0.115406 0.000000
0.921296 0.115203 0.000000
0.950000 0.115000 0.000000
0.000000 0.150605 0.000000
0.030544 0.150605 0.000000
0.061089 0.150605 0.000000
0.091633 0.150605 0.000000
0.122178 0.150605 0.000000
0.152722 0.150605 0.000000
0.183076 0.150352 0.000000
0.213367 0.150098 0.000000
0.243594 0.149844 0.000000
0.273757 0.149590 0.000000
0.303857 0.149336 0.000000
0.333894 0.149082 0.000000
0.363867 0.148828 0.000000
0.393777 0.148574 0.000000
0.423623 0.148320 0.000000
0.453406 0.148066 0.000000
0.483125 0.147813 0.000000
0.512781 0.147559 0.000000
0.542373 0.147305 0.000000
0.571902 0.147051 0.000000
0.601367 0.146797 0.000000
0.630769 0.146543 0.000000
0.660107 0.146289 0.000000
0.689382 0.146035 0.000000
0.718594 0.145781 0.000000
0.747742 0.145527 0.000000
0.776826 0.145273 0.000000
0.805847 0.145020 0.000000
0.834805 0.144766 0.000000
0.863699 0.144512 0.000000
0.892529 0.144258 0.000000
0.921296 0.144004 0.000000
0.950000 0.143750 0.000000
0.000000 0.180422 0.000000
0.030513 0.180422 0.000000
0.061025 0.180422 0.000000
0.091538 0.180422 0.000000
0.122051 0.180422 0.000000
0.152563 0.180422 0.000000
0.183076 0.180422 0.000000
0.213367 0.180117 0.000000
0.243594 0.179813 0.000000
0.273757 0.179508 0.000000
0.303857 0.179203 0.000000
0.333894 0.178898 0.000000
0.363867 0.178594 0.000000
0.393777 0.178289 0.000000
0.423623 0.177984 0.000000
0.453406 0.177680 0.000000
0.483125 0.177375 0.000000
0.512781 0.177070 0.000000
0.542373 0.176766 0.000000
0.571902 0.176461 0.000000
0.601367 0.176156 0.000000
0.630769 0.175852 0.000000
0.660107 0.175547 0.000000
0.689382 0.175242 0.000000
0.718594 0.174937 0.000000
0.747742 0.174633 0.000000
0.776826 0.174328 0.000000
0.805847 0.174023 0.000000
0.834805 0.173719 0.000000
0.863699 0.173414 0.000000
0.892529 0.173109 0.000000
0.921296 0.172805 0.000000
0.950000 0.172500 0.000000
0.000000 0.210137 0.000000
0.030481 0.210137 0.000000
0.060962 0.210137 0.000000
0.091443 0.210137 0.000000
0.121924 0.210137 0.000000
0.152405 0.210137 0.000000
0.182886 0.210137 0.000000
0.213367 0.210137 0.000000
0.243594 0.209781 0.000000
0.273757 0.209426 0.000000
0.303857 0.209070 0.000000
0.333894 0.208715 0.000000
0.363867 0.208359 0.000000
0.393777 0.208004 0.000000
0.423623 0.207648 0.000000
0.453406 0.207293 0.000000
0.483125 0.206937 0.000000
0.512781 0.206582 0.000000
0.542373 0.206227 0.000000
0.571902 0.205871 0.000000
0.601367 0.205516 0.000000
0.630769 0.205160 0.000000
0.660107 0.204805 0.000000
0.689382 0.204449 0.000000
0.718594 0.204094 0.000000
0.747742 0.203738 0.000000
0.776826 0.203383 0.000000
0.805847 0.203027 0.000000
0.834805 0.202672 0.000000
0.863699 0.202316 0.000000
0.892529 0.201961 0.000000
0.921296 0.201605 0.000000
0.950000 0.201250 0.000000
0.000000 0.239750 0.000000
0.030449 0.239750 0.000000
0.060898 0.239750 0.000000
0.091348 0.239750 0.000000
0.121797 0.239750 0.000000
0.152246 0.239750 0.000000
0.182695 0.239750 0.000000
0.213145 0.239750 0.000000
0.243594 0.239750 0.000000
0.273757 0.239344 0.000000
0.303857 0.238937 0.000000
0.333894 0.238531 0.000000
0.363867 0.238125 0.000000
0.393777 0.237719 0.000000
0.423623 0.237313 0.000000
0.453406 0.236906 0.000000
0.483125 0.236500 0.000000
0.512781 0.236094 0.000000
0.542373 0.235687 0.000000
0.571902 0.235281 0.000000
0.601367 0.234875 0.000000
0.630769 0.234469 0.000000
0.660107 0.234063 0.000000
0.689382 0.233656 0.000000
0.718594 0.233250 0.000000
0.747742 0.232844 0.000000
0.776826 0.232438 0.000000
0.805847 0.232031 0.000000
0.834805 0.231625 0.000000
0.863699 0.231219 0.000000
0.892529 0.230813 0.000000
0.921296 0.230406 0.000000
0.950000 0.230000 0.000000
0.000000 0.269262 0.000000
0.030417 0.269262 0.000000
0.060835 0.269262 0.000000
0.091252 0.269262 0.000000
0.121670 0.269262 0.000000
0.152087 0.269262 0.000000
0.182505 0.269262 0.000000
0.212922 0.269262 0.000000
0.243340 0.269262 0.000000
0.273757 0.269262 0.000000
0.303857 0.268805 0.000000
0.333894 0.268348 0.000000
0.363867 0.267891 0.000000
0.393777 0.267434 0.000000
0.423623 0.266977 0.000000
0.453406 0.266520 0.000000
0.483125 0.266063 0.000000
0.512781 0.265605 0.000000
0.542373 0.265148 0.000000
0.571902 0.264691 0.000000
0.601367 0.264234 0.000000
0.630769 0.263777 0.000000
0.660107 0.263320 0.000000
0.689382 0.262863 0.000000
0.718594 0.262406 0.000000
0.747742 0.261949 0.000000
0.776826 0.261492 0.000000
0.805847 0.261035 0.000000
0.834805 0.260578 0.000000
0.863699 0.260121 0.000000
0.892529 0.259664 0.000000
0.921296 0.259207 0.000000
0.950000 0.258750 0.000000
0.000000 0.298672 0.000000
0.030386 0.298672 0.000000
0.060771 0.298672 0.000000
0.091157 0.298672 0.000000
0.121543 0.298672 0.000000
0.151929 0.298672 0.000000
0.182314 0.298672 0.000000
0.212700 0.298672 0.000000
0.243086 0.298672 0.000000
0.273472 0.298672 0.000000
0.303857 0.298672 0.000000
0.333894 0.298164 0.000000
0.363867 0.297656 0.000000
0.393777 0.297148 0.000000
0.423623 0.296641 0.000000
0.453406 0.296133 0.000000
0.483125 0.295625 0.000000
0.512781 0.295117 0.000000
0.542373 0.294609 0.000000
0.571902 0.294102 0.000000
0.601367 0.293594 0.000000
0.630769 0.293086 0.000000
0.660107 0.292578 0.000000
0.689382 0.292070 0.000000
0.718594 0.291563 0.000000
0.747742 0.291055 0.000000
0.776826 0.290547 0.000000
0.805847 0.290039 0.000000
0.834805 0.289531 0.000000
0.863699 0.289023 0.000000
0.892529 0.288516 0.000000
0.921296 0.288008 0.000000
0.950000 0.287500 0.000000
0.000000 0.327980 0.000000
0.030354 0.327980 0.000000
0.060708 0.327980 0.000000
0.091062 0.327980 0.000000
0.121416 0.327980 0.000000
0.151770 0.327980 0.000000
0.182124 0.327980 0.000000
0.212478 0.327980 0.000000
0.242832 0.327980 0.000000
0.273186 0.327980 0.000000
0.303540 0.327980 0.000000
0.333894 0.327980 0.000000
0.363867 0.327422 0.000000
0.393777 0.326863 0.000000
0.423623 0.326305 0.000000
0.453406 0.325746 0.000000
0.483125 0.325188 0.000000
0.512781 0.324629 0.000000
0.542373 0.324070 0.000000
0.571902 0.323512 0.000000
0.601367 0.322953 0.000000
0.630769 0.322395 0.000000
0.660107 0.321836 0.000000
0.689382 0.321277 0.000000
0.718594 0.320719 0.000000
0.747742 0.320160 0.000000
0.776826 0.319602 0.000000
0.805847 0.319043 0.000000
0.834805 0.318484 0.000000
0.863699 0.317926 0.000000
0.892529 0.317367 0.000000
0.921296 0.316809 0.000000
0.950000 0.316250 0.000000
0.000000 0.357187 0.000000
0.030322 0.357187 0.000000
0.060645 0.357187 0.000000
0.090967 0.357187 0.000000
0.121289 0.357187 0.000000
0.151611 0.357187 0.000000
0.181934 0.357187 0.000000
0.212256 0.357187 0.000000
0.242578 0.357187 0.000000
0.272900 0.357187 0.000000
0.303223 0.357187 0.000000
0.333545 0.357187 0.000000
0.363867 0.357187 0.000000
0.393777 0.356578 0.000000
0.423623 0.355969 0.000000
0.453406 0.355359 0.000000
0.483125 0.354750 0.000000
0.512781 0.354141 0.000000
0.542373 0.353531 0.000000
0.571902 0.352922 0.000000
0.601367 0.352313 0.000000
0.630769 0.351703 0.000000
0.660107 0.351094 0.000000
0.689382 0.350484 0.000000
0.718594 0.349875 0.000000
0.747742 0.349266 0.000000
0.776826 0.348656 0.000000
0.805847 0.348047 0.000000
0.834805 0.347438 0.000000
0.863699 0.346828 0.000000
0.892529 0.346219 0.000000
0.921296 0.345609 0.000000
0.950000 0.345000 0.000000
0.000000 0.386293 0.000000
0.030291 0.386293 0.000000
0.060581 0.386293 0.000000
0.090872 0.386293 0.000000
0.121162 0.386293 0.000000
0.151453 0.386293 0.000000
0.181743 0.386293 0.000000
0.212034 0.386293 0.000000
0.242324 0.386293 0.000000
0.272615 0.386293 0.000000
0.302905 0.386293 0.000000
0.333196 0.386293 0.000000
0.363486 0.386293 0.000000
0.393777 0.386293 0.000000
0.423623 0.385633 0.000000
0.453406 0.384973 0.000000
0.483125 0.384313 0.000000
0.512781 0.383652 0.000000
0.542373 0.382992 0.000000
0.571902 0.382332 0.000000
0.601367 0.381672 0.000000
0.630769 0.381012 0.000000
0.660107 0.380352 0.000000
0.689382 0.379691 0.000000
0.718594 0.379031 0.000000
0.747742 0.378371 0.000000
0.776826 0.377711 0.000000
0.805847 0.377051 0.000000
0.834805 0.376391 0.000000
0.863699 0.375730 0.000000
0.892529 0.375070 0.000000
0.921296 0.374410 0.000000
0.950000 0.373750 0.000000
0.000000 0.415297 0.000000
0.030259 0.415297 0.000000
0.060518 0.415297 0.000000
0.090776 0.415297 0.000000
0.121035 0.415297 0.000000
0.151294 0.415297 0.000000
0.181553 0.415297 0.000000
0.211812 0.415297 0.000000
0.242070 0.415297 0.000000
0.272329 0.415297 0.000000
0.302588 0.415297 0.000000
0.332847 0.415297 0.000000
0.363105 0.415297 0.000000
0.393364 0.415297 0.000000
0.423623 0.415297 0.000000
0.453406 0.414586 0.000000
0.483125 0.413875 0.000000
0.512781 0.413164 0.000000
0.542373 0.412453 0.000000
0.571902 0.411742 0.000000
0.601367 0.411031 0.000000
0.630769 0.410320 0.000000
0.660107 0.409609 0.000000
0.689382 0.408898 0.000000
0.718594 0.408188 0.000000
0.747742 0.407477 0.000000
0.776826 0.406766 0.000000
0.805847 0.406055 0.000000
0.834805 0.405344 0.000000
0.863699 0.404633 0.000000
0.892529 0.403922 0.000000
0.921296 0.403211 0.000000
0.950000 0.402500 0.000000
0.000000 0.444199 0.000000
0.030227 0.444199 0.000000
0.060454 0.444199 0.000000
0.090681 0.444199 0.000000
0.120908 0.444199 0.000000
0.151135 0.444199 0.000000
0.181362 0.444199 0.000000
0.211589 0.444199 0.000000
0.241816 0.444199 0.000000
0.272043 0.444199 0.000000
0.302271 0.444199 0.000000
0.332498 0.444199 0.000000
0.362725 0.444199 0.000000
0.392952 0.444199 0.000000
0.423179 0.444199 0.000000
0.453406 0.444199 0.000000
0.483125 0.443438 0.000000
0.512781 0.442676 0.000000
0.542373 0.441914 0.000000
0.571902 0.441152 0.000000
0.601367 0.440391 0.000000
0.630769 0.439629 0.000000
0.660107 0.438867 0.000000
0.689382 0.438105 0.000000
0.718594 0.437344 0.000000
0.747742 0.436582 0.000000
0.776826 0.435820 0.000000
0.805847 0.435059 0.000000
0.834805 0.434297 0.000000
0.863699 0.433535 0.000000
0.892529 0.432773 0.000000
0.921296 0.432012 0.000000
0.950000 0.431250 0.000000
0.000000 0.473000 0.000000
0.030195 0.473000 0.000000
0.060391 0.473000 0.000000
0.090586 0.473000 0.000000
0.120781 0.473000 0.000000
0.150977 0.473000 0.000000
0.181172 0.473000 0.000000
0.211367 0.473000 0.000000
0.241562 0.473000 0.000000
0.271758 0.473000 0.000000
0.301953 0.473000 0.000000
0.332148 0.473000 0.000000
0.362344 0.473000 0.000000
0.392539 0.473000 0.000000
0.422734 0.473000 0.000000
0.452930 0.473000 0.000000
0.483125 0.473000 0.000000
0.512781 0.472188 0.000000
0.542373 0.471375 0.000000
0.571902 0.470562 0.000000
0.601367 0.469750 0.000000
0.630769 0.468938 0.000000
0.660107 0.468125 0.000000
0.689382 0.467313 0.000000
0.718594 0.466500 0.000000
0.747742 0.465688 0.000000
0.776826 0.464875 0.000000
0.805847 0.464063 0.000000
0.834805 0.463250 0.000000
0.863699 0.462438 0.000000
0.892529 0.461625 0.000000
0.921296 0.460813 0.000000
0.950000 0.460000 0.000000
0.000000 0.501699 0.000000
0.030164 0.501699 0.000000
0.060327 0.501699 0.000000
0.090491 0.501699 0.000000
0.120654 0.501699 0.000000
0.150818 0.501699 0.000000
0.180981 0.501699 0.000000
0.211145 0.501699 0.000000
0.241309 0.501699 0.000000
0.271472 0.501699 0.000000
0.301636 0.501699 0.000000
0.331799 0.501699 0.000000
0.361963 0.501699 0.000000
0.392126 0.501699 0.000000
0.422290 0.501699 0.000000
0.452454 0.501699 0.000000
0.482617 0.501699 0.000000
0.512781 0.501699 0.000000
0.542373 0.500836 0.000000
0.571902 0.499973 0.000000
0.601367 0.499109 0.000000
0.630769 0.498246 0.000000
0.660107 0.497383 0.000000
0.689382 0.496520 0.000000
0.718594 0.495656 0.000000
0.747742 0.494793 0.000000
0.776826 0.493930 0.000000
0.805847 0.493066 0.000000
0.834805 0.492203 0.000000
0.863699 0.491340 0.000000
0.892529 0.490477 0.000000
0.921296 0.489613 0.000000
0.950000 0.488750 0.000000
0.000000 0.530297 0.000000
0.030132 0.530297 0.000000
0.060264 0.530297 0.000000
0.090396 0.530297 0.000000
0.120527 0.530297 0.000000
0.150659 0.530297 0.000000
0.180791 0.530297 0.000000
0.210923 0.530297 0.000000
0.241055 0.530297 0.000000
0.271187 0.530297 0.000000
0.301318 0.530297 0.000000
0.331450 0.530297 0.000000
0.361582 0.530297 0.000000
0.391714 0.530297 0.000000
0.421846 0.530297 0.000000
0.451978 0.530297 0.000000
0.482109 0.530297 0.000000
0.512241 0.530297 0.000000
0.542373 0.530297 0.000000
0.571902 0.529383 0.000000
0.601367 0.528469 0.000000
0.630769 0.527555 0.000000
0.660107 0.526641 0.000000
0.689382 0.525727 0.000000
0.718594 0.524813 0.000000
0.747742 0.523898 0.000000
0.776826 0.522984 0.000000
0.805847 0.522070 0.000000
0.834805 0.521156 0.000000
0.863699 0.520242 0.000000
0.892529 0.519328 0.000000
0.921296 0.518414 0.000000
0.950000 0.517500 0.000000
0.000000 0.558793 0.000000
0.030100 0.558793 0.000000
0.060200 0.558793 0.000000
0.090300 0.558793 0.000000
0.120400 0.558793 0.000000
0.150500 0.558793 0.000000
0.180601 0.558793 0.000000
0.210701 0.558793 0.000000
0.240801 0.558793 0.000000
0.270901 0.558793 0.000000
0.301001 0.558793 0.000000
0.331101 0.558793 0.000000
0.361201 0.558793 0.000000
0.391301 0.558793 0.000000
0.421401 0.558793 0.000000
0.451501 0.558793 0.000000
0.481602 0.558793 0.000000
0.511702 0.558793 0.000000
0.541802 0.558793 0.000000
0.571902 0.558793 0.000000
0.601367 0.557828 0.000000
0.630769 0.556863 0.000000
0.660107 0.555898 0.000000
0.689382 0.554934 0.000000
0.718594 0.553969 0.000000
0.747742 0.553004 0.000000
0.776826 0.552039 0.000000
0.805847 0.551074 0.000000
0.834805 0.550109 0.000000
0.863699 0.549145 0.000000
0.892529 0.548180 0.000000
0.921296 0.547215 0.000000
0.950000 0.546250 0.000000
0.000000 0.587187 0.000000
0.030068 0.587187 0.000000
0.060137 0.587187 0.000000
0.090205 0.587187 0.000000
0.120273 0.587187 0.000000
0.150342 0.587187 0.000000
0.180410 0.587187 0.000000
0.210479 0.587187 0.000000
0.240547 0.587187 0.000000
0.270615 0.587187 0.000000
0.300684 0.587187 0.000000
0.330752 0.587187 0.000000
0.360820 0.587187 0.000000
0.390889 0.587187 0.000000
0.420957 0.587187 0.000000
0.451025 0.587187 0.000000
0.481094 0.587187 0.000000
0.511162 0.587187 0.000000
0.541230 0.587187 0.000000
0.571299 0.587187 0.000000
0.601367 0.587187 0.000000
0.630769 0.586172 0.000000
0.660107 0.585156 0.000000
0.689382 0.584141 0.000000
0.718594 0.583125 0.000000
0.747742 0.582109 0.000000
0.776826 0.581094 0.000000
0.805847 0.580078 0.000000
0.834805 0.579063 0.000000
0.863699 0.578047 0.000000
0.892529 0.577031 0.000000
0.921296 0.576016 0.000000
0.950000 0.575000 0.000000
0.000000 0.615480 0.000000
0.030037 0.615480 0.000000
0.060073 0.615480 0.000000
0.090110 0.615480 0.000000
0.120146 0.615480 0.000000
0.150183 0.615480 0.000000
0.180220 0.615480 0.000000
0.210256 0.615480 0.000000
0.240293 0.615480 0.000000
0.270330 0.615480 0.000000
0.300366 0.615480 0.000000
0.330403 0.615480 0.000000
0.360439 0.615480 0.000000
0.390476 0.615480 0.000000
0.420513 0.615480 0.000000
0.450549 0.615480 0.000000
0.480586 0.615480 0.000000
0.510623 0.615480 0.000000
0.540659 0.615480 0.000000
0.570696 0.615480 0.000000
0.600732 0.615480 0.000000
0.630769 0.615480 0.000000
0.660107 0.614414 0.000000
0.689382 0.613348 0.000000
0.718594 0.612281 0.000000
0.747742 0.611215 0.000000
0.776826 0.610148 0.000000
0.805847 0.609082 0.000000
0.834805 0.608016 0.000000
0.863699 0.606949 0.000000
0.892529 0.605883 0.000000
0.921296 0.604816 0.000000
0.950000 0.603750 0.000000
0.000000 0.643672 0.000000
0.030005 0.643672 0.000000
0.060010 0.643672 0.000000
0.090015 0.643672 0.000000
0.120020 0.643672 0.000000
0.150024 0.643672 0.000000
0.180029 0.643672 0.000000
0.210034 0.643672 0.000000
0.240039 0.643672 0.000000
0.270044 0.643672 0.000000
0.300049 0.643672 0.000000
0.330054 0.643672 0.000000
0.360059 0.643672 0.000000
0.390063 0.643672 0.000000
0.420068 0.643672 0.000000
0.450073 0.643672 0.000000
0.480078 0.643672 0.000000
0.510083 0.643672 0.000000
0.540088 0.643672 0.000000
0.570093 0.643672 0.000000
0.600098 0.643672 0.000000
0.630103 0.643672 0.000000
0.660107 0.643672 0.000000
0.689382 0.642555 0.000000
0.718594 0.641437 0.000000
0.747742 0.640320 0.000000
0.776826 0.639203 0.000000
0.805847 0.638086 0.000000
0.834805 0.636969 0.000000
0.863699 0.635852 0.000000
0.892529 0.634734 0.000000
0.921296 0.633617 0.000000
0.950000 0.632500 0.000000
0.000000 0.671762 0.000000
0.029973 0.671762 0.000000
0.059946 0.671762 0.000000
0.089919 0.671762 0.000000
0.119893 0.671762 0.000000
0.149866 0.671762 0.000000
0.179839 0.671762 0.000000
0.209812 0.671762 0.000000
0.239785 0.671762 0.000000
0.269758 0.671762 0.000000
0.299731 0.671762 0.000000
0.329705 0.671762 0.000000
0.359678 0.671762 0.000000
0.389651 0.671762 0.000000
0.419624 0.671762 0.000000
0.449597 0.671762 0.000000
0.479570 0.671762 0.000000
0.509543 0.671762 0.000000
0.539517 0.671762 0.000000
0.569490 0.671762 0.000000
0.599463 0.671762 0.000000
0.629436 0.671762 0.000000
0.659409 0.671762 0.000000
0.689382 0.671762 0.000000
0.718594 0.670594 0.000000
0.747742 0.669426 0.000000
0.776826 0.668258 0.000000
0.805847 0.667090 0.000000
0.834805 0.665922 0.000000
0.863699 0.664754 0.000000
0.892529 0.663586 0.000000
0.921296 0.662418 0.000000
0.950000 0.661250 0.000000
0.000000 0.699750 0.000000
0.029941 0.699750 0.000000
0.059883 0.699750 0.000000
0.089824 0.699750 0.000000
0.119766 0.699750 0.000000
0.149707 0.699750 0.000000
0.179648 0.699750 0.000000
0.209590 0.699750 0.000000
0.239531 0.699750 0.000000
0.269473 0.699750 0.000000
0.299414 0.699750 0.000000
0.329355 0.699750 0.000000
0.359297 0.699750 0.000000
0.389238 0.699750 0.000000
0.419180 0.699750 0.000000
0.449121 0.699750 0.000000
0.479063 0.699750 0.000000
0.509004 0.699750 0.000000
0.538945 0.699750 0.000000
0.568887 0.699750 0.000000
0.598828 0.699750 0.000000
0.628770 0.699750 0.000000
0.658711 0.699750 0.000000
0.688652 0.699750 0.000000
0.718594 0.699750 0.000000
0.747742 0.698531 0.000000
0.776826 0.697313 0.000000
0.805847 0.696094 0.000000
0.834805 0.694875 0.000000
0.863699 0.693656 0.000000
0.892529 0.692438 0.000000
0.921296 0.691219 0.000000
0.950000 0.690000 0.000000
0.000000 0.727637 0.000000
0.029910 0.727637 0.000000
0.059819 0.727637 0.000000
0.089729 0.727637 0.000000
0.119639 0.727637 0.000000
0.149548 0.727637 0.000000
0.179458 0.727637 0.000000
0.209368 0.727637 0.000000
0.239277 0.727637 0.000000
0.269187 0.727637 0.000000
0.299097 0.727637 0.000000
0.329006 0.727637 0.000000
0.358916 0.727637 0.000000
0.388826 0.727637 0.000000
0.418735 0.727637 0.000000
0.448645 0.727637 0.000000
0.478555 0.727637 0.000000
0.508464 0.727637 0.000000
0.538374 0.727637 0.000000
0.568284 0.727637 0.000000
0.598193 0.727637 0.000000
0.628103 0.727637 0.000000
0.658013 0.727637 0.000000
0.687922 0.727637 0.000000
0.717832 0.727637 0.000000
0.747742 0.727637 0.000000
0.776826 0.726367 0.000000
0.805847 0.725098 0.000000
0.834805 0.723828 0.000000
0.863699 0.722559 0.000000
0.892529 0.721289 0.000000
0.921296 0.720020 0.000000
0.950000 0.718750 0.000000
0.000000 0.755422 0.000000
0.029878 0.755422 0.000000
0.059756 0.755422 0.000000
0.089634 0.755422 0.000000
0.119512 0.755422 0.000000
0.149390 0.755422 0.000000
0.179268 0.755422 0.000000
0.209146 0.755422 0.000000
0.239023 0.755422 0.000000
0.268901 0.755422 0.000000
0.298779 0.755422 0.000000
0.328657 0.755422 0.000000
0.358535 0.755422 0.000000
0.388413 0.755422 0.000000
0.418291 0.755422 0.000000
0.448169 0.755422 0.000000
0.478047 0.755422 0.000000
0.507925 0.755422 0.000000
0.537803 0.755422 0.000000
0.567681 0.755422 0.000000
0.597559 0.755422 0.000000
0.627437 0.755422 0.000000
0.657314 0.755422 0.000000
0.687192 0.755422 0.000000
0.717070 0.755422 0.000000
0.746948 0.755422 0.000000
0.776826 0.755422 0.000000
