luts/original/analog-fade.cube
TITLE "Analog Fade"
LUT_3D_SIZE 9
DOMAIN_MIN 0.0 0.0 0.0
DOMAIN_MAX 1.0 1.0 1.0
0.000000 0.000000 0.000000
0.122305 0.000000 0.000000
0.243594 0.000000 0.000000
0.363867 0.000000 0.000000
0.483125 0.000000 0.000000
0.601367 0.000000 0.000000
0.718594 0.000000 0.000000
0.834805 0.000000 0.000000
0.950000 0.000000 0.000000
0.000000 0.120688 0.000000
0.122305 0.120688 0.000000
0.243594 0.119875 0.000000
0.363867 0.119063 0.000000
0.483125 0.118250 0.000000
0.601367 0.117438 0.000000
0.718594 0.116625 0.000000
0.834805 0.115812 0.000000
0.950000 0.115000 0.000000
0.000000 0.239750 0.000000
0.121797 0.239750 0.000000
0.243594 0.239750 0.000000
0.363867 0.238125 0.000000
0.483125 0.236500 0.000000
0.601367 0.234875 0.000000
0.718594 0.233250 0.000000
0.834805 0.231625 0.000000
0.950000 0.230000 0.000000
0.000000 0.357187 0.000000
0.121289 0.357187 0.000000
0.242578 0.357187 0.000000
0.363867 0.357187 0.000000
0.483125 0.354750 0.000000
0.601367 0.352313 0.000000
0.718594 0.349875 0.000000
0.834805 0.347438 0.000000
0.950000 0.345000 0.000000
0.000000 0.473000 0.000000
0.120781 0.473000 0.000000
0.241562 0.473000 0.000000
0.362344 0.473000 0.000000
0.483125 0.473000 0.000000
0.601367 0.469750 0.000000
0.718594 0.466500 0.000000
0.834805 0.463250 0.000000
0.950000 0.460000 0.000000
0.000000 0.587187 0.000000
0.120273 0.587187 0.000000
0.240547 0.587187 0.000000
0.360820 0.587187 0.000000
0.481094 0.587187 0.000000
0.601367 0.587187 0.000000
0.718594 0.583125 0.000000
0.834805 0.579063 0.000000
0.950000 0.575000 0.000000
0.000000 0.699750 0.000000
0.119766 0.699750 0.000000
0.239531 0.699750 0.000000
0.359297 0.699750 0.000000
0.479063 0.699750 0.000000
0.598828 0.699750 0.000000
0.718594 0.699750 0.000000
0.834805 0.694875 0.000000
0.950000 0.690000 0.000000
0.000000 0.810688 0.000000
0.119258 0.810688 0.000000
0.238516 0.810688 0.000000
0.357773 0.810688 0.000000
0.477031 0.810688 0.000000
0.596289 0.810688 0.000000
0.715547 0.810688 0.000000
0.834805 0.810688 0.000000
0.950000 0.805000 0.000000
0.000000 0.920000 0.000000
0.118750 0.920000 0.000000
0.237500 0.920000 0.000000
0.356250 0.920000 0.000000
0.475000 0.920000 0.000000
0.593750 0.920000 0.000000
0.712500 0.920000 0.000000
0.831250 0.920000 0.000000
0.950000 0.920000 0.000000
0.000000 0.000000 0.118531
0.122305 0.000000 0.118531
0.243594 0.000000 0.117313
0.363867 0.000000 0.116094
0.483125 0.000000 0.114875
0.601367 0.000000 0.113656
0.718594 0.000000 0.112437
0.834805 0.000000 0.111219
0.950000 0.000000 0.110000
0.000000 0.120688 0.118531
0.122305 0.120688 0.118531
0.243594 0.119875 0.117313
0.363867 0.119063 0.116094
0.483125 0.118250 0.114875
0.601367 0.117438 0.113656
0.718594 0.116625 0.112437
0.834805 0.115812 0.111219
0.950000 0.115000 0.110000
0.000000 0.239750 0.117313
0.121797 0.239750 0.117313
0.243594 0.239750 0.117313
0.363867 0.238125 0.116094
0.483125 0.236500 0.114875
0.601367 0.234875 0.113656
0.718594 0.233250 0.112437
0.834805 0.231625 0.111219
0.950000 0.230000 0.110000
0.000000 0.357187 0.116094
0.121289 0.357187 0.116094
0.242578 0.357187 0.116094
0.363867 0.357187 0.116094
0.483125 0.354750 0.114875
0.601367 0.352313 0.113656
0.718594 0.349875 0.112437
0.834805 0.347438 0.111219
0.950000 0.345000 0.110000
0.000000 0.473000 0.114875
0.120781 0.473000 0.114875
0.241562 0.473000 0.114875
0.362344 0.473000 0.114875
0.483125 0.473000 0.114875
0.601367 0.469750 0.113656
0.718594 0.466500 0.112437
0.834805 0.463250 0.111219
0.950000 0.460000 0.110000
0.000000 0.587187 0.113656
0.120273 0.587187 0.113656
0.240547 0.587187 0.113656
0.360820 0.587187 0.113656
0.481094 0.587187 0.113656
0.601367 0.587187 0.113656
0.718594 0.583125 0.112437
0.834805 0.579063 0.111219
0.950000 0.575000 0.110000
0.000000 0.699750 0.112437
0.119766 0.699750 0.112437
0.239531 0.699750 0.112437
0.359297 0.699750 0.112437
0.479063 0.699750 0.112437
0.598828 0.699750 0.112437
0.718594 0.699750 0.112437
0.834805 0.694875 0.111219
0.950000 0.690000 0.110000
0.000000 0.810688 0.111219
0.119258 0.810688 0.111219
0.238516 0.810688 0.111219
0.357773 0.810688 0.111219
0.477031 0.810688 0.111219
0.596289 0.810688 0.111219
0.715547 0.810688 0.111219
0.834805 0.810688 0.111219
0.950000 0.805000 0.110000
0.000000 0.920000 0.110000
0.118750 0.920000 0.110000
0.237500 0.920000 0.110000
0.356250 0.920000 0.110000
0.475000 0.920000 0.110000
0.593750 0.920000 0.110000
0.712500 0.920000 0.110000
0.831250 0.920000 0.110000
0.950000 0.920000 0.110000
0.000000 0.000000 0.234625
0.121797 0.000000 0.234625
0.243594 0.000000 0.234625
0.363867 0.000000 0.232187
0.483125 0.000000 0.229750
0.601367 0.000000 0.227313
0.718594 0.000000 0.224875
0.834805 0.000000 0.222438
0.950000 0.000000 0.220000
0.000000 0.119875 0.234625
0.121797 0.119875 0.234625
0.243594 0.119875 0.234625
0.363867 0.119063 0.232187
0.483125 0.118250 0.229750
0.601367 0.117438 0.227313
0.718594 0.116625 0.224875
0.834805 0.115812 0.222438
0.950000 0.115000 0.220000
0.000000 0.239750 0.234625
0.121797 0.239750 0.234625
0.243594 0.239750 0.234625
0.363867 0.238125 0.232187
0.483125 0.236500 0.229750
0.601367 0.234875 0.227313
0.718594 0.233250 0.224875
0.834805 0.231625 0.222438
0.950000 0.230000 0.220000
0.000000 0.357187 0.232187
0.121289 0.357187 0.232187
0.242578 0.357187 0.232187
0.363867 0.357187 0.232187
0.483125 0.354750 0.229750
0.601367 0.352313 0.227313
0.718594 0.349875 0.224875
0.834805 0.347438 0.222438
0.950000 0.345000 0.220000
0.000000 0.473000 0.229750
0.120781 0.473000 0.229750
0.241562 0.473000 0.229750
0.362344 0.473000 0.229750
0.483125 0.473000 0.229750
0.601367 0.469750 0.227313
0.718594 0.466500 0.224875
0.834805 0.463250 0.222438
0.950000 0.460000 0.220000
0.000000 0.587187 0.227313
0.120273 0.587187 0.227313
0.240547 0.587187 0.227313
0.360820 0.587187 0.227313
0.481094 0.587187 0.227313
0.601367 0.587187 0.227313
0.718594 0.583125 0.224875
0.834805 0.579063 0.222438
0.950000 0.575000 0.220000
0.000000 0.699750 0.224875
0.119766 0.699750 0.224875
0.239531 0.699750 0.224875
0.359297 0.699750 0.224875
0.479063 0.699750 0.224875
0.598828 0.699750 0.224875
0.718594 0.699750 0.224875
0.834805 0.694875 0.222438
0.950000 0.690000 0.220000
0.000000 0.810688 0.222438
0.119258 0.810688 0.222438
0.238516 0.810688 0.222438
0.357773 0.810688 0.222438
0.477031 0.810688 0.222438
0.596289 0.810688 0.222438
0.715547 0.810688 0.222438
0.834805 0.810688 0.222438
0.950000 0.805000 0.220000
0.000000 0.920000 0.220000
0.118750 0.920000 0.220000
0.237500 0.920000 0.220000
0.356250 0.920000 0.220000
0.475000 0.920000 0.220000
0.593750 0.920000 0.220000
0.712500 0.920000 0.220000
0.831250 0.920000 0.220000
0.950000 0.920000 0.220000
0.000000 0.000000 0.348281
0.121289 0.000000 0.348281
0.242578 0.000000 0.348281
0.363867 0.000000 0.348281
0.483125 0.000000 0.344625
0.601367 0.000000 0.340969
0.718594 0.000000 0.337313
0.834805 0.000000 0.333656
0.950000 0.000000 0.330000
0.000000 0.119063 0.348281
0.121289 0.119063 0.348281
0.242578 0.119063 0.348281
0.363867 0.119063 0.348281
0.483125 0.118250 0.344625
0.601367 0.117438 0.340969
0.718594 0.116625 0.337313
0.834805 0.115812 0.333656
0.950000 0.115000 0.330000
0.000000 0.238125 0.348281
0.121289 0.238125 0.348281
0.242578 0.238125 0.348281
0.363867 0.238125 0.348281
0.483125 0.236500 0.344625
0.601367 0.234875 0.340969
0.718594 0.233250 0.337313
0.834805 0.231625 0.333656
0.950000 0.230000 0.330000
0.000000 0.357187 0.348281
0.121289 0.357187 0.348281
0.242578 0.357187 0.348281
0.363867 0.357187 0.348281
0.483125 0.354750 0.344625
0.601367 0.352313 0.340969
0.718594 0.349875 0.337313
0.834805 0.347438 0.333656
0.950000 0.345000 0.330000
0.000000 0.473000 0.344625
0.120781 0.473000 0.344625
0.241562 0.473000 0.344625
0.362344 0.473000 0.344625
0.483125 0.473000 0.344625
0.601367 0.469750 0.340969
0.718594 0.466500 0.337313
0.834805 0.463250 0.333656
0.950000 0.460000 0.330000
0.000000 0.587187 0.340969
0.120273 0.587187 0.340969
0.240547 0.587187 0.340969
0.360820 0.587187 0.340969
0.481094 0.587187 0.340969
0.601367 0.587187 0.340969
0.718594 0.583125 0.337313
0.834805 0.579063 0.333656
0.950000 0.575000 0.330000
0.000000 0.699750 0.337313
0.119766 0.699750 0.337313
0.239531 0.699750 0.337313
0.359297 0.699750 0.337313
0.479063 0.699750 0.337313
0.598828 0.699750 0.337313
0.718594 0.699750 0.337313
0.834805 0.694875 0.333656
0.950000 0.690000 0.330000
0.000000 0.810688 0.333656
0.119258 0.810688 0.333656
0.238516 0.810688 0.333656
0.357773 0.810688 0.333656
0.477031 0.810688 0.333656
0.596289 0.810688 0.333656
0.715547 0.810688 0.333656
0.834805 0.810688 0.333656
0.950000 0.805000 0.330000
0.000000 0.920000 0.330000
0.118750 0.920000 0.330000
0.237500 0.920000 0.330000
0.356250 0.920000 0.330000
0.475000 0.920000 0.330000
0.593750 0.920000 0.330000
0.712500 0.920000 0.330000
0.831250 0.920000 0.330000
0.950000 0.920000 0.330000
0.000000 0.000000 0.459500
0.120781 0.000000 0.459500
0.241562 0.000000 0.459500
0.362344 0.000000 0.459500
0.483125 0.000000 0.459500
0.601367 0.000000 0.454625
0.718594 0.000000 0.449750
0.834805 0.000000 0.444875
0.950000 0.000000 0.440000
0.000000 0.118250 0.459500
0.120781 0.118250 0.459500
0.241562 0.118250 0.459500
0.362344 0.118250 0.459500
0.483125 0.118250 0.459500
0.601367 0.117438 0.454625
0.718594 0.116625 0.449750
0.834805 0.115812 0.444875
0.950000 0.115000 0.440000
0.000000 0.236500 0.459500
0.120781 0.236500 0.459500
0.241562 0.236500 0.459500
0.362344 0.236500 0.459500
0.483125 0.236500 0.459500
0.601367 0.234875 0.454625
0.718594 0.233250 0.449750
0.834805 0.231625 0.444875
0.950000 0.230000 0.440000
0.000000 0.354750 0.459500
0.120781 0.354750 0.459500
0.241562 0.354750 0.459500
0.362344 0.354750 0.459500
0.483125 0.354750 0.459500
0.601367 0.352313 0.454625
0.718594 0.349875 0.449750
0.834805 0.347438 0.444875
0.950000 0.345000 0.440000
0.000000 0.473000 0.459500
0.120781 0.473000 0.459500
0.241562 0.473000 0.459500
0.362344 0.473000 0.459500
0.483125 0.473000 0.459500
0.601367 0.469750 0.454625
0.718594 0.466500 0.449750
0.834805 0.463250 0.444875
0.950000 0.460000 0.440000
0.000000 0.587187 0.454625
0.120273 0.587187 0.454625
0.240547 0.587187 0.454625
0.360820 0.587187 0.454625
0.481094 0.587187 0.454625
0.601367 0.587187 0.454625
0.718594 0.583125 0.449750
0.834805 0.579063 0.444875
0.950000 0.575000 0.440000
0.000000 0.699750 0.449750
0.119766 0.699750 0.449750
0.239531 0.699750 0.449750
0.359297 0.699750 0.449750
0.479063 0.699750 0.449750
0.598828 0.699750 0.449750
0.718594 0.699750 0.449750
0.834805 0.694875 0.444875
0.950000 0.690000 0.440000
0.000000 0.810688 0.444875
0.119258 0.810688 0.444875
0.238516 0.810688 0.444875
0.357773 0.810688 0.444875
0.477031 0.810688 0.444875
0.596289 0.810688 0.444875
0.715547 0.810688 0.444875
0.834805 0.810688 0.444875
0.950000 0.805000 0.440000
0.000000 0.920000 0.440000
0.118750 0.920000 0.440000
0.237500 0.920000 0.440000
0.356250 0.920000 0.440000
0.475000 0.920000 0.440000
0.593750 0.920000 0.440000
0.712500 0.920000 0.440000
0.831250 0.920000 0.440000
0.950000 0.920000 0.440000
0.000000 0.000000 0.568281
0.120273 0.000000 0.568281
0.240547 0.000000 0.568281
0.360820 0.000000 0.568281
0.481094 0.000000 0.568281
0.601367 0.000000 0.568281
0.718594 0.000000 0.562188
0.834805 0.000000 0.556094
0.950000 0.000000 0.550000
0.000000 0.117438 0.568281
0.120273 0.117438 0.568281
0.240547 0.117438 0.568281
0.360820 0.117438 0.568281
0.481094 0.117438 0.568281
0.601367 0.117438 0.568281
0.718594 0.116625 0.562188
0.834805 0.115812 0.556094
0.950000 0.115000 0.550000
0.000000 0.234875 0.568281
0.120273 0.234875 0.568281
0.240547 0.234875 0.568281
0.360820 0.234875 0.568281
0.481094 0.234875 0.568281
0.601367 0.234875 0.568281
0.718594 0.233250 0.562188
0.834805 0.231625 0.556094
0.950000 0.230000 0.550000
0.000000 0.352313 0.568281
0.120273 0.352313 0.568281
0.240547 0.352313 0.568281
0.360820 0.352313 0.568281
0.481094 0.352313 0.568281
0.601367 0.352313 0.568281
0.718594 0.349875 0.562188
0.834805 0.347438 0.556094
0.950000 0.345000 0.550000
0.000000 0.469750 0.568281
0.120273 0.469750 0.568281
0.240547 0.469750 0.568281
0.360820 0.469750 0.568281
0.481094 0.469750 0.568281
0.601367 0.469750 0.568281
0.718594 0.466500 0.562188
0.834805 0.463250 0.556094
0.950000 0.460000 0.550000
0.000000 0.587187 0.568281
0.120273 0.587187 0.568281
0.240547 0.587187 0.568281
0.360820 0.587187 0.568281
0.481094 0.587187 0.568281
0.601367 0.587187 0.568281
0.718594 0.583125 0.562188
0.834805 0.579063 0.556094
0.950000 0.575000 0.550000
0.000000 0.699750 0.562188
0.119766 0.699750 0.562188
0.239531 0.699750 0.562188
0.359297 0.699750 0.562188
0.479063 0.699750 0.562188
0.598828 0.699750 0.562188
0.718594 0.699750 0.562188
0.834805 0.694875 0.556094
0.950000 0.690000 0.550000
0.000000 0.810688 0.556094
0.119258 0.810688 0.556094
0.238516 0.810688 0.556094
0.357773 0.810688 0.556094
0.477031 0.810688 0.556094
0.596289 0.810688 0.556094
0.715547 0.810688 0.556094
0.834805 0.810688 0.556094
0.950000 0.805000 0.550000
0.000000 0.920000 0.550000
0.118750 0.920000 0.550000
0.237500 0.920000 0.550000
0.356250 0.920000 0.550000
0.475000 0.920000 0.550000
0.593750 0.920000 0.550000
0.712500 0.920000 0.550000
0.831250 0.920000 0.550000
0.950000 0.920000 0.550000
0.000000 0.000000 0.674625
0.119766 0.000000 0.674625
0.239531 0.000000 0.674625
0.359297 0.000000 0.674625
0.479063 0.000000 0.674625
0.598828 0.000000 0.674625
0.718594 0.000000 0.674625
0.834805 0.000000 0.667312
0.950000 0.000000 0.660000
0.000000 0.116625 0.674625
0.119766 0.116625 0.674625
0.239531 0.116625 0.674625
0.359297 0.116625 0.674625
0.479063 0.116625 0.674625
0.598828 0.116625 0.674625
0.718594 0.116625 0.674625
0.834805 0.115812 0.667312
0.950000 0.115000 0.660000
0.000000 0.233250 0.674625
0.119766 0.233250 0.674625
0.239531 0.233250 0.674625
0.359297 0.233250 0.674625
0.479063 0.233250 0.674625
0.598828 0.233250 0.674625
0.718594 0.233250 0.674625
0.834805 0.231625 0.667312
0.950000 0.230000 0.660000
0.000000 0.349875 0.674625
0.119766 0.349875 0.674625
0.239531 0.349875 0.674625
0.359297 0.349875 0.674625
0.479063 0.349875 0.674625
0.598828 0.349875 0.674625
0.718594 0.349875 0.674625
0.834805 0.347438 0.667312
0.950000 0.345000 0.660000
0.000000 0.466500 0.674625
0.119766 0.466500 0.674625
0.239531 0.466500 0.674625
0.359297 0.466500 0.674625
0.479063 0.466500 0.674625
0.598828 0.466500 0.674625
0.718594 0.466500 0.674625
0.834805 0.463250 0.667312
0.950000 0.460000 0.660000
0.000000 0.583125 0.674625
0.119766 0.583125 0.674625
0.239531 0.583125 0.674625
0.359297 0.583125 0.674625
0.479063 0.583125 0.674625
0.598828 0.583125 0.674625
0.718594 0.583125 0.674625
0.834805 0.579063 0.667312
0.950000 0.575000 0.660000
0.000000 0.699750 0.674625
0.119766 0.699750 0.674625
0.239531 0.699750 0.674625
0.359297 0.699750 0.674625
0.479063 0.699750 0.674625
0.598828 0.699750 0.674625
0.718594 0.699750 0.674625
0.834805 0.694875 0.667312
0.950000 0.690000 0.660000
0.000000 0.810688 0.667312
0.119258 0.810688 0.667312
0.238516 0.810688 0.667312
0.357773 0.810688 0.667312
0.477031 0.810688 0.667312
0.596289 0.810688 0.667312
0.715547 0.810688 0.667312
0.834805 0.810688 0.667312
0.950000 0.805000 0.660000
0.000000 0.920000 0.660000
0.118750 0.920000 0.660000
0.237500 0.920000 0.660000
0.356250 0.920000 0.660000
0.475000 0.920000 0.660000
0.593750 0.920000 0.660000
0.712500 0.920000 0.660000
0.831250 0.920000 0.660000
0.950000 0.920000 0.660000
0.000000 0.000000 0.778531
0.119258 0.000000 0.778531
0.238516 0.000000 0.778531
0.357773 0.000000 0.778531
0.477031 0.000000 0.778531
0.596289 0.000000 0.778531
0.715547 0.000000 0.778531
0.834805 0.000000 0.778531
0.950000 0.000000 0.770000
0.000000 0.115812 0.778531
0.119258 0.115812 0.778531
0.238516 0.115812 0.778531
0.357773 0.115812 0.778531
0.477031 0.115812 0.778531
0.596289 0.115812 0.778531
0.715547 0.115812 0.778531
0.834805 0.115812 0.778531
0.950000 0.115000 0.770000
0.000000 0.231625 0.778531
0.119258 0.231625 0.778531
0.238516 0.231625 0.778531
0.357773 0.231625 0.778531
0.477031 0.231625 0.778531
0.596289 0.231625 0.778531
0.715547 0.231625 0.778531
0.834805 0.231625 0.778531
0.950000 0.230000 0.770000
0.000000 0.347438 0.778531
0.119258 0.347438 0.778531
0.238516 0.347438 0.778531
0.357773 0.347438 0.778531
0.477031 0.347438 0.778531
0.596289 0.347438 0.778531
0.715547 0.347438 0.778531
0.834805 0.347438 0.778531
0.950000 0.345000 0.770000
0.000000 0.463250 0.778531
0.119258 0.463250 0.778531
0.238516 0.463250 0.778531
0.357773 0.463250 0.778531
0.477031 0.463250 0.778531
0.596289 0.463250 0.778531
0.715547 0.463250 0.778531
0.834805 0.463250 0.778531
0.950000 0.460000 0.770000
0.000000 0.579063 0.778531
0.119258 0.579063 0.778531
0.238516 0.579063 0.778531
0.357773 0.579063 0.778531
0.477031 0.579063 0.778531
0.596289 0.579063 0.778531
0.715547 0.579063 0.778531
0.834805 0.579063 0.778531
0.950000 0.575000 0.770000
0.000000 0.694875 0.778531
0.119258 0.694875 0.778531
0.238516 0.694875 0.778531
0.357773 0.694875 0.778531
0.477031 0.694875 0.778531
0.596289 0.694875 0.778531
0.715547 0.694875 0.778531
0.834805 0.694875 0.778531
0.950000 0.690000 0.770000
0.000000 0.810688 0.778531
0.119258 0.810688 0.778531
0.238516 0.810688 0.778531
0.357773 0.810688 0.778531
0.477031 0.810688 0.778531
0.596289 0.810688 0.778531
0.715547 0.810688 0.778531
0.834805 0.810688 0.778531
0.950000 0.805000 0.770000
0.000000 0.920000 0.770000
0.118750 0.920000 0.770000
0.237500 0.920000 0.770000
0.356250 0.920000 0.770000
0.475000 0.920000 0.770000
0.593750 0.920000 0.770000
0.712500 0.920000 0.770000
0.831250 0.920000 0.770000
0.950000 0.920000 0.770000
0.000000 0.000000 0.880000
0.118750 0.000000 0.880000
0.237500 0.000000 0.880000
0.356250 0.000000 0.880000
0.475000 0.000000 0.880000
0.593750 0.000000 0.880000
0.712500 0.000000 0.880000
0.831250 0.000000 0.880000
0.950000 0.000000 0.880000
0.000000 0.115000 0.880000
0.118750 0.115000 0.880000
0.237500 0.115000 0.880000
0.356250 0.115000 0.880000
0.475000 0.115000 0.880000
0.593750 0.115000 0.880000
0.712500 0.115000 0.880000
0.831250 0.115000 0.880000
0.950000 0.115000 0.880000
0.000000 0.230000 0.880000
0.118750 0.230000 0.880000
0.237500 0.230000 0.880000
0.356250 0.230000 0.880000
0.475000 0.230000 0.880000
0.593750 0.230000 0.880000
0.712500 0.230000 0.880000
0.831250 0.230000 0.880000
0.950000 0.230000 0.880000
0.000000 0.345000 0.880000
0.118750 0.345000 0.880000
0.237500 0.345000 0.880000
0.356250 0.345000 0.880000
0.475000 0.345000 0.880000
0.593750 0.345000 0.880000
0.712500 0.345000 0.880000
0.831250 0.345000 0.880000
0.950000 0.345000 0.880000
0.000000 0.460000 0.880000
0.118750 0.460000 0.880000
0.237500 0.460000 0.880000
0.356250 0.460000 0.880000
0.475000 0.460000 0.880000
0.593750 0.460000 0.880000
0.712500 0.460000 0.880000
0.831250 0.460000 0.880000
0.950000 0.460000 0.880000
0.000000 0.575000 0.880000
0.118750 0.575000 0.880000
0.237500 0.575000 0.880000
0.356250 0.575000 0.880000
0.475000 0.575000 0.880000
0.593750 0.575000 0.880000
0.712500 0.575000 0.880000
0.831250 0.575000 0.880000
0.950000 0.575000 0.880000
0.000000 0.690000 0.880000
0.118750 0.690000 0.880000
0.237500 0.690000 0.880000
0.356250 0.690000 0.880000
0.475000 0.690000 0.880000
0.593750 0.690000 0.880000
0.712500 0.690000 0.880000
0.831250 0.690000 0.880000
0.950000 0.690000 0.880000
0.000000 0.805000 0.880000
0.118750 0.805000 0.880000
0.237500 0.805000 0.880000
0.356250 0.805000 0.880000
0.475000 0.805000 0.880000
0.593750 0.805000 0.880000
0.712500 0.805000 0.880000
0.831250 0.805000 0.880000
0.950000 0.805000 0.880000
0.000000 0.920000 0.880000
0.118750 0.920000 0.880000
0.237500 0.920000 0.880000
0.356250 0.920000 0.880000
0.475000 0.920000 0.880000
0.593750 0.920000 0.880000
0.712500 0.920000 0.880000
0.831250 0.920000 0.880000
0.950000 0.920000 0.880000
