luts/original/anamorphic-flare.cube
TITLE "Anamorphic Flare"
LUT_3D_SIZE 9
DOMAIN_MIN 0.0 0.0 0.0
DOMAIN_MAX 1.0 1.0 1.0
0.000000 0.000000 0.017500
0.104813 0.000000 0.020187
0.227644 0.000000 0.022356
0.350993 0.000000 0.024007
0.474860 0.000000 0.025140
0.599246 0.000000 0.025754
0.724150 0.000000 0.025850
0.849572 0.000000 0.025428
0.975512 0.000000 0.024488
0.000000 0.125000 0.014988
0.107689 0.125000 0.011248
0.233142 0.120549 0.007957
0.357363 0.113551 0.001236
0.482102 0.111045 0.000000
0.607359 0.110460 0.000000
0.733134 0.110626 0.000000
0.859428 0.111429 0.000000
0.986240 0.112814 0.000000
0.000000 0.250000 0.008647
0.105145 0.250000 0.002744
0.237643 0.250000 0.001110
0.363732 0.246456 0.000000
0.489343 0.244672 0.000000
0.615472 0.244243 0.000000
0.742119 0.244712 0.000000
0.869284 0.245900 0.000000
0.996968 0.247721 0.000000
0.000597 0.375000 0.000000
0.109938 0.375000 0.000000
0.240660 0.375000 0.000000
0.369992 0.375000 0.000000
0.496585 0.374164 0.000000
0.623585 0.374435 0.000000
0.751104 0.375000 0.000000
0.879141 0.375000 0.000000
1.000000 0.375000 0.000000
0.012286 0.500000 0.000000
0.120358 0.500000 0.000000
0.249280 0.500000 0.000000
0.376673 0.500000 0.000000
0.503826 0.500000 0.000000
0.631698 0.500000 0.000000
0.760089 0.500000 0.000000
0.888997 0.500000 0.000000
1.000000 0.500000 0.000000
0.023663 0.625000 0.000000
0.130164 0.625000 0.000000
0.257576 0.625000 0.000000
0.384988 0.625000 0.000000
0.512399 0.625000 0.000000
0.639811 0.625000 0.000000
0.769073 0.625000 0.000000
0.898853 0.625000 0.000000
1.000000 0.625000 0.000000
0.031446 0.750000 0.000000
0.139704 0.750000 0.000000
0.267375 0.750000 0.000000
0.395046 0.750000 0.000000
0.522716 0.750000 0.000000
0.650387 0.750000 0.000000
0.778058 0.750000 0.000000
0.908710 0.750000 0.000000
1.000000 0.750000 0.000000
0.040247 0.875000 0.000000
0.150987 0.875000 0.000000
0.278917 0.875000 0.000000
0.406847 0.875000 0.000000
0.534777 0.875000 0.000000
0.662706 0.875000 0.000000
0.790636 0.875000 0.000000
0.918566 0.875000 0.000000
1.000000 0.875000 0.000000
0.050064 1.000000 0.000000
0.164013 1.000000 0.000000
0.292202 1.000000 0.000000
0.420391 1.000000 0.000000
0.548580 1.000000 0.000000
0.676769 1.000000 0.000000
0.804958 1.000000 0.000000
0.933147 1.000000 0.000000
1.000000 1.000000 0.000000
0.000272 0.000000 0.146095
0.105280 0.000000 0.144720
0.228199 0.000000 0.146801
0.351636 0.000000 0.148364
0.475591 0.000000 0.149409
0.600065 0.000000 0.149935
0.725057 0.000000 0.149943
0.850567 0.000000 0.149433
0.976595 0.000000 0.148405
0.000000 0.124274 0.141469
0.104386 0.122240 0.140094
0.233697 0.116054 0.135411
0.358006 0.108547 0.127669
0.482833 0.099373 0.118405
0.608178 0.088533 0.107053
0.734041 0.076027 0.093525
0.860423 0.061854 0.077795
0.987323 0.046014 0.059852
0.000000 0.250000 0.136299
0.102311 0.250000 0.130523
0.237115 0.250000 0.125555
0.364375 0.241519 0.118662
0.490074 0.232158 0.108720
0.616291 0.221715 0.096593
0.743026 0.209838 0.082282
0.870279 0.196425 0.065786
0.998051 0.181435 0.047105
0.000000 0.375000 0.127377
0.099146 0.375000 0.117060
0.233791 0.375000 0.113336
0.370220 0.375000 0.111442
0.497316 0.366168 0.100899
0.624404 0.356118 0.087831
0.752011 0.344792 0.072578
0.880136 0.332010 0.055141
1.000000 0.318425 0.036221
0.000000 0.500000 0.115577
0.096099 0.500000 0.100303
0.232296 0.500000 0.097748
0.368743 0.500000 0.095596
0.504557 0.499524 0.093079
0.632517 0.490029 0.079069
0.760996 0.479342 0.062875
0.889992 0.467244 0.044496
1.000000 0.455283 0.025493
0.000000 0.625000 0.100884
0.094349 0.625000 0.081204
0.231473 0.625000 0.078792
0.368477 0.625000 0.076381
0.505362 0.625000 0.073969
0.640630 0.623509 0.070307
0.769980 0.613527 0.053171
0.899849 0.602157 0.033851
1.000000 0.591859 0.014765
0.000000 0.750000 0.083290
0.093272 0.750000 0.059139
0.231134 0.750000 0.056468
0.368897 0.750000 0.053797
0.506561 0.750000 0.051127
0.644128 0.750000 0.048456
0.778965 0.747381 0.043468
0.909705 0.736772 0.023206
1.000000 0.728165 0.004037
0.000000 0.875000 0.062794
0.092516 0.875000 0.033706
0.231223 0.875000 0.030776
0.369843 0.875000 0.027846
0.508376 0.875000 0.024916
0.646824 0.875000 0.021986
0.785187 0.875000 0.019056
0.919561 0.871113 0.012561
1.000000 0.865111 0.000000
0.000000 1.000000 0.039394
0.092107 1.000000 0.004904
0.231717 1.000000 0.001715
0.372173 1.000000 0.000000
0.512972 1.000000 0.000000
0.652802 1.000000 0.000000
0.791675 1.000000 0.000000
0.929600 1.000000 0.000000
1.000000 1.000000 0.000000
0.000648 0.000000 0.274515
0.102119 0.000000 0.272881
0.228754 0.000000 0.271246
0.352279 0.000000 0.272721
0.476322 0.000000 0.273678
0.600884 0.000000 0.274116
0.725964 0.000000 0.274036
0.851562 0.000000 0.273438
0.977678 0.000000 0.272322
0.000000 0.122765 0.269017
0.095977 0.115407 0.267382
0.229710 0.113490 0.265748
0.358649 0.108496 0.261164
0.483564 0.099315 0.251691
0.608997 0.088468 0.240622
0.734948 0.075954 0.227557
0.861418 0.061774 0.212377
0.988406 0.045928 0.195031
0.000000 0.249291 0.263519
0.101915 0.248484 0.261884
0.228680 0.244465 0.260250
0.365018 0.232986 0.245611
0.490805 0.223736 0.234444
0.617110 0.212819 0.221773
0.743933 0.200235 0.207034
0.871274 0.185986 0.190129
0.999134 0.170069 0.171028
0.000000 0.375000 0.255627
0.099789 0.375000 0.249761
0.226682 0.375000 0.240153
0.370477 0.375000 0.235799
0.498047 0.361578 0.225110
0.625223 0.349790 0.211947
0.752918 0.337311 0.196599
0.881131 0.323564 0.179066
1.000000 0.309199 0.160138
0.000000 0.500000 0.244139
0.096830 0.500000 0.233377
0.224295 0.500000 0.222017
0.365374 0.500000 0.219865
0.505288 0.499191 0.217289
0.633336 0.486817 0.203184
0.761903 0.474399 0.186895
0.890987 0.460991 0.168421
1.000000 0.448092 0.149410
0.000000 0.625000 0.229785
0.093990 0.625000 0.213626
0.223781 0.625000 0.202973
0.363899 0.625000 0.200562
0.503811 0.625000 0.198150
0.641449 0.622966 0.194422
0.770887 0.610842 0.177192
0.900844 0.597900 0.157777
1.000000 0.586603 0.138682
0.000000 0.750000 0.212545
0.091268 0.750000 0.190335
0.223342 0.750000 0.180561
0.363535 0.750000 0.177890
0.503577 0.750000 0.175220
0.643470 0.750000 0.172549
0.779872 0.746714 0.167488
0.910700 0.734338 0.147132
1.000000 0.724749 0.127954
0.000000 0.875000 0.192410
0.088664 0.875000 0.163440
0.223164 0.875000 0.154781
0.363829 0.875000 0.151851
0.504371 0.875000 0.148921
0.644793 0.875000 0.145991
0.785097 0.875000 0.143061
0.920556 0.870347 0.136487
1.000000 0.862543 0.117226
0.000000 1.000000 0.169376
0.086179 1.000000 0.132912
0.223305 1.000000 0.125632
0.364636 1.000000 0.122443
0.505862 1.000000 0.119254
0.646986 1.000000 0.116065
0.788007 1.000000 0.112876
0.928927 1.000000 0.109687
1.000000 1.000000 0.106498
0.001125 0.000000 0.402758
0.099135 0.000000 0.400865
0.226029 0.000000 0.398971
0.352922 0.000000 0.397078
0.477053 0.000000 0.397947
0.601703 0.000000 0.398297
0.726871 0.000000 0.398129
0.852557 0.000000 0.397443
0.978761 0.000000 0.396239
0.000000 0.121563 0.396389
0.086133 0.107643 0.394495
0.219732 0.105779 0.392602
0.355642 0.105931 0.390708
0.484295 0.099256 0.384962
0.609816 0.088402 0.374182
0.735855 0.075882 0.361583
0.862413 0.061694 0.346954
0.989489 0.045841 0.330206
0.000000 0.246667 0.390019
0.093012 0.240569 0.388125
0.220057 0.233463 0.386232
0.361513 0.231440 0.384338
0.491536 0.223677 0.372387
0.617929 0.212753 0.358510
0.744840 0.200163 0.343559
0.872269 0.185906 0.326823
1.000000 0.170000 0.308093
0.000000 0.374515 0.383649
0.099891 0.374234 0.381756
0.226936 0.373946 0.379862
0.353981 0.365975 0.377969
0.498778 0.348098 0.349716
0.626042 0.337311 0.336062
0.753825 0.325045 0.320619
0.882126 0.311094 0.302992
1.000000 0.296377 0.284055
0.000000 0.500000 0.372936
0.097561 0.500000 0.366501
0.224714 0.500000 0.359371
0.354232 0.500000 0.344134
0.506019 0.498284 0.341500
0.634155 0.480728 0.327300
0.762810 0.466461 0.310916
0.891982 0.451877 0.292347
1.000000 0.438145 0.273327
0.000000 0.625000 0.358897
0.094809 0.625000 0.347306
0.222221 0.625000 0.337447
0.354303 0.625000 0.324743
0.500083 0.625000 0.322331
0.642268 0.621973 0.318538
0.771794 0.606613 0.301212
0.901839 0.591770 0.281702
1.000000 0.579366 0.262599
0.000000 0.750000 0.341993
0.092175 0.750000 0.324656
0.219846 0.750000 0.312784
0.354309 0.750000 0.301983
0.498212 0.750000 0.299313
0.641862 0.750000 0.296642
0.780779 0.745681 0.291509
0.911695 0.730872 0.271057
1.000000 0.720066 0.251871
0.000000 0.875000 0.322208
0.089659 0.875000 0.298449
0.217589 0.875000 0.284839
0.354585 0.875000 0.275856
0.498076 0.875000 0.272926
0.641385 0.875000 0.269996
0.784515 0.875000 0.267066
0.921551 0.869267 0.260412
1.000000 0.860269 0.241143
0.000000 1.000000 0.299531
0.087262 1.000000 0.268635
0.215451 1.000000 0.253421
0.355193 1.000000 0.246360
0.498856 1.000000 0.243171
0.642374 1.000000 0.239982
0.785749 1.000000 0.236793
0.928983 1.000000 0.233604
1.000000 1.000000 0.230415
0.001706 0.000000 0.530826
0.096327 0.000000 0.528673
0.223479 0.000000 0.526521
0.350632 0.000000 0.524368
0.477784 0.000000 0.522216
0.602522 0.000000 0.522478
0.727778 0.000000 0.522222
0.853552 0.000000 0.521448
0.979844 0.000000 0.520156
0.000000 0.120380 0.523584
0.074854 0.098365 0.521432
0.208999 0.096458 0.519279
0.345420 0.096630 0.517127
0.481876 0.096802 0.514974
0.610635 0.088337 0.507733
0.736762 0.075809 0.495603
0.863408 0.061615 0.481526
0.990572 0.045754 0.465378
0.000000 0.244532 0.516343
0.082674 0.231716 0.514191
0.209999 0.223783 0.512038
0.348912 0.222209 0.509885
0.489847 0.222381 0.507733
0.618748 0.212688 0.495216
0.745747 0.200090 0.480066
0.873264 0.185826 0.463504
1.000000 0.170000 0.445228
0.000000 0.370954 0.509102
0.090495 0.365576 0.506949
0.217820 0.361308 0.504797
0.345145 0.348591 0.502644
0.499195 0.347961 0.500491
0.626861 0.337039 0.478603
0.754732 0.324371 0.460514
0.883121 0.310038 0.441747
1.000000 0.295000 0.422432
0.000000 0.499892 0.501860
0.098292 0.500000 0.499677
0.225445 0.500000 0.497158
0.352597 0.500000 0.493847
0.506750 0.486230 0.465710
0.634974 0.464754 0.451415
0.763717 0.451627 0.434936
0.892977 0.437356 0.416272
1.000000 0.423482 0.397244
0.000000 0.625000 0.488219
0.095628 0.625000 0.481027
0.223040 0.625000 0.474538
0.350451 0.625000 0.463551
0.488620 0.625000 0.446512
0.643087 0.619567 0.442653
0.772701 0.598967 0.425233
0.902834 0.582183 0.405627
1.000000 0.568766 0.386516
0.000000 0.750000 0.471636
0.093082 0.750000 0.459015
0.220753 0.750000 0.449892
0.348424 0.750000 0.435999
0.487326 0.750000 0.423406
0.638064 0.750000 0.420735
0.781686 0.743868 0.415529
0.912690 0.725543 0.394982
1.000000 0.713250 0.375788
0.000000 0.875000 0.452188
0.090654 0.875000 0.433491
0.218584 0.875000 0.422262
0.346514 0.875000 0.406419
0.487450 0.875000 0.396931
0.635381 0.875000 0.394001
0.783010 0.875000 0.391071
0.922546 0.867633 0.384338
1.000000 0.856980 0.365060
0.000000 1.000000 0.429860
0.088345 1.000000 0.404389
0.216534 1.000000 0.391313
0.344723 1.000000 0.373831
0.488224 1.000000 0.367088
0.635225 1.000000 0.363899
0.782011 1.000000 0.360710
0.928587 1.000000 0.357521
1.000000 1.000000 0.354332
0.002389 0.000000 0.658717
0.093694 0.000000 0.656306
0.221106 0.000000 0.653894
0.348518 0.000000 0.651482
0.475929 0.000000 0.649071
0.603341 0.000000 0.646659
0.728685 0.000000 0.646315
0.854547 0.000000 0.645453
0.980927 0.000000 0.644073
0.000000 0.119146 0.650604
0.062139 0.087499 0.648193
0.197042 0.085525 0.645781
0.334260 0.085718 0.643369
0.471500 0.085911 0.640958
0.608764 0.086104 0.638546
0.737669 0.075736 0.629617
0.864403 0.061535 0.616094
0.991655 0.045668 0.600546
0.000000 0.242538 0.642491
0.070902 0.221456 0.640080
0.198506 0.212766 0.637668
0.337191 0.211367 0.635256
0.477618 0.211560 0.632845
0.618129 0.211753 0.630433
0.746654 0.200018 0.616555
0.874259 0.185747 0.600172
1.000000 0.170000 0.582363
0.000000 0.367928 0.634378
0.079664 0.355815 0.631967
0.207268 0.349747 0.629555
0.334873 0.337437 0.627143
0.481454 0.337209 0.624732
0.627680 0.336973 0.621257
0.755639 0.324299 0.600970
0.884116 0.309958 0.581465
1.000000 0.295000 0.562211
0.000000 0.495488 0.626265
0.088426 0.490627 0.623854
0.216030 0.487652 0.621442
0.343635 0.481333 0.619030
0.474853 0.462858 0.616618
0.635793 0.461324 0.606280
0.764624 0.448580 0.579631
0.893972 0.434170 0.557560
1.000000 0.420000 0.537347
0.000000 0.625000 0.617753
0.096447 0.625000 0.614791
0.223859 0.625000 0.611706
0.351270 0.625000 0.607874
0.478682 0.625000 0.600513
0.643906 0.605338 0.566769
0.773608 0.580965 0.549253
0.903829 0.565065 0.529553
1.000000 0.551752 0.510433
0.000000 0.750000 0.601473
0.093989 0.750000 0.593410
0.221660 0.750000 0.587060
0.349331 0.750000 0.577980
0.477001 0.750000 0.561345
0.627012 0.750000 0.544828
0.782593 0.739858 0.539550
0.913685 0.716296 0.518908
1.000000 0.702414 0.499705
0.000000 0.875000 0.582351
0.091649 0.875000 0.568566
0.219579 0.875000 0.559736
0.347509 0.875000 0.547616
0.475439 0.875000 0.528393
0.623525 0.875000 0.518006
0.779438 0.875000 0.515076
0.923541 0.864870 0.508263
1.000000 0.851799 0.488977
0.000000 1.000000 0.560362
0.089428 1.000000 0.540173
0.217617 1.000000 0.529248
0.345806 1.000000 0.514868
0.473995 1.000000 0.494056
0.623354 1.000000 0.487816
0.775529 1.000000 0.484627
0.927355 1.000000 0.481438
1.000000 1.000000 0.478249
0.003175 0.000000 0.786433
0.091238 0.000000 0.783762
0.218909 0.000000 0.781091
0.346579 0.000000 0.778421
0.474250 0.000000 0.775750
0.601921 0.000000 0.773079
0.729592 0.000000 0.770408
0.855542 0.000000 0.769458
0.982010 0.000000 0.767990
0.000000 0.117836 0.777448
0.047990 0.075026 0.774777
0.183749 0.072981 0.772107
0.321885 0.073195 0.769436
0.460037 0.073409 0.766765
0.598205 0.073622 0.764094
0.736391 0.073836 0.761424
0.865398 0.061456 0.750657
0.992738 0.045581 0.735710
0.000000 0.240566 0.768464
0.057694 0.209669 0.765793
0.185578 0.200213 0.763122
0.324679 0.198914 0.760451
0.465391 0.199128 0.757780
0.606157 0.199341 0.755110
0.746977 0.199555 0.752439
0.875255 0.185667 0.736828
1.000000 0.170000 0.719498
0.000000 0.365118 0.759479
0.067397 0.344652 0.756808
0.195282 0.337309 0.754137
0.323166 0.324866 0.751466
0.468026 0.324846 0.748796
0.613268 0.325060 0.746125
0.756546 0.324226 0.741381
0.885111 0.309879 0.721155
1.000000 0.295000 0.701989
0.000000 0.491619 0.750494
0.077101 0.480012 0.747823
0.204985 0.475069 0.745153
0.332870 0.466485 0.742482
0.463283 0.450565 0.739811
0.618081 0.450779 0.737140
0.765531 0.448508 0.727358
0.894967 0.434090 0.702045
1.000000 0.420000 0.681090
0.000000 0.620212 0.741509
0.086804 0.615788 0.738839
0.214689 0.613583 0.736168
0.342573 0.609648 0.733497
0.470458 0.600642 0.730826
0.611131 0.576498 0.728155
0.774515 0.572789 0.705671
0.904824 0.558302 0.675330
1.000000 0.545000 0.653411
0.000000 0.750000 0.731505
0.094896 0.750000 0.727843
0.222567 0.750000 0.724287
0.350238 0.750000 0.720074
0.477908 0.750000 0.714033
0.605579 0.750000 0.698196
0.783500 0.723535 0.663570
0.914680 0.696302 0.642833
1.000000 0.682519 0.623622
0.000000 0.875000 0.712697
0.092644 0.875000 0.703675
0.220574 0.875000 0.697259
0.348504 0.875000 0.688894
0.476434 0.875000 0.676314
0.604364 0.875000 0.651516
0.769424 0.875000 0.639081
0.924536 0.859190 0.632188
1.000000 0.842438 0.612894
0.000000 1.000000 0.691039
0.090511 1.000000 0.675988
0.218700 1.000000 0.667226
0.346889 1.000000 0.655971
0.475078 1.000000 0.640067
0.603267 1.000000 0.613871
0.763027 1.000000 0.608544
0.924299 1.000000 0.605355
1.000000 1.000000 0.602166
0.004063 0.000000 0.913972
0.088957 0.000000 0.911043
0.216887 0.000000 0.908113
0.344817 0.000000 0.905183
0.472747 0.000000 0.902253
0.600677 0.000000 0.899323
0.728607 0.000000 0.896393
0.856537 0.000000 0.893463
0.983093 0.000000 0.891907
0.000000 0.116439 0.904116
0.032406 0.060938 0.901186
0.169079 0.058827 0.898256
0.308195 0.059061 0.895326
0.447324 0.059296 0.892397
0.586466 0.059530 0.889467
0.725621 0.059765 0.886537
0.864789 0.059999 0.883607
0.993821 0.045494 0.870871
0.000000 0.238564 0.894260
0.043051 0.196307 0.891330
0.171216 0.186073 0.888400
0.311010 0.184850 0.885470
0.452332 0.185084 0.882540
0.593693 0.185319 0.879610
0.735092 0.185553 0.876680
0.876249 0.185588 0.873471
1.000000 0.170000 0.856632
0.000000 0.362386 0.884403
0.053696 0.331979 0.881474
0.181860 0.323559 0.878544
0.310025 0.310724 0.875614
0.454627 0.310873 0.872684
0.599407 0.311107 0.869754
0.744280 0.311342 0.866824
0.886106 0.309799 0.860816
1.000000 0.295000 0.841768
0.000000 0.488007 0.874547
0.064341 0.467979 0.871617
0.192505 0.461572 0.868687
0.320670 0.451654 0.865757
0.451154 0.436661 0.862827
0.601890 0.436896 0.859898
0.752863 0.437130 0.856968
0.895962 0.434011 0.846468
1.000000 0.420000 0.824834
0.000000 0.615539 0.864691
0.074986 0.604337 0.861761
0.203150 0.600168 0.858831
0.331314 0.593608 0.855901
0.459479 0.581771 0.852971
0.595240 0.562684 0.850041
0.759717 0.562919 0.847111
0.905819 0.558222 0.828381
1.000000 0.545000 0.803764
0.000000 0.745101 0.854834
0.085631 0.741085 0.851904
0.213795 0.739415 0.848975
0.341959 0.736737 0.846045
0.470124 0.731751 0.843115
0.598288 0.719236 0.840185
0.756459 0.688707 0.837255
0.915675 0.682433 0.798982
1.000000 0.670000 0.772352
0.000000 0.875000 0.843227
0.093639 0.875000 0.838818
0.221569 0.875000 0.834832
0.349499 0.875000 0.830253
0.477429 0.875000 0.824392
0.605359 0.875000 0.814801
0.733289 0.875000 0.781871
0.925531 0.840823 0.756114
1.000000 0.820412 0.736811
0.000000 1.000000 0.821890
0.091594 1.000000 0.811835
0.219783 1.000000 0.805248
0.347972 1.000000 0.797138
0.476161 1.000000 0.786186
0.604350 1.000000 0.768927
0.732572 1.000000 0.732461
0.915867 1.000000 0.729272
1.000000 1.000000 0.726083
0.005054 0.000000 0.994946
0.086853 0.000000 0.993086
0.215042 0.000000 0.991225
0.343231 0.000000 0.989365
0.471420 0.000000 0.987505
0.599609 0.000000 0.985645
0.727798 0.000000 0.983784
0.855987 0.000000 0.981924
0.984176 0.000000 0.980064
0.000000 0.115004 0.988688
0.018635 0.048488 0.986828
0.156206 0.046203 0.984968
0.296295 0.046351 0.983107
0.436391 0.046500 0.981247
0.576494 0.046649 0.979387
0.716603 0.046798 0.977526
0.856718 0.046947 0.975666
0.994904 0.045408 0.971876
0.000000 0.236663 0.982430
0.029863 0.184297 0.980570
0.158201 0.173128 0.978710
0.298870 0.171852 0.976849
0.441007 0.172001 0.974989
0.583163 0.172150 0.973129
0.725337 0.172299 0.971268
0.867529 0.172447 0.969408
1.000000 0.170000 0.964086
0.000000 0.359958 0.976172
0.041092 0.320382 0.974312
0.169430 0.310910 0.972452
0.297822 0.297353 0.970591
0.442892 0.297502 0.968731
0.588003 0.297650 0.966871
0.733155 0.297799 0.965011
0.878348 0.297948 0.963150
1.000000 0.295000 0.956335
0.000000 0.484957 0.969914
0.052321 0.456759 0.968054
0.180659 0.449121 0.966193
0.308996 0.438045 0.964333
0.439720 0.423002 0.962473
0.589450 0.423151 0.960613
0.739271 0.423300 0.958753
0.889182 0.423449 0.956892
1.000000 0.420000 0.947837
0.000000 0.611727 0.963656
0.063549 0.593447 0.961796
0.191887 0.587790 0.959935
0.320225 0.579511 0.958075
0.448563 0.566235 0.956215
0.583449 0.548652 0.954355
0.741638 0.548800 0.952495
0.900050 0.548949 0.950634
1.000000 0.545000 0.937846
0.000000 0.740341 0.957398
0.074778 0.730465 0.955538
0.203116 0.726954 0.953677
0.331454 0.721762 0.951817
0.459791 0.713310 0.949957
0.588129 0.697117 0.948097
0.732733 0.674301 0.946236
0.911018 0.674450 0.944376
1.000000 0.670000 0.924121
0.000000 0.870877 0.951140
0.086007 0.867835 0.949280
0.214344 0.866649 0.947420
0.342682 0.864877 0.945559
0.471020 0.861942 0.943699
0.599358 0.856148 0.941839
0.727696 0.839356 0.939978
0.922718 0.799951 0.938118
1.000000 0.795000 0.895463
0.000000 1.000000 0.941667
0.092677 1.000000 0.937512
0.220866 1.000000 0.934429
0.349055 1.000000 0.930796
0.477244 1.000000 0.926137
0.605433 1.000000 0.919198
0.733622 1.000000 0.905271
0.873494 1.000000 0.851860
1.000000 1.000000 0.850000
