luts/original/anamorphic-flare.cube
TITLE "Anamorphic Flare"
LUT_3D_SIZE 33
DOMAIN_MIN 0.0 0.0 0.0
DOMAIN_MAX 1.0 1.0 1.0
0.000000 0.000000 0.017500
0.019850 0.000000 0.018220
0.043592 0.000000 0.018908
0.074186 0.000000 0.019564
0.104813 0.000000 0.020187
0.135472 0.000000 0.020778
0.166163 0.000000 0.021337
0.196887 0.000000 0.021863
0.227644 0.000000 0.022356
0.258432 0.000000 0.022818
0.289254 0.000000 0.023246
0.320107 0.000000 0.023643
0.350993 0.000000 0.024007
0.381911 0.000000 0.024339
0.412862 0.000000 0.024638
0.443845 0.000000 0.024905
0.474860 0.000000 0.025140
0.505908 0.000000 0.025342
0.536988 0.000000 0.025512
0.568101 0.000000 0.025649
0.599246 0.000000 0.025754
0.630423 0.000000 0.025827
0.661633 0.000000 0.025867
0.692875 0.000000 0.025875
0.724150 0.000000 0.025850
0.755457 0.000000 0.025793
0.786796 0.000000 0.025704
0.818168 0.000000 0.025582
0.849572 0.000000 0.025428
0.881008 0.000000 0.025242
0.912477 0.000000 0.025023
0.943978 0.000000 0.024772
0.975512 0.000000 0.024488
0.000000 0.031047 0.017522
0.019678 0.030992 0.017227
0.043210 0.030536 0.017861
0.075288 0.029645 0.018106
0.105969 0.028460 0.016965
0.136683 0.027171 0.016091
0.167429 0.025778 0.015142
0.198207 0.024280 0.014074
0.229018 0.022679 0.012877
0.259861 0.020973 0.011547
0.290737 0.019163 0.010080
0.321645 0.017249 0.008477
0.352585 0.015231 0.006736
0.383558 0.013108 0.004856
0.414563 0.011426 0.003375
0.445601 0.010791 0.002899
0.476671 0.010156 0.002397
0.507773 0.009521 0.001866
0.538908 0.008887 0.001306
0.570075 0.008252 0.000717
0.601274 0.007617 0.000098
0.632506 0.007533 0.000000
0.663770 0.007576 0.000000
0.695067 0.007648 0.000000
0.726396 0.007750 0.000000
0.757757 0.007882 0.000000
0.789151 0.008044 0.000000
0.820577 0.008237 0.000000
0.852036 0.008460 0.000000
0.883527 0.008714 0.000000
0.915050 0.008998 0.000000
0.946606 0.009313 0.000000
0.978194 0.009659 0.000000
0.000000 0.062500 0.017068
0.019043 0.062500 0.016680
0.043734 0.062500 0.015930
0.075275 0.062500 0.015305
0.107126 0.061059 0.014991
0.137894 0.059541 0.014180
0.168695 0.058097 0.013232
0.199527 0.056604 0.012147
0.230393 0.055032 0.010926
0.261290 0.053370 0.009568
0.292221 0.051613 0.008074
0.323183 0.049759 0.006443
0.354178 0.047806 0.004675
0.385205 0.045754 0.002772
0.416265 0.043602 0.000731
0.447357 0.042688 0.000000
0.478481 0.042491 0.000000
0.509638 0.042335 0.000000
0.540827 0.042218 0.000000
0.572048 0.042138 0.000000
0.603302 0.042095 0.000000
0.634589 0.042087 0.000000
0.665908 0.042115 0.000000
0.697259 0.042176 0.000000
0.728642 0.042273 0.000000
0.760058 0.042402 0.000000
0.791506 0.042566 0.000000
0.822987 0.042762 0.000000
0.854500 0.042992 0.000000
0.886045 0.043255 0.000000
0.917623 0.043550 0.000000
0.949233 0.043878 0.000000
0.980876 0.044239 0.000000
0.000000 0.093750 0.016119
0.018408 0.093750 0.015654
0.042833 0.093750 0.014287
0.075242 0.093750 0.013176
0.107841 0.093750 0.013483
0.139105 0.092445 0.012872
0.169960 0.090913 0.011865
0.200848 0.089391 0.010721
0.231767 0.087818 0.009441
0.262719 0.086171 0.008025
0.293704 0.084438 0.006472
0.324721 0.082614 0.004782
0.355770 0.080695 0.002956
0.386852 0.078680 0.000993
0.417966 0.077488 0.000000
0.449112 0.077175 0.000000
0.480291 0.076922 0.000000
0.511503 0.076723 0.000000
0.542746 0.076572 0.000000
0.574022 0.076467 0.000000
0.605331 0.076406 0.000000
0.636671 0.076386 0.000000
0.668045 0.076407 0.000000
0.699450 0.076466 0.000000
0.730888 0.076563 0.000000
0.762359 0.076697 0.000000
0.793861 0.076867 0.000000
0.825396 0.077073 0.000000
0.856964 0.077314 0.000000
0.888564 0.077589 0.000000
0.920196 0.077900 0.000000
0.951861 0.078244 0.000000
0.983558 0.078622 0.000000
0.000000 0.125000 0.014988
0.017773 0.125000 0.014471
0.041939 0.125000 0.012489
0.074511 0.125000 0.011592
0.107689 0.125000 0.011248
0.140113 0.125000 0.011418
0.171226 0.123635 0.010498
0.202168 0.122109 0.009296
0.233142 0.120549 0.007957
0.264148 0.118925 0.006481
0.295187 0.117222 0.004869
0.326259 0.115433 0.003121
0.357363 0.113551 0.001236
0.388499 0.112144 0.000000
0.419667 0.111699 0.000000
0.450868 0.111336 0.000000
0.482102 0.111045 0.000000
0.513367 0.110818 0.000000
0.544666 0.110647 0.000000
0.575996 0.110529 0.000000
0.607359 0.110460 0.000000
0.638754 0.110438 0.000000
0.670182 0.110459 0.000000
0.701642 0.110522 0.000000
0.733134 0.110626 0.000000
0.764659 0.110770 0.000000
0.796216 0.110952 0.000000
0.827806 0.111172 0.000000
0.859428 0.111429 0.000000
0.891083 0.111722 0.000000
0.922769 0.112050 0.000000
0.954488 0.112415 0.000000
0.986240 0.112814 0.000000
0.000000 0.156250 0.013675
0.017139 0.156250 0.013116
0.041053 0.156250 0.010487
0.073835 0.156250 0.009798
0.106947 0.156250 0.009438
0.140039 0.156250 0.009078
0.172465 0.156250 0.009110
0.203488 0.154765 0.007870
0.234516 0.153230 0.006472
0.265577 0.151637 0.004938
0.296671 0.149969 0.003267
0.327797 0.148217 0.001460
0.358955 0.146665 0.000000
0.390146 0.146064 0.000000
0.421369 0.145577 0.000000
0.452624 0.145184 0.000000
0.483912 0.144872 0.000000
0.515232 0.144630 0.000000
0.546585 0.144452 0.000000
0.577970 0.144332 0.000000
0.609387 0.144264 0.000000
0.640837 0.144247 0.000000
0.672319 0.144276 0.000000
0.703834 0.144351 0.000000
0.735381 0.144468 0.000000
0.766960 0.144627 0.000000
0.798572 0.144826 0.000000
0.830216 0.145064 0.000000
0.861892 0.145341 0.000000
0.893601 0.145655 0.000000
0.925342 0.146006 0.000000
0.957116 0.146393 0.000000
0.988922 0.146817 0.000000
0.000000 0.187500 0.012181
0.016504 0.187500 0.011584
0.040174 0.187500 0.008266
0.073194 0.187500 0.007794
0.106296 0.187500 0.007417
0.139383 0.187500 0.007041
0.172455 0.187500 0.006665
0.204808 0.187365 0.006444
0.235891 0.185864 0.004988
0.267006 0.184308 0.003395
0.298154 0.182680 0.001665
0.329335 0.181060 0.000000
0.360548 0.180274 0.000000
0.391793 0.179642 0.000000
0.423070 0.179135 0.000000
0.454380 0.178730 0.000000
0.485722 0.178412 0.000000
0.517097 0.178170 0.000000
0.548504 0.177995 0.000000
0.579944 0.177882 0.000000
0.611416 0.177825 0.000000
0.642920 0.177821 0.000000
0.674456 0.177865 0.000000
0.706025 0.177957 0.000000
0.737627 0.178093 0.000000
0.769261 0.178272 0.000000
0.800927 0.178493 0.000000
0.832625 0.178754 0.000000
0.864356 0.179054 0.000000
0.896120 0.179393 0.000000
0.927915 0.179770 0.000000
0.959743 0.180183 0.000000
0.991604 0.180633 0.000000
0.000000 0.218750 0.010505
0.015869 0.218750 0.009873
0.039450 0.218750 0.005971
0.072581 0.218750 0.005579
0.105700 0.218750 0.005186
0.138807 0.218750 0.004794
0.171901 0.218750 0.004401
0.204984 0.218750 0.004009
0.237265 0.218455 0.003503
0.268435 0.216942 0.001851
0.299638 0.215358 0.000063
0.330873 0.214331 0.000000
0.362140 0.213532 0.000000
0.393440 0.212894 0.000000
0.424772 0.212386 0.000000
0.456136 0.211985 0.000000
0.487533 0.211675 0.000000
0.518962 0.211444 0.000000
0.550423 0.211284 0.000000
0.581917 0.211188 0.000000
0.613444 0.211149 0.000000
0.645002 0.211165 0.000000
0.676594 0.211232 0.000000
0.708217 0.211346 0.000000
0.739873 0.211506 0.000000
0.771561 0.211711 0.000000
0.803282 0.211957 0.000000
0.835035 0.212245 0.000000
0.866820 0.212573 0.000000
0.898638 0.212940 0.000000
0.930488 0.213345 0.000000
0.962371 0.213788 0.000000
0.994286 0.214267 0.000000
0.000000 0.250000 0.008647
0.015234 0.250000 0.007982
0.038834 0.250000 0.003562
0.071995 0.250000 0.003153
0.105145 0.250000 0.002744
0.138285 0.250000 0.002336
0.171415 0.250000 0.001927
0.204534 0.250000 0.001519
0.237643 0.250000 0.001110
0.269864 0.249541 0.000308
0.301121 0.248242 0.000000
0.332411 0.247243 0.000000
0.363732 0.246456 0.000000
0.395086 0.245833 0.000000
0.426473 0.245342 0.000000
0.457892 0.244960 0.000000
0.489343 0.244672 0.000000
0.520827 0.244463 0.000000
0.552343 0.244327 0.000000
0.583891 0.244255 0.000000
0.615472 0.244243 0.000000
0.647085 0.244286 0.000000
0.678731 0.244380 0.000000
0.710409 0.244523 0.000000
0.742119 0.244712 0.000000
0.773862 0.244946 0.000000
0.805637 0.245223 0.000000
0.837445 0.245541 0.000000
0.869284 0.245900 0.000000
0.901157 0.246298 0.000000
0.933061 0.246735 0.000000
0.964999 0.247209 0.000000
0.996968 0.247721 0.000000
0.000000 0.281250 0.006608
0.014600 0.281250 0.005910
0.038233 0.281250 0.000942
0.071433 0.281250 0.000517
0.104624 0.281250 0.000092
0.137994 0.281250 0.000000
0.171312 0.281250 0.000000
0.204516 0.281250 0.000000
0.237607 0.281250 0.000000
0.270585 0.281250 0.000000
0.302605 0.280772 0.000000
0.333949 0.279812 0.000000
0.365325 0.279061 0.000000
0.396733 0.278473 0.000000
0.428174 0.278015 0.000000
0.459648 0.277666 0.000000
0.491153 0.277410 0.000000
0.522692 0.277235 0.000000
0.554262 0.277131 0.000000
0.585865 0.277092 0.000000
0.617500 0.277113 0.000000
0.649168 0.277189 0.000000
0.680868 0.277316 0.000000
0.712600 0.277492 0.000000
0.744365 0.277715 0.000000
0.776163 0.277983 0.000000
0.807992 0.278294 0.000000
0.839854 0.278646 0.000000
0.871749 0.279039 0.000000
0.903675 0.279471 0.000000
0.935634 0.279943 0.000000
0.967626 0.280452 0.000000
0.999650 0.280998 0.000000
0.000000 0.312500 0.004387
0.013965 0.312500 0.003658
0.039414 0.312500 0.000000
0.072810 0.312500 0.000000
0.106099 0.312500 0.000000
0.139283 0.312500 0.000000
0.172363 0.312500 0.000000
0.205340 0.312500 0.000000
0.238214 0.312500 0.000000
0.270986 0.312500 0.000000
0.303658 0.312500 0.000000
0.335487 0.312058 0.000000
0.366917 0.311364 0.000000
0.398380 0.310827 0.000000
0.429876 0.310417 0.000000
0.461404 0.310113 0.000000
0.492964 0.309900 0.000000
0.524556 0.309766 0.000000
0.556181 0.309703 0.000000
0.587839 0.309704 0.000000
0.619529 0.309764 0.000000
0.651251 0.309879 0.000000
0.683005 0.310045 0.000000
0.714792 0.310259 0.000000
0.746611 0.310520 0.000000
0.778463 0.310826 0.000000
0.810347 0.311174 0.000000
0.842264 0.311563 0.000000
0.874213 0.311994 0.000000
0.906194 0.312463 0.000000
0.938208 0.312500 0.000000
0.970254 0.312500 0.000000
1.000000 0.312500 0.000000
0.000000 0.343750 0.001985
0.013330 0.343750 0.001225
0.041644 0.343750 0.000000
0.074819 0.343750 0.000000
0.107897 0.343750 0.000000
0.140879 0.343750 0.000000
0.173765 0.343750 0.000000
0.206556 0.343750 0.000000
0.239253 0.343750 0.000000
0.271857 0.343750 0.000000
0.304368 0.343750 0.000000
0.336787 0.343750 0.000000
0.368510 0.343377 0.000000
0.400027 0.342906 0.000000
0.431577 0.342556 0.000000
0.463159 0.342309 0.000000
0.494774 0.342148 0.000000
0.526421 0.342065 0.000000
0.558101 0.342050 0.000000
0.589813 0.342098 0.000000
0.621557 0.342203 0.000000
0.653333 0.342362 0.000000
0.685142 0.342571 0.000000
0.716984 0.342828 0.000000
0.748858 0.343131 0.000000
0.780764 0.343478 0.000000
0.812702 0.343750 0.000000
0.844673 0.343750 0.000000
0.876677 0.343750 0.000000
0.908712 0.343750 0.000000
0.940781 0.343750 0.000000
0.972881 0.343750 0.000000
1.000000 0.343750 0.000000
0.000597 0.375000 0.000000
0.014076 0.375000 0.000000
0.044044 0.375000 0.000000
0.077036 0.375000 0.000000
0.109938 0.375000 0.000000
0.142751 0.375000 0.000000
0.175475 0.375000 0.000000
0.208111 0.375000 0.000000
0.240660 0.375000 0.000000
0.273122 0.375000 0.000000
0.305498 0.375000 0.000000
0.337787 0.375000 0.000000
0.369992 0.375000 0.000000
0.401674 0.374722 0.000000
0.433279 0.374444 0.000000
0.464915 0.374263 0.000000
0.496585 0.374164 0.000000
0.528286 0.374138 0.000000
0.560020 0.374178 0.000000
0.591786 0.374279 0.000000
0.623585 0.374435 0.000000
0.655416 0.374643 0.000000
0.687280 0.374900 0.000000
0.719176 0.375000 0.000000
0.751104 0.375000 0.000000
0.783064 0.375000 0.000000
0.815058 0.375000 0.000000
0.847083 0.375000 0.000000
0.879141 0.375000 0.000000
0.911231 0.375000 0.000000
0.943354 0.375000 0.000000
0.975509 0.375000 0.000000
1.000000 0.375000 0.000000
0.003320 0.406250 0.000000
0.016177 0.406250 0.000000
0.046622 0.406250 0.000000
0.079458 0.406250 0.000000
0.112211 0.406250 0.000000
0.144880 0.406250 0.000000
0.177466 0.406250 0.000000
0.209970 0.406250 0.000000
0.242391 0.406250 0.000000
0.274731 0.406250 0.000000
0.306990 0.406250 0.000000
0.339169 0.406250 0.000000
0.371267 0.406250 0.000000
0.403286 0.406250 0.000000
0.434980 0.406090 0.000000
0.466671 0.405983 0.000000
0.498395 0.405954 0.000000
0.530151 0.405993 0.000000
0.561939 0.406095 0.000000
0.593760 0.406250 0.000000
0.625613 0.406250 0.000000
0.657499 0.406250 0.000000
0.689417 0.406250 0.000000
0.721367 0.406250 0.000000
0.753350 0.406250 0.000000
0.785365 0.406250 0.000000
0.817413 0.406250 0.000000
0.849493 0.406250 0.000000
0.881605 0.406250 0.000000
0.913750 0.406250 0.000000
0.945927 0.406250 0.000000
0.978136 0.406250 0.000000
1.000000 0.406250 0.000000
0.006171 0.437500 0.000000
0.018408 0.437500 0.000000
0.049383 0.437500 0.000000
0.082085 0.437500 0.000000
0.114709 0.437500 0.000000
0.147253 0.437500 0.000000
0.179719 0.437500 0.000000
0.212107 0.437500 0.000000
0.244418 0.437500 0.000000
0.276652 0.437500 0.000000
0.308809 0.437500 0.000000
0.340889 0.437500 0.000000
0.372894 0.437500 0.000000
0.404824 0.437500 0.000000
0.436679 0.437500 0.000000
0.468427 0.437479 0.000000
0.500205 0.437500 0.000000
0.532016 0.437500 0.000000
0.563859 0.437500 0.000000
0.595734 0.437500 0.000000
0.627642 0.437500 0.000000
0.659582 0.437500 0.000000
0.691554 0.437500 0.000000
0.723559 0.437500 0.000000
0.755596 0.437500 0.000000
0.787666 0.437500 0.000000
0.819768 0.437500 0.000000
0.851902 0.437500 0.000000
0.884069 0.437500 0.000000
0.916268 0.437500 0.000000
0.948500 0.437500 0.000000
0.980764 0.437500 0.000000
1.000000 0.437500 0.000000
0.009158 0.468750 0.000000
0.020776 0.468750 0.000000
0.052332 0.468750 0.000000
0.084916 0.468750 0.000000
0.117426 0.468750 0.000000
0.149860 0.468750 0.000000
0.182220 0.468750 0.000000
0.214507 0.468750 0.000000
0.246719 0.468750 0.000000
0.278859 0.468750 0.000000
0.310925 0.468750 0.000000
0.342919 0.468750 0.000000
0.374840 0.468750 0.000000
0.406639 0.468750 0.000000
0.438411 0.468750 0.000000
0.470183 0.468750 0.000000
0.502016 0.468750 0.000000
0.533881 0.468750 0.000000
0.565778 0.468750 0.000000
0.597708 0.468750 0.000000
0.629670 0.468750 0.000000
0.661664 0.468750 0.000000
0.693691 0.468750 0.000000
0.725751 0.468750 0.000000
0.757842 0.468750 0.000000
0.789966 0.468750 0.000000
0.822123 0.468750 0.000000
0.854312 0.468750 0.000000
0.886533 0.468750 0.000000
0.918787 0.468750 0.000000
0.951073 0.468750 0.000000
0.983391 0.468750 0.000000
1.000000 0.468750 0.000000
0.012286 0.500000 0.000000
0.023286 0.500000 0.000000
0.055470 0.500000 0.000000
0.087950 0.500000 0.000000
0.120358 0.500000 0.000000
0.152695 0.500000 0.000000
0.184961 0.500000 0.000000
0.217156 0.500000 0.000000
0.249280 0.500000 0.000000
0.281309 0.500000 0.000000
0.313097 0.500000 0.000000
0.344885 0.500000 0.000000
0.376673 0.500000 0.000000
0.408461 0.500000 0.000000
0.440250 0.500000 0.000000
0.472038 0.500000 0.000000
0.503826 0.500000 0.000000
0.535745 0.500000 0.000000
0.567697 0.500000 0.000000
0.599681 0.500000 0.000000
0.631698 0.500000 0.000000
0.663747 0.500000 0.000000
0.695829 0.500000 0.000000
0.727942 0.500000 0.000000
0.760089 0.500000 0.000000
0.792267 0.500000 0.000000
0.824478 0.500000 0.000000
0.856721 0.500000 0.000000
0.888997 0.500000 0.000000
0.921305 0.500000 0.000000
0.953646 0.500000 0.000000
0.986019 0.500000 0.000000
1.000000 0.500000 0.000000
0.015558 0.531250 0.000000
0.026346 0.531250 0.000000
0.058801 0.531250 0.000000
0.091186 0.531250 0.000000
0.123503 0.531250 0.000000
0.155752 0.531250 0.000000
0.187762 0.531250 0.000000
0.219567 0.531250 0.000000
0.251371 0.531250 0.000000
0.283175 0.531250 0.000000
0.314980 0.531250 0.000000
0.346784 0.531250 0.000000
0.378588 0.531250 0.000000
0.410393 0.531250 0.000000
0.442197 0.531250 0.000000
0.474002 0.531250 0.000000
0.505806 0.531250 0.000000
0.537610 0.531250 0.000000
0.569617 0.531250 0.000000
0.601655 0.531250 0.000000
0.633726 0.531250 0.000000
0.665830 0.531250 0.000000
0.697966 0.531250 0.000000
0.730134 0.531250 0.000000
0.762335 0.531250 0.000000
0.794568 0.531250 0.000000
0.826833 0.531250 0.000000
0.859131 0.531250 0.000000
0.891461 0.531250 0.000000
0.923824 0.531250 0.000000
0.956219 0.531250 0.000000
0.988646 0.531250 0.000000
1.000000 0.531250 0.000000
0.018977 0.562500 0.000000
0.029958 0.562500 0.000000
0.062325 0.562500 0.000000
0.094228 0.562500 0.000000
0.126048 0.562500 0.000000
0.157869 0.562500 0.000000
0.189689 0.562500 0.000000
0.221510 0.562500 0.000000
0.253331 0.562500 0.000000
0.285151 0.562500 0.000000
0.316972 0.562500 0.000000
0.348792 0.562500 0.000000
0.380613 0.562500 0.000000
0.412433 0.562500 0.000000
0.444254 0.562500 0.000000
0.476074 0.562500 0.000000
0.507895 0.562500 0.000000
0.539715 0.562500 0.000000
0.571536 0.562500 0.000000
0.603629 0.562500 0.000000
0.635755 0.562500 0.000000
0.667913 0.562500 0.000000
0.700103 0.562500 0.000000
0.732326 0.562500 0.000000
0.764581 0.562500 0.000000
0.796868 0.562500 0.000000
0.829188 0.562500 0.000000
0.861541 0.562500 0.000000
0.893925 0.562500 0.000000
0.926342 0.562500 0.000000
0.958792 0.562500 0.000000
0.991274 0.562500 0.000000
1.000000 0.562500 0.000000
0.021876 0.593750 0.000000
0.032542 0.593750 0.000000
0.064378 0.593750 0.000000
0.096215 0.593750 0.000000
0.128052 0.593750 0.000000
0.159889 0.593750 0.000000
0.191725 0.593750 0.000000
0.223562 0.593750 0.000000
0.255399 0.593750 0.000000
0.287236 0.593750 0.000000
0.319072 0.593750 0.000000
0.350909 0.593750 0.000000
0.382746 0.593750 0.000000
0.414582 0.593750 0.000000
0.446419 0.593750 0.000000
0.478256 0.593750 0.000000
0.510093 0.593750 0.000000
0.541929 0.593750 0.000000
0.573766 0.593750 0.000000
0.605603 0.593750 0.000000
0.637783 0.593750 0.000000
0.669995 0.593750 0.000000
0.702240 0.593750 0.000000
0.734517 0.593750 0.000000
0.766827 0.593750 0.000000
0.799169 0.593750 0.000000
0.831543 0.593750 0.000000
0.863950 0.593750 0.000000
0.896389 0.593750 0.000000
0.928861 0.593750 0.000000
0.961365 0.593750 0.000000
0.993901 0.593750 0.000000
1.000000 0.593750 0.000000
0.023663 0.625000 0.000000
0.034606 0.625000 0.000000
0.066459 0.625000 0.000000
0.098312 0.625000 0.000000
0.130164 0.625000 0.000000
0.162017 0.625000 0.000000
0.193870 0.625000 0.000000
0.225723 0.625000 0.000000
0.257576 0.625000 0.000000
0.289429 0.625000 0.000000
0.321282 0.625000 0.000000
0.353135 0.625000 0.000000
0.384988 0.625000 0.000000
0.416841 0.625000 0.000000
0.448694 0.625000 0.000000
0.480547 0.625000 0.000000
0.512399 0.625000 0.000000
0.544252 0.625000 0.000000
0.576105 0.625000 0.000000
0.607958 0.625000 0.000000
0.639811 0.625000 0.000000
0.672078 0.625000 0.000000
0.704377 0.625000 0.000000
0.736709 0.625000 0.000000
0.769073 0.625000 0.000000
0.801470 0.625000 0.000000
0.833899 0.625000 0.000000
0.866360 0.625000 0.000000
0.898853 0.625000 0.000000
0.931380 0.625000 0.000000
0.963938 0.625000 0.000000
0.996529 0.625000 0.000000
1.000000 0.625000 0.000000
0.025514 0.656250 0.000000
0.036779 0.656250 0.000000
0.068648 0.656250 0.000000
0.100517 0.656250 0.000000
0.132386 0.656250 0.000000
0.164255 0.656250 0.000000
0.196124 0.656250 0.000000
0.227993 0.656250 0.000000
0.259862 0.656250 0.000000
0.291731 0.656250 0.000000
0.323601 0.656250 0.000000
0.355470 0.656250 0.000000
0.387339 0.656250 0.000000
0.419208 0.656250 0.000000
0.451077 0.656250 0.000000
0.482946 0.656250 0.000000
0.514815 0.656250 0.000000
0.546684 0.656250 0.000000
0.578553 0.656250 0.000000
0.610423 0.656250 0.000000
0.642292 0.656250 0.000000
0.674161 0.656250 0.000000
0.706515 0.656250 0.000000
0.738901 0.656250 0.000000
0.771319 0.656250 0.000000
0.803770 0.656250 0.000000
0.836254 0.656250 0.000000
0.868769 0.656250 0.000000
0.901318 0.656250 0.000000
0.933898 0.656250 0.000000
0.966511 0.656250 0.000000
0.999156 0.656250 0.000000
1.000000 0.656250 0.000000
0.027428 0.687500 0.000000
0.039060 0.687500 0.000000
0.070946 0.687500 0.000000
0.102831 0.687500 0.000000
0.134716 0.687500 0.000000
0.166602 0.687500 0.000000
0.198487 0.687500 0.000000
0.230372 0.687500 0.000000
0.262258 0.687500 0.000000
0.294143 0.687500 0.000000
0.326028 0.687500 0.000000
0.357913 0.687500 0.000000
0.389799 0.687500 0.000000
0.421684 0.687500 0.000000
0.453569 0.687500 0.000000
0.485455 0.687500 0.000000
0.517340 0.687500 0.000000
0.549225 0.687500 0.000000
0.581111 0.687500 0.000000
0.612996 0.687500 0.000000
0.644881 0.687500 0.000000
0.676767 0.687500 0.000000
0.708652 0.687500 0.000000
0.741093 0.687500 0.000000
0.773566 0.687500 0.000000
0.806071 0.687500 0.000000
0.838609 0.687500 0.000000
0.871179 0.687500 0.000000
0.903782 0.687500 0.000000
0.936417 0.687500 0.000000
0.969084 0.687500 0.000000
0.999365 0.687500 0.000000
1.000000 0.687500 0.000000
0.029405 0.718750 0.000000
0.041451 0.718750 0.000000
0.073353 0.718750 0.000000
0.105254 0.718750 0.000000
0.137156 0.718750 0.000000
0.169057 0.718750 0.000000
0.200959 0.718750 0.000000
0.232860 0.718750 0.000000
0.264762 0.718750 0.000000
0.296663 0.718750 0.000000
0.328565 0.718750 0.000000
0.360466 0.718750 0.000000
0.392368 0.718750 0.000000
0.424269 0.718750 0.000000
0.456171 0.718750 0.000000
0.488072 0.718750 0.000000
0.519974 0.718750 0.000000
0.551875 0.718750 0.000000
0.583777 0.718750 0.000000
0.615678 0.718750 0.000000
0.647580 0.718750 0.000000
0.679481 0.718750 0.000000
0.711383 0.718750 0.000000
0.743284 0.718750 0.000000
0.775812 0.718750 0.000000
0.808372 0.718750 0.000000
0.840964 0.718750 0.000000
0.873589 0.718750 0.000000
0.906246 0.718750 0.000000
0.938935 0.718750 0.000000
0.971657 0.718750 0.000000
0.999365 0.718750 0.000000
1.000000 0.718750 0.000000
0.031446 0.750000 0.000000
0.043951 0.750000 0.000000
0.075869 0.750000 0.000000
0.107786 0.750000 0.000000
0.139704 0.750000 0.000000
0.171622 0.750000 0.000000
0.203539 0.750000 0.000000
0.235457 0.750000 0.000000
0.267375 0.750000 0.000000
0.299292 0.750000 0.000000
0.331210 0.750000 0.000000
0.363128 0.750000 0.000000
0.395046 0.750000 0.000000
0.426963 0.750000 0.000000
0.458881 0.750000 0.000000
0.490799 0.750000 0.000000
0.522716 0.750000 0.000000
0.554634 0.750000 0.000000
0.586552 0.750000 0.000000
0.618469 0.750000 0.000000
0.650387 0.750000 0.000000
0.682305 0.750000 0.000000
0.714223 0.750000 0.000000
0.746140 0.750000 0.000000
0.778058 0.750000 0.000000
0.810672 0.750000 0.000000
0.843319 0.750000 0.000000
0.875998 0.750000 0.000000
0.908710 0.750000 0.000000
0.941454 0.750000 0.000000
0.974230 0.750000 0.000000
0.999365 0.750000 0.000000
1.000000 0.750000 0.000000
0.033551 0.781250 0.000000
0.046560 0.781250 0.000000
0.078493 0.781250 0.000000
0.110427 0.781250 0.000000
0.142361 0.781250 0.000000
0.174295 0.781250 0.000000
0.206229 0.781250 0.000000
0.238163 0.781250 0.000000
0.270097 0.781250 0.000000
0.302031 0.781250 0.000000
0.333965 0.781250 0.000000
0.365898 0.781250 0.000000
0.397832 0.781250 0.000000
0.429766 0.781250 0.000000
0.461700 0.781250 0.000000
0.493634 0.781250 0.000000
0.525568 0.781250 0.000000
0.557502 0.781250 0.000000
0.589436 0.781250 0.000000
0.621370 0.781250 0.000000
0.653304 0.781250 0.000000
0.685237 0.781250 0.000000
0.717171 0.781250 0.000000
0.749105 0.781250 0.000000
0.781039 0.781250 0.000000
0.812973 0.781250 0.000000
0.845674 0.781250 0.000000
0.878408 0.781250 0.000000
0.911174 0.781250 0.000000
0.943972 0.781250 0.000000
0.976803 0.781250 0.000000
0.999365 0.781250 0.000000
1.000000 0.781250 0.000000
0.035719 0.812500 0.000000
0.049277 0.812500 0.000000
0.081227 0.812500 0.000000
0.113177 0.812500 0.000000
0.145128 0.812500 0.000000
0.177078 0.812500 0.000000
0.209028 0.812500 0.000000
0.240978 0.812500 0.000000
0.272928 0.812500 0.000000
0.304878 0.812500 0.000000
0.336828 0.812500 0.000000
0.368778 0.812500 0.000000
0.400728 0.812500 0.000000
0.432678 0.812500 0.000000
0.464628 0.812500 0.000000
0.496578 0.812500 0.000000
0.528529 0.812500 0.000000
0.560479 0.812500 0.000000
0.592429 0.812500 0.000000
0.624379 0.812500 0.000000
0.656329 0.812500 0.000000
0.688279 0.812500 0.000000
0.720229 0.812500 0.000000
0.752179 0.812500 0.000000
0.784129 0.812500 0.000000
0.816079 0.812500 0.000000
0.848029 0.812500 0.000000
