luts/original/anamorphic-flare.cube
TITLE "Anamorphic Flare"
LUT_3D_SIZE 5
DOMAIN_MIN 0.0 0.0 0.0
DOMAIN_MAX 1.0 1.0 1.0
0.000000 0.000000 0.017500
0.227644 0.000000 0.022356
0.474860 0.000000 0.025140
0.724150 0.000000 0.025850
0.975512 0.000000 0.024488
0.000000 0.250000 0.008647
0.237643 0.250000 0.001110
0.489343 0.244672 0.000000
0.742119 0.244712 0.000000
0.996968 0.247721 0.000000
0.012286 0.500000 0.000000
0.249280 0.500000 0.000000
0.503826 0.500000 0.000000
0.760089 0.500000 0.000000
1.000000 0.500000 0.000000
0.031446 0.750000 0.000000
0.267375 0.750000 0.000000
0.522716 0.750000 0.000000
0.778058 0.750000 0.000000
1.000000 0.750000 0.000000
0.050064 1.000000 0.000000
0.292202 1.000000 0.000000
0.548580 1.000000 0.000000
0.804958 1.000000 0.000000
1.000000 1.000000 0.000000
0.000648 0.000000 0.274515
0.228754 0.000000 0.271246
0.476322 0.000000 0.273678
0.725964 0.000000 0.274036
0.977678 0.000000 0.272322
0.000000 0.249291 0.263519
0.228680 0.244465 0.260250
0.490805 0.223736 0.234444
0.743933 0.200235 0.207034
0.999134 0.170069 0.171028
0.000000 0.500000 0.244139
0.224295 0.500000 0.222017
0.505288 0.499191 0.217289
0.761903 0.474399 0.186895
1.000000 0.448092 0.149410
0.000000 0.750000 0.212545
0.223342 0.750000 0.180561
0.503577 0.750000 0.175220
0.779872 0.746714 0.167488
1.000000 0.724749 0.127954
0.000000 1.000000 0.169376
0.223305 1.000000 0.125632
0.505862 1.000000 0.119254
0.788007 1.000000 0.112876
1.000000 1.000000 0.106498
0.001706 0.000000 0.530826
0.223479 0.000000 0.526521
0.477784 0.000000 0.522216
0.727778 0.000000 0.522222
0.979844 0.000000 0.520156
0.000000 0.244532 0.516343
0.209999 0.223783 0.512038
0.489847 0.222381 0.507733
0.745747 0.200090 0.480066
1.000000 0.170000 0.445228
0.000000 0.499892 0.501860
0.225445 0.500000 0.497158
0.506750 0.486230 0.465710
0.763717 0.451627 0.434936
1.000000 0.423482 0.397244
0.000000 0.750000 0.471636
0.220753 0.750000 0.449892
0.487326 0.750000 0.423406
0.781686 0.743868 0.415529
1.000000 0.713250 0.375788
0.000000 1.000000 0.429860
0.216534 1.000000 0.391313
0.488224 1.000000 0.367088
0.782011 1.000000 0.360710
1.000000 1.000000 0.354332
0.003175 0.000000 0.786433
0.218909 0.000000 0.781091
0.474250 0.000000 0.775750
0.729592 0.000000 0.770408
0.982010 0.000000 0.767990
0.000000 0.240566 0.768464
0.185578 0.200213 0.763122
0.465391 0.199128 0.757780
0.746977 0.199555 0.752439
1.000000 0.170000 0.719498
0.000000 0.491619 0.750494
0.204985 0.475069 0.745153
0.463283 0.450565 0.739811
0.765531 0.448508 0.727358
1.000000 0.420000 0.681090
0.000000 0.750000 0.731505
0.222567 0.750000 0.724287
0.477908 0.750000 0.714033
0.783500 0.723535 0.663570
1.000000 0.682519 0.623622
0.000000 1.000000 0.691039
0.218700 1.000000 0.667226
0.475078 1.000000 0.640067
0.763027 1.000000 0.608544
1.000000 1.000000 0.602166
0.005054 0.000000 0.994946
0.215042 0.000000 0.991225
0.471420 0.000000 0.987505
0.727798 0.000000 0.983784
0.984176 0.000000 0.980064
0.000000 0.236663 0.982430
0.158201 0.173128 0.978710
0.441007 0.172001 0.974989
0.725337 0.172299 0.971268
1.000000 0.170000 0.964086
0.000000 0.484957 0.969914
0.180659 0.449121 0.966193
0.439720 0.423002 0.962473
0.739271 0.423300 0.958753
1.000000 0.420000 0.947837
0.000000 0.740341 0.957398
0.203116 0.726954 0.953677
0.459791 0.713310 0.949957
0.732733 0.674301 0.946236
1.000000 0.670000 0.924121
0.000000 1.000000 0.941667
0.220866 1.000000 0.934429
0.477244 1.000000 0.926137
0.733622 1.000000 0.905271
1.000000 1.000000 0.850000
