luts/original/beach-glow.cube
TITLE "Beach Glow"
LUT_3D_SIZE 33
DOMAIN_MIN 0.0 0.0 0.0
DOMAIN_MAX 1.0 1.0 1.0
0.033120 0.005970 0.005970
0.066230 0.005334 0.005334
0.099334 0.004591 0.004591
0.132431 0.003739 0.003739
0.165522 0.002780 0.002780
0.198605 0.001713 0.001713
0.231682 0.000538 0.000538
0.264752 0.000000 0.000000
0.297816 0.000000 0.000000
0.330872 0.000000 0.000000
0.363922 0.000000 0.000000
0.396966 0.000000 0.000000
0.430002 0.000000 0.000000
0.463032 0.000000 0.000000
0.496055 0.000000 0.000000
0.529071 0.000000 0.000000
0.562080 0.000000 0.000000
0.595083 0.000000 0.000000
0.628079 0.000000 0.000000
0.661068 0.000000 0.000000
0.694050 0.000000 0.000000
0.727026 0.000000 0.000000
0.759995 0.000000 0.000000
0.792957 0.000000 0.000000
0.825912 0.000000 0.000000
0.858861 0.000000 0.000000
0.891803 0.000000 0.000000
0.924738 0.000000 0.000000
0.957667 0.000000 0.000000
0.990588 0.000000 0.000000
0.997461 0.000000 0.000000
0.999365 0.000000 0.000000
1.000000 0.000000 0.000000
0.034835 0.038620 0.006126
0.066023 0.037538 0.005144
0.099116 0.036791 0.004390
0.132202 0.035953 0.003528
0.165281 0.035016 0.002558
0.198353 0.033976 0.001481
0.231419 0.032831 0.000296
0.264477 0.032470 0.000000
0.297529 0.032388 0.000000
0.330575 0.032320 0.000000
0.363613 0.032263 0.000000
0.396645 0.032213 0.000000
0.429670 0.032170 0.000000
0.462688 0.032133 0.000000
0.495700 0.032099 0.000000
0.528705 0.032069 0.000000
0.561703 0.032042 0.000000
0.594694 0.032018 0.000000
0.627679 0.031995 0.000000
0.660657 0.031975 0.000000
0.693628 0.031955 0.000000
0.726592 0.031938 0.000000
0.759550 0.031921 0.000000
0.792500 0.031906 0.000000
0.825444 0.031891 0.000000
0.858382 0.031877 0.000000
0.891312 0.031864 0.000000
0.924236 0.031852 0.000000
0.957153 0.031840 0.000000
0.990064 0.031829 0.000000
0.997461 0.031835 0.000000
0.999365 0.031847 0.000000
1.000000 0.031859 0.000000
0.036528 0.071371 0.006262
0.067713 0.070129 0.005225
0.098898 0.068984 0.004189
0.131972 0.068160 0.003317
0.165040 0.067246 0.002337
0.198101 0.066233 0.001249
0.231155 0.065119 0.000053
0.264202 0.064881 0.000000
0.297243 0.064720 0.000000
0.330277 0.064587 0.000000
0.363304 0.064475 0.000000
0.396325 0.064378 0.000000
0.429338 0.064294 0.000000
0.462345 0.064221 0.000000
0.495346 0.064155 0.000000
0.528339 0.064096 0.000000
0.561326 0.064043 0.000000
0.594306 0.063995 0.000000
0.627279 0.063951 0.000000
0.660245 0.063911 0.000000
0.693205 0.063873 0.000000
0.726158 0.063838 0.000000
0.759104 0.063806 0.000000
0.792044 0.063775 0.000000
0.824977 0.063746 0.000000
0.857903 0.063719 0.000000
0.890822 0.063694 0.000000
0.923734 0.063669 0.000000
0.956640 0.063646 0.000000
0.989539 0.063624 0.000000
0.997461 0.063634 0.000000
0.999365 0.063658 0.000000
1.000000 0.063682 0.000000
0.037225 0.103182 0.005595
0.069379 0.102811 0.005286
0.100561 0.101554 0.004196
0.131743 0.100360 0.003106
0.164799 0.099469 0.002115
0.197848 0.098485 0.001017
0.230891 0.097522 0.000000
0.263927 0.097232 0.000000
0.296957 0.096997 0.000000
0.329979 0.096801 0.000000
0.362995 0.096636 0.000000
0.396004 0.096495 0.000000
0.429007 0.096372 0.000000
0.462002 0.096263 0.000000
0.494991 0.096167 0.000000
0.527973 0.096081 0.000000
0.560949 0.096003 0.000000
0.593917 0.095932 0.000000
0.626879 0.095867 0.000000
0.659834 0.095808 0.000000
0.692783 0.095752 0.000000
0.725724 0.095701 0.000000
0.758659 0.095653 0.000000
0.791587 0.095608 0.000000
0.824509 0.095566 0.000000
0.857423 0.095526 0.000000
0.890331 0.095488 0.000000
0.923232 0.095452 0.000000
0.956127 0.095418 0.000000
0.989014 0.095385 0.000000
0.997461 0.095399 0.000000
0.999365 0.095434 0.000000
1.000000 0.095469 0.000000
0.037607 0.134657 0.004572
0.070058 0.134585 0.004506
0.102201 0.134212 0.004181
0.133380 0.132926 0.003037
0.164558 0.131686 0.001893
0.197596 0.130731 0.000785
0.230628 0.129901 0.000000
0.263652 0.129524 0.000000
0.296670 0.129217 0.000000
0.329682 0.128963 0.000000
0.362686 0.128748 0.000000
0.395684 0.128563 0.000000
0.428675 0.128402 0.000000
0.461659 0.128261 0.000000
0.494637 0.128136 0.000000
0.527607 0.128023 0.000000
0.560571 0.127921 0.000000
0.593529 0.127829 0.000000
0.626479 0.127744 0.000000
0.659423 0.127666 0.000000
0.692360 0.127594 0.000000
0.725290 0.127527 0.000000
0.758214 0.127464 0.000000
0.791131 0.127405 0.000000
0.824041 0.127350 0.000000
0.856944 0.127298 0.000000
0.889840 0.127248 0.000000
0.922730 0.127201 0.000000
0.955613 0.127156 0.000000
0.988490 0.127113 0.000000
0.997461 0.127130 0.000000
0.999365 0.127175 0.000000
1.000000 0.127220 0.000000
0.037918 0.166110 0.003426
0.070381 0.166035 0.003357
0.102843 0.165960 0.003288
0.134994 0.165578 0.002948
0.166169 0.164258 0.001750
0.197344 0.162971 0.000552
0.230364 0.162216 0.000000
0.263377 0.161756 0.000000
0.296384 0.161381 0.000000
0.329384 0.161071 0.000000
0.362377 0.160808 0.000000
0.395363 0.160583 0.000000
0.428343 0.160386 0.000000
0.461316 0.160214 0.000000
0.494282 0.160060 0.000000
0.527242 0.159923 0.000000
0.560194 0.159798 0.000000
0.593140 0.159685 0.000000
0.626079 0.159581 0.000000
0.659012 0.159486 0.000000
0.691937 0.159397 0.000000
0.724856 0.159315 0.000000
0.757769 0.159238 0.000000
0.790674 0.159166 0.000000
0.823573 0.159098 0.000000
0.856465 0.159034 0.000000
0.889350 0.158973 0.000000
0.922228 0.158915 0.000000
0.955100 0.158860 0.000000
0.987965 0.158808 0.000000
0.997461 0.158826 0.000000
0.999365 0.158880 0.000000
1.000000 0.158935 0.000000
0.038132 0.197539 0.002158
0.070620 0.197461 0.002086
0.103106 0.197383 0.002014
0.135590 0.197304 0.001942
0.167757 0.196913 0.001587
0.198929 0.195552 0.000335
0.230100 0.194468 0.000000
0.263102 0.193928 0.000000
0.296098 0.193490 0.000000
0.329086 0.193126 0.000000
0.362068 0.192818 0.000000
0.395043 0.192554 0.000000
0.428011 0.192324 0.000000
0.460973 0.192121 0.000000
0.493928 0.191941 0.000000
0.526876 0.191780 0.000000
0.559817 0.191634 0.000000
0.592752 0.191501 0.000000
0.625679 0.191379 0.000000
0.658601 0.191267 0.000000
0.691515 0.191163 0.000000
0.724422 0.191066 0.000000
0.757323 0.190976 0.000000
0.790217 0.190891 0.000000
0.823105 0.190811 0.000000
0.855985 0.190735 0.000000
0.888859 0.190664 0.000000
0.921726 0.190596 0.000000
0.954587 0.190531 0.000000
0.987440 0.190468 0.000000
0.997461 0.190487 0.000000
0.999365 0.190550 0.000000
1.000000 0.190613 0.000000
0.038238 0.228947 0.000767
0.070757 0.228865 0.000692
0.103274 0.228783 0.000617
0.135789 0.228701 0.000542
0.168302 0.228620 0.000467
0.200491 0.228216 0.000096
0.231659 0.226995 0.000000
0.262827 0.226041 0.000000
0.295811 0.225542 0.000000
0.328789 0.225128 0.000000
0.361759 0.224778 0.000000
0.394723 0.224477 0.000000
0.427680 0.224215 0.000000
0.460630 0.223984 0.000000
0.493573 0.223779 0.000000
0.526510 0.223595 0.000000
0.559440 0.223428 0.000000
0.592363 0.223276 0.000000
0.625280 0.223137 0.000000
0.658189 0.223009 0.000000
0.691092 0.222890 0.000000
0.723989 0.222780 0.000000
0.756878 0.222676 0.000000
0.789761 0.222579 0.000000
0.822637 0.222488 0.000000
0.855506 0.222401 0.000000
0.888368 0.222319 0.000000
0.921224 0.222241 0.000000
0.954073 0.222167 0.000000
0.986915 0.222096 0.000000
0.997461 0.222113 0.000000
0.999365 0.222185 0.000000
1.000000 0.222256 0.000000
0.038768 0.260331 0.000000
0.071275 0.260246 0.000000
0.103760 0.260161 0.000000
0.136225 0.260076 0.000000
0.168668 0.259990 0.000000
0.201089 0.259905 0.000000
0.233195 0.259534 0.000000
0.264360 0.258429 0.000000
0.295525 0.257539 0.000000
0.328491 0.257078 0.000000
0.361450 0.256687 0.000000
0.394402 0.256351 0.000000
0.427348 0.256059 0.000000
0.460287 0.255802 0.000000
0.493219 0.255573 0.000000
0.526144 0.255367 0.000000
0.559063 0.255181 0.000000
0.591975 0.255012 0.000000
0.624880 0.254856 0.000000
0.657778 0.254713 0.000000
0.690670 0.254580 0.000000
0.723555 0.254456 0.000000
0.756433 0.254340 0.000000
0.789304 0.254232 0.000000
0.822169 0.254129 0.000000
0.855027 0.254032 0.000000
0.887878 0.253940 0.000000
0.920722 0.253853 0.000000
0.953560 0.253769 0.000000
0.986391 0.253689 0.000000
0.997461 0.253706 0.000000
0.999365 0.253784 0.000000
1.000000 0.253863 0.000000
0.039896 0.291693 0.000000
0.072274 0.291604 0.000000
0.104633 0.291516 0.000000
0.136972 0.291427 0.000000
0.169292 0.291339 0.000000
0.201591 0.291250 0.000000
0.233872 0.291162 0.000000
0.265870 0.290818 0.000000
0.297032 0.289806 0.000000
0.328193 0.288974 0.000000
0.361141 0.288546 0.000000
0.394082 0.288178 0.000000
0.427016 0.287857 0.000000
0.459944 0.287574 0.000000
0.492864 0.287323 0.000000
0.525778 0.287097 0.000000
0.558686 0.286893 0.000000
0.591586 0.286706 0.000000
0.624480 0.286535 0.000000
0.657367 0.286378 0.000000
0.690247 0.286231 0.000000
0.723121 0.286095 0.000000
0.755988 0.285968 0.000000
0.788848 0.285848 0.000000
0.821701 0.285735 0.000000
0.854547 0.285628 0.000000
0.887387 0.285526 0.000000
0.920220 0.285430 0.000000
0.953047 0.285338 0.000000
0.985866 0.285249 0.000000
0.997461 0.285263 0.000000
0.999365 0.285348 0.000000
1.000000 0.285433 0.000000
0.041078 0.323032 0.000000
0.073351 0.322940 0.000000
0.105606 0.322848 0.000000
0.137843 0.322756 0.000000
0.170061 0.322664 0.000000
0.202261 0.322572 0.000000
0.234443 0.322481 0.000000
0.266606 0.322389 0.000000
0.298516 0.322067 0.000000
0.329674 0.321134 0.000000
0.360832 0.320354 0.000000
0.393761 0.319955 0.000000
0.426684 0.319608 0.000000
0.459601 0.319302 0.000000
0.492510 0.319029 0.000000
0.525413 0.318784 0.000000
0.558308 0.318563 0.000000
0.591198 0.318361 0.000000
0.624080 0.318175 0.000000
0.656956 0.318004 0.000000
0.689825 0.317845 0.000000
0.722687 0.317697 0.000000
0.755542 0.317558 0.000000
0.788391 0.317428 0.000000
0.821233 0.317305 0.000000
0.854068 0.317188 0.000000
0.886896 0.317078 0.000000
0.919718 0.316972 0.000000
0.952533 0.316872 0.000000
0.985341 0.316776 0.000000
0.997461 0.316787 0.000000
0.999365 0.316878 0.000000
1.000000 0.316968 0.000000
0.042299 0.354348 0.000000
0.074484 0.354253 0.000000
0.106652 0.354158 0.000000
0.138803 0.354062 0.000000
0.170937 0.353967 0.000000
0.203053 0.353872 0.000000
0.235151 0.353777 0.000000
0.267233 0.353681 0.000000
0.299297 0.353586 0.000000
0.331132 0.353283 0.000000
0.362286 0.352418 0.000000
0.393441 0.351685 0.000000
0.426353 0.351313 0.000000
0.459257 0.350984 0.000000
0.492155 0.350692 0.000000
0.525047 0.350430 0.000000
0.557931 0.350192 0.000000
0.590809 0.349975 0.000000
0.623680 0.349775 0.000000
0.656545 0.349591 0.000000
0.689402 0.349420 0.000000
0.722253 0.349261 0.000000
0.755097 0.349112 0.000000
0.787934 0.348972 0.000000
0.820765 0.348839 0.000000
0.853589 0.348714 0.000000
0.886406 0.348594 0.000000
0.919216 0.348481 0.000000
0.952020 0.348372 0.000000
0.984817 0.348268 0.000000
0.997461 0.348276 0.000000
0.999365 0.348372 0.000000
1.000000 0.348468 0.000000
0.043549 0.385642 0.000000
0.075659 0.385543 0.000000
0.107753 0.385445 0.000000
0.139830 0.385346 0.000000
0.171891 0.385247 0.000000
0.203936 0.385149 0.000000
0.235964 0.385050 0.000000
0.267975 0.384951 0.000000
0.299970 0.384853 0.000000
0.331949 0.384754 0.000000
0.363718 0.384466 0.000000
0.394869 0.383662 0.000000
0.426021 0.382971 0.000000
0.458914 0.382622 0.000000
0.491801 0.382311 0.000000
0.524681 0.382032 0.000000
0.557554 0.381779 0.000000
0.590421 0.381548 0.000000
0.623280 0.381336 0.000000
0.656133 0.381140 0.000000
0.688980 0.380958 0.000000
0.721819 0.380788 0.000000
0.754652 0.380629 0.000000
0.787478 0.380479 0.000000
0.820297 0.380338 0.000000
0.853109 0.380204 0.000000
0.885915 0.380076 0.000000
0.918714 0.379955 0.000000
0.951506 0.379839 0.000000
0.984292 0.379728 0.000000
0.997461 0.379731 0.000000
0.999365 0.379831 0.000000
1.000000 0.379932 0.000000
0.044822 0.416913 0.000000
0.076866 0.416811 0.000000
0.108896 0.416709 0.000000
0.140909 0.416607 0.000000
0.172907 0.416505 0.000000
0.204889 0.416403 0.000000
0.236855 0.416301 0.000000
0.268806 0.416199 0.000000
0.300741 0.416097 0.000000
0.332660 0.415995 0.000000
0.364563 0.415893 0.000000
0.396275 0.415618 0.000000
0.427423 0.414867 0.000000
0.458571 0.414214 0.000000
0.491447 0.413887 0.000000
0.524315 0.413592 0.000000
0.557177 0.413325 0.000000
0.590032 0.413081 0.000000
0.622881 0.412857 0.000000
0.655722 0.412650 0.000000
0.688557 0.412457 0.000000
0.721385 0.412278 0.000000
0.754207 0.412109 0.000000
0.787021 0.411951 0.000000
0.819829 0.411801 0.000000
0.852630 0.411659 0.000000
0.885425 0.411524 0.000000
0.918212 0.411395 0.000000
0.950993 0.411271 0.000000
0.983767 0.411153 0.000000
0.997461 0.411152 0.000000
0.999365 0.411256 0.000000
1.000000 0.411360 0.000000
0.046112 0.448161 0.000000
0.078099 0.448056 0.000000
0.110071 0.447950 0.000000
0.142028 0.447845 0.000000
0.173970 0.447739 0.000000
0.205897 0.447634 0.000000
0.237809 0.447529 0.000000
0.269706 0.447423 0.000000
0.301587 0.447318 0.000000
0.333454 0.447213 0.000000
0.365306 0.447107 0.000000
0.397142 0.447002 0.000000
0.428803 0.446738 0.000000
0.459947 0.446035 0.000000
0.491092 0.445419 0.000000
0.523949 0.445110 0.000000
0.556800 0.444830 0.000000
0.589644 0.444574 0.000000
0.622481 0.444339 0.000000
0.655311 0.444121 0.000000
0.688134 0.443919 0.000000
0.720951 0.443730 0.000000
0.753761 0.443553 0.000000
0.786565 0.443386 0.000000
0.819361 0.443228 0.000000
0.852151 0.443078 0.000000
0.884934 0.442936 0.000000
0.917710 0.442800 0.000000
0.950480 0.442670 0.000000
0.983243 0.442545 0.000000
0.997461 0.442539 0.000000
0.999365 0.442645 0.000000
1.000000 0.442752 0.000000
0.047417 0.479387 0.000000
0.079352 0.479278 0.000000
0.111273 0.479169 0.000000
0.143180 0.479060 0.000000
0.175072 0.478952 0.000000
0.206950 0.478843 0.000000
0.238813 0.478734 0.000000
0.270661 0.478625 0.000000
0.302495 0.478517 0.000000
0.334315 0.478408 0.000000
0.366120 0.478299 0.000000
0.397911 0.478190 0.000000
0.429687 0.478082 0.000000
0.461301 0.477828 0.000000
0.492442 0.477168 0.000000
0.523584 0.476585 0.000000
0.556423 0.476293 0.000000
0.589255 0.476026 0.000000
0.622081 0.475781 0.000000
0.654900 0.475554 0.000000
0.687712 0.475342 0.000000
0.720517 0.475145 0.000000
0.753316 0.474960 0.000000
0.786108 0.474785 0.000000
0.818893 0.474620 0.000000
0.851672 0.474463 0.000000
0.884443 0.474314 0.000000
0.917208 0.474171 0.000000
0.949966 0.474035 0.000000
0.982718 0.473904 0.000000
0.997461 0.473891 0.000000
0.999365 0.474000 0.000000
1.000000 0.474109 0.000000
0.048733 0.510589 0.000000
0.080622 0.510477 0.000000
0.112497 0.510365 0.000000
0.144358 0.510253 0.000000
0.176205 0.510141 0.000000
0.208038 0.510029 0.000000
0.239857 0.509917 0.000000
0.271662 0.509805 0.000000
0.303453 0.509692 0.000000
0.335230 0.509580 0.000000
0.366993 0.509468 0.000000
0.398742 0.509356 0.000000
0.430477 0.509244 0.000000
0.462198 0.509132 0.000000
0.493770 0.508886 0.000000
0.524908 0.508267 0.000000
0.556046 0.507715 0.000000
0.588867 0.507438 0.000000
0.621681 0.507184 0.000000
0.654489 0.506948 0.000000
0.687289 0.506728 0.000000
0.720083 0.506523 0.000000
0.752871 0.506330 0.000000
0.785651 0.506148 0.000000
0.818425 0.505976 0.000000
0.851192 0.505812 0.000000
0.883953 0.505657 0.000000
0.916706 0.505508 0.000000
0.949453 0.505365 0.000000
0.982193 0.505229 0.000000
0.997461 0.505210 0.000000
0.999365 0.505321 0.000000
1.000000 0.505431 0.000000
0.050058 0.541770 0.000000
0.081905 0.541654 0.000000
0.113738 0.541539 0.000000
0.145558 0.541423 0.000000
0.177364 0.541308 0.000000
0.209156 0.541192 0.000000
0.240935 0.541077 0.000000
0.272700 0.540961 0.000000
0.304452 0.540846 0.000000
0.336190 0.540730 0.000000
0.367914 0.540615 0.000000
0.399625 0.540499 0.000000
0.431323 0.540384 0.000000
0.463006 0.540268 0.000000
0.494677 0.540153 0.000000
0.526209 0.539915 0.000000
0.557344 0.539332 0.000000
0.588478 0.538810 0.000000
0.621281 0.538547 0.000000
0.654077 0.538303 0.000000
0.686867 0.538075 0.000000
0.719649 0.537863 0.000000
0.752425 0.537663 0.000000
0.785195 0.537475 0.000000
0.817957 0.537296 0.000000
0.850713 0.537126 0.000000
0.883462 0.536965 0.000000
0.916204 0.536810 0.000000
0.948940 0.536662 0.000000
0.981668 0.536520 0.000000
0.997461 0.536495 0.000000
0.999365 0.536606 0.000000
1.000000 0.536717 0.000000
0.051391 0.572927 0.000000
0.083199 0.572808 0.000000
0.114994 0.572689 0.000000
0.146775 0.572570 0.000000
0.178544 0.572452 0.000000
0.210299 0.572333 0.000000
0.242041 0.572214 0.000000
0.273769 0.572095 0.000000
0.305485 0.571976 0.000000
0.337187 0.571857 0.000000
0.368876 0.571738 0.000000
0.400552 0.571620 0.000000
0.432214 0.571501 0.000000
0.463864 0.571382 0.000000
0.495500 0.571263 0.000000
0.527123 0.571144 0.000000
0.558619 0.570913 0.000000
0.589750 0.570365 0.000000
0.620881 0.569870 0.000000
0.653666 0.569619 0.000000
0.686444 0.569385 0.000000
0.719216 0.569166 0.000000
0.751980 0.568960 0.000000
0.784738 0.568765 0.000000
0.817489 0.568581 0.000000
0.850234 0.568405 0.000000
0.882971 0.568238 0.000000
0.915702 0.568078 0.000000
0.948426 0.567925 0.000000
0.981144 0.567777 0.000000
0.997461 0.567746 0.000000
0.999365 0.567857 0.000000
1.000000 0.567968 0.000000
0.052731 0.604062 0.000000
0.084503 0.603939 0.000000
0.116262 0.603817 0.000000
0.148008 0.603695 0.000000
0.179742 0.603573 0.000000
0.211462 0.603451 0.000000
0.243170 0.603328 0.000000
0.274864 0.603206 0.000000
0.306546 0.603084 0.000000
0.338215 0.602962 0.000000
0.369871 0.602839 0.000000
0.401514 0.602717 0.000000
0.433145 0.602595 0.000000
0.464762 0.602473 0.000000
0.496367 0.602350 0.000000
0.527959 0.602228 0.000000
0.559537 0.602106 0.000000
0.590999 0.601881 0.000000
0.622127 0.601365 0.000000
0.653255 0.600897 0.000000
0.686022 0.600656 0.000000
0.718782 0.600431 0.000000
0.751535 0.600219 0.000000
0.784282 0.600019 0.000000
0.817021 0.599830 0.000000
0.849754 0.599649 0.000000
0.882481 0.599477 0.000000
0.915200 0.599312 0.000000
0.947913 0.599154 0.000000
0.980619 0.599002 0.000000
0.997461 0.598963 0.000000
0.999365 0.599073 0.000000
1.000000 0.599184 0.000000
0.054077 0.635174 0.000000
0.085815 0.635048 0.000000
0.117541 0.634923 0.000000
0.149254 0.634797 0.000000
0.180955 0.634671 0.000000
0.212643 0.634546 0.000000
0.244319 0.634420 0.000000
0.275982 0.634295 0.000000
0.307632 0.634169 0.000000
0.339270 0.634043 0.000000
0.370895 0.633918 0.000000
0.402508 0.633792 0.000000
0.434108 0.633667 0.000000
0.465696 0.633541 0.000000
0.497271 0.633415 0.000000
0.528833 0.633290 0.000000
0.560383 0.633164 0.000000
0.591920 0.633038 0.000000
0.623350 0.632819 0.000000
0.654475 0.632333 0.000000
0.685599 0.631890 0.000000
0.718348 0.631660 0.000000
0.751090 0.631443 0.000000
0.783825 0.631238 0.000000
0.816553 0.631043 0.000000
0.849275 0.630858 0.000000
0.881990 0.630681 0.000000
0.914698 0.630511 0.000000
0.947400 0.630349 0.000000
0.980094 0.630192 0.000000
0.997461 0.630146 0.000000
0.999365 0.630255 0.000000
1.000000 0.630364 0.000000
0.055427 0.666263 0.000000
0.087134 0.666134 0.000000
0.118829 0.666005 0.000000
0.150511 0.665876 0.000000
0.182181 0.665747 0.000000
0.213839 0.665618 0.000000
0.245485 0.665489 0.000000
0.277118 0.665360 0.000000
0.308739 0.665231 0.000000
0.340347 0.665102 0.000000
0.371944 0.664973 0.000000
0.403528 0.664844 0.000000
0.435100 0.664715 0.000000
0.466659 0.664586 0.000000
0.498206 0.664457 0.000000
0.529741 0.664328 0.000000
0.561264 0.664199 0.000000
0.592774 0.664070 0.000000
0.624272 0.663942 0.000000
0.655672 0.663727 0.000000
0.686793 0.663269 0.000000
0.717914 0.662850 0.000000
0.750645 0.662629 0.000000
0.783368 0.662420 0.000000
0.816085 0.662221 0.000000
0.848796 0.662031 0.000000
0.881499 0.661850 0.000000
0.914196 0.661676 0.000000
0.946886 0.661510 0.000000
0.979570 0.661349 0.000000
0.997461 0.661296 0.000000
0.999365 0.661403 0.000000
1.000000 0.661510 0.000000
0.056782 0.697330 0.000000
0.088459 0.697197 0.000000
0.120125 0.697065 0.000000
0.151778 0.696933 0.000000
0.183419 0.696800 0.000000
0.215048 0.696668 0.000000
0.246666 0.696536 0.000000
0.278271 0.696403 0.000000
0.309864 0.696271 0.000000
0.341445 0.696139 0.000000
0.373014 0.696006 0.000000
0.404571 0.695874 0.000000
0.436116 0.695742 0.000000
0.467649 0.695609 0.000000
0.499170 0.695477 0.000000
0.530678 0.695344 0.000000
0.562175 0.695212 0.000000
0.593660 0.695080 0.000000
0.625133 0.694947 0.000000
0.656594 0.694815 0.000000
0.687964 0.694605 0.000000
0.719082 0.694174 0.000000
0.750199 0.693779 0.000000
0.782912 0.693565 0.000000
0.815617 0.693363 0.000000
0.848316 0.693169 0.000000
0.881009 0.692984 0.000000
0.913694 0.692807 0.000000
0.946373 0.692637 0.000000
0.979045 0.692472 0.000000
0.997461 0.692412 0.000000
0.999365 0.692516 0.000000
1.000000 0.692620 0.000000
0.058140 0.728374 0.000000
0.089790 0.728238 0.000000
0.121427 0.728102 0.000000
0.153053 0.727967 0.000000
0.184667 0.727831 0.000000
0.216269 0.727695 0.000000
0.247859 0.727559 0.000000
0.279438 0.727424 0.000000
0.311004 0.727288 0.000000
0.342559 0.727152 0.000000
0.374102 0.727016 0.000000
0.405634 0.726881 0.000000
0.437153 0.726745 0.000000
0.468661 0.726609 0.000000
0.500157 0.726474 0.000000
0.531641 0.726338 0.000000
0.563113 0.726202 0.000000
0.594573 0.726066 0.000000
0.626022 0.725931 0.000000
0.657459 0.725795 0.000000
0.688884 0.725659 0.000000
0.720227 0.725453 0.000000
0.751341 0.725048 0.000000
0.782455 0.724675 0.000000
0.815149 0.724469 0.000000
0.847837 0.724272 0.000000
0.880518 0.724084 0.000000
0.913192 0.723903 0.000000
0.945860 0.723730 0.000000
0.978520 0.723562 0.000000
0.997461 0.723495 0.000000
0.999365 0.723595 0.000000
1.000000 0.723696 0.000000
0.059502 0.759395 0.000000
0.091125 0.759256 0.000000
0.122736 0.759117 0.000000
0.154335 0.758978 0.000000
0.185923 0.758839 0.000000
0.217499 0.758700 0.000000
0.249064 0.758560 0.000000
0.280617 0.758421 0.000000
0.312159 0.758282 0.000000
0.343689 0.758143 0.000000
0.375207 0.758004 0.000000
0.406714 0.757865 0.000000
0.438209 0.757726 0.000000
0.469693 0.757587 0.000000
0.501165 0.757448 0.000000
0.532625 0.757308 0.000000
0.564074 0.757169 0.000000
0.595511 0.757030 0.000000
0.626937 0.756891 0.000000
0.658351 0.756752 0.000000
0.689753 0.756613 0.000000
0.721144 0.756474 0.000000
0.752460 0.756272 0.000000
0.783571 0.755891 0.000000
0.814682 0.755540 0.000000
0.847358 0.755340 0.000000
0.880027 0.755149 0.000000
0.912690 0.754965 0.000000
0.945346 0.754789 0.000000
0.977996 0.754618 0.000000
0.997461 0.754544 0.000000
0.999365 0.754640 0.000000
1.000000 0.754736 0.000000
0.060866 0.790394 0.000000
0.092463 0.790251 0.000000
0.124049 0.790109 0.000000
0.155624 0.789966 0.000000
0.187187 0.789824 0.000000
0.218739 0.789681 0.000000
0.250279 0.789539 0.000000
0.281808 0.789396 0.000000
0.313325 0.789254 0.000000
0.344831 0.789111 0.000000
0.376326 0.788969 0.000000
0.407809 0.788826 0.000000
0.439281 0.788684 0.000000
0.470742 0.788541 0.000000
0.502191 0.788399 0.000000
0.533629 0.788256 0.000000
0.565055 0.788114 0.000000
0.596470 0.787971 0.000000
0.627873 0.787829 0.000000
0.659265 0.787687 0.000000
0.690646 0.787544 0.000000
0.722015 0.787402 0.000000
0.753373 0.787259 0.000000
0.784663 0.787061 0.000000
0.815771 0.786704 0.000000
0.846879 0.786373 0.000000
0.879537 0.786179 0.000000
0.912188 0.785993 0.000000
0.944833 0.785814 0.000000
0.977471 0.785641 0.000000
0.997461 0.785559 0.000000
0.999365 0.785650 0.000000
1.000000 0.785742 0.000000
0.062233 0.821369 0.000000
0.093806 0.821224 0.000000
0.125368 0.821078 0.000000
0.156918 0.820932 0.000000
0.188457 0.820786 0.000000
0.219985 0.820640 0.000000
0.251502 0.820494 0.000000
0.283008 0.820349 0.000000
0.314502 0.820203 0.000000
0.345986 0.820057 0.000000
0.377458 0.819911 0.000000
0.408918 0.819765 0.000000
0.440368 0.819619 0.000000
0.471806 0.819473 0.000000
0.503233 0.819328 0.000000
0.534649 0.819182 0.000000
0.566054 0.819036 0.000000
0.597447 0.818890 0.000000
0.628830 0.818744 0.000000
0.660201 0.818598 0.000000
0.691560 0.818452 0.000000
0.722909 0.818307 0.000000
0.754246 0.818161 0.000000
0.785572 0.818015 0.000000
0.816838 0.817820 0.000000
0.847942 0.817485 0.000000
0.879046 0.817175 0.000000
