luts/original/beach-glow.cube
TITLE "Beach Glow"
LUT_3D_SIZE 9
DOMAIN_MIN 0.0 0.0 0.0
DOMAIN_MAX 1.0 1.0 1.0
0.033120 0.005970 0.005970
0.165522 0.002780 0.002780
0.297816 0.000000 0.000000
0.430002 0.000000 0.000000
0.562080 0.000000 0.000000
0.694050 0.000000 0.000000
0.825912 0.000000 0.000000
0.957667 0.000000 0.000000
1.000000 0.000000 0.000000
0.037607 0.134657 0.004572
0.164558 0.131686 0.001893
0.296670 0.129217 0.000000
0.428675 0.128402 0.000000
0.560571 0.127921 0.000000
0.692360 0.127594 0.000000
0.824041 0.127350 0.000000
0.955613 0.127156 0.000000
1.000000 0.127220 0.000000
0.038768 0.260331 0.000000
0.168668 0.259990 0.000000
0.295525 0.257539 0.000000
0.427348 0.256059 0.000000
0.559063 0.255181 0.000000
0.690670 0.254580 0.000000
0.822169 0.254129 0.000000
0.953560 0.253769 0.000000
1.000000 0.253863 0.000000
0.043549 0.385642 0.000000
0.171891 0.385247 0.000000
0.299970 0.384853 0.000000
0.426021 0.382971 0.000000
0.557554 0.381779 0.000000
0.688980 0.380958 0.000000
0.820297 0.380338 0.000000
0.951506 0.379839 0.000000
1.000000 0.379932 0.000000
0.048733 0.510589 0.000000
0.176205 0.510141 0.000000
0.303453 0.509692 0.000000
0.430477 0.509244 0.000000
0.556046 0.507715 0.000000
0.687289 0.506728 0.000000
0.818425 0.505976 0.000000
0.949453 0.505365 0.000000
1.000000 0.505431 0.000000
0.054077 0.635174 0.000000
0.180955 0.634671 0.000000
0.307632 0.634169 0.000000
0.434108 0.633667 0.000000
0.560383 0.633164 0.000000
0.685599 0.631890 0.000000
0.816553 0.631043 0.000000
0.947400 0.630349 0.000000
1.000000 0.630364 0.000000
0.059502 0.759395 0.000000
0.185923 0.758839 0.000000
0.312159 0.758282 0.000000
0.438209 0.757726 0.000000
0.564074 0.757169 0.000000
0.689753 0.756613 0.000000
0.814682 0.755540 0.000000
0.945346 0.754789 0.000000
1.000000 0.754736 0.000000
0.064973 0.883253 0.000000
0.191016 0.882643 0.000000
0.316884 0.882032 0.000000
0.442578 0.881422 0.000000
0.568098 0.880812 0.000000
0.693444 0.880201 0.000000
0.818615 0.879591 0.000000
0.943293 0.878685 0.000000
1.000000 0.878549 0.000000
0.070476 1.000000 0.000000
0.196194 1.000000 0.000000
0.321744 1.000000 0.000000
0.447126 1.000000 0.000000
0.572341 1.000000 0.000000
0.697389 1.000000 0.000000
0.822271 1.000000 0.000000
0.946986 1.000000 0.000000
1.000000 1.000000 0.000000
0.040765 0.007317 0.104692
0.165479 0.002741 0.099683
0.297765 0.000000 0.091169
0.429943 0.000000 0.085091
0.562013 0.000000 0.079175
0.693975 0.000000 0.073332
0.825829 0.000000 0.067529
0.957575 0.000000 0.061750
1.000000 0.000000 0.056099
0.035809 0.134614 0.099345
0.164515 0.130591 0.096666
0.296620 0.125458 0.085890
0.428616 0.118919 0.073389
0.560504 0.110742 0.059164
0.692285 0.100877 0.043215
0.823957 0.089305 0.025541
0.955522 0.079718 0.010156
1.000000 0.075460 0.000000
0.035934 0.260280 0.088333
0.167699 0.259940 0.088019
0.295474 0.255931 0.084836
0.427289 0.249729 0.072168
0.558996 0.242036 0.057776
0.690595 0.232717 0.041660
0.822086 0.221723 0.023819
0.953469 0.213642 0.010156
1.000000 0.209704 0.000000
0.034361 0.385583 0.075361
0.166273 0.385188 0.074998
0.298160 0.384794 0.074635
0.425962 0.380471 0.070947
0.557487 0.373273 0.056388
0.688904 0.364505 0.040105
0.820214 0.354091 0.022097
0.951415 0.346989 0.010156
1.000000 0.343304 0.000000
0.030869 0.510522 0.060431
0.163266 0.510074 0.060018
0.295643 0.509625 0.059605
0.427999 0.509177 0.059193
0.555979 0.504450 0.055000
0.687214 0.496239 0.038550
0.818342 0.486410 0.020375
0.949362 0.479759 0.010156
1.000000 0.476265 0.000000
0.025432 0.635099 0.043541
0.158429 0.634596 0.043079
0.291409 0.634094 0.042616
0.424371 0.633591 0.042154
0.557315 0.633089 0.041692
0.685524 0.627921 0.036995
0.816470 0.619104 0.020312
0.947308 0.611952 0.010156
1.000000 0.608591 0.000000
0.018043 0.759312 0.024692
0.151693 0.758756 0.024180
0.285328 0.758199 0.023668
0.418947 0.757643 0.023156
0.552550 0.757086 0.022644
0.686137 0.756530 0.022132
0.814598 0.751212 0.020312
0.945255 0.743569 0.010156
1.000000 0.740288 0.000000
0.014855 0.883162 0.010156
0.148698 0.882551 0.010156
0.282355 0.881941 0.010156
0.415825 0.881331 0.010156
0.549110 0.880720 0.010156
0.682208 0.880110 0.010156
0.815121 0.879499 0.010156
0.943202 0.874609 0.010156
1.000000 0.871359 0.000000
0.015985 1.000000 0.000000
0.149092 1.000000 0.000000
0.282011 1.000000 0.000000
0.414742 1.000000 0.000000
0.547285 1.000000 0.000000
0.679641 1.000000 0.000000
0.811811 1.000000 0.000000
0.943794 1.000000 0.000000
1.000000 1.000000 0.000000
0.043211 0.004079 0.226580
0.172990 0.003151 0.225550
0.297649 0.000000 0.220748
0.429809 0.000000 0.213796
0.561861 0.000000 0.207364
0.693805 0.000000 0.201172
0.825640 0.000000 0.195110
0.957368 0.000000 0.189127
1.000000 0.000000 0.183554
0.038900 0.132167 0.225435
0.171844 0.127097 0.223193
0.296504 0.121659 0.214724
0.428482 0.114828 0.202063
0.560352 0.106274 0.187958
0.692114 0.095995 0.172224
0.823768 0.083992 0.154811
0.955315 0.070265 0.135697
1.000000 0.062125 0.122254
0.034976 0.260164 0.219987
0.162028 0.259824 0.212913
0.295358 0.252544 0.209730
0.427155 0.244415 0.197045
0.558843 0.235577 0.182636
0.690424 0.225291 0.166503
0.821897 0.213395 0.148645
0.953261 0.199833 0.129063
1.000000 0.191846 0.114890
0.033363 0.385449 0.206964
0.159432 0.385054 0.199875
0.295980 0.384660 0.199512
0.425828 0.378486 0.195824
0.557335 0.369291 0.181248
0.688734 0.359133 0.164948
0.820025 0.347565 0.146923
0.951208 0.334434 0.127174
1.000000 0.326978 0.112655
0.029790 0.510370 0.192410
0.155681 0.509922 0.184878
0.291109 0.509473 0.184465
0.426510 0.509025 0.184053
0.555826 0.502928 0.179860
0.687044 0.492909 0.163393
0.818153 0.481677 0.145201
0.949155 0.468981 0.125285
1.000000 0.462041 0.110420
0.024259 0.634928 0.176036
0.150097 0.634426 0.167922
0.285455 0.633923 0.167459
0.420791 0.633421 0.166997
0.556104 0.632918 0.166535
0.685353 0.626620 0.161838
0.816281 0.615730 0.143479
0.947101 0.603474 0.123396
1.000000 0.597037 0.108185
0.016768 0.759123 0.157765
0.142597 0.758566 0.149006
0.278244 0.758010 0.148494
0.413871 0.757454 0.147982
0.549480 0.756897 0.147470
0.685068 0.756341 0.146959
0.814409 0.749725 0.141757
0.945048 0.737913 0.121506
1.000000 0.731966 0.105950
0.007318 0.882955 0.137568
0.133157 0.882344 0.128132
0.269259 0.881734 0.127570
0.405342 0.881123 0.127009
0.541408 0.880513 0.126447
0.677457 0.879903 0.125885
0.813488 0.879292 0.125324
0.942994 0.872299 0.119617
1.000000 0.866829 0.103715
0.000000 1.000000 0.119102
0.122232 1.000000 0.105759
0.258838 1.000000 0.105094
0.395424 1.000000 0.104430
0.531990 1.000000 0.103766
0.668536 1.000000 0.103101
0.805062 1.000000 0.102437
0.941568 1.000000 0.101772
1.000000 1.000000 0.101480
0.044844 0.000000 0.347733
0.175450 0.000000 0.347339
0.305070 0.000000 0.346311
0.429675 0.000000 0.342425
0.561708 0.000000 0.335487
0.693634 0.000000 0.328951
0.825451 0.000000 0.322634
0.957161 0.000000 0.316448
1.000000 0.000000 0.310950
0.039006 0.126077 0.346406
0.169669 0.122081 0.346012
0.303742 0.121006 0.344373
0.428348 0.114705 0.335563
0.560200 0.106134 0.321753
0.691944 0.095838 0.306533
0.823580 0.083818 0.289732
0.955107 0.070074 0.271286
1.000000 0.061899 0.258681
0.037786 0.258033 0.345079
0.162423 0.253554 0.344685
0.302415 0.244785 0.340847
0.427021 0.238484 0.328120
0.558691 0.229746 0.312944
0.690253 0.219283 0.296664
0.821708 0.207096 0.278873
0.953054 0.193185 0.259456
1.000000 0.184664 0.245648
0.033240 0.385315 0.339475
0.157877 0.384920 0.336122
0.286494 0.384526 0.324389
0.425694 0.373197 0.320701
0.557183 0.361698 0.306108
0.688563 0.350428 0.289791
0.819836 0.337964 0.271749
0.951001 0.323995 0.251983
1.000000 0.315634 0.237429
0.029650 0.510218 0.325353
0.154238 0.509769 0.319757
0.280959 0.509321 0.309325
0.423307 0.508872 0.308913
0.555674 0.500115 0.304720
0.686873 0.487554 0.288236
0.817964 0.474737 0.270027
0.948947 0.460804 0.250094
1.000000 0.452975 0.235194
0.024102 0.634757 0.309568
0.148640 0.634255 0.302627
0.274983 0.633753 0.292302
0.414547 0.633250 0.291840
0.554080 0.632748 0.291378
0.685183 0.624594 0.286681
0.816092 0.611439 0.268305
0.946894 0.597549 0.248205
1.000000 0.590221 0.232959
0.016594 0.758934 0.291957
0.141082 0.758378 0.283925
0.267285 0.757821 0.273320
0.406050 0.757265 0.272809
0.544790 0.756708 0.272297
0.683505 0.756152 0.271785
0.814220 0.748067 0.266583
0.944840 0.734230 0.246316
1.000000 0.727373 0.230724
0.007128 0.882747 0.272458
0.131566 0.882137 0.263437
0.257711 0.881527 0.252379
0.396355 0.880916 0.251818
0.534978 0.880306 0.251256
0.673580 0.879695 0.250695
0.812160 0.879085 0.250133
0.942787 0.870847 0.244427
1.000000 0.864432 0.228489
0.000000 1.000000 0.254383
0.120533 1.000000 0.241540
0.246607 1.000000 0.229869
0.385417 1.000000 0.229204
0.524200 1.000000 0.228540
0.662954 1.000000 0.227876
0.801681 1.000000 0.227211
0.940380 1.000000 0.226547
1.000000 1.000000 0.226254
0.049871 0.000000 0.468850
0.179348 0.000000 0.468402
0.308564 0.000000 0.467953
0.437005 0.000000 0.467007
0.561556 0.000000 0.463542
0.693463 0.000000 0.456668
0.825262 0.000000 0.450099
0.956954 0.000000 0.443715
1.000000 0.000000 0.438288
0.037454 0.118930 0.467341
0.167630 0.114791 0.466893
0.302175 0.114379 0.466444
0.435496 0.113156 0.464820
0.560048 0.105994 0.455542
0.691773 0.095681 0.440835
0.823391 0.083644 0.424648
0.954900 0.069883 0.406869
1.000000 0.061674 0.395101
0.036066 0.250949 0.465833
0.160654 0.244075 0.465384
0.294650 0.237991 0.464936
0.433987 0.236768 0.462567
0.558539 0.229606 0.450178
0.690083 0.219126 0.433590
0.821519 0.206922 0.415972
0.952847 0.192994 0.396951
1.000000 0.184439 0.384016
0.034678 0.382885 0.464324
0.159266 0.380483 0.463876
0.283853 0.373640 0.463427
0.432479 0.360380 0.457654
0.557030 0.353218 0.439870
0.688393 0.342571 0.422004
0.819647 0.330200 0.403475
0.950793 0.316105 0.383583
1.000000 0.307204 0.369384
0.029510 0.510065 0.458289
0.154098 0.509617 0.455994
0.278685 0.509169 0.451133
0.409208 0.508720 0.433773
0.555522 0.492551 0.429580
0.686702 0.477308 0.413079
0.817775 0.463471 0.394853
0.948740 0.448759 0.374903
1.000000 0.439968 0.359969
0.023945 0.634587 0.443094
0.148483 0.634084 0.438670
0.273020 0.633582 0.431030
0.400517 0.633080 0.416683
0.549679 0.632577 0.416221
0.685012 0.620818 0.411524
0.815903 0.604517 0.393131
0.946687 0.588849 0.373014
1.000000 0.580479 0.357734
0.016420 0.758745 0.426144
0.140909 0.758189 0.420213
0.265397 0.757632 0.411157
0.392267 0.757076 0.397635
0.536585 0.756519 0.397123
0.680869 0.755963 0.396611
0.814032 0.745468 0.391409
0.944633 0.728860 0.371125
1.000000 0.720849 0.355499
0.006937 0.882540 0.407342
0.131375 0.881930 0.400167
0.255814 0.881319 0.390035
0.382435 0.880709 0.376627
0.525052 0.880098 0.376066
0.667641 0.879488 0.375504
0.810203 0.878878 0.374942
0.942580 0.868791 0.369236
1.000000 0.861080 0.353264
0.000000 1.000000 0.389598
0.120307 1.000000 0.378816
0.244643 1.000000 0.367673
0.371099 1.000000 0.353979
0.513078 1.000000 0.353314
0.655017 1.000000 0.352650
0.796914 1.000000 0.351986
0.938770 1.000000 0.351321
1.000000 1.000000 0.351029
0.055191 0.000000 0.589930
0.184039 0.000000 0.589427
0.312660 0.000000 0.588925
0.441055 0.000000 0.588422
0.568795 0.000000 0.587503
0.693293 0.000000 0.584324
0.825073 0.000000 0.577508
0.956746 0.000000 0.570926
1.000000 0.000000 0.565567
0.034243 0.110260 0.588240
0.164451 0.105843 0.587737
0.299096 0.105381 0.587235
0.433717 0.104919 0.586732
0.567105 0.103549 0.585029
0.691602 0.095524 0.575131
0.823202 0.083470 0.559559
0.954693 0.069692 0.542448
1.000000 0.061448 0.531516
0.032688 0.242642 0.586549
0.157226 0.234589 0.586047
0.289717 0.228826 0.585544
0.428433 0.228364 0.585042
0.565415 0.226994 0.582876
0.689912 0.218969 0.570507
0.821330 0.206748 0.553065
0.952639 0.192803 0.534440
1.000000 0.184213 0.522375
0.031133 0.374955 0.584859
0.155671 0.370014 0.584357
0.280208 0.360350 0.583854
0.418155 0.351809 0.583352
0.563724 0.350439 0.580130
0.688222 0.342414 0.563591
0.819458 0.330026 0.543975
0.950586 0.315914 0.523820
1.000000 0.306978 0.510468
0.029578 0.507198 0.583169
0.154116 0.505345 0.582666
0.278653 0.502054 0.582164
0.403191 0.492426 0.581662
0.562034 0.473884 0.573614
0.686532 0.465859 0.549975
0.817586 0.453304 0.529245
0.948533 0.439025 0.508388
1.000000 0.429743 0.493718
0.023788 0.634416 0.576615
0.148326 0.633914 0.574705
0.272863 0.633411 0.571641
0.397401 0.632909 0.565021
0.530169 0.632406 0.541064
0.684842 0.610604 0.536367
0.815714 0.591245 0.517957
0.946479 0.574706 0.497823
1.000000 0.565308 0.482508
0.016247 0.758556 0.560325
0.140735 0.758000 0.556494
0.265223 0.757443 0.550760
0.389711 0.756887 0.540783
0.518103 0.756330 0.521949
0.675096 0.755774 0.521437
0.813843 0.740595 0.516235
0.944426 0.720180 0.495934
1.000000 0.710750 0.480273
0.006746 0.882333 0.542222
0.131185 0.881722 0.536892
0.255623 0.881112 0.529436
0.380061 0.880502 0.518001
0.507533 0.879891 0.500875
0.657225 0.879281 0.500313
0.806879 0.878670 0.499752
0.942372 0.865549 0.494045
1.000000 0.855962 0.478038
0.000000 1.000000 0.524748
0.120082 1.000000 0.516086
0.244417 1.000000 0.507245
0.368753 1.000000 0.494717
0.495804 1.000000 0.478089
0.642731 1.000000 0.477424
0.789590 1.000000 0.476760
0.936381 1.000000 0.476096
1.000000 1.000000 0.475803
0.060642 0.000000 0.710973
0.189085 0.000000 0.710417
0.317324 0.000000 0.709860
0.445358 0.000000 0.709304
0.573187 0.000000 0.708747
0.700441 0.000000 0.707828
0.824884 0.000000 0.704858
0.956539 0.000000 0.698083
1.000000 0.000000 0.692787
0.029373 0.099984 0.709101
0.159781 0.095236 0.708545
0.294824 0.094724 0.707988
0.429847 0.094212 0.707432
0.564850 0.093700 0.706876
0.698569 0.092184 0.705062
0.823013 0.083297 0.694464
0.954486 0.069502 0.678022
1.000000 0.061223 0.667924
0.027651 0.232844 0.707229
0.152139 0.223819 0.706673
0.284236 0.218002 0.706116
0.422291 0.217490 0.705560
0.560320 0.216978 0.705004
0.696697 0.215461 0.702842
0.821141 0.206575 0.690151
0.952432 0.192613 0.671923
1.000000 0.183988 0.660726
0.025929 0.365643 0.705358
0.150417 0.359100 0.704801
0.274905 0.348398 0.704245
0.410076 0.340768 0.703688
0.553611 0.340256 0.703132
0.694825 0.338739 0.700351
0.819269 0.329853 0.684467
0.950379 0.315723 0.664051
1.000000 0.306753 0.651541
0.024207 0.498381 0.703486
0.148695 0.494302 0.702929
0.273183 0.487778 0.702373
0.397671 0.474905 0.701816
0.540185 0.463534 0.701260
0.692954 0.462017 0.697064
0.817397 0.453130 0.675804
0.948325 0.438834 0.652909
1.000000 0.429518 0.638876
0.022485 0.631057 0.701614
0.146973 0.629428 0.701057
0.271461 0.627054 0.700501
0.395949 0.622746 0.699945
0.520437 0.609913 0.699388
0.691082 0.585295 0.688726
0.815525 0.576408 0.658435
0.946272 0.561945 0.634666
1.000000 0.552283 0.619248
0.016073 0.758367 0.694500
0.140561 0.757811 0.692769
0.265049 0.757254 0.690355
0.389537 0.756698 0.686417
0.514025 0.756141 0.677784
0.649377 0.755585 0.646263
0.813654 0.727357 0.641061
0.944219 0.703507 0.620744
1.000000 0.692828 0.605048
0.006555 0.882125 0.677096
0.130994 0.881515 0.673611
0.255432 0.880905 0.668830
0.379871 0.880294 0.661625
0.504309 0.879684 0.649014
0.633720 0.879073 0.625123
0.799558 0.878463 0.624561
0.942165 0.859445 0.618854
1.000000 0.846995 0.602813
0.000000 1.000000 0.659831
0.119856 1.000000 0.653347
0.244192 1.000000 0.646807
0.368527 1.000000 0.637618
0.492863 1.000000 0.623465
0.620975 1.000000 0.602199
0.776703 1.000000 0.601534
0.932301 1.000000 0.600870
1.000000 1.000000 0.600578
0.066164 0.000000 0.831979
0.194322 0.000000 0.831369
0.322291 0.000000 0.830759
0.450070 0.000000 0.830148
0.577660 0.000000 0.829538
0.705060 0.000000 0.828928
0.831942 0.000000 0.827995
0.956332 0.000000 0.825185
1.000000 0.000000 0.819949
0.022844 0.088075 0.829926
0.153527 0.082970 0.829316
0.289102 0.082409 0.828705
0.424659 0.081847 0.828095
0.560197 0.081286 0.827484
0.695718 0.080724 0.826874
0.829889 0.079060 0.824936
0.954278 0.069311 0.813590
1.000000 0.060997 0.804326
0.020955 0.221470 0.827873
0.145394 0.211536 0.827262
0.277456 0.205520 0.826652
0.415491 0.204958 0.826041
0.553504 0.204397 0.825431
0.691495 0.203835 0.824821
0.827835 0.202171 0.822596
0.952225 0.192422 0.809400
1.000000 0.183762 0.799069
0.019066 0.354809 0.825819
0.143505 0.346994 0.825209
0.267943 0.335467 0.824598
0.402187 0.328069 0.823988
0.544112 0.327507 0.823378
0.686009 0.326946 0.822767
0.825782 0.325282 0.820094
0.950171 0.315533 0.804273
1.000000 0.306527 0.792601
0.017177 0.488092 0.823766
0.141616 0.482385 0.823155
0.266054 0.474053 0.822545
0.390492 0.460357 0.821935
0.528706 0.450618 0.821324
0.677710 0.450057 0.820714
0.823728 0.448393 0.817243
0.948118 0.438644 0.797420
1.000000 0.429292 0.784016
0.015288 0.621319 0.821712
0.139726 0.617709 0.821102
0.264165 0.612554 0.820492
0.388603 0.604242 0.819881
0.513042 0.587738 0.819271
0.660738 0.573168 0.818660
0.821675 0.571504 0.813369
0.946065 0.561755 0.786816
1.000000 0.552057 0.771193
0.013399 0.754490 0.819659
0.137837 0.752966 0.819049
0.262276 0.750971 0.818438
0.386714 0.748014 0.817828
0.511153 0.742560 0.817217
0.635591 0.726099 0.816607
0.819622 0.694614 0.802991
0.944011 0.684865 0.765249
1.000000 0.674822 0.747768
0.006365 0.881918 0.811965
0.130803 0.881308 0.810323
0.255242 0.880697 0.808216
0.379680 0.880087 0.805239
0.504118 0.879477 0.800322
0.628557 0.878866 0.789423
0.766832 0.878256 0.749370
0.941958 0.842811 0.743664
1.000000 0.826691 0.727587
0.000000 1.000000 0.794848
0.119631 1.000000 0.790602
0.243966 1.000000 0.786360
0.368302 1.000000 0.780504
0.492637 1.000000 0.771628
0.616973 1.000000 0.756013
0.747504 1.000000 0.726309
0.923271 1.000000 0.725644
1.000000 1.000000 0.725352
0.071727 0.000000 0.952949
0.199673 0.000000 0.952285
0.327439 0.000000 0.951621
0.455027 0.000000 0.950956
0.582437 0.000000 0.950292
0.709668 0.000000 0.949627
0.836720 0.000000 0.948963
0.963299 0.000000 0.948008
1.000000 0.000000 0.947053
0.014657 0.074521 0.950714
0.145655 0.069046 0.950050
0.281833 0.068435 0.949386
0.417994 0.067823 0.948721
0.554139 0.067212 0.948057
0.690267 0.066601 0.947392
0.826379 0.065990 0.946728
0.961064 0.064179 0.944657
1.000000 0.060771 0.940722
0.012601 0.208482 0.948479
0.136990 0.197664 0.947815
0.269179 0.191379 0.947151
0.407481 0.190767 0.946486
0.545763 0.190156 0.945822
0.684027 0.189545 0.945157
0.822270 0.188934 0.944493
0.958829 0.187122 0.942173
1.000000 0.183536 0.937403
0.010545 0.342392 0.946244
0.134934 0.333459 0.945580
0.259322 0.321138 0.944916
0.393239 0.313711 0.944251
0.534622 0.313100 0.943587
0.675982 0.312489 0.942922
0.817318 0.311877 0.942258
0.956594 0.310066 0.939580
1.000000 0.306301 0.933650
0.008489 0.476249 0.944009
0.132877 0.469194 0.943345
0.257266 0.459520 0.942681
0.381655 0.445201 0.942016
0.518303 0.436044 0.941352
0.664560 0.435432 0.940687
0.810785 0.434821 0.940023
0.954359 0.433010 0.936785
1.000000 0.429066 0.929137
0.006432 0.610054 0.941774
0.130821 0.604868 0.941110
0.255210 0.597828 0.940446
0.379599 0.587501 0.939781
0.503987 0.570466 0.939117
0.645607 0.558376 0.938452
0.800731 0.557765 0.937788
0.952124 0.555954 0.933553
1.000000 0.551831 0.923105
0.004376 0.743807 0.939539
0.128765 0.740481 0.938875
0.253154 0.736063 0.938211
0.377542 0.729710 0.937546
0.501931 0.719407 0.936882
0.626320 0.698849 0.936217
0.779815 0.680709 0.935553
0.949889 0.678898 0.929043
1.000000 0.674596 0.913275
0.002320 0.877509 0.937304
0.126709 0.876033 0.936640
0.251098 0.874224 0.935976
0.375486 0.871826 0.935311
0.499875 0.868223 0.934647
0.624264 0.861495 0.933982
0.748653 0.840985 0.933318
0.947654 0.801841 0.916408
1.000000 0.797361 0.888239
0.000000 1.000000 0.929799
0.119405 1.000000 0.927850
0.243741 1.000000 0.925902
0.368076 1.000000 0.923376
0.492412 1.000000 0.919766
0.616747 1.000000 0.913742
0.741083 1.000000 0.900268
0.882665 1.000000 0.850419
1.000000 1.000000 0.850126
