luts/original/beach-glow.cube
TITLE "Beach Glow"
LUT_3D_SIZE 5
DOMAIN_MIN 0.0 0.0 0.0
DOMAIN_MAX 1.0 1.0 1.0
0.033120 0.005970 0.005970
0.297816 0.000000 0.000000
0.562080 0.000000 0.000000
0.825912 0.000000 0.000000
1.000000 0.000000 0.000000
0.038768 0.260331 0.000000
0.295525 0.257539 0.000000
0.559063 0.255181 0.000000
0.822169 0.254129 0.000000
1.000000 0.253863 0.000000
0.048733 0.510589 0.000000
0.303453 0.509692 0.000000
0.556046 0.507715 0.000000
0.818425 0.505976 0.000000
1.000000 0.505431 0.000000
0.059502 0.759395 0.000000
0.312159 0.758282 0.000000
0.564074 0.757169 0.000000
0.814682 0.755540 0.000000
1.000000 0.754736 0.000000
0.070476 1.000000 0.000000
0.321744 1.000000 0.000000
0.572341 1.000000 0.000000
0.822271 1.000000 0.000000
1.000000 1.000000 0.000000
0.043211 0.004079 0.226580
0.297649 0.000000 0.220748
0.561861 0.000000 0.207364
0.825640 0.000000 0.195110
1.000000 0.000000 0.183554
0.034976 0.260164 0.219987
0.295358 0.252544 0.209730
0.558843 0.235577 0.182636
0.821897 0.213395 0.148645
1.000000 0.191846 0.114890
0.029790 0.510370 0.192410
0.291109 0.509473 0.184465
0.555826 0.502928 0.179860
0.818153 0.481677 0.145201
1.000000 0.462041 0.110420
0.016768 0.759123 0.157765
0.278244 0.758010 0.148494
0.549480 0.756897 0.147470
0.814409 0.749725 0.141757
1.000000 0.731966 0.105950
0.000000 1.000000 0.119102
0.258838 1.000000 0.105094
0.531990 1.000000 0.103766
0.805062 1.000000 0.102437
1.000000 1.000000 0.101480
0.049871 0.000000 0.468850
0.308564 0.000000 0.467953
0.561556 0.000000 0.463542
0.825262 0.000000 0.450099
1.000000 0.000000 0.438288
0.036066 0.250949 0.465833
0.294650 0.237991 0.464936
0.558539 0.229606 0.450178
0.821519 0.206922 0.415972
1.000000 0.184439 0.384016
0.029510 0.510065 0.458289
0.278685 0.509169 0.451133
0.555522 0.492551 0.429580
0.817775 0.463471 0.394853
1.000000 0.439968 0.359969
0.016420 0.758745 0.426144
0.265397 0.757632 0.411157
0.536585 0.756519 0.397123
0.814032 0.745468 0.391409
1.000000 0.720849 0.355499
0.000000 1.000000 0.389598
0.244643 1.000000 0.367673
0.513078 1.000000 0.353314
0.796914 1.000000 0.351986
1.000000 1.000000 0.351029
0.060642 0.000000 0.710973
0.317324 0.000000 0.709860
0.573187 0.000000 0.708747
0.824884 0.000000 0.704858
1.000000 0.000000 0.692787
0.027651 0.232844 0.707229
0.284236 0.218002 0.706116
0.560320 0.216978 0.705004
0.821141 0.206575 0.690151
1.000000 0.183988 0.660726
0.024207 0.498381 0.703486
0.273183 0.487778 0.702373
0.540185 0.463534 0.701260
0.817397 0.453130 0.675804
1.000000 0.429518 0.638876
0.016073 0.758367 0.694500
0.265049 0.757254 0.690355
0.514025 0.756141 0.677784
0.813654 0.727357 0.641061
1.000000 0.692828 0.605048
0.000000 1.000000 0.659831
0.244192 1.000000 0.646807
0.492863 1.000000 0.623465
0.776703 1.000000 0.601534
1.000000 1.000000 0.600578
0.071727 0.000000 0.952949
0.327439 0.000000 0.951621
0.582437 0.000000 0.950292
0.836720 0.000000 0.948963
1.000000 0.000000 0.947053
0.012601 0.208482 0.948479
0.269179 0.191379 0.947151
0.545763 0.190156 0.945822
0.822270 0.188934 0.944493
1.000000 0.183536 0.937403
0.008489 0.476249 0.944009
0.257266 0.459520 0.942681
0.518303 0.436044 0.941352
0.810785 0.434821 0.940023
1.000000 0.429066 0.929137
0.004376 0.743807 0.939539
0.253154 0.736063 0.938211
0.501931 0.719407 0.936882
0.779815 0.680709 0.935553
1.000000 0.674596 0.913275
0.000000 1.000000 0.929799
0.243741 1.000000 0.925902
0.492412 1.000000 0.919766
0.741083 1.000000 0.900268
1.000000 1.000000 0.850126
