luts/original/bleach-bypass.cube
TITLE "Bleach Bypass"
LUT_3D_SIZE 5
DOMAIN_MIN 0.0 0.0 0.0
DOMAIN_MAX 1.0 1.0 1.0
0.003150 0.000000 0.000000
0.269629 0.026639 0.020796
0.545630 0.069020 0.061325
0.831154 0.127741 0.118193
1.000000 0.202800 0.191400
0.032481 0.263786 0.020796
0.269629 0.263786 0.020796
0.545630 0.303478 0.061325
0.831154 0.359029 0.118193
1.000000 0.430800 0.191400
0.076715 0.537935 0.061325
0.311173 0.537935 0.061325
0.545630 0.537935 0.061325
0.831154 0.590318 0.118193
1.000000 0.658800 0.191400
0.137288 0.821606 0.118193
0.368577 0.821606 0.118193
0.599865 0.821606 0.118193
0.831154 0.821606 0.118193
1.000000 0.886800 0.191400
0.214200 1.000000 0.191400
0.442200 1.000000 0.191400
0.670200 1.000000 0.191400
0.898200 1.000000 0.191400
1.000000 1.000000 0.191400
0.032481 0.026639 0.257944
0.269629 0.026639 0.257944
0.545630 0.069020 0.295783
0.831154 0.127741 0.349482
1.000000 0.202800 0.419400
0.032481 0.263786 0.257944
0.269629 0.263786 0.257944
0.545630 0.338798 0.331103
0.831154 0.402279 0.392732
1.000000 0.482100 0.470700
0.076715 0.537935 0.295783
0.346493 0.537935 0.331103
0.545630 0.537935 0.331103
0.831154 0.611943 0.392732
1.000000 0.693000 0.470700
0.137288 0.821606 0.349482
0.411827 0.821606 0.392732
0.621490 0.821606 0.392732
0.831154 0.821606 0.392732
1.000000 0.903900 0.470700
0.214200 1.000000 0.419400
0.493500 1.000000 0.470700
0.704400 1.000000 0.470700
0.915300 1.000000 0.470700
1.000000 1.000000 0.470700
0.076715 0.069020 0.530240
0.311173 0.069020 0.530240
0.545630 0.069020 0.530240
0.831154 0.127741 0.580770
1.000000 0.202800 0.647400
0.076715 0.303478 0.530240
0.346493 0.338798 0.530240
0.545630 0.338798 0.530240
0.831154 0.402279 0.602395
1.000000 0.482100 0.681600
0.076715 0.537935 0.530240
0.346493 0.537935 0.530240
0.545630 0.537935 0.530240
0.831154 0.676818 0.667271
1.000000 0.761400 0.750000
0.137288 0.821606 0.580770
0.411827 0.821606 0.602395
0.686366 0.821606 0.667271
0.831154 0.821606 0.667271
1.000000 0.938100 0.750000
0.214200 1.000000 0.647400
0.493500 1.000000 0.681600
0.772800 1.000000 0.750000
0.949500 1.000000 0.750000
1.000000 1.000000 0.750000
0.137288 0.127741 0.812059
0.368577 0.127741 0.812059
0.599865 0.127741 0.812059
0.831154 0.127741 0.812059
1.000000 0.202800 0.875400
0.137288 0.359029 0.812059
0.411827 0.402279 0.812059
0.621490 0.402279 0.812059
0.831154 0.402279 0.812059
1.000000 0.482100 0.892500
0.137288 0.590318 0.812059
0.411827 0.611943 0.812059
0.686366 0.676818 0.812059
0.831154 0.676818 0.812059
1.000000 0.761400 0.926700
0.137288 0.821606 0.812059
0.411827 0.821606 0.812059
0.686366 0.821606 0.812059
0.831154 0.821606 0.812059
1.000000 1.000000 1.000000
0.214200 1.000000 0.875400
0.493500 1.000000 0.892500
0.772800 1.000000 0.926700
1.000000 1.000000 1.000000
1.000000 1.000000 1.000000
0.214200 0.202800 1.000000
0.442200 0.202800 1.000000
0.670200 0.202800 1.000000
0.898200 0.202800 1.000000
1.000000 0.202800 1.000000
0.214200 0.430800 1.000000
0.493500 0.482100 1.000000
0.704400 0.482100 1.000000
0.915300 0.482100 1.000000
1.000000 0.482100 1.000000
0.214200 0.658800 1.000000
0.493500 0.693000 1.000000
0.772800 0.761400 1.000000
0.949500 0.761400 1.000000
1.000000 0.761400 1.000000
0.214200 0.886800 1.000000
0.493500 0.903900 1.000000
0.772800 0.938100 1.000000
1.000000 1.000000 1.000000
1.000000 1.000000 1.000000
0.214200 1.000000 1.000000
0.493500 1.000000 1.000000
0.772800 1.000000 1.000000
1.000000 1.000000 1.000000
1.000000 1.000000 1.000000
