luts/original/bleach-bypass.cube
TITLE "Bleach Bypass"
LUT_3D_SIZE 33
DOMAIN_MIN 0.0 0.0 0.0
DOMAIN_MAX 1.0 1.0 1.0
0.003150 0.000000 0.000000
0.035939 0.002958 0.000000
0.068877 0.005575 0.001122
0.101964 0.008448 0.003763
0.135199 0.011575 0.006659
0.168583 0.014958 0.009810
0.202116 0.018596 0.013217
0.235798 0.022490 0.016879
0.269629 0.026639 0.020796
0.303608 0.031043 0.024969
0.337736 0.035702 0.029397
0.372013 0.040617 0.034080
0.406439 0.045787 0.039018
0.441014 0.051212 0.044212
0.475737 0.056893 0.049661
0.510609 0.062829 0.055365
0.545630 0.069020 0.061325
0.580800 0.075467 0.067540
0.616118 0.082168 0.074010
0.651585 0.089126 0.080736
0.687202 0.096338 0.087717
0.722966 0.103806 0.094953
0.758880 0.111529 0.102444
0.794942 0.119507 0.110191
0.831154 0.127741 0.118193
0.867514 0.136229 0.126450
0.904023 0.144974 0.134963
0.940680 0.153973 0.143731
0.977487 0.163228 0.152754
0.994287 0.172738 0.162033
0.997461 0.182503 0.171566
0.999365 0.192524 0.181356
1.000000 0.202800 0.191400
0.007180 0.031718 0.000000
0.035939 0.031718 0.000000
0.068877 0.035000 0.001122
0.101964 0.038058 0.003763
0.135199 0.041252 0.006659
0.168583 0.044654 0.009810
0.202116 0.048286 0.013217
0.235798 0.052161 0.016879
0.269629 0.056282 0.020796
0.303608 0.060653 0.024969
0.337736 0.065275 0.029397
0.372013 0.070150 0.034080
0.406439 0.075277 0.039018
0.441014 0.080659 0.044212
0.475737 0.086294 0.049661
0.510609 0.092183 0.055365
0.545630 0.098327 0.061325
0.580800 0.104726 0.067540
0.616118 0.111379 0.074010
0.651585 0.118287 0.080736
0.687202 0.125450 0.087717
0.722966 0.132868 0.094953
0.758880 0.140541 0.102444
0.794942 0.148469 0.110191
0.831154 0.156652 0.118193
0.867514 0.165090 0.126450
0.904023 0.173783 0.134963
0.940680 0.182731 0.143731
0.977487 0.191934 0.152754
0.994287 0.201393 0.162033
0.997461 0.211107 0.171566
0.999365 0.221076 0.181356
1.000000 0.231300 0.191400
0.010028 0.064424 0.001122
0.039453 0.064424 0.001122
0.068877 0.064424 0.001122
0.101964 0.067668 0.003763
0.135199 0.070929 0.006659
0.168583 0.074349 0.009810
0.202116 0.077977 0.013217
0.235798 0.081832 0.016879
0.269629 0.085926 0.020796
0.303608 0.090263 0.024969
0.337736 0.094848 0.029397
0.372013 0.099682 0.034080
0.406439 0.104768 0.039018
0.441014 0.110105 0.044212
0.475737 0.115695 0.049661
0.510609 0.121538 0.055365
0.545630 0.127634 0.061325
0.580800 0.133985 0.067540
0.616118 0.140590 0.074010
0.651585 0.147449 0.080736
0.687202 0.154562 0.087717
0.722966 0.161930 0.094953
0.758880 0.169553 0.102444
0.794942 0.177430 0.110191
0.831154 0.185563 0.118193
0.867514 0.193950 0.126450
0.904023 0.202592 0.134963
0.940680 0.211489 0.143731
0.977487 0.220641 0.152754
0.994287 0.230048 0.162033
0.997461 0.239710 0.171566
0.999365 0.249628 0.181356
1.000000 0.259800 0.191400
0.013132 0.097279 0.003763
0.042743 0.097279 0.003763
0.072353 0.097279 0.003763
0.101964 0.097279 0.003763
0.135199 0.100606 0.006659
0.168583 0.104045 0.009810
0.202116 0.107667 0.013217
0.235798 0.111503 0.016879
0.269629 0.115569 0.020796
0.303608 0.119873 0.024969
0.337736 0.124421 0.029397
0.372013 0.129215 0.034080
0.406439 0.134258 0.039018
0.441014 0.139551 0.044212
0.475737 0.145096 0.049661
0.510609 0.150892 0.055365
0.545630 0.156942 0.061325
0.580800 0.163244 0.067540
0.616118 0.169800 0.074010
0.651585 0.176610 0.080736
0.687202 0.183674 0.087717
0.722966 0.190992 0.094953
0.758880 0.198565 0.102444
0.794942 0.206392 0.110191
0.831154 0.214474 0.118193
0.867514 0.222810 0.126450
0.904023 0.231401 0.134963
0.940680 0.240247 0.143731
0.977487 0.249348 0.152754
0.994287 0.258703 0.162033
0.997461 0.268314 0.171566
0.999365 0.278179 0.181356
1.000000 0.288300 0.191400
0.016491 0.130283 0.006659
0.046168 0.130283 0.006659
0.075845 0.130283 0.006659
0.105522 0.130283 0.006659
0.135199 0.130283 0.006659
0.168583 0.133740 0.009810
0.202116 0.137357 0.013217
0.235798 0.141174 0.016879
0.269629 0.145212 0.020796
0.303608 0.149483 0.024969
0.337736 0.153994 0.029397
0.372013 0.158748 0.034080
0.406439 0.163748 0.039018
0.441014 0.168997 0.044212
0.475737 0.174496 0.049661
0.510609 0.180247 0.055365
0.545630 0.186249 0.061325
0.580800 0.192503 0.067540
0.616118 0.199011 0.074010
0.651585 0.205772 0.080736
0.687202 0.212786 0.087717
0.722966 0.220055 0.094953
0.758880 0.227577 0.102444
0.794942 0.235354 0.110191
0.831154 0.243385 0.118193
0.867514 0.251670 0.126450
0.904023 0.260210 0.134963
0.940680 0.269005 0.143731
0.977487 0.278054 0.152754
0.994287 0.287358 0.162033
0.997461 0.296917 0.171566
0.999365 0.306731 0.181356
1.000000 0.316800 0.191400
0.020106 0.163435 0.009810
0.049801 0.163435 0.009810
0.079497 0.163435 0.009810
0.109192 0.163435 0.009810
0.138888 0.163435 0.009810
0.168583 0.163435 0.009810
0.202116 0.167047 0.013217
0.235798 0.170845 0.016879
0.269629 0.174856 0.020796
0.303608 0.179094 0.024969
0.337736 0.183566 0.029397
0.372013 0.188280 0.034080
0.406439 0.193238 0.039018
0.441014 0.198443 0.044212
0.475737 0.203897 0.049661
0.510609 0.209601 0.055365
0.545630 0.215556 0.061325
0.580800 0.221763 0.067540
0.616118 0.228222 0.074010
0.651585 0.234933 0.080736
0.687202 0.241899 0.087717
0.722966 0.249117 0.094953
0.758880 0.256589 0.102444
0.794942 0.264316 0.110191
0.831154 0.272296 0.118193
0.867514 0.280530 0.126450
0.904023 0.289019 0.134963
0.940680 0.297763 0.143731
0.977487 0.306761 0.152754
0.994287 0.316014 0.162033
0.997461 0.325521 0.171566
0.999365 0.335283 0.181356
1.000000 0.345300 0.191400
0.023976 0.196737 0.013217
0.053666 0.196737 0.013217
0.083356 0.196737 0.013217
0.113046 0.196737 0.013217
0.142736 0.196737 0.013217
0.172426 0.196737 0.013217
0.202116 0.196737 0.013217
0.235798 0.200516 0.016879
0.269629 0.204499 0.020796
0.303608 0.208704 0.024969
0.337736 0.213139 0.029397
0.372013 0.217813 0.034080
0.406439 0.222729 0.039018
0.441014 0.227890 0.044212
0.475737 0.233298 0.049661
0.510609 0.238956 0.055365
0.545630 0.244863 0.061325
0.580800 0.251022 0.067540
0.616118 0.257432 0.074010
0.651585 0.264095 0.080736
0.687202 0.271011 0.087717
0.722966 0.278179 0.094953
0.758880 0.285601 0.102444
0.794942 0.293277 0.110191
0.831154 0.301207 0.118193
0.867514 0.309391 0.126450
0.904023 0.317829 0.134963
0.940680 0.326521 0.143731
0.977487 0.335468 0.152754
0.994287 0.344669 0.162033
0.997461 0.354124 0.171566
0.999365 0.363835 0.181356
1.000000 0.373800 0.191400
0.028101 0.230187 0.016879
0.057772 0.230187 0.016879
0.087443 0.230187 0.016879
0.117114 0.230187 0.016879
0.146785 0.230187 0.016879
0.176456 0.230187 0.016879
0.206127 0.230187 0.016879
0.235798 0.230187 0.016879
0.269629 0.234143 0.020796
0.303608 0.238314 0.024969
0.337736 0.242712 0.029397
0.372013 0.247346 0.034080
0.406439 0.252219 0.039018
0.441014 0.257336 0.044212
0.475737 0.262699 0.049661
0.510609 0.268310 0.055365
0.545630 0.274170 0.061325
0.580800 0.280281 0.067540
0.616118 0.286643 0.074010
0.651585 0.293257 0.080736
0.687202 0.300123 0.087717
0.722966 0.307242 0.094953
0.758880 0.314614 0.102444
0.794942 0.322239 0.110191
0.831154 0.330118 0.118193
0.867514 0.338251 0.126450
0.904023 0.346638 0.134963
0.940680 0.355279 0.143731
0.977487 0.364174 0.152754
0.994287 0.373324 0.162033
0.997461 0.382728 0.171566
0.999365 0.392387 0.181356
1.000000 0.402300 0.191400
0.032481 0.263786 0.020796
0.062125 0.263786 0.020796
0.091768 0.263786 0.020796
0.121412 0.263786 0.020796
0.151055 0.263786 0.020796
0.180698 0.263786 0.020796
0.210342 0.263786 0.020796
0.239985 0.263786 0.020796
0.269629 0.263786 0.020796
0.303608 0.267924 0.024969
0.337736 0.272285 0.029397
0.372013 0.276878 0.034080
0.406439 0.281709 0.039018
0.441014 0.286782 0.044212
0.475737 0.292100 0.049661
0.510609 0.297664 0.055365
0.545630 0.303478 0.061325
0.580800 0.309540 0.067540
0.616118 0.315854 0.074010
0.651585 0.322418 0.080736
0.687202 0.329235 0.087717
0.722966 0.336304 0.094953
0.758880 0.343626 0.102444
0.794942 0.351201 0.110191
0.831154 0.359029 0.118193
0.867514 0.367111 0.126450
0.904023 0.375447 0.134963
0.940680 0.384037 0.143731
0.977487 0.392881 0.152754
0.994287 0.401979 0.162033
0.997461 0.411331 0.171566
0.999365 0.420938 0.181356
1.000000 0.430800 0.191400
0.037117 0.297534 0.024969
0.066727 0.297534 0.024969
0.096337 0.297534 0.024969
0.125947 0.297534 0.024969
0.155557 0.297534 0.024969
0.185168 0.297534 0.024969
0.214778 0.297534 0.024969
0.244388 0.297534 0.024969
0.273998 0.297534 0.024969
0.303608 0.297534 0.024969
0.337736 0.301858 0.029397
0.372013 0.306411 0.034080
0.406439 0.311199 0.039018
0.441014 0.316228 0.044212
0.475737 0.321501 0.049661
0.510609 0.327019 0.055365
0.545630 0.332785 0.061325
0.580800 0.338799 0.067540
0.616118 0.345064 0.074010
0.651585 0.351580 0.080736
0.687202 0.358347 0.087717
0.722966 0.365366 0.094953
0.758880 0.372638 0.102444
0.794942 0.380162 0.110191
0.831154 0.387940 0.118193
0.867514 0.395971 0.126450
0.904023 0.404256 0.134963
0.940680 0.412795 0.143731
0.977487 0.421587 0.152754
0.994287 0.430634 0.162033
0.997461 0.439935 0.171566
0.999365 0.449490 0.181356
1.000000 0.459300 0.191400
0.042008 0.331431 0.029397
0.071581 0.331431 0.029397
0.101154 0.331431 0.029397
0.130726 0.331431 0.029397
0.160299 0.331431 0.029397
0.189872 0.331431 0.029397
0.219445 0.331431 0.029397
0.249018 0.331431 0.029397
0.278591 0.331431 0.029397
0.308163 0.331431 0.029397
0.337736 0.331431 0.029397
0.372013 0.335943 0.034080
0.406439 0.340690 0.039018
0.441014 0.345675 0.044212
0.475737 0.350902 0.049661
0.510609 0.356373 0.055365
0.545630 0.362092 0.061325
0.580800 0.368059 0.067540
0.616118 0.374275 0.074010
0.651585 0.380741 0.080736
0.687202 0.387459 0.087717
0.722966 0.394428 0.094953
0.758880 0.401650 0.102444
0.794942 0.409124 0.110191
0.831154 0.416851 0.118193
0.867514 0.424832 0.126450
0.904023 0.433065 0.134963
0.940680 0.441553 0.143731
0.977487 0.450294 0.152754
0.994287 0.459289 0.162033
0.997461 0.468538 0.171566
0.999365 0.478042 0.181356
1.000000 0.487800 0.191400
0.047154 0.365476 0.034080
0.076687 0.365476 0.034080
0.106219 0.365476 0.034080
0.135752 0.365476 0.034080
0.165285 0.365476 0.034080
0.194817 0.365476 0.034080
0.224350 0.365476 0.034080
0.253883 0.365476 0.034080
0.283415 0.365476 0.034080
0.312948 0.365476 0.034080
0.342481 0.365476 0.034080
0.372013 0.365476 0.034080
0.406439 0.370180 0.039018
0.441014 0.375121 0.044212
0.475737 0.380302 0.049661
0.510609 0.385728 0.055365
0.545630 0.391399 0.061325
0.580800 0.397318 0.067540
0.616118 0.403486 0.074010
0.651585 0.409903 0.080736
0.687202 0.416571 0.087717
0.722966 0.423491 0.094953
0.758880 0.430662 0.102444
0.794942 0.438086 0.110191
0.831154 0.445762 0.118193
0.867514 0.453692 0.126450
0.904023 0.461874 0.134963
0.940680 0.470311 0.143731
0.977487 0.479001 0.152754
0.994287 0.487944 0.162033
0.997461 0.497142 0.171566
0.999365 0.506594 0.181356
1.000000 0.516300 0.191400
0.052556 0.399670 0.039018
0.082046 0.399670 0.039018
0.111536 0.399670 0.039018
0.141027 0.399670 0.039018
0.170517 0.399670 0.039018
0.200007 0.399670 0.039018
0.229497 0.399670 0.039018
0.258988 0.399670 0.039018
0.288478 0.399670 0.039018
0.317968 0.399670 0.039018
0.347459 0.399670 0.039018
0.376949 0.399670 0.039018
0.406439 0.399670 0.039018
0.441014 0.404567 0.044212
0.475737 0.409703 0.049661
0.510609 0.415082 0.055365
0.545630 0.420706 0.061325
0.580800 0.426577 0.067540
0.616118 0.432696 0.074010
0.651585 0.439065 0.080736
0.687202 0.445683 0.087717
0.722966 0.452553 0.094953
0.758880 0.459674 0.102444
0.794942 0.467048 0.110191
0.831154 0.474673 0.118193
0.867514 0.482552 0.126450
0.904023 0.490684 0.134963
0.940680 0.499069 0.143731
0.977487 0.507707 0.152754
0.994287 0.516599 0.162033
0.997461 0.525746 0.171566
0.999365 0.535146 0.181356
1.000000 0.544800 0.191400
0.058213 0.434013 0.044212
0.087659 0.434013 0.044212
0.117105 0.434013 0.044212
0.146551 0.434013 0.044212
0.175998 0.434013 0.044212
0.205444 0.434013 0.044212
0.234890 0.434013 0.044212
0.264336 0.434013 0.044212
0.293782 0.434013 0.044212
0.323229 0.434013 0.044212
0.352675 0.434013 0.044212
0.382121 0.434013 0.044212
0.411567 0.434013 0.044212
0.441014 0.434013 0.044212
0.475737 0.439104 0.049661
0.510609 0.444437 0.055365
0.545630 0.450013 0.061325
0.580800 0.455836 0.067540
0.616118 0.461907 0.074010
0.651585 0.468226 0.080736
0.687202 0.474795 0.087717
0.722966 0.481615 0.094953
0.758880 0.488686 0.102444
0.794942 0.496009 0.110191
0.831154 0.503584 0.118193
0.867514 0.511412 0.126450
0.904023 0.519493 0.134963
0.940680 0.527827 0.143731
0.977487 0.536414 0.152754
0.994287 0.545255 0.162033
0.997461 0.554349 0.171566
0.999365 0.563698 0.181356
1.000000 0.573300 0.191400
0.064125 0.468505 0.049661
0.093526 0.468505 0.049661
0.122927 0.468505 0.049661
0.152327 0.468505 0.049661
0.181728 0.468505 0.049661
0.211129 0.468505 0.049661
0.240530 0.468505 0.049661
0.269931 0.468505 0.049661
0.299332 0.468505 0.049661
0.328733 0.468505 0.049661
0.358133 0.468505 0.049661
0.387534 0.468505 0.049661
0.416935 0.468505 0.049661
0.446336 0.468505 0.049661
0.475737 0.468505 0.049661
0.510609 0.473791 0.055365
0.545630 0.479321 0.061325
0.580800 0.485096 0.067540
0.616118 0.491117 0.074010
0.651585 0.497388 0.080736
0.687202 0.503908 0.087717
0.722966 0.510678 0.094953
0.758880 0.517699 0.102444
0.794942 0.524971 0.110191
0.831154 0.532496 0.118193
0.867514 0.540272 0.126450
0.904023 0.548302 0.134963
0.940680 0.556585 0.143731
0.977487 0.565120 0.152754
0.994287 0.573910 0.162033
0.997461 0.582953 0.171566
0.999365 0.592249 0.181356
1.000000 0.601800 0.191400
0.070292 0.503146 0.055365
0.099647 0.503146 0.055365
0.129001 0.503146 0.055365
0.158356 0.503146 0.055365
0.187710 0.503146 0.055365
0.217065 0.503146 0.055365
0.246419 0.503146 0.055365
0.275773 0.503146 0.055365
0.305128 0.503146 0.055365
0.334482 0.503146 0.055365
0.363837 0.503146 0.055365
0.393191 0.503146 0.055365
0.422546 0.503146 0.055365
0.451900 0.503146 0.055365
0.481255 0.503146 0.055365
0.510609 0.503146 0.055365
0.545630 0.508628 0.061325
0.580800 0.514355 0.067540
0.616118 0.520328 0.074010
0.651585 0.526549 0.080736
0.687202 0.533020 0.087717
0.722966 0.539740 0.094953
0.758880 0.546711 0.102444
0.794942 0.553933 0.110191
0.831154 0.561407 0.118193
0.867514 0.569133 0.126450
0.904023 0.577111 0.134963
0.940680 0.585342 0.143731
0.977487 0.593827 0.152754
0.994287 0.602565 0.162033
0.997461 0.611556 0.171566
0.999365 0.620801 0.181356
1.000000 0.630300 0.191400
0.076715 0.537935 0.061325
0.106022 0.537935 0.061325
0.135329 0.537935 0.061325
0.164637 0.537935 0.061325
0.193944 0.537935 0.061325
0.223251 0.537935 0.061325
0.252558 0.537935 0.061325
0.281865 0.537935 0.061325
0.311173 0.537935 0.061325
0.340480 0.537935 0.061325
0.369787 0.537935 0.061325
0.399094 0.537935 0.061325
0.428401 0.537935 0.061325
0.457708 0.537935 0.061325
0.487016 0.537935 0.061325
0.516323 0.537935 0.061325
0.545630 0.537935 0.061325
0.580800 0.543614 0.067540
0.616118 0.549539 0.074010
0.651585 0.555711 0.080736
0.687202 0.562132 0.087717
0.722966 0.568802 0.094953
0.758880 0.575723 0.102444
0.794942 0.582895 0.110191
0.831154 0.590318 0.118193
0.867514 0.597993 0.126450
0.904023 0.605920 0.134963
0.940680 0.614100 0.143731
0.977487 0.622534 0.152754
0.994287 0.631220 0.162033
0.997461 0.640160 0.171566
0.999365 0.649353 0.181356
1.000000 0.658800 0.191400
0.083393 0.572873 0.067540
0.112652 0.572873 0.067540
0.141912 0.572873 0.067540
0.171171 0.572873 0.067540
0.200430 0.572873 0.067540
0.229689 0.572873 0.067540
0.258948 0.572873 0.067540
0.288208 0.572873 0.067540
0.317467 0.572873 0.067540
0.346726 0.572873 0.067540
0.375985 0.572873 0.067540
0.405244 0.572873 0.067540
0.434504 0.572873 0.067540
0.463763 0.572873 0.067540
0.493022 0.572873 0.067540
0.522281 0.572873 0.067540
0.551540 0.572873 0.067540
0.580800 0.572873 0.067540
0.616118 0.578749 0.074010
0.651585 0.584873 0.080736
0.687202 0.591244 0.087717
0.722966 0.597864 0.094953
0.758880 0.604735 0.102444
0.794942 0.611856 0.110191
0.831154 0.619229 0.118193
0.867514 0.626853 0.126450
0.904023 0.634729 0.134963
0.940680 0.642858 0.143731
0.977487 0.651240 0.152754
0.994287 0.659875 0.162033
0.997461 0.668763 0.171566
0.999365 0.677905 0.181356
1.000000 0.687300 0.191400
0.090327 0.607960 0.074010
0.119537 0.607960 0.074010
0.148748 0.607960 0.074010
0.177958 0.607960 0.074010
0.207169 0.607960 0.074010
0.236380 0.607960 0.074010
0.265590 0.607960 0.074010
0.294801 0.607960 0.074010
0.324012 0.607960 0.074010
0.353222 0.607960 0.074010
0.382433 0.607960 0.074010
0.411644 0.607960 0.074010
0.440854 0.607960 0.074010
0.470065 0.607960 0.074010
0.499276 0.607960 0.074010
0.528486 0.607960 0.074010
0.557697 0.607960 0.074010
0.586908 0.607960 0.074010
0.616118 0.607960 0.074010
0.651585 0.614034 0.080736
0.687202 0.620356 0.087717
0.722966 0.626927 0.094953
0.758880 0.633747 0.102444
0.794942 0.640818 0.110191
0.831154 0.648140 0.118193
0.867514 0.655713 0.126450
0.904023 0.663539 0.134963
0.940680 0.671616 0.143731
0.977487 0.679947 0.152754
0.994287 0.688530 0.162033
0.997461 0.697367 0.171566
0.999365 0.706457 0.181356
1.000000 0.715800 0.191400
0.097515 0.643196 0.080736
0.126677 0.643196 0.080736
0.155838 0.643196 0.080736
0.185000 0.643196 0.080736
0.214162 0.643196 0.080736
0.243323 0.643196 0.080736
0.272485 0.643196 0.080736
0.301646 0.643196 0.080736
0.330808 0.643196 0.080736
0.359970 0.643196 0.080736
0.389131 0.643196 0.080736
0.418293 0.643196 0.080736
0.447454 0.643196 0.080736
0.476616 0.643196 0.080736
0.505778 0.643196 0.080736
0.534939 0.643196 0.080736
0.564101 0.643196 0.080736
0.593262 0.643196 0.080736
0.622424 0.643196 0.080736
0.651585 0.643196 0.080736
0.687202 0.649468 0.087717
0.722966 0.655989 0.094953
0.758880 0.662759 0.102444
0.794942 0.669780 0.110191
0.831154 0.677051 0.118193
0.867514 0.684573 0.126450
0.904023 0.692348 0.134963
0.940680 0.700374 0.143731
0.977487 0.708653 0.152754
0.994287 0.717185 0.162033
0.997461 0.725970 0.171566
0.999365 0.735008 0.181356
1.000000 0.744300 0.191400
0.104959 0.678580 0.087717
0.134071 0.678580 0.087717
0.163183 0.678580 0.087717
0.192296 0.678580 0.087717
0.221408 0.678580 0.087717
0.250520 0.678580 0.087717
0.279632 0.678580 0.087717
0.308744 0.678580 0.087717
0.337856 0.678580 0.087717
0.366968 0.678580 0.087717
0.396080 0.678580 0.087717
0.425193 0.678580 0.087717
0.454305 0.678580 0.087717
0.483417 0.678580 0.087717
0.512529 0.678580 0.087717
0.541641 0.678580 0.087717
0.570753 0.678580 0.087717
0.599865 0.678580 0.087717
0.628977 0.678580 0.087717
0.658089 0.678580 0.087717
0.687202 0.678580 0.087717
0.722966 0.685051 0.094953
0.758880 0.691771 0.102444
0.794942 0.698741 0.110191
0.831154 0.705962 0.118193
0.867514 0.713434 0.126450
0.904023 0.721157 0.134963
0.940680 0.729132 0.143731
0.977487 0.737360 0.152754
0.994287 0.745840 0.162033
0.997461 0.754574 0.171566
0.999365 0.763560 0.181356
1.000000 0.772800 0.191400
0.112658 0.714114 0.094953
0.141721 0.714114 0.094953
0.170783 0.714114 0.094953
0.199845 0.714114 0.094953
0.228908 0.714114 0.094953
0.257970 0.714114 0.094953
0.287032 0.714114 0.094953
0.316094 0.714114 0.094953
0.345157 0.714114 0.094953
0.374219 0.714114 0.094953
0.403281 0.714114 0.094953
0.432344 0.714114 0.094953
0.461406 0.714114 0.094953
0.490468 0.714114 0.094953
0.519530 0.714114 0.094953
0.548593 0.714114 0.094953
0.577655 0.714114 0.094953
0.606717 0.714114 0.094953
0.635780 0.714114 0.094953
0.664842 0.714114 0.094953
0.693904 0.714114 0.094953
0.722966 0.714114 0.094953
0.758880 0.720784 0.102444
0.794942 0.727703 0.110191
0.831154 0.734873 0.118193
0.867514 0.742294 0.126450
0.904023 0.749966 0.134963
0.940680 0.757890 0.143731
0.977487 0.766067 0.152754
0.994287 0.774495 0.162033
0.997461 0.783177 0.171566
0.999365 0.792112 0.181356
1.000000 0.801300 0.191400
0.120613 0.749796 0.102444
0.149625 0.749796 0.102444
0.178637 0.749796 0.102444
0.207649 0.749796 0.102444
0.236662 0.749796 0.102444
0.265674 0.749796 0.102444
0.294686 0.749796 0.102444
0.323698 0.749796 0.102444
0.352710 0.749796 0.102444
0.381722 0.749796 0.102444
0.410734 0.749796 0.102444
0.439747 0.749796 0.102444
0.468759 0.749796 0.102444
0.497771 0.749796 0.102444
0.526783 0.749796 0.102444
0.555795 0.749796 0.102444
0.584807 0.749796 0.102444
0.613819 0.749796 0.102444
0.642832 0.749796 0.102444
0.671844 0.749796 0.102444
0.700856 0.749796 0.102444
0.729868 0.749796 0.102444
0.758880 0.749796 0.102444
0.794942 0.756665 0.110191
0.831154 0.763784 0.118193
0.867514 0.771154 0.126450
0.904023 0.778775 0.134963
0.940680 0.786648 0.143731
0.977487 0.794773 0.152754
0.994287 0.803151 0.162033
0.997461 0.811781 0.171566
0.999365 0.820664 0.181356
1.000000 0.829800 0.191400
0.128823 0.785627 0.110191
0.157785 0.785627 0.110191
0.186746 0.785627 0.110191
0.215708 0.785627 0.110191
0.244670 0.785627 0.110191
0.273631 0.785627 0.110191
0.302593 0.785627 0.110191
0.331555 0.785627 0.110191
0.360517 0.785627 0.110191
0.389478 0.785627 0.110191
0.418440 0.785627 0.110191
0.447402 0.785627 0.110191
0.476364 0.785627 0.110191
0.505325 0.785627 0.110191
0.534287 0.785627 0.110191
0.563249 0.785627 0.110191
0.592210 0.785627 0.110191
0.621172 0.785627 0.110191
0.650134 0.785627 0.110191
0.679096 0.785627 0.110191
0.708057 0.785627 0.110191
0.737019 0.785627 0.110191
0.765981 0.785627 0.110191
0.794942 0.785627 0.110191
0.831154 0.792695 0.118193
0.867514 0.800014 0.126450
0.904023 0.807584 0.134963
0.940680 0.815406 0.143731
0.977487 0.823480 0.152754
0.994287 0.831806 0.162033
0.997461 0.840384 0.171566
0.999365 0.849216 0.181356
1.000000 0.858300 0.191400
0.137288 0.821606 0.118193
0.166199 0.821606 0.118193
0.195110 0.821606 0.118193
0.224021 0.821606 0.118193
0.252932 0.821606 0.118193
0.281843 0.821606 0.118193
0.310754 0.821606 0.118193
0.339666 0.821606 0.118193
0.368577 0.821606 0.118193
0.397488 0.821606 0.118193
0.426399 0.821606 0.118193
0.455310 0.821606 0.118193
0.484221 0.821606 0.118193
0.513132 0.821606 0.118193
0.542043 0.821606 0.118193
0.570954 0.821606 0.118193
0.599865 0.821606 0.118193
0.628776 0.821606 0.118193
0.657687 0.821606 0.118193
0.686598 0.821606 0.118193
0.715509 0.821606 0.118193
0.744421 0.821606 0.118193
0.773332 0.821606 0.118193
0.802243 0.821606 0.118193
0.831154 0.821606 0.118193
0.867514 0.828874 0.126450
0.904023 0.836394 0.134963
0.940680 0.844164 0.143731
0.977487 0.852186 0.152754
0.994287 0.860461 0.162033
0.997461 0.868988 0.171566
0.999365 0.877767 0.181356
1.000000 0.886800 0.191400
0.146008 0.857735 0.126450
0.174869 0.857735 0.126450
0.203729 0.857735 0.126450
0.232589 0.857735 0.126450
0.261449 0.857735 0.126450
0.290310 0.857735 0.126450
0.319170 0.857735 0.126450
0.348030 0.857735 0.126450
0.376890 0.857735 0.126450
0.405750 0.857735 0.126450
0.434611 0.857735 0.126450
0.463471 0.857735 0.126450
0.492331 0.857735 0.126450
0.521191 0.857735 0.126450
0.550051 0.857735 0.126450
0.578912 0.857735 0.126450
0.607772 0.857735 0.126450
0.636632 0.857735 0.126450
0.665492 0.857735 0.126450
0.694353 0.857735 0.126450
0.723213 0.857735 0.126450
0.752073 0.857735 0.126450
0.780933 0.857735 0.126450
0.809793 0.857735 0.126450
0.838654 0.857735 0.126450
0.867514 0.857735 0.126450
0.904023 0.865203 0.134963
0.940680 0.872922 0.143731
0.977487 0.880893 0.152754
0.994287 0.889116 0.162033
0.997461 0.897591 0.171566
0.999365 0.906319 0.181356
1.000000 0.915300 0.191400
0.154984 0.894012 0.134963
0.183793 0.894012 0.134963
0.212603 0.894012 0.134963
0.241412 0.894012 0.134963
0.270221 0.894012 0.134963
0.299030 0.894012 0.134963
0.327839 0.894012 0.134963
0.356648 0.894012 0.134963
0.385458 0.894012 0.134963
0.414267 0.894012 0.134963
0.443076 0.894012 0.134963
0.471885 0.894012 0.134963
0.500694 0.894012 0.134963
0.529503 0.894012 0.134963
0.558313 0.894012 0.134963
0.587122 0.894012 0.134963
0.615931 0.894012 0.134963
0.644740 0.894012 0.134963
0.673549 0.894012 0.134963
0.702358 0.894012 0.134963
0.731168 0.894012 0.134963
0.759977 0.894012 0.134963
0.788786 0.894012 0.134963
0.817595 0.894012 0.134963
0.846404 0.894012 0.134963
0.875213 0.894012 0.134963
0.904023 0.894012 0.134963
