luts/original/bleach-bypass.cube
TITLE "Bleach Bypass"
LUT_3D_SIZE 9
DOMAIN_MIN 0.0 0.0 0.0
DOMAIN_MAX 1.0 1.0 1.0
0.003150 0.000000 0.000000
0.135199 0.011575 0.006659
0.269629 0.026639 0.020796
0.406439 0.045787 0.039018
0.545630 0.069020 0.061325
0.687202 0.096338 0.087717
0.831154 0.127741 0.118193
0.977487 0.163228 0.152754
1.000000 0.202800 0.191400
0.016491 0.130283 0.006659
0.135199 0.130283 0.006659
0.269629 0.145212 0.020796
0.406439 0.163748 0.039018
0.545630 0.186249 0.061325
0.687202 0.212786 0.087717
0.831154 0.243385 0.118193
0.977487 0.278054 0.152754
1.000000 0.316800 0.191400
0.032481 0.263786 0.020796
0.151055 0.263786 0.020796
0.269629 0.263786 0.020796
0.406439 0.281709 0.039018
0.545630 0.303478 0.061325
0.687202 0.329235 0.087717
0.831154 0.359029 0.118193
0.977487 0.392881 0.152754
1.000000 0.430800 0.191400
0.052556 0.399670 0.039018
0.170517 0.399670 0.039018
0.288478 0.399670 0.039018
0.406439 0.399670 0.039018
0.545630 0.420706 0.061325
0.687202 0.445683 0.087717
0.831154 0.474673 0.118193
0.977487 0.507707 0.152754
1.000000 0.544800 0.191400
0.076715 0.537935 0.061325
0.193944 0.537935 0.061325
0.311173 0.537935 0.061325
0.428401 0.537935 0.061325
0.545630 0.537935 0.061325
0.687202 0.562132 0.087717
0.831154 0.590318 0.118193
0.977487 0.622534 0.152754
1.000000 0.658800 0.191400
0.104959 0.678580 0.087717
0.221408 0.678580 0.087717
0.337856 0.678580 0.087717
0.454305 0.678580 0.087717
0.570753 0.678580 0.087717
0.687202 0.678580 0.087717
0.831154 0.705962 0.118193
0.977487 0.737360 0.152754
1.000000 0.772800 0.191400
0.137288 0.821606 0.118193
0.252932 0.821606 0.118193
0.368577 0.821606 0.118193
0.484221 0.821606 0.118193
0.599865 0.821606 0.118193
0.715509 0.821606 0.118193
0.831154 0.821606 0.118193
0.977487 0.852186 0.152754
1.000000 0.886800 0.191400
0.173702 0.967013 0.152754
0.288528 0.967013 0.152754
0.403354 0.967013 0.152754
0.518181 0.967013 0.152754
0.633007 0.967013 0.152754
0.747834 0.967013 0.152754
0.862660 0.967013 0.152754
0.977487 0.967013 0.152754
1.000000 1.000000 0.191400
0.214200 1.000000 0.191400
0.328200 1.000000 0.191400
0.442200 1.000000 0.191400
0.556200 1.000000 0.191400
0.670200 1.000000 0.191400
0.784200 1.000000 0.191400
0.898200 1.000000 0.191400
1.000000 1.000000 0.191400
1.000000 1.000000 0.191400
0.016491 0.011575 0.125367
0.135199 0.011575 0.125367
0.269629 0.026639 0.139370
0.406439 0.045787 0.156979
0.545630 0.069020 0.178554
0.687202 0.096338 0.204165
0.831154 0.127741 0.233837
0.977487 0.163228 0.267581
1.000000 0.202800 0.305400
0.016491 0.130283 0.125367
0.135199 0.130283 0.125367
0.269629 0.159147 0.153304
0.406439 0.179485 0.172717
0.545630 0.203909 0.196214
0.687202 0.232417 0.223796
0.831154 0.265010 0.255462
0.977487 0.301688 0.291214
1.000000 0.342450 0.331050
0.032481 0.263786 0.139370
0.164989 0.263786 0.153304
0.269629 0.263786 0.153304
0.406439 0.289578 0.172717
0.545630 0.315251 0.196214
0.687202 0.343958 0.223796
0.831154 0.376329 0.255462
0.977487 0.412575 0.291214
1.000000 0.452786 0.331050
0.052556 0.399670 0.156979
0.186254 0.399670 0.172717
0.296347 0.399670 0.172717
0.406439 0.399670 0.172717
0.545630 0.426593 0.196214
0.687202 0.455499 0.223796
0.831154 0.487648 0.255462
0.977487 0.523463 0.291214
1.000000 0.563121 0.331050
0.076715 0.537935 0.178554
0.211604 0.537935 0.196214
0.322946 0.537935 0.196214
0.434288 0.537935 0.196214
0.545630 0.537935 0.196214
0.687202 0.567039 0.223796
0.831154 0.598968 0.255462
0.977487 0.634350 0.291214
1.000000 0.673457 0.331050
0.104959 0.678580 0.204165
0.241038 0.678580 0.223796
0.352579 0.678580 0.223796
0.464120 0.678580 0.223796
0.575661 0.678580 0.223796
0.687202 0.678580 0.223796
0.831154 0.710287 0.255462
0.977487 0.745238 0.291214
1.000000 0.783793 0.331050
0.137288 0.821606 0.233837
0.274557 0.821606 0.255462
0.385877 0.821606 0.255462
0.497196 0.821606 0.255462
0.608515 0.821606 0.255462
0.719835 0.821606 0.255462
0.831154 0.821606 0.255462
0.977487 0.856125 0.291214
1.000000 0.894129 0.331050
0.173702 0.967013 0.267581
0.312161 0.967013 0.291214
0.423049 0.967013 0.291214
0.533936 0.967013 0.291214
0.644824 0.967013 0.291214
0.755711 0.967013 0.291214
0.866599 0.967013 0.291214
0.977487 0.967013 0.291214
1.000000 1.000000 0.331050
0.214200 1.000000 0.305400
0.353850 1.000000 0.331050
0.464186 1.000000 0.331050
0.574521 1.000000 0.331050
0.684857 1.000000 0.331050
0.795193 1.000000 0.331050
0.905529 1.000000 0.331050
1.000000 1.000000 0.331050
1.000000 1.000000 0.331050
0.032481 0.026639 0.257944
0.151055 0.026639 0.257944
0.269629 0.026639 0.257944
0.406439 0.045787 0.274940
0.545630 0.069020 0.295783
0.687202 0.096338 0.320614
0.831154 0.127741 0.349482
0.977487 0.163228 0.382407
1.000000 0.202800 0.419400
0.032481 0.145212 0.257944
0.164989 0.159147 0.257944
0.269629 0.159147 0.257944
0.406439 0.179485 0.282809
0.545630 0.203909 0.307556
0.687202 0.232417 0.335337
0.831154 0.265010 0.366782
0.977487 0.301688 0.402101
1.000000 0.342450 0.441386
0.032481 0.263786 0.257944
0.164989 0.263786 0.257944
0.269629 0.263786 0.257944
0.406439 0.313184 0.306415
0.545630 0.338798 0.331103
0.687202 0.368496 0.359875
0.831154 0.402279 0.392732
0.977487 0.440147 0.429673
1.000000 0.482100 0.470700
0.052556 0.399670 0.274940
0.186254 0.399670 0.282809
0.319953 0.399670 0.306415
0.406439 0.399670 0.306415
0.545630 0.438366 0.331103
0.687202 0.471857 0.359875
0.831154 0.507111 0.392732
0.977487 0.545520 0.429673
1.000000 0.587550 0.470700
0.076715 0.537935 0.295783
0.211604 0.537935 0.307556
0.346493 0.537935 0.331103
0.446061 0.537935 0.331103
0.545630 0.537935 0.331103
0.687202 0.575219 0.359875
0.831154 0.611943 0.392732
0.977487 0.650893 0.429673
1.000000 0.693000 0.470700
0.104959 0.678580 0.320614
0.241038 0.678580 0.335337
0.377117 0.678580 0.359875
0.480479 0.678580 0.359875
0.583840 0.678580 0.359875
0.687202 0.678580 0.359875
0.831154 0.716775 0.392732
0.977487 0.756267 0.429673
1.000000 0.798450 0.470700
0.137288 0.821606 0.349482
0.274557 0.821606 0.366782
0.411827 0.821606 0.392732
0.516659 0.821606 0.392732
0.621490 0.821606 0.392732
0.726322 0.821606 0.392732
0.831154 0.821606 0.392732
0.977487 0.861640 0.429673
1.000000 0.903900 0.470700
0.173702 0.967013 0.382407
0.312161 0.967013 0.402101
0.450621 0.967013 0.429673
0.555994 0.967013 0.429673
0.661367 0.967013 0.429673
0.766740 0.967013 0.429673
0.872113 0.967013 0.429673
0.977487 0.967013 0.429673
1.000000 1.000000 0.470700
0.214200 1.000000 0.419400
0.353850 1.000000 0.441386
0.493500 1.000000 0.470700
0.598950 1.000000 0.470700
0.704400 1.000000 0.470700
0.809850 1.000000 0.470700
0.915300 1.000000 0.470700
1.000000 1.000000 0.470700
1.000000 1.000000 0.470700
0.052556 0.045787 0.392902
0.170517 0.045787 0.392902
0.288478 0.045787 0.392902
0.406439 0.045787 0.392902
0.545630 0.069020 0.413011
0.687202 0.096338 0.437062
0.831154 0.127741 0.465126
0.977487 0.163228 0.497233
1.000000 0.202800 0.533400
0.052556 0.163748 0.392902
0.186254 0.179485 0.392902
0.296347 0.179485 0.392902
0.406439 0.179485 0.392902
0.545630 0.203909 0.418898
0.687202 0.232417 0.446877
0.831154 0.265010 0.478101
0.977487 0.301688 0.512989
1.000000 0.342450 0.551721
0.052556 0.281709 0.392902
0.186254 0.289578 0.392902
0.319953 0.313184 0.392902
0.406439 0.313184 0.392902
0.545630 0.338798 0.430671
0.687202 0.368496 0.463236
0.831154 0.402279 0.497564
0.977487 0.440147 0.535047
1.000000 0.482100 0.576150
0.052556 0.399670 0.392902
0.186254 0.399670 0.392902
0.319953 0.399670 0.392902
0.406439 0.399670 0.392902
0.545630 0.473686 0.465991
0.687202 0.504575 0.495954
0.831154 0.539549 0.530001
0.977487 0.578607 0.568133
1.000000 0.621750 0.610350
0.076715 0.537935 0.413011
0.211604 0.537935 0.418898
0.346493 0.537935 0.430671
0.481381 0.537935 0.465991
0.545630 0.537935 0.465991
0.687202 0.591578 0.495954
0.831154 0.633568 0.530001
0.977487 0.675708 0.568133
1.000000 0.720360 0.610350
0.104959 0.678580 0.437062
0.241038 0.678580 0.446877
0.377117 0.678580 0.463236
0.513196 0.678580 0.495954
0.600199 0.678580 0.495954
0.687202 0.678580 0.495954
0.831154 0.727587 0.530001
0.977487 0.772810 0.568133
1.000000 0.818970 0.610350
0.137288 0.821606 0.465126
0.274557 0.821606 0.478101
0.411827 0.821606 0.497564
0.549096 0.821606 0.530001
0.643115 0.821606 0.530001
0.737135 0.821606 0.530001
0.831154 0.821606 0.530001
0.977487 0.869911 0.568133
1.000000 0.917580 0.610350
0.173702 0.967013 0.497233
0.312161 0.967013 0.512989
0.450621 0.967013 0.535047
0.589081 0.967013 0.568133
0.686182 0.967013 0.568133
0.783284 0.967013 0.568133
0.880385 0.967013 0.568133
0.977487 0.967013 0.568133
1.000000 1.000000 0.610350
0.214200 1.000000 0.533400
0.353850 1.000000 0.551721
0.493500 1.000000 0.576150
0.633150 1.000000 0.610350
0.731760 1.000000 0.610350
0.830370 1.000000 0.610350
0.928980 1.000000 0.610350
1.000000 1.000000 0.610350
1.000000 1.000000 0.610350
0.076715 0.069020 0.530240
0.193944 0.069020 0.530240
0.311173 0.069020 0.530240
0.428401 0.069020 0.530240
0.545630 0.069020 0.530240
0.687202 0.096338 0.553511
0.831154 0.127741 0.580770
0.977487 0.163228 0.612060
1.000000 0.202800 0.647400
0.076715 0.186249 0.530240
0.211604 0.203909 0.530240
0.322946 0.203909 0.530240
0.434288 0.203909 0.530240
0.545630 0.203909 0.530240
0.687202 0.232417 0.558418
0.831154 0.265010 0.589420
0.977487 0.301688 0.623876
1.000000 0.342450 0.662057
0.076715 0.303478 0.530240
0.211604 0.315251 0.530240
0.346493 0.338798 0.530240
0.446061 0.338798 0.530240
0.545630 0.338798 0.530240
0.687202 0.368496 0.566598
0.831154 0.402279 0.602395
0.977487 0.440147 0.640420
1.000000 0.482100 0.681600
0.076715 0.420706 0.530240
0.211604 0.426593 0.530240
0.346493 0.438366 0.530240
0.481381 0.473686 0.530240
0.545630 0.473686 0.530240
0.687202 0.504575 0.582956
0.831154 0.539549 0.624020
0.977487 0.578607 0.665235
1.000000 0.621750 0.708960
0.076715 0.537935 0.530240
0.211604 0.537935 0.530240
0.346493 0.537935 0.530240
0.481381 0.537935 0.530240
0.545630 0.537935 0.530240
0.687202 0.640654 0.632033
0.831154 0.676818 0.667271
0.977487 0.717067 0.706593
1.000000 0.761400 0.750000
0.104959 0.678580 0.553511
0.241038 0.678580 0.558418
0.377117 0.678580 0.566598
0.513196 0.678580 0.582956
0.649275 0.678580 0.632033
0.687202 0.678580 0.632033
0.831154 0.749212 0.667271
0.977487 0.800382 0.706593
1.000000 0.849750 0.750000
0.137288 0.821606 0.580770
0.274557 0.821606 0.589420
0.411827 0.821606 0.602395
0.549096 0.821606 0.624020
0.686366 0.821606 0.667271
0.758760 0.821606 0.667271
0.831154 0.821606 0.667271
0.977487 0.883697 0.706593
1.000000 0.938100 0.750000
0.173702 0.967013 0.612060
0.312161 0.967013 0.623876
0.450621 0.967013 0.640420
0.589081 0.967013 0.665235
0.727540 0.967013 0.706593
0.810856 0.967013 0.706593
0.894171 0.967013 0.706593
0.977487 0.967013 0.706593
1.000000 1.000000 0.750000
0.214200 1.000000 0.647400
0.353850 1.000000 0.662057
0.493500 1.000000 0.681600
0.633150 1.000000 0.708960
0.772800 1.000000 0.750000
0.861150 1.000000 0.750000
0.949500 1.000000 0.750000
1.000000 1.000000 0.750000
1.000000 1.000000 0.750000
0.104959 0.096338 0.669959
0.221408 0.096338 0.669959
0.337856 0.096338 0.669959
0.454305 0.096338 0.669959
0.570753 0.096338 0.669959
0.687202 0.096338 0.669959
0.831154 0.127741 0.696414
0.977487 0.163228 0.726886
1.000000 0.202800 0.761400
0.104959 0.212786 0.669959
0.241038 0.232417 0.669959
0.352579 0.232417 0.669959
0.464120 0.232417 0.669959
0.575661 0.232417 0.669959
0.687202 0.232417 0.669959
0.831154 0.265010 0.700740
0.977487 0.301688 0.734764
1.000000 0.342450 0.772393
0.104959 0.329235 0.669959
0.241038 0.343958 0.669959
0.377117 0.368496 0.669959
0.480479 0.368496 0.669959
0.583840 0.368496 0.669959
0.687202 0.368496 0.669959
0.831154 0.402279 0.707227
0.977487 0.440147 0.745793
1.000000 0.482100 0.787050
0.104959 0.445683 0.669959
0.241038 0.455499 0.669959
0.377117 0.471857 0.669959
0.513196 0.504575 0.669959
0.600199 0.504575 0.669959
0.687202 0.504575 0.669959
0.831154 0.539549 0.718040
0.977487 0.578607 0.762336
1.000000 0.621750 0.807570
0.104959 0.562132 0.669959
0.241038 0.567039 0.669959
0.377117 0.575219 0.669959
0.513196 0.591578 0.669959
0.649275 0.640654 0.669959
0.687202 0.640654 0.669959
0.831154 0.676818 0.739665
0.977487 0.717067 0.789908
1.000000 0.761400 0.838350
0.104959 0.678580 0.669959
0.241038 0.678580 0.669959
0.377117 0.678580 0.669959
0.513196 0.678580 0.669959
0.649275 0.678580 0.669959
0.687202 0.678580 0.669959
0.831154 0.801294 0.791746
0.977487 0.855526 0.845053
1.000000 0.901050 0.889650
0.137288 0.821606 0.696414
0.274557 0.821606 0.700740
0.411827 0.821606 0.707227
0.549096 0.821606 0.718040
0.686366 0.821606 0.739665
0.810841 0.821606 0.791746
0.831154 0.821606 0.791746
0.977487 0.911270 0.845053
1.000000 0.972300 0.889650
0.173702 0.967013 0.726886
0.312161 0.967013 0.734764
0.450621 0.967013 0.745793
0.589081 0.967013 0.762336
0.727540 0.967013 0.789908
0.866000 0.967013 0.845053
0.921743 0.967013 0.845053
0.977487 0.967013 0.845053
1.000000 1.000000 0.889650
0.214200 1.000000 0.761400
0.353850 1.000000 0.772393
0.493500 1.000000 0.787050
0.633150 1.000000 0.807570
0.772800 1.000000 0.838350
0.912450 1.000000 0.889650
0.983700 1.000000 0.889650
1.000000 1.000000 0.889650
1.000000 1.000000 0.889650
0.137288 0.127741 0.812059
0.252932 0.127741 0.812059
0.368577 0.127741 0.812059
0.484221 0.127741 0.812059
0.599865 0.127741 0.812059
0.715509 0.127741 0.812059
0.831154 0.127741 0.812059
0.977487 0.163228 0.841713
1.000000 0.202800 0.875400
0.137288 0.243385 0.812059
0.274557 0.265010 0.812059
0.385877 0.265010 0.812059
0.497196 0.265010 0.812059
0.608515 0.265010 0.812059
0.719835 0.265010 0.812059
0.831154 0.265010 0.812059
0.977487 0.301688 0.845652
1.000000 0.342450 0.882729
0.137288 0.359029 0.812059
0.274557 0.376329 0.812059
0.411827 0.402279 0.812059
0.516659 0.402279 0.812059
0.621490 0.402279 0.812059
0.726322 0.402279 0.812059
0.831154 0.402279 0.812059
0.977487 0.440147 0.851166
1.000000 0.482100 0.892500
0.137288 0.474673 0.812059
0.274557 0.487648 0.812059
0.411827 0.507111 0.812059
0.549096 0.539549 0.812059
0.643115 0.539549 0.812059
0.737135 0.539549 0.812059
0.831154 0.539549 0.812059
0.977487 0.578607 0.859438
1.000000 0.621750 0.906180
0.137288 0.590318 0.812059
0.274557 0.598968 0.812059
0.411827 0.611943 0.812059
0.549096 0.633568 0.812059
0.686366 0.676818 0.812059
0.758760 0.676818 0.812059
0.831154 0.676818 0.812059
0.977487 0.717067 0.873224
1.000000 0.761400 0.926700
0.137288 0.705962 0.812059
0.274557 0.710287 0.812059
0.411827 0.716775 0.812059
0.549096 0.727587 0.812059
0.686366 0.749212 0.812059
0.810841 0.801294 0.812059
0.831154 0.801294 0.812059
0.977487 0.855526 0.900796
1.000000 0.901050 0.960900
0.137288 0.821606 0.812059
0.274557 0.821606 0.812059
0.411827 0.821606 0.812059
0.549096 0.821606 0.812059
0.686366 0.821606 0.812059
0.810841 0.821606 0.812059
0.831154 0.821606 0.812059
0.977487 0.956857 0.946383
1.000000 1.000000 1.000000
0.173702 0.967013 0.841713
0.312161 0.967013 0.845652
0.450621 0.967013 0.851166
0.589081 0.967013 0.859438
0.727540 0.967013 0.873224
0.866000 0.967013 0.900796
0.967330 0.967013 0.946383
0.977487 0.967013 0.946383
1.000000 1.000000 1.000000
0.214200 1.000000 0.875400
0.353850 1.000000 0.882729
0.493500 1.000000 0.892500
0.633150 1.000000 0.906180
0.772800 1.000000 0.926700
0.912450 1.000000 0.960900
1.000000 1.000000 1.000000
1.000000 1.000000 1.000000
1.000000 1.000000 1.000000
0.173702 0.163228 0.956539
0.288528 0.163228 0.956539
0.403354 0.163228 0.956539
0.518181 0.163228 0.956539
0.633007 0.163228 0.956539
0.747834 0.163228 0.956539
0.862660 0.163228 0.956539
0.977487 0.163228 0.956539
1.000000 0.202800 0.989400
0.173702 0.278054 0.956539
0.312161 0.301688 0.956539
0.423049 0.301688 0.956539
0.533936 0.301688 0.956539
0.644824 0.301688 0.956539
0.755711 0.301688 0.956539
0.866599 0.301688 0.956539
0.977487 0.301688 0.956539
1.000000 0.342450 0.993064
0.173702 0.392881 0.956539
0.312161 0.412575 0.956539
0.450621 0.440147 0.956539
0.555994 0.440147 0.956539
0.661367 0.440147 0.956539
0.766740 0.440147 0.956539
0.872113 0.440147 0.956539
0.977487 0.440147 0.956539
1.000000 0.482100 0.997950
0.173702 0.507707 0.956539
0.312161 0.523463 0.956539
0.450621 0.545520 0.956539
0.589081 0.578607 0.956539
0.686182 0.578607 0.956539
0.783284 0.578607 0.956539
0.880385 0.578607 0.956539
0.977487 0.578607 0.956539
1.000000 0.621750 1.000000
0.173702 0.622534 0.956539
0.312161 0.634350 0.956539
0.450621 0.650893 0.956539
0.589081 0.675708 0.956539
0.727540 0.717067 0.956539
0.810856 0.717067 0.956539
0.894171 0.717067 0.956539
0.977487 0.717067 0.956539
1.000000 0.761400 1.000000
0.173702 0.737360 0.956539
0.312161 0.745238 0.956539
0.450621 0.756267 0.956539
0.589081 0.772810 0.956539
0.727540 0.800382 0.956539
0.866000 0.855526 0.956539
0.921743 0.855526 0.956539
0.977487 0.855526 0.956539
1.000000 0.901050 1.000000
0.173702 0.852186 0.956539
0.312161 0.856125 0.956539
0.450621 0.861640 0.956539
0.589081 0.869911 0.956539
0.727540 0.883697 0.956539
0.866000 0.911270 0.956539
0.967330 0.956857 0.956539
0.977487 0.956857 0.956539
1.000000 1.000000 1.000000
0.173702 0.967013 0.956539
0.312161 0.967013 0.956539
0.450621 0.967013 0.956539
0.589081 0.967013 0.956539
0.727540 0.967013 0.956539
0.866000 0.967013 0.956539
0.967330 0.967013 0.956539
0.977487 0.967013 0.956539
1.000000 1.000000 1.000000
0.214200 1.000000 0.989400
0.353850 1.000000 0.993064
0.493500 1.000000 0.997950
0.633150 1.000000 1.000000
0.772800 1.000000 1.000000
0.912450 1.000000 1.000000
1.000000 1.000000 1.000000
1.000000 1.000000 1.000000
1.000000 1.000000 1.000000
0.214200 0.202800 1.000000
0.328200 0.202800 1.000000
0.442200 0.202800 1.000000
0.556200 0.202800 1.000000
0.670200 0.202800 1.000000
0.784200 0.202800 1.000000
0.898200 0.202800 1.000000
1.000000 0.202800 1.000000
1.000000 0.202800 1.000000
0.214200 0.316800 1.000000
0.353850 0.342450 1.000000
0.464186 0.342450 1.000000
0.574521 0.342450 1.000000
0.684857 0.342450 1.000000
0.795193 0.342450 1.000000
0.905529 0.342450 1.000000
1.000000 0.342450 1.000000
1.000000 0.342450 1.000000
0.214200 0.430800 1.000000
0.353850 0.452786 1.000000
0.493500 0.482100 1.000000
0.598950 0.482100 1.000000
0.704400 0.482100 1.000000
0.809850 0.482100 1.000000
0.915300 0.482100 1.000000
1.000000 0.482100 1.000000
1.000000 0.482100 1.000000
0.214200 0.544800 1.000000
0.353850 0.563121 1.000000
0.493500 0.587550 1.000000
0.633150 0.621750 1.000000
0.731760 0.621750 1.000000
0.830370 0.621750 1.000000
0.928980 0.621750 1.000000
1.000000 0.621750 1.000000
1.000000 0.621750 1.000000
0.214200 0.658800 1.000000
0.353850 0.673457 1.000000
0.493500 0.693000 1.000000
0.633150 0.720360 1.000000
0.772800 0.761400 1.000000
0.861150 0.761400 1.000000
0.949500 0.761400 1.000000
1.000000 0.761400 1.000000
1.000000 0.761400 1.000000
0.214200 0.772800 1.000000
0.353850 0.783793 1.000000
0.493500 0.798450 1.000000
0.633150 0.818970 1.000000
0.772800 0.849750 1.000000
0.912450 0.901050 1.000000
0.983700 0.901050 1.000000
1.000000 0.901050 1.000000
1.000000 0.901050 1.000000
0.214200 0.886800 1.000000
0.353850 0.894129 1.000000
0.493500 0.903900 1.000000
0.633150 0.917580 1.000000
0.772800 0.938100 1.000000
0.912450 0.972300 1.000000
1.000000 1.000000 1.000000
1.000000 1.000000 1.000000
1.000000 1.000000 1.000000
0.214200 1.000000 1.000000
0.353850 1.000000 1.000000
0.493500 1.000000 1.000000
0.633150 1.000000 1.000000
0.772800 1.000000 1.000000
0.912450 1.000000 1.000000
1.000000 1.000000 1.000000
1.000000 1.000000 1.000000
1.000000 1.000000 1.000000
0.214200 1.000000 1.000000
0.353850 1.000000 1.000000
0.493500 1.000000 1.000000
0.633150 1.000000 1.000000
0.772800 1.000000 1.000000
0.912450 1.000000 1.000000
1.000000 1.000000 1.000000
1.000000 1.000000 1.000000
1.000000 1.000000 1.000000
