luts/original/block-contrast.cube
TITLE "Block Contrast"
LUT_3D_SIZE 5
DOMAIN_MIN 0.0 0.0 0.0
DOMAIN_MAX 1.0 1.0 1.0
0.000000 0.000000 0.000000
0.268553 0.000000 0.000000
0.554810 0.000000 0.000000
0.855693 0.000000 0.000000
1.000000 0.000000 0.000000
0.000000 0.256458 0.000000
0.268553 0.256458 0.000000
0.554810 0.258505 0.000000
0.855693 0.260552 0.000000
1.000000 0.262600 0.000000
0.000000 0.538880 0.000000
0.274435 0.538880 0.000000
0.554810 0.538880 0.000000
0.855693 0.548240 0.000000
1.000000 0.557600 0.000000
0.000000 0.835927 0.000000
0.280317 0.835927 0.000000
0.568005 0.835927 0.000000
0.855693 0.835927 0.000000
1.000000 0.852600 0.000000
0.000000 1.000000 0.000000
0.286200 1.000000 0.000000
0.581200 1.000000 0.000000
0.876200 1.000000 0.000000
1.000000 1.000000 0.000000
0.000000 0.000000 0.244363
0.268553 0.000000 0.244363
0.554810 0.000000 0.242575
0.855693 0.000000 0.240788
1.000000 0.000000 0.239000
0.000000 0.256458 0.244363
0.268553 0.253524 0.238495
0.554810 0.243895 0.226883
0.855693 0.232287 0.211435
1.000000 0.223840 0.199000
0.000000 0.538880 0.242575
0.261610 0.538880 0.227520
0.554810 0.537798 0.226883
0.855693 0.533564 0.211435
1.000000 0.534346 0.199000
0.000000 0.835927 0.240788
0.253952 0.835927 0.212225
0.555372 0.835927 0.212225
0.855693 0.834840 0.211435
1.000000 0.844852 0.199000
0.000000 1.000000 0.239000
0.248681 1.000000 0.199000
0.559187 1.000000 0.199000
0.869693 1.000000 0.199000
1.000000 1.000000 0.199000
0.000000 0.000000 0.522950
0.274435 0.000000 0.522950
0.554810 0.000000 0.522950
0.855693 0.000000 0.528475
1.000000 0.000000 0.534000
0.000000 0.258505 0.522950
0.261271 0.244087 0.522950
0.554810 0.242813 0.520625
0.855693 0.231200 0.512105
1.000000 0.222600 0.508722
0.000000 0.538880 0.522950
0.259380 0.538880 0.521641
0.554810 0.531034 0.507258
0.855693 0.520912 0.499122
1.000000 0.519626 0.494000
0.000000 0.835927 0.528475
0.251755 0.835927 0.512409
0.543674 0.835927 0.499913
0.855693 0.833903 0.499122
1.000000 0.839948 0.494000
0.000000 1.000000 0.534000
0.246200 1.000000 0.507886
0.545251 1.000000 0.494000
0.865573 1.000000 0.494000
1.000000 1.000000 0.494000
0.000000 0.000000 0.816163
0.280317 0.000000 0.816163
0.568005 0.000000 0.816163
0.855693 0.000000 0.816163
1.000000 0.000000 0.829000
0.000000 0.260552 0.816163
0.253703 0.232781 0.816163
0.555855 0.232781 0.816163
0.855693 0.231200 0.813905
1.000000 0.222600 0.819724
0.000000 0.548240 0.816163
0.252546 0.534354 0.816163
0.542648 0.520468 0.816163
0.855693 0.518887 0.811814
1.000000 0.517600 0.813539
0.000000 0.835927 0.816163
0.251755 0.835927 0.814972
0.539443 0.835927 0.813679
0.855693 0.821251 0.786810
1.000000 0.818120 0.789000
0.000000 1.000000 0.829000
0.246200 1.000000 0.819417
0.541200 1.000000 0.812668
0.847241 1.000000 0.789000
1.000000 1.000000 0.789000
0.000000 0.000000 1.000000
0.286200 0.000000 1.000000
0.581200 0.000000 1.000000
0.876200 0.000000 1.000000
1.000000 0.000000 1.000000
0.000000 0.262600 1.000000
0.247480 0.222600 1.000000
0.558482 0.222600 1.000000
0.869484 0.222600 1.000000
1.000000 0.222600 1.000000
0.000000 0.557600 1.000000
0.246200 0.532809 1.000000
0.543334 0.517600 1.000000
0.865007 0.517600 1.000000
1.000000 0.517600 1.000000
0.000000 0.852600 1.000000
0.246200 0.844340 1.000000
0.541200 0.838522 1.000000
0.842604 0.812600 1.000000
1.000000 0.812600 1.000000
0.000000 1.000000 1.000000
0.246200 1.000000 1.000000
0.541200 1.000000 1.000000
0.836200 1.000000 1.000000
1.000000 0.960000 0.960000
