luts/original/blockbuster-teal.cube
TITLE "Blockbuster Teal"
LUT_3D_SIZE 33
DOMAIN_MIN 0.0 0.0 0.0
DOMAIN_MAX 1.0 1.0 1.0
0.000000 0.000000 0.028000
0.019825 0.000000 0.029281
0.038397 0.000000 0.030523
0.062022 0.000000 0.031728
0.092104 0.000000 0.032896
0.122225 0.000000 0.034025
0.152383 0.000000 0.035117
0.182580 0.000000 0.036170
0.212814 0.000000 0.037186
0.243085 0.000000 0.038165
0.273395 0.000000 0.039105
0.303742 0.000000 0.040008
0.334127 0.000000 0.040873
0.364550 0.000000 0.041700
0.395011 0.000000 0.042489
0.425509 0.000000 0.043241
0.456045 0.000000 0.043955
0.486619 0.000000 0.044631
0.517231 0.000000 0.045269
0.547881 0.000000 0.045869
0.578568 0.000000 0.046432
0.609293 0.000000 0.046957
0.640056 0.000000 0.047444
0.670857 0.000000 0.047893
0.701696 0.000000 0.048304
0.732572 0.000000 0.048678
0.763486 0.000000 0.049014
0.794438 0.000000 0.049312
0.825427 0.000000 0.049573
0.856455 0.000000 0.049795
0.887520 0.000000 0.049980
0.918623 0.000000 0.050127
0.949764 0.000000 0.050236
0.000000 0.030950 0.028466
0.019678 0.030862 0.028122
0.038086 0.030748 0.029301
0.061481 0.029812 0.030443
0.092492 0.029357 0.031546
0.123638 0.028973 0.032103
0.153860 0.027960 0.031901
0.184120 0.026868 0.031711
0.214417 0.025697 0.031450
0.244752 0.024449 0.031092
0.275125 0.023121 0.030628
0.305536 0.021716 0.030052
0.335985 0.020232 0.029362
0.366471 0.018669 0.028557
0.396996 0.017028 0.027636
0.427558 0.015308 0.026599
0.458157 0.013511 0.025444
0.488795 0.011634 0.024171
0.519470 0.009679 0.022781
0.550184 0.008252 0.021846
0.580934 0.007617 0.021625
0.611723 0.006982 0.021375
0.642550 0.006348 0.021092
0.673414 0.005713 0.020778
0.704316 0.005078 0.020430
0.735256 0.004443 0.020048
0.766234 0.003809 0.019632
0.797249 0.003174 0.019182
0.828302 0.002539 0.018696
0.859393 0.001904 0.018174
0.890522 0.001270 0.017617
0.921689 0.000635 0.017024
0.952893 0.000000 0.016395
0.000000 0.062334 0.028805
0.019043 0.062322 0.028442
0.038086 0.062314 0.028079
0.062844 0.062193 0.029157
0.092991 0.061594 0.030197
0.125051 0.060139 0.029469
0.155336 0.059121 0.029121
0.185660 0.058025 0.028854
0.216021 0.056851 0.028508
0.246420 0.055599 0.028058
0.276856 0.054268 0.027497
0.307331 0.052858 0.026822
0.337843 0.051370 0.026031
0.368393 0.049842 0.025161
0.398981 0.048240 0.024178
0.429606 0.046560 0.023079
0.460270 0.044804 0.021864
0.490971 0.042971 0.020533
0.521710 0.041061 0.019086
0.552486 0.039075 0.017522
0.583301 0.037012 0.015842
0.614153 0.034873 0.014046
0.645043 0.032658 0.012133
0.675971 0.030366 0.010105
0.706937 0.027997 0.007960
0.737940 0.025553 0.005699
0.768981 0.023032 0.003321
0.800060 0.020434 0.000828
0.831177 0.019509 0.000000
0.862332 0.019432 0.000000
0.893524 0.019390 0.000000
0.924754 0.019385 0.000000
0.956022 0.019415 0.000000
0.000000 0.093750 0.028591
0.018408 0.093750 0.028146
0.036816 0.093750 0.027696
0.063568 0.093750 0.026987
0.093727 0.093750 0.027020
0.126147 0.093750 0.027246
0.156813 0.092016 0.027220
0.187200 0.090678 0.026983
0.217624 0.089426 0.026631
0.248087 0.088156 0.026162
0.278587 0.086838 0.025577
0.309125 0.085459 0.024875
0.339701 0.084014 0.024058
0.370314 0.082499 0.023124
0.400966 0.080912 0.022074
0.431655 0.079252 0.020908
0.462382 0.077518 0.019626
0.493146 0.075709 0.018227
0.523949 0.073826 0.016712
0.554789 0.071867 0.015081
0.585667 0.069834 0.013334
0.616583 0.067724 0.011470
0.647537 0.065539 0.009490
0.678528 0.063279 0.007394
0.709557 0.060942 0.005182
0.740624 0.058530 0.002853
0.771729 0.056042 0.000409
0.802871 0.055492 0.000000
0.834052 0.055364 0.000000
0.865270 0.055277 0.000000
0.896526 0.055230 0.000000
0.927819 0.055223 0.000000
0.959151 0.055254 0.000000
0.000000 0.125000 0.027990
0.017773 0.125000 0.027483
0.035547 0.125000 0.026973
0.062616 0.125000 0.025866
0.094268 0.125000 0.024392
0.126156 0.125000 0.024986
0.158289 0.124967 0.025655
0.188740 0.123422 0.025351
0.219228 0.122079 0.024931
0.249754 0.120769 0.024395
0.280318 0.119435 0.023742
0.310919 0.118056 0.022974
0.341559 0.116619 0.022089
0.372236 0.115118 0.021087
0.402950 0.113550 0.019970
0.433703 0.111913 0.018737
0.464494 0.110203 0.017387
0.495322 0.108421 0.015921
0.526188 0.106566 0.014338
0.557092 0.104636 0.012640
0.588033 0.102633 0.010825
0.619013 0.100554 0.008894
0.650030 0.098401 0.006847
0.681085 0.096172 0.004684
0.712178 0.093868 0.002404
0.743308 0.091489 0.000008
0.774477 0.091256 0.000000
0.805683 0.091077 0.000000
0.836927 0.090943 0.000000
0.868208 0.090853 0.000000
0.899528 0.090807 0.000000
0.930885 0.090803 0.000000
0.962280 0.090841 0.000000
0.000000 0.156250 0.027200
0.017139 0.156250 0.026644
0.034277 0.156250 0.026085
0.061716 0.156250 0.024569
0.093552 0.156250 0.023147
0.126672 0.156250 0.022727
0.158517 0.156250 0.023310
0.190280 0.156035 0.023718
0.220832 0.154644 0.023231
0.251421 0.153314 0.022627
0.282048 0.151978 0.021908
0.312713 0.150606 0.021072
0.343416 0.149184 0.020119
0.374157 0.147703 0.019051
0.404935 0.146157 0.017866
0.435752 0.144544 0.016565
0.466606 0.142862 0.015148
0.497498 0.141108 0.013615
0.528427 0.139282 0.011965
0.559394 0.137383 0.010199
0.590400 0.135410 0.008317
0.621443 0.133364 0.006319
0.652523 0.131243 0.004204
0.683642 0.129047 0.001973
0.714798 0.127086 0.000000
0.745992 0.126800 0.000000
0.777224 0.126567 0.000000
0.808494 0.126384 0.000000
0.839801 0.126251 0.000000
0.871147 0.126165 0.000000
0.902530 0.126125 0.000000
0.933950 0.126130 0.000000
0.965409 0.126180 0.000000
0.000000 0.187500 0.026219
0.016504 0.187500 0.025621
0.033008 0.187500 0.025020
0.060867 0.187500 0.023072
0.092964 0.187500 0.021827
0.125992 0.187500 0.021388
0.159002 0.187500 0.020949
0.190841 0.187500 0.021393
0.222435 0.187131 0.021531
0.253088 0.185799 0.020860
0.283779 0.184471 0.020073
0.314508 0.183115 0.019170
0.345274 0.181712 0.018150
0.376078 0.180254 0.017014
0.406920 0.178734 0.015762
0.437800 0.177148 0.014394
0.468718 0.175494 0.012909
0.499673 0.173770 0.011308
0.530666 0.171975 0.009591
0.561697 0.170108 0.007758
0.592766 0.168168 0.005809
0.623872 0.166154 0.003743
0.655017 0.164066 0.001561
0.686199 0.162470 0.000000
0.717419 0.162121 0.000000
0.748676 0.161832 0.000000
0.779972 0.161600 0.000000
0.811305 0.161421 0.000000
0.842676 0.161295 0.000000
0.874085 0.161219 0.000000
0.905531 0.161191 0.000000
0.937016 0.161211 0.000000
0.968538 0.161277 0.000000
0.000000 0.218750 0.025049
0.015869 0.218750 0.024413
0.031738 0.218750 0.023773
0.060069 0.218750 0.021365
0.092415 0.218750 0.020303
0.125413 0.218750 0.019846
0.158397 0.218750 0.019388
0.191366 0.218750 0.018930
0.223262 0.218750 0.019235
0.254755 0.218230 0.019093
0.285510 0.216919 0.018238
0.316302 0.215584 0.017268
0.347132 0.214206 0.016181
0.378000 0.212774 0.014977
0.408905 0.211282 0.013658
0.439849 0.209726 0.012222
0.470830 0.208102 0.010670
0.501849 0.206410 0.009002
0.532906 0.204647 0.007218
0.564000 0.202812 0.005317
0.595132 0.200905 0.003300
0.626302 0.198924 0.001167
0.657510 0.197632 0.000000
0.688756 0.197217 0.000000
0.720039 0.196870 0.000000
0.751360 0.196586 0.000000
0.782719 0.196361 0.000000
0.814116 0.196194 0.000000
0.845551 0.196081 0.000000
0.877023 0.196020 0.000000
0.908533 0.196010 0.000000
0.940081 0.196049 0.000000
0.971667 0.196136 0.000000
0.000000 0.250000 0.023690
0.015234 0.250000 0.023016
0.030469 0.250000 0.022341
0.059321 0.250000 0.019445
0.091919 0.250000 0.018577
0.124916 0.250000 0.018100
0.157902 0.250000 0.017623
0.190875 0.250000 0.017147
0.223838 0.250000 0.016670
0.255820 0.250000 0.016835
0.287241 0.249326 0.016404
0.318096 0.248017 0.015366
0.348990 0.246667 0.014211
0.379921 0.245264 0.012941
0.410890 0.243803 0.011554
0.441897 0.242278 0.010051
0.472942 0.240687 0.008432
0.504024 0.239027 0.006696
0.535145 0.237297 0.004844
0.566303 0.235496 0.002876
0.597499 0.233623 0.000792
0.628732 0.232569 0.000000
0.660004 0.232084 0.000000
0.691313 0.231676 0.000000
0.722660 0.231339 0.000000
0.754045 0.231068 0.000000
0.785467 0.230859 0.000000
0.816927 0.230709 0.000000
0.848426 0.230615 0.000000
0.879962 0.230576 0.000000
0.911535 0.230588 0.000000
0.943147 0.230651 0.000000
0.974796 0.230763 0.000000
0.000000 0.281250 0.022140
0.014600 0.281250 0.021432
0.029199 0.281250 0.020722
0.058625 0.281250 0.017308
0.091480 0.281250 0.016647
0.124493 0.281250 0.016151
0.157496 0.281250 0.015656
0.190489 0.281250 0.015160
0.223472 0.281250 0.014665
0.256446 0.281250 0.014169
0.288530 0.281250 0.014195
0.319891 0.280416 0.013464
0.350848 0.279097 0.012242
0.381843 0.277727 0.010904
0.412875 0.276298 0.009450
0.443946 0.274806 0.007879
0.475054 0.273249 0.006193
0.506200 0.271623 0.004390
0.537384 0.269927 0.002471
0.568605 0.268161 0.000435
0.599865 0.267276 0.000000
0.631162 0.266718 0.000000
0.662497 0.266247 0.000000
0.693870 0.265855 0.000000
0.725280 0.265536 0.000000
0.756729 0.265285 0.000000
0.788215 0.265098 0.000000
0.819739 0.264972 0.000000
0.851300 0.264903 0.000000
0.882900 0.264889 0.000000
0.914537 0.264929 0.000000
0.946212 0.265020 0.000000
0.977925 0.265161 0.000000
0.000000 0.312500 0.020401
0.013965 0.312500 0.019659
0.027930 0.312500 0.018167
0.058054 0.312500 0.015028
0.091102 0.312500 0.014514
0.124141 0.312500 0.013999
0.157171 0.312500 0.013485
0.190192 0.312500 0.012970
0.223205 0.312500 0.012456
0.256210 0.312500 0.011941
0.289205 0.312500 0.011427
0.321401 0.312500 0.011313
0.352706 0.311500 0.010273
0.383764 0.310164 0.008867
0.414860 0.308769 0.007346
0.445994 0.307312 0.005708
0.477166 0.305789 0.003954
0.508376 0.304198 0.002084
0.539623 0.302538 0.000097
0.570908 0.301750 0.000000
0.602231 0.301116 0.000000
0.633592 0.300579 0.000000
0.664990 0.300130 0.000000
0.696427 0.299763 0.000000
0.727901 0.299469 0.000000
0.759413 0.299245 0.000000
0.790962 0.299086 0.000000
0.822550 0.298989 0.000000
0.854175 0.298950 0.000000
0.885838 0.298967 0.000000
0.917539 0.299038 0.000000
0.949278 0.299161 0.000000
0.981054 0.299335 0.000000
0.000000 0.343750 0.018472
0.013330 0.343750 0.017697
0.026660 0.343750 0.015129
0.057706 0.343750 0.012711
0.090786 0.343750 0.012177
0.123857 0.343750 0.011644
0.156921 0.343750 0.011110
0.189977 0.343750 0.010577
0.223025 0.343750 0.010044
0.256065 0.343750 0.009510
0.289098 0.343750 0.008977
0.322124 0.343750 0.008444
0.354438 0.343750 0.008190
0.385685 0.342576 0.006831
0.416845 0.341217 0.005242
0.448043 0.339796 0.003537
0.479278 0.338309 0.001715
0.510551 0.336829 0.000000
0.541862 0.335986 0.000000
0.573211 0.335270 0.000000
0.604598 0.334665 0.000000
0.636022 0.334159 0.000000
0.667484 0.333742 0.000000
0.698984 0.333406 0.000000
0.730521 0.333145 0.000000
0.762097 0.332955 0.000000
0.793710 0.332829 0.000000
0.825361 0.332766 0.000000
0.857050 0.332762 0.000000
0.888777 0.332814 0.000000
0.920541 0.332921 0.000000
0.952343 0.333080 0.000000
0.984183 0.333289 0.000000
0.000000 0.375000 0.016353
0.012695 0.375000 0.015546
0.025391 0.375000 0.011782
0.057416 0.375000 0.010190
0.090532 0.375000 0.009637
0.123641 0.375000 0.009085
0.156743 0.375000 0.008533
0.189837 0.375000 0.007981
0.222925 0.375000 0.007428
0.256005 0.375000 0.006876
0.289079 0.375000 0.006324
0.322145 0.375000 0.005772
0.355205 0.375000 0.005219
0.387607 0.374964 0.004794
0.418830 0.373643 0.003138
0.450091 0.372259 0.001365
0.481390 0.370924 0.000000
0.512727 0.369977 0.000000
0.544101 0.369176 0.000000
0.575514 0.368500 0.000000
0.606964 0.367935 0.000000
0.638452 0.367468 0.000000
0.669977 0.367090 0.000000
0.701541 0.366793 0.000000
0.733142 0.366571 0.000000
0.764781 0.366419 0.000000
0.796458 0.366333 0.000000
0.828172 0.366309 0.000000
0.859925 0.366344 0.000000
0.891715 0.366435 0.000000
0.923543 0.366581 0.000000
0.955409 0.366779 0.000000
0.987312 0.367029 0.000000
0.000000 0.406250 0.014045
0.012061 0.406250 0.013206
0.024528 0.406250 0.008525
0.057186 0.406250 0.007466
0.090342 0.406250 0.006894
0.123492 0.406250 0.006323
0.156635 0.406250 0.005752
0.189771 0.406250 0.005181
0.222901 0.406250 0.004610
0.256024 0.406250 0.004039
0.289141 0.406250 0.003467
0.322251 0.406250 0.002896
0.355355 0.406250 0.002325
0.388453 0.406250 0.001754
0.420815 0.406049 0.001034
0.452140 0.404775 0.000000
0.483502 0.403715 0.000000
0.514903 0.402824 0.000000
0.546341 0.402075 0.000000
0.577816 0.401449 0.000000
0.609330 0.400932 0.000000
0.640882 0.400513 0.000000
0.672471 0.400181 0.000000
0.704098 0.399930 0.000000
0.735762 0.399753 0.000000
0.767465 0.399645 0.000000
0.799205 0.399603 0.000000
0.830984 0.399622 0.000000
0.862799 0.399700 0.000000
0.894653 0.399835 0.000000
0.926545 0.400024 0.000000
0.958474 0.400265 0.000000
0.990441 0.400557 0.000000
0.000000 0.437500 0.011546
0.011426 0.437500 0.010676
0.024067 0.437500 0.005379
0.057018 0.437500 0.004538
0.090216 0.437500 0.003948
0.123409 0.437500 0.003358
0.156595 0.437500 0.002768
0.189776 0.437500 0.002178
0.222950 0.437500 0.001588
0.256118 0.437500 0.000998
0.289280 0.437500 0.000408
0.322489 0.437500 0.000000
0.355750 0.437500 0.000000
0.388913 0.437500 0.000000
0.421978 0.437500 0.000000
0.454188 0.437191 0.000000
0.485614 0.436205 0.000000
0.517078 0.435380 0.000000
0.548580 0.434694 0.000000
0.580119 0.434128 0.000000
0.611696 0.433668 0.000000
0.643311 0.433302 0.000000
0.674964 0.433023 0.000000
0.706655 0.432824 0.000000
0.738383 0.432697 0.000000
0.770149 0.432638 0.000000
0.801953 0.432645 0.000000
0.833795 0.432712 0.000000
0.865674 0.432837 0.000000
0.897591 0.433018 0.000000
0.929547 0.433253 0.000000
0.961539 0.433540 0.000000
0.993570 0.433878 0.000000
0.000000 0.468750 0.008858
0.010791 0.468750 0.007956
0.023661 0.468750 0.002016
0.056911 0.468750 0.001407
0.090154 0.468750 0.000798
0.123392 0.468750 0.000189
0.156917 0.468750 0.000000
0.190493 0.468750 0.000000
0.223973 0.468750 0.000000
0.257358 0.468750 0.000000
0.290648 0.468750 0.000000
0.323845 0.468750 0.000000
0.356949 0.468750 0.000000
0.389959 0.468750 0.000000
0.422878 0.468750 0.000000
0.455705 0.468750 0.000000
0.487726 0.468404 0.000000
0.519254 0.467657 0.000000
0.550819 0.467043 0.000000
0.582422 0.466544 0.000000
0.614063 0.466148 0.000000
0.645741 0.465844 0.000000
0.677458 0.465624 0.000000
0.709212 0.465481 0.000000
0.741004 0.465410 0.000000
0.772833 0.465405 0.000000
0.804701 0.465464 0.000000
0.836606 0.465582 0.000000
0.868549 0.465759 0.000000
0.900530 0.465990 0.000000
0.932548 0.466274 0.000000
0.964605 0.466610 0.000000
0.996699 0.466996 0.000000
0.000000 0.500000 0.005981
0.010156 0.500000 0.005048
0.024853 0.500000 0.000000
0.058632 0.500000 0.000000
0.092319 0.500000 0.000000
0.125914 0.500000 0.000000
0.159417 0.500000 0.000000
0.192829 0.500000 0.000000
0.226151 0.500000 0.000000
0.259382 0.500000 0.000000
0.292524 0.500000 0.000000
0.325577 0.500000 0.000000
0.358541 0.500000 0.000000
0.391417 0.500000 0.000000
0.424206 0.500000 0.000000
0.456908 0.500000 0.000000
0.489523 0.500000 0.000000
0.521429 0.499666 0.000000
0.553058 0.499132 0.000000
0.584725 0.498708 0.000000
0.616429 0.498383 0.000000
0.648171 0.498146 0.000000
0.679951 0.497990 0.000000
0.711769 0.497909 0.000000
0.743624 0.497897 0.000000
0.775517 0.497950 0.000000
0.807448 0.498065 0.000000
0.839417 0.498239 0.000000
0.871424 0.498470 0.000000
0.903468 0.498754 0.000000
0.935550 0.499090 0.000000
0.967670 0.499478 0.000000
0.999828 0.499914 0.000000
0.000000 0.531250 0.002913
0.009521 0.531250 0.001949
0.028240 0.531250 0.000000
0.061857 0.531250 0.000000
0.095385 0.531250 0.000000
0.128826 0.531250 0.000000
0.162180 0.531250 0.000000
0.195446 0.531250 0.000000
0.228627 0.531250 0.000000
0.261721 0.531250 0.000000
0.294731 0.531250 0.000000
0.327655 0.531250 0.000000
0.360495 0.531250 0.000000
0.393251 0.531250 0.000000
0.425923 0.531250 0.000000
0.458512 0.531250 0.000000
0.491019 0.531250 0.000000
0.523444 0.531250 0.000000
0.555297 0.530969 0.000000
0.587027 0.530627 0.000000
0.618795 0.530378 0.000000
0.650601 0.530214 0.000000
0.682444 0.530127 0.000000
0.714326 0.530112 0.000000
0.746245 0.530164 0.000000
0.778201 0.530280 0.000000
0.810196 0.530455 0.000000
0.842228 0.530687 0.000000
0.874299 0.530975 0.000000
0.906406 0.531250 0.000000
0.938552 0.531250 0.000000
0.970736 0.531250 0.000000
1.000000 0.531250 0.000000
0.000344 0.562500 0.000000
0.010221 0.562500 0.000000
0.031818 0.562500 0.000000
0.065289 0.562500 0.000000
0.098676 0.562500 0.000000
0.131978 0.562500 0.000000
0.165198 0.562500 0.000000
0.198334 0.562500 0.000000
0.231388 0.562500 0.000000
0.264359 0.562500 0.000000
0.297249 0.562500 0.000000
0.330058 0.562500 0.000000
0.362785 0.562500 0.000000
0.395432 0.562500 0.000000
0.427999 0.562500 0.000000
0.460487 0.562500 0.000000
0.492895 0.562500 0.000000
0.525224 0.562500 0.000000
0.557475 0.562500 0.000000
0.589330 0.562308 0.000000
0.621162 0.562142 0.000000
0.653031 0.562055 0.000000
0.684938 0.562042 0.000000
0.716883 0.562097 0.000000
0.748865 0.562217 0.000000
0.780886 0.562398 0.000000
0.812944 0.562500 0.000000
0.845040 0.562500 0.000000
0.877173 0.562500 0.000000
0.909345 0.562500 0.000000
0.941554 0.562500 0.000000
0.973801 0.562500 0.000000
1.000000 0.562500 0.000000
0.003758 0.593750 0.000000
0.013015 0.593750 0.000000
0.035593 0.593750 0.000000
0.068933 0.593750 0.000000
0.102191 0.593750 0.000000
0.135369 0.593750 0.000000
0.168467 0.593750 0.000000
0.201486 0.593750 0.000000
0.234425 0.593750 0.000000
0.267284 0.593750 0.000000
0.300066 0.593750 0.000000
0.332769 0.593750 0.000000
0.365394 0.593750 0.000000
0.397942 0.593750 0.000000
0.430413 0.593750 0.000000
0.462807 0.593750 0.000000
0.495124 0.593750 0.000000
0.527366 0.593750 0.000000
0.559532 0.593750 0.000000
0.591623 0.593750 0.000000
0.623528 0.593681 0.000000
0.655461 0.593676 0.000000
0.687431 0.593741 0.000000
0.719440 0.593750 0.000000
0.751486 0.593750 0.000000
0.783570 0.593750 0.000000
0.815691 0.593750 0.000000
0.847851 0.593750 0.000000
0.880048 0.593750 0.000000
0.912283 0.593750 0.000000
0.944556 0.593750 0.000000
0.976867 0.593750 0.000000
1.000000 0.593750 0.000000
0.007313 0.625000 0.000000
0.015951 0.625000 0.000000
0.039572 0.625000 0.000000
0.072792 0.625000 0.000000
0.105934 0.625000 0.000000
0.138998 0.625000 0.000000
0.171985 0.625000 0.000000
0.204896 0.625000 0.000000
0.237729 0.625000 0.000000
0.270487 0.625000 0.000000
0.303169 0.625000 0.000000
0.335775 0.625000 0.000000
0.368307 0.625000 0.000000
0.400763 0.625000 0.000000
0.433145 0.625000 0.000000
0.465453 0.625000 0.000000
0.497687 0.625000 0.000000
0.529848 0.625000 0.000000
0.561936 0.625000 0.000000
0.593941 0.625000 0.000000
0.625894 0.625000 0.000000
0.657891 0.625000 0.000000
0.689925 0.625000 0.000000
0.721997 0.625000 0.000000
0.754106 0.625000 0.000000
0.786254 0.625000 0.000000
0.818439 0.625000 0.000000
0.850662 0.625000 0.000000
0.882923 0.625000 0.000000
0.915221 0.625000 0.000000
0.947558 0.625000 0.000000
0.979932 0.625000 0.000000
1.000000 0.625000 0.000000
0.011011 0.656250 0.000000
0.019030 0.656250 0.000000
0.043758 0.656250 0.000000
0.076868 0.656250 0.000000
0.109903 0.656250 0.000000
0.142863 0.656250 0.000000
0.175749 0.656250 0.000000
0.208560 0.656250 0.000000
0.241297 0.656250 0.000000
0.273960 0.656250 0.000000
0.306550 0.656250 0.000000
0.339067 0.656250 0.000000
0.371512 0.656250 0.000000
0.403883 0.656250 0.000000
0.436183 0.656250 0.000000
0.468411 0.656250 0.000000
0.500459 0.656250 0.000000
0.532431 0.656250 0.000000
0.564404 0.656250 0.000000
0.596376 0.656250 0.000000
0.628348 0.656250 0.000000
0.660320 0.656250 0.000000
0.692418 0.656250 0.000000
0.724554 0.656250 0.000000
0.756727 0.656250 0.000000
0.788938 0.656250 0.000000
0.821187 0.656250 0.000000
0.853473 0.656250 0.000000
0.885798 0.656250 0.000000
0.918160 0.656250 0.000000
0.950560 0.656250 0.000000
0.982997 0.656250 0.000000
1.000000 0.656250 0.000000
0.014856 0.687500 0.000000
0.022258 0.687500 0.000000
0.048155 0.687500 0.000000
0.081164 0.687500 0.000000
0.114100 0.687500 0.000000
0.146964 0.687500 0.000000
0.179755 0.687500 0.000000
0.212474 0.687500 0.000000
0.245121 0.687500 0.000000
0.277697 0.687500 0.000000
0.310202 0.687500 0.000000
0.342636 0.687500 0.000000
0.374999 0.687500 0.000000
0.406991 0.687500 0.000000
0.438982 0.687500 0.000000
0.470973 0.687500 0.000000
0.502964 0.687500 0.000000
0.534956 0.687500 0.000000
0.566947 0.687500 0.000000
0.598938 0.687500 0.000000
0.630929 0.687500 0.000000
0.662920 0.687500 0.000000
0.694912 0.687500 0.000000
0.727111 0.687500 0.000000
0.759347 0.687500 0.000000
0.791622 0.687500 0.000000
0.823934 0.687500 0.000000
0.856284 0.687500 0.000000
0.888672 0.687500 0.000000
0.921098 0.687500 0.000000
0.953562 0.687500 0.000000
0.986063 0.687500 0.000000
1.000000 0.687500 0.000000
0.018851 0.718750 0.000000
0.025636 0.718750 0.000000
0.052766 0.718750 0.000000
0.085682 0.718750 0.000000
0.118526 0.718750 0.000000
0.151300 0.718750 0.000000
0.184003 0.718750 0.000000
0.216636 0.718750 0.000000
0.249200 0.718750 0.000000
0.281526 0.718750 0.000000
0.313536 0.718750 0.000000
0.345546 0.718750 0.000000
0.377557 0.718750 0.000000
0.409567 0.718750 0.000000
0.441577 0.718750 0.000000
0.473587 0.718750 0.000000
0.505597 0.718750 0.000000
0.537607 0.718750 0.000000
0.569617 0.718750 0.000000
0.601627 0.718750 0.000000
0.633637 0.718750 0.000000
0.665647 0.718750 0.000000
0.697657 0.718750 0.000000
0.729668 0.718750 0.000000
0.761968 0.718750 0.000000
0.794306 0.718750 0.000000
0.826682 0.718750 0.000000
0.859096 0.718750 0.000000
0.891547 0.718750 0.000000
0.924036 0.718750 0.000000
0.956563 0.718750 0.000000
0.989128 0.718750 0.000000
1.000000 0.718750 0.000000
0.022997 0.750000 0.000000
0.029166 0.750000 0.000000
0.057594 0.750000 0.000000
0.090422 0.750000 0.000000
0.123180 0.750000 0.000000
0.155870 0.750000 0.000000
0.188067 0.750000 0.000000
0.220096 0.750000 0.000000
0.252125 0.750000 0.000000
0.284154 0.750000 0.000000
0.316183 0.750000 0.000000
0.348212 0.750000 0.000000
0.380241 0.750000 0.000000
0.412270 0.750000 0.000000
0.444299 0.750000 0.000000
0.476328 0.750000 0.000000
0.508357 0.750000 0.000000
0.540386 0.750000 0.000000
0.572415 0.750000 0.000000
0.604443 0.750000 0.000000
0.636473 0.750000 0.000000
0.668501 0.750000 0.000000
0.700530 0.750000 0.000000
0.732559 0.750000 0.000000
0.764588 0.750000 0.000000
0.796990 0.750000 0.000000
0.829430 0.750000 0.000000
0.861907 0.750000 0.000000
0.894422 0.750000 0.000000
0.926975 0.750000 0.000000
0.959565 0.750000 0.000000
0.992194 0.750000 0.000000
1.000000 0.750000 0.000000
0.027298 0.781250 0.000000
0.032849 0.781250 0.000000
0.062573 0.781250 0.000000
0.094621 0.781250 0.000000
0.126669 0.781250 0.000000
0.158717 0.781250 0.000000
0.190765 0.781250 0.000000
0.222812 0.781250 0.000000
0.254860 0.781250 0.000000
0.286908 0.781250 0.000000
0.318956 0.781250 0.000000
0.351004 0.781250 0.000000
0.383052 0.781250 0.000000
0.415100 0.781250 0.000000
0.447148 0.781250 0.000000
0.479195 0.781250 0.000000
0.511243 0.781250 0.000000
0.543291 0.781250 0.000000
0.575339 0.781250 0.000000
0.607387 0.781250 0.000000
0.639435 0.781250 0.000000
0.671483 0.781250 0.000000
0.703531 0.781250 0.000000
0.735578 0.781250 0.000000
0.767626 0.781250 0.000000
0.799674 0.781250 0.000000
0.832177 0.781250 0.000000
0.864718 0.781250 0.000000
0.897297 0.781250 0.000000
0.929913 0.781250 0.000000
0.962567 0.781250 0.000000
0.995259 0.781250 0.000000
1.000000 0.781250 0.000000
0.030617 0.812500 0.000000
0.034775 0.812500 0.000000
0.065323 0.812500 0.000000
0.097389 0.812500 0.000000
0.129456 0.812500 0.000000
0.161523 0.812500 0.000000
0.193590 0.812500 0.000000
0.225656 0.812500 0.000000
0.257723 0.812500 0.000000
0.289790 0.812500 0.000000
0.321857 0.812500 0.000000
0.353923 0.812500 0.000000
0.385990 0.812500 0.000000
0.418057 0.812500 0.000000
0.450124 0.812500 0.000000
0.482190 0.812500 0.000000
0.514257 0.812500 0.000000
0.546324 0.812500 0.000000
0.578391 0.812500 0.000000
0.610458 0.812500 0.000000
0.642524 0.812500 0.000000
0.674591 0.812500 0.000000
0.706658 0.812500 0.000000
0.738725 0.812500 0.000000
0.770791 0.812500 0.000000
0.802858 0.812500 0.000000
0.834925 0.812500 0.000000
