luts/original/blockbuster-teal.cube
TITLE "Blockbuster Teal"
LUT_3D_SIZE 9
DOMAIN_MIN 0.0 0.0 0.0
DOMAIN_MAX 1.0 1.0 1.0
0.000000 0.000000 0.028000
0.092104 0.000000 0.032896
0.212814 0.000000 0.037186
0.334127 0.000000 0.040873
0.456045 0.000000 0.043955
0.578568 0.000000 0.046432
0.701696 0.000000 0.048304
0.825427 0.000000 0.049573
0.949764 0.000000 0.050236
0.000000 0.125000 0.027990
0.094268 0.125000 0.024392
0.219228 0.122079 0.024931
0.341559 0.116619 0.022089
0.464494 0.110203 0.017387
0.588033 0.102633 0.010825
0.712178 0.093868 0.002404
0.836927 0.090943 0.000000
0.962280 0.090841 0.000000
0.000000 0.250000 0.023690
0.091919 0.250000 0.018577
0.223838 0.250000 0.016670
0.348990 0.246667 0.014211
0.472942 0.240687 0.008432
0.597499 0.233623 0.000792
0.722660 0.231339 0.000000
0.848426 0.230615 0.000000
0.974796 0.230763 0.000000
0.000000 0.375000 0.016353
0.090532 0.375000 0.009637
0.222925 0.375000 0.007428
0.355205 0.375000 0.005219
0.481390 0.370924 0.000000
0.606964 0.367935 0.000000
0.733142 0.366571 0.000000
0.859925 0.366344 0.000000
0.987312 0.367029 0.000000
0.000000 0.500000 0.005981
0.092319 0.500000 0.000000
0.226151 0.500000 0.000000
0.358541 0.500000 0.000000
0.489523 0.500000 0.000000
0.616429 0.498383 0.000000
0.743624 0.497897 0.000000
0.871424 0.498470 0.000000
0.999828 0.499914 0.000000
0.007313 0.625000 0.000000
0.105934 0.625000 0.000000
0.237729 0.625000 0.000000
0.368307 0.625000 0.000000
0.497687 0.625000 0.000000
0.625894 0.625000 0.000000
0.754106 0.625000 0.000000
0.882923 0.625000 0.000000
1.000000 0.625000 0.000000
0.022997 0.750000 0.000000
0.123180 0.750000 0.000000
0.252125 0.750000 0.000000
0.380241 0.750000 0.000000
0.508357 0.750000 0.000000
0.636473 0.750000 0.000000
0.764588 0.750000 0.000000
0.894422 0.750000 0.000000
1.000000 0.750000 0.000000
0.034497 0.875000 0.000000
0.135412 0.875000 0.000000
0.263830 0.875000 0.000000
0.392248 0.875000 0.000000
0.520666 0.875000 0.000000
0.649085 0.875000 0.000000
0.777503 0.875000 0.000000
0.905921 0.875000 0.000000
1.000000 0.875000 0.000000
0.042912 1.000000 0.000000
0.148849 1.000000 0.000000
0.277569 1.000000 0.000000
0.406289 1.000000 0.000000
0.535010 1.000000 0.000000
0.663731 1.000000 0.000000
0.792451 1.000000 0.000000
0.921171 1.000000 0.000000
1.000000 1.000000 0.000000
0.000234 0.000000 0.158955
0.092649 0.000000 0.157351
0.213461 0.000000 0.161539
0.334877 0.000000 0.165123
0.456898 0.000000 0.168102
0.579524 0.000000 0.170476
0.702754 0.000000 0.172246
0.826588 0.000000 0.173412
0.951028 0.000000 0.173973
0.000000 0.124090 0.153558
0.093195 0.122574 0.151953
0.219875 0.119120 0.154464
0.342309 0.113602 0.149513
0.465347 0.106829 0.144365
0.588989 0.098801 0.137570
0.713236 0.089518 0.128963
0.838087 0.078980 0.118498
0.963543 0.067187 0.106157
0.000000 0.250000 0.150799
0.091696 0.250000 0.147321
0.221773 0.250000 0.141023
0.349740 0.244078 0.138416
0.473795 0.236735 0.132528
0.598454 0.228832 0.124779
0.723718 0.219902 0.115171
0.849586 0.209835 0.103704
0.976059 0.198592 0.090377
0.000000 0.375000 0.143701
0.089394 0.375000 0.137370
0.220156 0.375000 0.131678
0.355348 0.375000 0.129469
0.482243 0.369127 0.123572
0.607919 0.361333 0.114746
0.734200 0.352720 0.104060
0.861086 0.343068 0.091515
0.988576 0.332292 0.077110
0.000000 0.500000 0.133596
0.087907 0.500000 0.124119
0.220143 0.500000 0.119081
0.355108 0.500000 0.116570
0.489918 0.500000 0.114059
0.617385 0.493317 0.104713
0.744682 0.485130 0.092949
0.872585 0.475955 0.079326
1.000000 0.465757 0.063909
0.000000 0.625000 0.120466
0.087236 0.625000 0.107422
0.221259 0.625000 0.103232
0.356614 0.625000 0.100418
0.491856 0.625000 0.097604
0.626850 0.624862 0.094680
0.755164 0.617180 0.081838
0.884084 0.608531 0.067137
1.000000 0.599679 0.051392
0.000000 0.750000 0.104306
0.087389 0.750000 0.087246
0.223443 0.750000 0.084130
0.359403 0.750000 0.081014
0.495272 0.750000 0.077898
0.631051 0.750000 0.074782
0.765647 0.748910 0.070727
0.895583 0.740826 0.054948
1.000000 0.733354 0.038876
0.000000 0.875000 0.085114
0.089932 0.875000 0.065193
0.226678 0.875000 0.061775
0.363345 0.875000 0.058357
0.499932 0.875000 0.054938
0.636440 0.875000 0.051520
0.772872 0.875000 0.048102
0.907082 0.872864 0.042759
1.000000 0.866791 0.026361
0.000000 1.000000 0.062888
0.093460 1.000000 0.039888
0.230959 1.000000 0.036167
0.368385 1.000000 0.032447
0.505741 1.000000 0.028726
0.643026 1.000000 0.025006
0.780242 1.000000 0.021286
0.917390 1.000000 0.017565
1.000000 1.000000 0.013845
0.000555 0.000000 0.289705
0.087202 0.000000 0.287798
0.214109 0.000000 0.285891
0.335628 0.000000 0.289372
0.457751 0.000000 0.292249
0.580479 0.000000 0.294521
0.703812 0.000000 0.296188
0.827749 0.000000 0.297251
0.952291 0.000000 0.297709
0.000000 0.122966 0.283290
0.084046 0.117798 0.281384
0.214563 0.115544 0.279477
0.343059 0.113557 0.280926
0.466199 0.106778 0.275397
0.589944 0.098744 0.268717
0.714294 0.089455 0.260392
0.839248 0.078911 0.250287
0.964807 0.067112 0.238347
0.000000 0.248908 0.276876
0.090845 0.247988 0.274969
0.217866 0.245464 0.273062
0.350490 0.238111 0.268483
0.474648 0.231271 0.259935
0.599410 0.223176 0.251427
0.724776 0.213826 0.241368
0.850747 0.203221 0.229536
0.977323 0.191361 0.215866
0.000000 0.375000 0.271281
0.090144 0.375000 0.267352
0.217353 0.375000 0.261439
0.353929 0.375000 0.253719
0.483096 0.365382 0.247668
0.608875 0.356153 0.238733
0.735258 0.346701 0.227939
0.862246 0.336363 0.215284
0.989839 0.324957 0.200771
0.000000 0.500000 0.261408
0.088760 0.500000 0.254495
0.216272 0.500000 0.246224
0.351797 0.500000 0.240717
0.490476 0.500000 0.238206
0.618340 0.490910 0.228700
0.745740 0.481284 0.216828
0.873745 0.471083 0.203095
1.000000 0.460125 0.187645
0.000000 0.625000 0.248537
0.088191 0.625000 0.238264
0.216005 0.625000 0.228381
0.352797 0.625000 0.224463
0.490537 0.625000 0.221649
0.627805 0.624723 0.218667
0.756223 0.615210 0.205717
0.885245 0.605292 0.190906
1.000000 0.595583 0.175129
0.000000 0.750000 0.232647
0.088438 0.750000 0.218579
0.217309 0.750000 0.208071
0.355230 0.750000 0.204955
0.493009 0.750000 0.201840
0.630648 0.750000 0.198724
0.766705 0.748571 0.194605
0.896744 0.739046 0.178717
1.000000 0.730705 0.162613
0.000000 0.875000 0.213732
0.089499 0.875000 0.195406
0.220556 0.875000 0.185614
0.358844 0.875000 0.182196
0.497018 0.875000 0.178778
0.635081 0.875000 0.175359
0.773035 0.875000 0.171941
0.908243 0.872394 0.166528
1.000000 0.865505 0.150097
0.000000 1.000000 0.191788
0.091375 1.000000 0.168733
0.224726 1.000000 0.159904
0.363562 1.000000 0.156183
0.502303 1.000000 0.152463
0.640950 1.000000 0.148742
0.779504 1.000000 0.145022
0.917967 1.000000 0.141301
1.000000 1.000000 0.137581
0.000965 0.000000 0.420249
0.081960 0.000000 0.418040
0.209169 0.000000 0.415831
0.336378 0.000000 0.413622
0.458604 0.000000 0.416396
0.581435 0.000000 0.418565
0.704870 0.000000 0.420130
0.828910 0.000000 0.421090
0.953555 0.000000 0.421445
0.000000 0.121985 0.412818
0.073895 0.112016 0.410609
0.204685 0.109637 0.408400
0.338520 0.109769 0.406191
0.467052 0.106727 0.406414
0.590900 0.098687 0.399856
0.715352 0.089391 0.391816
0.840409 0.078841 0.382071
0.966070 0.067036 0.370533
0.000000 0.246878 0.405387
0.081772 0.242475 0.403178
0.209114 0.238153 0.400969
0.344070 0.235215 0.398760
0.475501 0.231220 0.394894
0.600365 0.223119 0.385124
0.725834 0.213762 0.374762
0.851908 0.203151 0.362968
0.978586 0.191285 0.349497
0.000000 0.373973 0.397955
0.089650 0.373405 0.395746
0.216991 0.372590 0.393537
0.344333 0.367830 0.391328
0.483949 0.355713 0.376295
0.609830 0.347551 0.365115
0.736317 0.338134 0.353496
0.863407 0.327461 0.340285
0.991103 0.315534 0.325290
0.000000 0.500000 0.389419
0.089613 0.500000 0.384910
0.217124 0.500000 0.379615
0.344636 0.500000 0.369199
0.490392 0.500000 0.362353
0.619296 0.485991 0.352687
0.746799 0.474873 0.340706
0.874906 0.463824 0.326865
1.000000 0.452276 0.311381
0.000000 0.625000 0.376784
0.089147 0.625000 0.369141
0.216961 0.625000 0.361541
0.344774 0.625000 0.349061
0.486980 0.625000 0.345693
0.628761 0.624453 0.342654
0.757281 0.612010 0.329595
0.886405 0.600541 0.314676
1.000000 0.589906 0.298865
0.000000 0.750000 0.361151
0.089496 0.750000 0.349952
0.217612 0.750000 0.340590
0.347695 0.750000 0.328897
0.488631 0.750000 0.325781
0.629324 0.750000 0.322665
0.767763 0.748031 0.318484
0.897904 0.736473 0.302487
1.000000 0.727052 0.286350
0.000000 0.875000 0.342504
0.090660 0.875000 0.327295
0.219078 0.875000 0.316401
0.351662 0.875000 0.306035
0.492189 0.875000 0.302617
0.632546 0.875000 0.299199
0.772737 0.875000 0.295780
0.909404 0.871724 0.290298
1.000000 0.863742 0.273834
0.000000 1.000000 0.320834
0.092639 1.000000 0.301149
0.221360 1.000000 0.288840
0.356457 1.000000 0.279920
0.497113 1.000000 0.276199
0.637636 1.000000 0.272479
0.778028 1.000000 0.268759
0.918292 1.000000 0.265038
1.000000 1.000000 0.261317
0.001462 0.000000 0.550589
0.076923 0.000000 0.548077
0.204434 0.000000 0.545566
0.331945 0.000000 0.543055
0.459457 0.000000 0.540543
0.582390 0.000000 0.542610
0.705928 0.000000 0.544072
0.830071 0.000000 0.544929
0.954818 0.000000 0.545182
0.000000 0.120993 0.542140
0.062743 0.105070 0.539629
0.194065 0.102523 0.537118
0.328476 0.102674 0.534606
0.462914 0.102824 0.532095
0.591855 0.098629 0.530986
0.716410 0.089328 0.523234
0.841570 0.078771 0.513852
0.967334 0.066960 0.502716
0.000000 0.245139 0.533692
0.071699 0.235982 0.531181
0.199361 0.230816 0.528669
0.333540 0.228181 0.526158
0.471027 0.228331 0.523647
0.601321 0.223061 0.518790
0.726893 0.213699 0.508137
0.853069 0.203081 0.496388
0.979850 0.191209 0.483120
0.000000 0.371145 0.525244
0.080654 0.367247 0.522732
0.208316 0.364268 0.520221
0.335978 0.356838 0.517710
0.478342 0.353838 0.515198
0.610786 0.347493 0.503815
0.737375 0.338070 0.490068
0.864568 0.327392 0.476108
0.992366 0.315458 0.460884
0.000000 0.499209 0.516795
0.089609 0.498930 0.514284
0.217271 0.498717 0.511773
0.344933 0.498127 0.509261
0.472595 0.489673 0.506750
0.620251 0.471926 0.478159
0.747857 0.462441 0.464973
0.876067 0.451850 0.450634
1.000000 0.440580 0.435118
0.000000 0.625000 0.505209
0.090102 0.625000 0.500051
0.217916 0.625000 0.494762
0.345730 0.625000 0.486935
0.474662 0.625000 0.469738
0.629716 0.623701 0.466641
0.758339 0.605906 0.453473
0.887566 0.592896 0.438445
1.000000 0.581513 0.422602
0.000000 0.750000 0.489819
0.090554 0.750000 0.481355
0.218670 0.750000 0.473927
0.346786 0.750000 0.463448
0.479177 0.750000 0.449723
0.625806 0.750000 0.446607
0.768821 0.747042 0.442362
0.899065 0.732426 0.426256
1.000000 0.721694 0.410086
0.000000 0.875000 0.471429
0.091821 0.875000 0.459212
0.220239 0.875000 0.450021
0.348657 0.875000 0.437709
0.483677 0.875000 0.426456
0.627759 0.875000 0.423038
0.771557 0.875000 0.419619
0.910564 0.870690 0.414067
1.000000 0.861173 0.397570
0.000000 1.000000 0.450026
0.093902 1.000000 0.433591
0.222623 1.000000 0.422829
0.351344 1.000000 0.408989
0.488966 1.000000 0.399936
0.632239 1.000000 0.396215
0.775314 1.000000 0.392495
0.918195 1.000000 0.388775
1.000000 1.000000 0.385054
0.002048 0.000000 0.680722
0.072091 0.000000 0.677909
0.199905 0.000000 0.675095
0.327718 0.000000 0.672282
0.455532 0.000000 0.669468
0.583346 0.000000 0.666654
0.706986 0.000000 0.668014
0.831232 0.000000 0.668768
0.956082 0.000000 0.668918
0.000000 0.119948 0.671257
0.050590 0.096927 0.668444
0.182537 0.094203 0.665630
0.317693 0.094372 0.662816
0.452866 0.094540 0.660003
0.588058 0.094709 0.657189
0.717469 0.089264 0.654647
0.842731 0.078702 0.645628
0.968597 0.066884 0.634895
0.000000 0.243480 0.661792
0.060624 0.228359 0.658978
0.188606 0.222494 0.656165
0.322966 0.219940 0.653351
0.460383 0.220108 0.650537
0.597866 0.220277 0.647724
0.727951 0.213635 0.641495
0.854230 0.203012 0.629796
0.981113 0.191133 0.616734
0.000000 0.368667 0.652327
0.070657 0.360085 0.649513
0.198639 0.355882 0.646699
0.326622 0.347963 0.643886
0.465820 0.345676 0.641072
0.607920 0.345845 0.638259
0.738433 0.338007 0.626594
0.865729 0.327322 0.611905
0.993630 0.315382 0.596459
0.000000 0.495651 0.642861
0.080690 0.492145 0.640048
0.208672 0.489917 0.637234
0.336655 0.485538 0.634421
0.464637 0.473008 0.631607
0.619001 0.471413 0.628793
0.748915 0.462378 0.607568
0.877228 0.451632 0.590112
1.000000 0.440000 0.573117
0.000000 0.624591 0.633396
0.090723 0.624588 0.630583
0.218705 0.624727 0.627769
0.346685 0.625000 0.624949
0.474499 0.625000 0.621258
0.630672 0.610650 0.590628
0.759397 0.589660 0.577352
0.888727 0.578561 0.562215
1.000000 0.567844 0.546338
0.000000 0.750000 0.618651
0.091612 0.750000 0.612788
0.219728 0.750000 0.607313
0.347844 0.750000 0.600162
0.475960 0.750000 0.588567
0.614480 0.750000 0.570549
0.769879 0.744649 0.566240
0.900226 0.725126 0.550026
1.000000 0.713070 0.533822
0.000000 0.875000 0.600508
0.092982 0.875000 0.591156
0.221400 0.875000 0.583681
0.349818 0.875000 0.574008
0.478236 0.875000 0.559683
0.617762 0.875000 0.546877
0.768353 0.875000 0.543459
0.911725 0.868889 0.537837
1.000000 0.857087 0.521307
0.000000 1.000000 0.579365
0.095166 1.000000 0.566059
0.223887 1.000000 0.556855
0.352607 1.000000 0.545247
0.481328 1.000000 0.529212
0.622917 1.000000 0.519952
0.770277 1.000000 0.516231
0.917312 1.000000 0.512511
1.000000 1.000000 0.508790
0.002721 0.000000 0.810651
0.067465 0.000000 0.807535
0.195581 0.000000 0.804419
0.323697 0.000000 0.801303
0.451813 0.000000 0.798187
0.579929 0.000000 0.795071
0.708045 0.000000 0.791955
0.832393 0.000000 0.792607
0.957345 0.000000 0.792655
0.000000 0.118834 0.800169
0.037436 0.087576 0.797053
0.170057 0.084676 0.793937
0.306032 0.084863 0.790821
0.442020 0.085050 0.787705
0.578022 0.085237 0.784589
0.714037 0.085424 0.781473
0.843892 0.078632 0.777400
0.969861 0.066808 0.767071
0.000000 0.241821 0.789687
0.048548 0.219561 0.786571
0.176850 0.213040 0.783455
0.311694 0.210492 0.780339
0.449516 0.210679 0.777223
0.587382 0.210866 0.774107
0.725291 0.211053 0.770991
0.855391 0.202942 0.763193
0.982377 0.191057 0.750339
0.000000 0.366327 0.779204
0.059659 0.351804 0.776089
0.187962 0.346666 0.772973
0.316264 0.338303 0.769857
0.454854 0.336308 0.766741
0.595872 0.336495 0.763625
0.737010 0.336682 0.760509
0.866890 0.327252 0.747675
0.994893 0.315306 0.732016
0.000000 0.492463 0.768722
0.070770 0.484333 0.765606
0.199073 0.480782 0.762490
0.327375 0.474859 0.759375
0.455678 0.463011 0.756259
0.602079 0.462124 0.753143
0.749964 0.462311 0.750027
0.878389 0.451562 0.729679
1.000000 0.440000 0.711702
0.000000 0.620347 0.758240
0.081881 0.617182 0.755124
0.210184 0.615458 0.752008
0.338487 0.612504 0.748892
0.466789 0.606283 0.745776
0.597901 0.587753 0.742661
0.760455 0.586685 0.732586
0.889888 0.575872 0.706062
1.000000 0.565000 0.686887
0.000000 0.750000 0.747647
0.092670 0.750000 0.744252
0.220786 0.750000 0.740748
0.348902 0.750000 0.736966
0.477018 0.750000 0.732447
0.605134 0.750000 0.724446
0.770938 0.730528 0.690119
0.901387 0.708025 0.673795
1.000000 0.696892 0.657559
0.000000 0.875000 0.729742
0.094142 0.875000 0.723128
0.222561 0.875000 0.717383
0.350979 0.875000 0.710373
0.479397 0.875000 0.700683
0.607815 0.875000 0.683524
0.758503 0.875000 0.667298
0.912886 0.864961 0.661606
1.000000 0.849573 0.645043
0.000000 1.000000 0.708851
0.096429 1.000000 0.698554
0.225150 1.000000 0.690916
0.353871 1.000000 0.681559
0.482591 1.000000 0.669029
0.611311 1.000000 0.649599
0.760043 1.000000 0.639968
0.914679 1.000000 0.636248
1.000000 1.000000 0.632527
0.003483 0.000000 0.940374
0.063044 0.000000 0.936956
0.191462 0.000000 0.933538
0.319881 0.000000 0.930120
0.448299 0.000000 0.926701
0.576717 0.000000 0.923283
0.705135 0.000000 0.919865
0.833553 0.000000 0.916447
0.958609 0.000000 0.916391
0.000000 0.117643 0.928875
0.023281 0.077012 0.925457
0.156608 0.073943 0.922039
0.293442 0.074148 0.918620
0.430287 0.074353 0.915202
0.567142 0.074559 0.911784
0.704008 0.074764 0.908366
0.840885 0.074969 0.904948
0.971124 0.066733 0.899244
0.000000 0.240126 0.917376
0.035470 0.209569 0.913958
0.164094 0.202407 0.910540
0.299561 0.199838 0.907121
0.437993 0.200043 0.903703
0.576457 0.200249 0.900285
0.714952 0.200454 0.896867
0.853480 0.200659 0.893448
0.983640 0.190982 0.883936
0.000000 0.364032 0.905877
0.047659 0.342359 0.902459
0.176283 0.336410 0.899040
0.304906 0.327566 0.895622
0.443623 0.325733 0.892204
0.584539 0.325938 0.888786
0.725531 0.326144 0.885368
0.866601 0.326349 0.881949
0.996157 0.315231 0.867555
0.000000 0.489450 0.894378
0.059848 0.475404 0.890960
0.188472 0.470813 0.887541
0.317095 0.463880 0.884123
0.445718 0.452202 0.880705
0.590040 0.451628 0.877287
0.735340 0.451834 0.873869
0.879550 0.451493 0.869186
1.000000 0.440000 0.850287
0.000000 0.616474 0.882879
0.072037 0.608729 0.879461
0.200661 0.605664 0.876042
0.329284 0.600954 0.872624
0.457907 0.592798 0.869206
0.588523 0.577318 0.865788
0.743036 0.577523 0.862369
0.891049 0.575803 0.852525
1.000000 0.565000 0.830421
0.000000 0.745209 0.871380
0.084226 0.742364 0.867961
0.212850 0.741018 0.864543
0.341473 0.738911 0.861125
0.470096 0.735146 0.857707
0.598720 0.726504 0.854289
0.739788 0.703213 0.850870
0.902548 0.700113 0.828149
1.000000 0.690000 0.803206
0.000000 0.875000 0.859131
0.095303 0.875000 0.855129
0.223721 0.875000 0.851127
0.352140 0.875000 0.846806
0.480558 0.875000 0.841809
0.608976 0.875000 0.834922
0.737394 0.875000 0.817677
0.914047 0.849711 0.785376
1.000000 0.831197 0.768780
0.000000 1.000000 0.838484
0.097693 1.000000 0.831074
0.226414 1.000000 0.825014
0.355134 1.000000 0.817925
0.483855 1.000000 0.808935
0.612575 1.000000 0.795801
0.741296 1.000000 0.770471
0.906690 1.000000 0.759984
1.000000 1.000000 0.756263
0.004332 0.000000 0.995668
0.058828 0.000000 0.994074
0.187549 0.000000 0.992479
0.316269 0.000000 0.990884
0.444990 0.000000 0.989290
0.573711 0.000000 0.987696
0.702431 0.000000 0.986101
0.831151 0.000000 0.984506
0.959872 0.000000 0.982912
0.000000 0.116444 0.990304
0.012022 0.069147 0.988710
0.145995 0.065773 0.987115
0.283658 0.065869 0.985520
0.421324 0.065964 0.983926
0.558995 0.066060 0.982332
0.696670 0.066156 0.980737
0.834349 0.066251 0.979142
0.972033 0.066347 0.977548
0.000000 0.238588 0.984940
0.024860 0.201897 0.983346
0.153676 0.193961 0.981751
0.289846 0.191191 0.980156
0.429040 0.191286 0.978562
0.568245 0.191382 0.976968
0.707462 0.191478 0.975373
0.846691 0.191573 0.973778
0.984904 0.190906 0.971161
0.000000 0.362126 0.979576
0.037698 0.334866 0.977982
0.166514 0.328106 0.976387
0.295330 0.318508 0.974792
0.434643 0.316608 0.973198
0.576048 0.316704 0.971604
0.717479 0.316799 0.970009
0.858936 0.316895 0.968414
0.997420 0.315155 0.963878
0.000000 0.487106 0.974212
0.050535 0.468068 0.972618
0.179352 0.462582 0.971023
0.308168 0.454726 0.969428
0.436984 0.442537 0.967834
0.581191 0.442026 0.966240
0.726068 0.442121 0.964645
0.871004 0.442217 0.963050
1.000000 0.440000 0.956831
0.000000 0.613577 0.968848
0.063373 0.601517 0.967254
0.192189 0.597415 0.965659
0.321006 0.591486 0.964064
0.449822 0.582159 0.962470
0.580576 0.567347 0.960876
0.731561 0.567443 0.959281
0.882685 0.567539 0.957686
1.000000 0.565000 0.949067
0.000000 0.741590 0.963484
0.076211 0.735230 0.961890
0.205027 0.732632 0.960295
0.333843 0.728840 0.958700
0.462660 0.722785 0.957106
0.591476 0.711585 0.955512
0.728018 0.692765 0.953917
0.893235 0.692861 0.952322
1.000000 0.690000 0.938903
0.000000 0.871201 0.958120
0.089049 0.869224 0.956526
0.217865 0.868263 0.954931
0.346681 0.866845 0.953336
0.475497 0.864545 0.951742
0.604314 0.860167 0.950148
0.733130 0.848591 0.948553
0.896501 0.818182 0.946958
1.000000 0.815000 0.919139
0.000000 1.000000 0.950413
0.098957 1.000000 0.947677
0.227677 1.000000 0.945319
0.356398 1.000000 0.942624
0.485118 1.000000 0.939305
0.613838 1.000000 0.934626
0.742559 1.000000 0.925925
0.871279 1.000000 0.890601
1.000000 1.000000 0.880000
