luts/original/block-contrast.cube
TITLE "Block Contrast"
LUT_3D_SIZE 33
DOMAIN_MIN 0.0 0.0 0.0
DOMAIN_MAX 1.0 1.0 1.0
0.000000 0.000000 0.000000
0.030074 0.000000 0.000000
0.063457 0.000000 0.000000
0.097068 0.000000 0.000000
0.130908 0.000000 0.000000
0.164976 0.000000 0.000000
0.199273 0.000000 0.000000
0.233799 0.000000 0.000000
0.268553 0.000000 0.000000
0.303535 0.000000 0.000000
0.338746 0.000000 0.000000
0.374185 0.000000 0.000000
0.409853 0.000000 0.000000
0.445750 0.000000 0.000000
0.481875 0.000000 0.000000
0.518228 0.000000 0.000000
0.554810 0.000000 0.000000
0.591621 0.000000 0.000000
0.628660 0.000000 0.000000
0.665927 0.000000 0.000000
0.703423 0.000000 0.000000
0.741148 0.000000 0.000000
0.779101 0.000000 0.000000
0.817282 0.000000 0.000000
0.855693 0.000000 0.000000
0.894331 0.000000 0.000000
0.933198 0.000000 0.000000
0.972294 0.000000 0.000000
0.989844 0.000000 0.000000
0.994287 0.000000 0.000000
0.997461 0.000000 0.000000
0.999365 0.000000 0.000000
1.000000 0.000000 0.000000
0.000000 0.021335 0.000000
0.030074 0.021335 0.000000
0.063457 0.020791 0.000000
0.097068 0.020247 0.000000
0.130908 0.019703 0.000000
0.164976 0.019159 0.000000
0.199273 0.018616 0.000000
0.233799 0.018072 0.000000
0.268553 0.017528 0.000000
0.303535 0.016984 0.000000
0.338746 0.016440 0.000000
0.374185 0.015896 0.000000
0.409853 0.015352 0.000000
0.445750 0.014808 0.000000
0.481875 0.014265 0.000000
0.518228 0.013721 0.000000
0.554810 0.013177 0.000000
0.591621 0.012633 0.000000
0.628660 0.012089 0.000000
0.665927 0.011545 0.000000
0.703423 0.011001 0.000000
0.741148 0.010458 0.000000
0.779101 0.009914 0.000000
0.817282 0.009370 0.000000
0.855693 0.008826 0.000000
0.894331 0.008282 0.000000
0.933198 0.007738 0.000000
0.972294 0.007194 0.000000
0.989844 0.006650 0.000000
0.994287 0.006107 0.000000
0.997461 0.005563 0.000000
0.999365 0.005019 0.000000
1.000000 0.004475 0.000000
0.000000 0.054238 0.000000
0.030010 0.054238 0.000000
0.063457 0.054238 0.000000
0.097068 0.053809 0.000000
0.130908 0.053379 0.000000
0.164976 0.052949 0.000000
0.199273 0.052520 0.000000
0.233799 0.052090 0.000000
0.268553 0.051661 0.000000
0.303535 0.051231 0.000000
0.338746 0.050801 0.000000
0.374185 0.050372 0.000000
0.409853 0.049942 0.000000
0.445750 0.049513 0.000000
0.481875 0.049083 0.000000
0.518228 0.048653 0.000000
0.554810 0.048224 0.000000
0.591621 0.047794 0.000000
0.628660 0.047365 0.000000
0.665927 0.046935 0.000000
0.703423 0.046505 0.000000
0.741148 0.046076 0.000000
0.779101 0.045646 0.000000
0.817282 0.045216 0.000000
0.855693 0.044787 0.000000
0.894331 0.044357 0.000000
0.933198 0.043928 0.000000
0.972294 0.043498 0.000000
0.989844 0.043068 0.000000
0.994287 0.042639 0.000000
0.997461 0.042209 0.000000
0.999365 0.041780 0.000000
1.000000 0.041350 0.000000
0.000000 0.087370 0.000000
0.029945 0.087370 0.000000
0.063507 0.087370 0.000000
0.097068 0.087370 0.000000
0.130908 0.087055 0.000000
0.164976 0.086739 0.000000
0.199273 0.086424 0.000000
0.233799 0.086109 0.000000
0.268553 0.085793 0.000000
0.303535 0.085478 0.000000
0.338746 0.085163 0.000000
0.374185 0.084847 0.000000
0.409853 0.084532 0.000000
0.445750 0.084217 0.000000
0.481875 0.083901 0.000000
0.518228 0.083586 0.000000
0.554810 0.083271 0.000000
0.591621 0.082955 0.000000
0.628660 0.082640 0.000000
0.665927 0.082325 0.000000
0.703423 0.082009 0.000000
0.741148 0.081694 0.000000
0.779101 0.081379 0.000000
0.817282 0.081063 0.000000
0.855693 0.080748 0.000000
0.894331 0.080432 0.000000
0.933198 0.080117 0.000000
0.972294 0.079802 0.000000
0.989844 0.079486 0.000000
0.994287 0.079171 0.000000
0.997461 0.078856 0.000000
0.999365 0.078540 0.000000
1.000000 0.078225 0.000000
0.000000 0.120731 0.000000
0.029881 0.120731 0.000000
0.063557 0.120731 0.000000
0.097232 0.120731 0.000000
0.130908 0.120731 0.000000
0.164976 0.120530 0.000000
0.199273 0.120328 0.000000
0.233799 0.120127 0.000000
0.268553 0.119926 0.000000
0.303535 0.119725 0.000000
0.338746 0.119524 0.000000
0.374185 0.119323 0.000000
0.409853 0.119122 0.000000
0.445750 0.118921 0.000000
0.481875 0.118720 0.000000
0.518228 0.118519 0.000000
0.554810 0.118317 0.000000
0.591621 0.118116 0.000000
0.628660 0.117915 0.000000
0.665927 0.117714 0.000000
0.703423 0.117513 0.000000
0.741148 0.117312 0.000000
0.779101 0.117111 0.000000
0.817282 0.116910 0.000000
0.855693 0.116709 0.000000
0.894331 0.116508 0.000000
0.933198 0.116307 0.000000
0.972294 0.116105 0.000000
0.989844 0.115904 0.000000
0.994287 0.115703 0.000000
0.997461 0.115502 0.000000
0.999365 0.115301 0.000000
1.000000 0.115100 0.000000
0.000000 0.154320 0.000000
0.029816 0.154320 0.000000
0.063606 0.154320 0.000000
0.097396 0.154320 0.000000
0.131186 0.154320 0.000000
0.164976 0.154320 0.000000
0.199273 0.154233 0.000000
0.233799 0.154146 0.000000
0.268553 0.154059 0.000000
0.303535 0.153972 0.000000
0.338746 0.153885 0.000000
0.374185 0.153799 0.000000
0.409853 0.153712 0.000000
0.445750 0.153625 0.000000
0.481875 0.153538 0.000000
0.518228 0.153451 0.000000
0.554810 0.153364 0.000000
0.591621 0.153278 0.000000
0.628660 0.153191 0.000000
0.665927 0.153104 0.000000
0.703423 0.153017 0.000000
0.741148 0.152930 0.000000
0.779101 0.152843 0.000000
0.817282 0.152757 0.000000
0.855693 0.152670 0.000000
0.894331 0.152583 0.000000
0.933198 0.152496 0.000000
0.972294 0.152409 0.000000
0.989844 0.152322 0.000000
0.994287 0.152236 0.000000
0.997461 0.152149 0.000000
0.999365 0.152062 0.000000
1.000000 0.151975 0.000000
0.000000 0.188137 0.000000
0.029752 0.188137 0.000000
0.063656 0.188137 0.000000
0.097560 0.188137 0.000000
0.131465 0.188137 0.000000
0.165369 0.188137 0.000000
0.199273 0.188137 0.000000
0.233799 0.188164 0.000000
0.268553 0.188192 0.000000
0.303535 0.188219 0.000000
0.338746 0.188247 0.000000
0.374185 0.188274 0.000000
0.409853 0.188302 0.000000
0.445750 0.188329 0.000000
0.481875 0.188356 0.000000
0.518228 0.188384 0.000000
0.554810 0.188411 0.000000
0.591621 0.188439 0.000000
0.628660 0.188466 0.000000
0.665927 0.188494 0.000000
0.703423 0.188521 0.000000
0.741148 0.188548 0.000000
0.779101 0.188576 0.000000
0.817282 0.188603 0.000000
0.855693 0.188631 0.000000
0.894331 0.188658 0.000000
0.933198 0.188685 0.000000
0.972294 0.188713 0.000000
0.989844 0.188740 0.000000
0.994287 0.188768 0.000000
0.997461 0.188795 0.000000
0.999365 0.188823 0.000000
1.000000 0.188850 0.000000
0.000000 0.222183 0.000000
0.029687 0.222183 0.000000
0.063706 0.222183 0.000000
0.097724 0.222183 0.000000
0.131743 0.222183 0.000000
0.165762 0.222183 0.000000
0.199780 0.222183 0.000000
0.233799 0.222183 0.000000
0.268553 0.222325 0.000000
0.303535 0.222466 0.000000
0.338746 0.222608 0.000000
0.374185 0.222750 0.000000
0.409853 0.222891 0.000000
0.445750 0.223033 0.000000
0.481875 0.223175 0.000000
0.518228 0.223316 0.000000
0.554810 0.223458 0.000000
0.591621 0.223600 0.000000
0.628660 0.223741 0.000000
0.665927 0.223883 0.000000
0.703423 0.224025 0.000000
0.741148 0.224167 0.000000
0.779101 0.224308 0.000000
0.817282 0.224450 0.000000
0.855693 0.224592 0.000000
0.894331 0.224733 0.000000
0.933198 0.224875 0.000000
0.972294 0.225017 0.000000
0.989844 0.225158 0.000000
0.994287 0.225300 0.000000
0.997461 0.225442 0.000000
0.999365 0.225583 0.000000
1.000000 0.225725 0.000000
0.000000 0.256458 0.000000
0.029623 0.256458 0.000000
0.063756 0.256458 0.000000
0.097888 0.256458 0.000000
0.132021 0.256458 0.000000
0.166154 0.256458 0.000000
0.200287 0.256458 0.000000
0.234420 0.256458 0.000000
0.268553 0.256458 0.000000
0.303535 0.256713 0.000000
0.338746 0.256969 0.000000
0.374185 0.257225 0.000000
0.409853 0.257481 0.000000
0.445750 0.257737 0.000000
0.481875 0.257993 0.000000
0.518228 0.258249 0.000000
0.554810 0.258505 0.000000
0.591621 0.258761 0.000000
0.628660 0.259017 0.000000
0.665927 0.259273 0.000000
0.703423 0.259529 0.000000
0.741148 0.259785 0.000000
0.779101 0.260041 0.000000
0.817282 0.260297 0.000000
0.855693 0.260552 0.000000
0.894331 0.260808 0.000000
0.933198 0.261064 0.000000
0.972294 0.261320 0.000000
0.989844 0.261576 0.000000
0.994287 0.261832 0.000000
0.997461 0.262088 0.000000
0.999365 0.262344 0.000000
1.000000 0.262600 0.000000
0.000000 0.290961 0.000000
0.029558 0.290961 0.000000
0.063805 0.290961 0.000000
0.098052 0.290961 0.000000
0.132300 0.290961 0.000000
0.166547 0.290961 0.000000
0.200794 0.290961 0.000000
0.235041 0.290961 0.000000
0.269288 0.290961 0.000000
0.303535 0.290961 0.000000
0.338746 0.291331 0.000000
0.374185 0.291701 0.000000
0.409853 0.292071 0.000000
0.445750 0.292441 0.000000
0.481875 0.292811 0.000000
0.518228 0.293182 0.000000
0.554810 0.293552 0.000000
0.591621 0.293922 0.000000
0.628660 0.294292 0.000000
0.665927 0.294662 0.000000
0.703423 0.295033 0.000000
0.741148 0.295403 0.000000
0.779101 0.295773 0.000000
0.817282 0.296143 0.000000
0.855693 0.296513 0.000000
0.894331 0.296884 0.000000
0.933198 0.297254 0.000000
0.972294 0.297624 0.000000
0.989844 0.297994 0.000000
0.994287 0.298364 0.000000
0.997461 0.298735 0.000000
0.999365 0.299105 0.000000
1.000000 0.299475 0.000000
0.000000 0.325692 0.000000
0.029494 0.325692 0.000000
0.063855 0.325692 0.000000
0.098216 0.325692 0.000000
0.132578 0.325692 0.000000
0.166939 0.325692 0.000000
0.201300 0.325692 0.000000
0.235662 0.325692 0.000000
0.270023 0.325692 0.000000
0.304384 0.325692 0.000000
0.338746 0.325692 0.000000
0.374185 0.326176 0.000000
0.409853 0.326661 0.000000
0.445750 0.327145 0.000000
0.481875 0.327630 0.000000
0.518228 0.328114 0.000000
0.554810 0.328599 0.000000
0.591621 0.329083 0.000000
0.628660 0.329568 0.000000
0.665927 0.330052 0.000000
0.703423 0.330537 0.000000
0.741148 0.331021 0.000000
0.779101 0.331505 0.000000
0.817282 0.331990 0.000000
0.855693 0.332474 0.000000
0.894331 0.332959 0.000000
0.933198 0.333443 0.000000
0.972294 0.333928 0.000000
0.989844 0.334412 0.000000
0.994287 0.334897 0.000000
0.997461 0.335381 0.000000
0.999365 0.335866 0.000000
1.000000 0.336350 0.000000
0.000000 0.360652 0.000000
0.029429 0.360652 0.000000
0.063905 0.360652 0.000000
0.098381 0.360652 0.000000
0.132856 0.360652 0.000000
0.167332 0.360652 0.000000
0.201807 0.360652 0.000000
0.236283 0.360652 0.000000
0.270758 0.360652 0.000000
0.305234 0.360652 0.000000
0.339710 0.360652 0.000000
0.374185 0.360652 0.000000
0.409853 0.361251 0.000000
0.445750 0.361849 0.000000
0.481875 0.362448 0.000000
0.518228 0.363047 0.000000
0.554810 0.363646 0.000000
0.591621 0.364244 0.000000
0.628660 0.364843 0.000000
0.665927 0.365442 0.000000
0.703423 0.366040 0.000000
0.741148 0.366639 0.000000
0.779101 0.367238 0.000000
0.817282 0.367837 0.000000
0.855693 0.368435 0.000000
0.894331 0.369034 0.000000
0.933198 0.369633 0.000000
0.972294 0.370231 0.000000
0.989844 0.370830 0.000000
0.994287 0.371429 0.000000
0.997461 0.372028 0.000000
0.999365 0.372626 0.000000
1.000000 0.373225 0.000000
0.000000 0.395841 0.000000
0.029365 0.395841 0.000000
0.063955 0.395841 0.000000
0.098545 0.395841 0.000000
0.133134 0.395841 0.000000
0.167724 0.395841 0.000000
0.202314 0.395841 0.000000
0.236904 0.395841 0.000000
0.271494 0.395841 0.000000
0.306084 0.395841 0.000000
0.340673 0.395841 0.000000
0.375263 0.395841 0.000000
0.409853 0.395841 0.000000
0.445750 0.396554 0.000000
0.481875 0.397267 0.000000
0.518228 0.397980 0.000000
0.554810 0.398692 0.000000
0.591621 0.399405 0.000000
0.628660 0.400118 0.000000
0.665927 0.400831 0.000000
0.703423 0.401544 0.000000
0.741148 0.402257 0.000000
0.779101 0.402970 0.000000
0.817282 0.403683 0.000000
0.855693 0.404396 0.000000
0.894331 0.405109 0.000000
0.933198 0.405822 0.000000
0.972294 0.406535 0.000000
0.989844 0.407248 0.000000
0.994287 0.407961 0.000000
0.997461 0.408674 0.000000
0.999365 0.409387 0.000000
1.000000 0.410100 0.000000
0.000000 0.431258 0.000000
0.029300 0.431258 0.000000
0.064004 0.431258 0.000000
0.098709 0.431258 0.000000
0.133413 0.431258 0.000000
0.168117 0.431258 0.000000
0.202821 0.431258 0.000000
0.237525 0.431258 0.000000
0.272229 0.431258 0.000000
0.306933 0.431258 0.000000
0.341637 0.431258 0.000000
0.376341 0.431258 0.000000
0.411045 0.431258 0.000000
0.445750 0.431258 0.000000
0.481875 0.432085 0.000000
0.518228 0.432912 0.000000
0.554810 0.433739 0.000000
0.591621 0.434567 0.000000
0.628660 0.435394 0.000000
0.665927 0.436221 0.000000
0.703423 0.437048 0.000000
0.741148 0.437876 0.000000
0.779101 0.438703 0.000000
0.817282 0.439530 0.000000
0.855693 0.440357 0.000000
0.894331 0.441184 0.000000
0.933198 0.442012 0.000000
0.972294 0.442839 0.000000
0.989844 0.443666 0.000000
0.994287 0.444493 0.000000
0.997461 0.445321 0.000000
0.999365 0.446148 0.000000
1.000000 0.446975 0.000000
0.000000 0.466903 0.000000
0.029236 0.466903 0.000000
0.064054 0.466903 0.000000
0.098873 0.466903 0.000000
0.133691 0.466903 0.000000
0.168509 0.466903 0.000000
0.203328 0.466903 0.000000
0.238146 0.466903 0.000000
0.272964 0.466903 0.000000
0.307783 0.466903 0.000000
0.342601 0.466903 0.000000
0.377419 0.466903 0.000000
0.412238 0.466903 0.000000
0.447056 0.466903 0.000000
0.481875 0.466903 0.000000
0.518228 0.467845 0.000000
0.554810 0.468786 0.000000
0.591621 0.469728 0.000000
0.628660 0.470669 0.000000
0.665927 0.471611 0.000000
0.703423 0.472552 0.000000
0.741148 0.473494 0.000000
0.779101 0.474435 0.000000
0.817282 0.475377 0.000000
0.855693 0.476318 0.000000
0.894331 0.477260 0.000000
0.933198 0.478201 0.000000
0.972294 0.479143 0.000000
0.989844 0.480084 0.000000
0.994287 0.481026 0.000000
0.997461 0.481967 0.000000
0.999365 0.482909 0.000000
1.000000 0.483850 0.000000
0.000000 0.502777 0.000000
0.029171 0.502777 0.000000
0.064104 0.502777 0.000000
0.099037 0.502777 0.000000
0.133969 0.502777 0.000000
0.168902 0.502777 0.000000
0.203834 0.502777 0.000000
0.238767 0.502777 0.000000
0.273700 0.502777 0.000000
0.308632 0.502777 0.000000
0.343565 0.502777 0.000000
0.378498 0.502777 0.000000
0.413430 0.502777 0.000000
0.448363 0.502777 0.000000
0.483295 0.502777 0.000000
0.518228 0.502777 0.000000
0.554810 0.503833 0.000000
0.591621 0.504889 0.000000
0.628660 0.505945 0.000000
0.665927 0.507000 0.000000
0.703423 0.508056 0.000000
0.741148 0.509112 0.000000
0.779101 0.510168 0.000000
0.817282 0.511223 0.000000
0.855693 0.512279 0.000000
0.894331 0.513335 0.000000
0.933198 0.514391 0.000000
0.972294 0.515446 0.000000
0.989844 0.516502 0.000000
0.994287 0.517558 0.000000
0.997461 0.518614 0.000000
0.999365 0.519669 0.000000
1.000000 0.520725 0.000000
0.000000 0.538880 0.000000
0.029107 0.538880 0.000000
0.064154 0.538880 0.000000
0.099201 0.538880 0.000000
0.134247 0.538880 0.000000
0.169294 0.538880 0.000000
0.204341 0.538880 0.000000
0.239388 0.538880 0.000000
0.274435 0.538880 0.000000
0.309482 0.538880 0.000000
0.344529 0.538880 0.000000
0.379576 0.538880 0.000000
0.414622 0.538880 0.000000
0.449669 0.538880 0.000000
0.484716 0.538880 0.000000
0.519763 0.538880 0.000000
0.554810 0.538880 0.000000
0.591621 0.540050 0.000000
0.628660 0.541220 0.000000
0.665927 0.542390 0.000000
0.703423 0.543560 0.000000
0.741148 0.544730 0.000000
0.779101 0.545900 0.000000
0.817282 0.547070 0.000000
0.855693 0.548240 0.000000
0.894331 0.549410 0.000000
0.933198 0.550580 0.000000
0.972294 0.551750 0.000000
0.989844 0.552920 0.000000
0.994287 0.554090 0.000000
0.997461 0.555260 0.000000
0.999365 0.556430 0.000000
1.000000 0.557600 0.000000
0.000000 0.575211 0.000000
0.029042 0.575211 0.000000
0.064204 0.575211 0.000000
0.099365 0.575211 0.000000
0.134526 0.575211 0.000000
0.169687 0.575211 0.000000
0.204848 0.575211 0.000000
0.240009 0.575211 0.000000
0.275170 0.575211 0.000000
0.310331 0.575211 0.000000
0.345493 0.575211 0.000000
0.380654 0.575211 0.000000
0.415815 0.575211 0.000000
0.450976 0.575211 0.000000
0.486137 0.575211 0.000000
0.521298 0.575211 0.000000
0.556459 0.575211 0.000000
0.591621 0.575211 0.000000
0.628660 0.576495 0.000000
0.665927 0.577780 0.000000
0.703423 0.579064 0.000000
0.741148 0.580348 0.000000
0.779101 0.581632 0.000000
0.817282 0.582917 0.000000
0.855693 0.584201 0.000000
0.894331 0.585485 0.000000
0.933198 0.586769 0.000000
0.972294 0.588054 0.000000
0.989844 0.589338 0.000000
0.994287 0.590622 0.000000
0.997461 0.591906 0.000000
0.999365 0.593191 0.000000
1.000000 0.594475 0.000000
0.000000 0.611771 0.000000
0.028978 0.611771 0.000000
0.064253 0.611771 0.000000
0.099529 0.611771 0.000000
0.134804 0.611771 0.000000
0.170079 0.611771 0.000000
0.205355 0.611771 0.000000
0.240630 0.611771 0.000000
0.275906 0.611771 0.000000
0.311181 0.611771 0.000000
0.346456 0.611771 0.000000
0.381732 0.611771 0.000000
0.417007 0.611771 0.000000
0.452283 0.611771 0.000000
0.487558 0.611771 0.000000
0.522833 0.611771 0.000000
0.558109 0.611771 0.000000
0.593384 0.611771 0.000000
0.628660 0.611771 0.000000
0.665927 0.613169 0.000000
0.703423 0.614568 0.000000
0.741148 0.615966 0.000000
0.779101 0.617365 0.000000
0.817282 0.618763 0.000000
0.855693 0.620162 0.000000
0.894331 0.621560 0.000000
0.933198 0.622959 0.000000
0.972294 0.624357 0.000000
0.989844 0.625756 0.000000
0.994287 0.627154 0.000000
0.997461 0.628553 0.000000
0.999365 0.629951 0.000000
1.000000 0.631350 0.000000
0.000000 0.648559 0.000000
0.028913 0.648559 0.000000
0.064303 0.648559 0.000000
0.099693 0.648559 0.000000
0.135082 0.648559 0.000000
0.170472 0.648559 0.000000
0.205862 0.648559 0.000000
0.241251 0.648559 0.000000
0.276641 0.648559 0.000000
0.312031 0.648559 0.000000
0.347420 0.648559 0.000000
0.382810 0.648559 0.000000
0.418200 0.648559 0.000000
0.453589 0.648559 0.000000
0.488979 0.648559 0.000000
0.524368 0.648559 0.000000
0.559758 0.648559 0.000000
0.595148 0.648559 0.000000
0.630537 0.648559 0.000000
0.665927 0.648559 0.000000
0.703423 0.650072 0.000000
0.741148 0.651585 0.000000
0.779101 0.653097 0.000000
0.817282 0.654610 0.000000
0.855693 0.656123 0.000000
0.894331 0.657636 0.000000
0.933198 0.659148 0.000000
0.972294 0.660661 0.000000
0.989844 0.662174 0.000000
0.994287 0.663687 0.000000
0.997461 0.665199 0.000000
0.999365 0.666712 0.000000
1.000000 0.668225 0.000000
0.000000 0.685576 0.000000
0.028849 0.685576 0.000000
0.064353 0.685576 0.000000
0.099857 0.685576 0.000000
0.135361 0.685576 0.000000
0.170865 0.685576 0.000000
0.206368 0.685576 0.000000
0.241872 0.685576 0.000000
0.277376 0.685576 0.000000
0.312880 0.685576 0.000000
0.348384 0.685576 0.000000
0.383888 0.685576 0.000000
0.419392 0.685576 0.000000
0.454896 0.685576 0.000000
0.490400 0.685576 0.000000
0.525904 0.685576 0.000000
0.561408 0.685576 0.000000
0.596911 0.685576 0.000000
0.632415 0.685576 0.000000
0.667919 0.685576 0.000000
0.703423 0.685576 0.000000
0.741148 0.687203 0.000000
0.779101 0.688830 0.000000
0.817282 0.690457 0.000000
0.855693 0.692084 0.000000
0.894331 0.693711 0.000000
0.933198 0.695338 0.000000
0.972294 0.696965 0.000000
0.989844 0.698592 0.000000
0.994287 0.700219 0.000000
0.997461 0.701846 0.000000
0.999365 0.703473 0.000000
1.000000 0.705100 0.000000
0.000000 0.722821 0.000000
0.028784 0.722821 0.000000
0.064403 0.722821 0.000000
0.100021 0.722821 0.000000
0.135639 0.722821 0.000000
0.171257 0.722821 0.000000
0.206875 0.722821 0.000000
0.242493 0.722821 0.000000
0.278112 0.722821 0.000000
0.313730 0.722821 0.000000
0.349348 0.722821 0.000000
0.384966 0.722821 0.000000
0.420584 0.722821 0.000000
0.456202 0.722821 0.000000
0.491821 0.722821 0.000000
0.527439 0.722821 0.000000
0.563057 0.722821 0.000000
0.598675 0.722821 0.000000
0.634293 0.722821 0.000000
0.669911 0.722821 0.000000
0.705530 0.722821 0.000000
0.741148 0.722821 0.000000
0.779101 0.724562 0.000000
0.817282 0.726303 0.000000
0.855693 0.728045 0.000000
0.894331 0.729786 0.000000
0.933198 0.731527 0.000000
0.972294 0.733269 0.000000
0.989844 0.735010 0.000000
0.994287 0.736751 0.000000
0.997461 0.738492 0.000000
0.999365 0.740234 0.000000
1.000000 0.741975 0.000000
0.000000 0.760295 0.000000
0.028720 0.760295 0.000000
0.064452 0.760295 0.000000
0.100185 0.760295 0.000000
0.135917 0.760295 0.000000
0.171650 0.760295 0.000000
0.207382 0.760295 0.000000
0.243114 0.760295 0.000000
0.278847 0.760295 0.000000
0.314579 0.760295 0.000000
0.350312 0.760295 0.000000
0.386044 0.760295 0.000000
0.421777 0.760295 0.000000
0.457509 0.760295 0.000000
0.493241 0.760295 0.000000
0.528974 0.760295 0.000000
0.564706 0.760295 0.000000
0.600439 0.760295 0.000000
0.636171 0.760295 0.000000
0.671903 0.760295 0.000000
0.707636 0.760295 0.000000
0.743368 0.760295 0.000000
0.779101 0.760295 0.000000
0.817282 0.762150 0.000000
0.855693 0.764006 0.000000
0.894331 0.765861 0.000000
0.933198 0.767717 0.000000
0.972294 0.769572 0.000000
0.989844 0.771428 0.000000
0.994287 0.773283 0.000000
0.997461 0.775139 0.000000
0.999365 0.776994 0.000000
1.000000 0.778850 0.000000
0.000000 0.797997 0.000000
0.028655 0.797997 0.000000
0.064502 0.797997 0.000000
0.100349 0.797997 0.000000
0.136195 0.797997 0.000000
0.172042 0.797997 0.000000
0.207889 0.797997 0.000000
0.243736 0.797997 0.000000
0.279582 0.797997 0.000000
0.315429 0.797997 0.000000
0.351276 0.797997 0.000000
0.387122 0.797997 0.000000
0.422969 0.797997 0.000000
0.458816 0.797997 0.000000
0.494662 0.797997 0.000000
0.530509 0.797997 0.000000
0.566356 0.797997 0.000000
0.602202 0.797997 0.000000
0.638049 0.797997 0.000000
0.673896 0.797997 0.000000
0.709742 0.797997 0.000000
0.745589 0.797997 0.000000
0.781436 0.797997 0.000000
0.817282 0.797997 0.000000
0.855693 0.799967 0.000000
0.894331 0.801936 0.000000
0.933198 0.803906 0.000000
0.972294 0.805876 0.000000
0.989844 0.807846 0.000000
0.994287 0.809816 0.000000
0.997461 0.811785 0.000000
0.999365 0.813755 0.000000
1.000000 0.815725 0.000000
0.000000 0.835927 0.000000
0.028591 0.835927 0.000000
0.064552 0.835927 0.000000
0.100513 0.835927 0.000000
0.136474 0.835927 0.000000
0.172435 0.835927 0.000000
0.208396 0.835927 0.000000
0.244357 0.835927 0.000000
0.280317 0.835927 0.000000
0.316278 0.835927 0.000000
0.352239 0.835927 0.000000
0.388200 0.835927 0.000000
0.424161 0.835927 0.000000
0.460122 0.835927 0.000000
0.496083 0.835927 0.000000
0.532044 0.835927 0.000000
0.568005 0.835927 0.000000
0.603966 0.835927 0.000000
0.639927 0.835927 0.000000
0.675888 0.835927 0.000000
0.711849 0.835927 0.000000
0.747810 0.835927 0.000000
0.783771 0.835927 0.000000
0.819732 0.835927 0.000000
0.855693 0.835927 0.000000
0.894331 0.838012 0.000000
0.933198 0.840096 0.000000
0.972294 0.842180 0.000000
0.989844 0.844264 0.000000
0.994287 0.846348 0.000000
0.997461 0.848432 0.000000
0.999365 0.850516 0.000000
1.000000 0.852600 0.000000
0.000000 0.874087 0.000000
0.028526 0.874087 0.000000
0.064602 0.874087 0.000000
0.100677 0.874087 0.000000
0.136752 0.874087 0.000000
0.172827 0.874087 0.000000
0.208902 0.874087 0.000000
0.244978 0.874087 0.000000
0.281053 0.874087 0.000000
0.317128 0.874087 0.000000
0.353203 0.874087 0.000000
0.389278 0.874087 0.000000
0.425354 0.874087 0.000000
0.461429 0.874087 0.000000
0.497504 0.874087 0.000000
0.533579 0.874087 0.000000
0.569654 0.874087 0.000000
0.605730 0.874087 0.000000
0.641805 0.874087 0.000000
0.677880 0.874087 0.000000
0.713955 0.874087 0.000000
0.750030 0.874087 0.000000
0.786106 0.874087 0.000000
0.822181 0.874087 0.000000
0.858256 0.874087 0.000000
0.894331 0.874087 0.000000
0.933198 0.876285 0.000000
0.972294 0.878483 0.000000
0.989844 0.880682 0.000000
0.994287 0.882880 0.000000
0.997461 0.885078 0.000000
0.999365 0.887277 0.000000
1.000000 0.889475 0.000000
0.000000 0.912475 0.000000
0.028462 0.912475 0.000000
0.064651 0.912475 0.000000
0.100841 0.912475 0.000000
0.137030 0.912475 0.000000
0.173220 0.912475 0.000000
0.209409 0.912475 0.000000
0.245599 0.912475 0.000000
0.281788 0.912475 0.000000
0.317978 0.912475 0.000000
0.354167 0.912475 0.000000
0.390356 0.912475 0.000000
0.426546 0.912475 0.000000
0.462735 0.912475 0.000000
0.498925 0.912475 0.000000
0.535114 0.912475 0.000000
0.571304 0.912475 0.000000
0.607493 0.912475 0.000000
0.643683 0.912475 0.000000
0.679872 0.912475 0.000000
0.716062 0.912475 0.000000
0.752251 0.912475 0.000000
0.788440 0.912475 0.000000
0.824630 0.912475 0.000000
0.860819 0.912475 0.000000
0.897009 0.912475 0.000000
0.933198 0.912475 0.000000
