luts/original/block-contrast.cube
TITLE "Block Contrast"
LUT_3D_SIZE 9
DOMAIN_MIN 0.0 0.0 0.0
DOMAIN_MAX 1.0 1.0 1.0
0.000000 0.000000 0.000000
0.130908 0.000000 0.000000
0.268553 0.000000 0.000000
0.409853 0.000000 0.000000
0.554810 0.000000 0.000000
0.703423 0.000000 0.000000
0.855693 0.000000 0.000000
0.989844 0.000000 0.000000
1.000000 0.000000 0.000000
0.000000 0.120731 0.000000
0.130908 0.120731 0.000000
0.268553 0.119926 0.000000
0.409853 0.119122 0.000000
0.554810 0.118317 0.000000
0.703423 0.117513 0.000000
0.855693 0.116709 0.000000
0.989844 0.115904 0.000000
1.000000 0.115100 0.000000
0.000000 0.256458 0.000000
0.132021 0.256458 0.000000
0.268553 0.256458 0.000000
0.409853 0.257481 0.000000
0.554810 0.258505 0.000000
0.703423 0.259529 0.000000
0.855693 0.260552 0.000000
0.989844 0.261576 0.000000
1.000000 0.262600 0.000000
0.000000 0.395841 0.000000
0.133134 0.395841 0.000000
0.271494 0.395841 0.000000
0.409853 0.395841 0.000000
0.554810 0.398692 0.000000
0.703423 0.401544 0.000000
0.855693 0.404396 0.000000
0.989844 0.407248 0.000000
1.000000 0.410100 0.000000
0.000000 0.538880 0.000000
0.134247 0.538880 0.000000
0.274435 0.538880 0.000000
0.414622 0.538880 0.000000
0.554810 0.538880 0.000000
0.703423 0.543560 0.000000
0.855693 0.548240 0.000000
0.989844 0.552920 0.000000
1.000000 0.557600 0.000000
0.000000 0.685576 0.000000
0.135361 0.685576 0.000000
0.277376 0.685576 0.000000
0.419392 0.685576 0.000000
0.561408 0.685576 0.000000
0.703423 0.685576 0.000000
0.855693 0.692084 0.000000
0.989844 0.698592 0.000000
1.000000 0.705100 0.000000
0.000000 0.835927 0.000000
0.136474 0.835927 0.000000
0.280317 0.835927 0.000000
0.424161 0.835927 0.000000
0.568005 0.835927 0.000000
0.711849 0.835927 0.000000
0.855693 0.835927 0.000000
0.989844 0.844264 0.000000
1.000000 0.852600 0.000000
0.000000 0.989844 0.000000
0.137587 0.989844 0.000000
0.283259 0.989844 0.000000
0.428931 0.989844 0.000000
0.574602 0.989844 0.000000
0.720274 0.989844 0.000000
0.865946 0.989844 0.000000
0.989844 0.989844 0.000000
1.000000 1.000000 0.000000
0.000000 1.000000 0.000000
0.138700 1.000000 0.000000
0.286200 1.000000 0.000000
0.433700 1.000000 0.000000
0.581200 1.000000 0.000000
0.728700 1.000000 0.000000
0.876200 1.000000 0.000000
1.000000 1.000000 0.000000
1.000000 1.000000 0.000000
0.000000 0.000000 0.110553
0.130908 0.000000 0.110553
0.268553 0.000000 0.107831
0.409853 0.000000 0.105109
0.554810 0.000000 0.102388
0.703423 0.000000 0.099666
0.855693 0.000000 0.096944
0.989844 0.000000 0.094222
1.000000 0.000000 0.091500
0.000000 0.120731 0.110553
0.130908 0.119534 0.108161
0.268553 0.114770 0.101964
0.409853 0.109532 0.094809
0.554810 0.103381 0.086695
0.703423 0.096286 0.077622
0.855693 0.088239 0.067591
0.989844 0.080109 0.057472
1.000000 0.076139 0.051500
0.000000 0.256458 0.107831
0.128123 0.256458 0.102448
0.268553 0.255746 0.101964
0.409853 0.252331 0.094809
0.554810 0.248295 0.086695
0.703423 0.243405 0.077622
0.855693 0.237600 0.067591
0.989844 0.231747 0.057472
1.000000 0.230133 0.051500
0.000000 0.395841 0.105109
0.124837 0.395841 0.095370
0.267706 0.395841 0.095370
0.409853 0.395130 0.094809
0.554810 0.393210 0.086695
0.703423 0.390523 0.077622
0.855693 0.386961 0.067591
0.989844 0.383386 0.057472
1.000000 0.384128 0.051500
0.000000 0.538880 0.102388
0.120717 0.538880 0.087332
0.265669 0.538880 0.087332
0.410620 0.538880 0.087332
0.554810 0.538124 0.086695
0.703423 0.537641 0.077622
0.855693 0.536322 0.067591
0.989844 0.535024 0.057472
1.000000 0.538122 0.051500
0.000000 0.685576 0.099666
0.115672 0.685576 0.078336
0.262815 0.685576 0.078336
0.409958 0.685576 0.078336
0.557101 0.685576 0.078336
0.703423 0.684759 0.077622
0.855693 0.685684 0.067591
0.989844 0.686663 0.057472
1.000000 0.692116 0.051500
0.000000 0.835927 0.096944
0.109683 0.835927 0.068382
0.259062 0.835927 0.068382
0.408441 0.835927 0.068382
0.557820 0.835927 0.068382
0.707199 0.835927 0.068382
0.855693 0.835045 0.067591
0.989844 0.838301 0.057472
1.000000 0.846110 0.051500
0.000000 0.989844 0.094222
0.102746 0.989844 0.057472
0.254385 0.989844 0.057472
0.406023 0.989844 0.057472
0.557661 0.989844 0.057472
0.709300 0.989844 0.057472
0.860938 0.989844 0.057472
0.989844 0.989844 0.057472
1.000000 1.000000 0.051500
0.000000 1.000000 0.091500
0.100778 1.000000 0.051500
0.254772 1.000000 0.051500
0.408767 1.000000 0.051500
0.562761 1.000000 0.051500
0.716755 1.000000 0.051500
0.870749 1.000000 0.051500
1.000000 1.000000 0.051500
1.000000 1.000000 0.051500
0.000000 0.000000 0.244363
0.132021 0.000000 0.244363
0.268553 0.000000 0.244363
0.409853 0.000000 0.243469
0.554810 0.000000 0.242575
0.703423 0.000000 0.241681
0.855693 0.000000 0.240788
0.989844 0.000000 0.239894
1.000000 0.000000 0.239000
0.000000 0.119926 0.244363
0.128055 0.115027 0.244363
0.268553 0.114059 0.242744
0.409853 0.108821 0.237174
0.554810 0.102625 0.231054
0.703423 0.095470 0.224089
0.855693 0.087356 0.216213
0.989844 0.079154 0.208289
1.000000 0.075100 0.204601
0.000000 0.256458 0.244363
0.126638 0.256458 0.243337
0.268553 0.253524 0.238495
0.409853 0.248429 0.233168
0.554810 0.243895 0.226883
0.703423 0.238548 0.219638
0.855693 0.232287 0.211435
0.989844 0.225966 0.203144
1.000000 0.223840 0.199000
0.000000 0.395841 0.243469
0.123394 0.395841 0.237328
0.264441 0.395841 0.233729
0.409853 0.394592 0.233168
0.554810 0.390846 0.226883
0.703423 0.387203 0.219638
0.855693 0.382925 0.211435
0.989844 0.378761 0.203144
1.000000 0.379093 0.199000
0.000000 0.538880 0.242575
0.119192 0.538880 0.231125
0.261610 0.538880 0.227520
0.408768 0.538880 0.227520
0.554810 0.537798 0.226883
0.703423 0.535858 0.219638
0.855693 0.533564 0.211435
0.989844 0.531556 0.203144
1.000000 0.534346 0.199000
0.000000 0.685576 0.241681
0.114031 0.685576 0.224129
0.258207 0.685576 0.220352
0.406972 0.685576 0.220352
0.555738 0.685576 0.220352
0.703423 0.684513 0.219638
0.855693 0.684202 0.211435
0.989844 0.684351 0.203144
1.000000 0.689599 0.199000
0.000000 0.835927 0.240788
0.107912 0.835927 0.216238
0.253952 0.835927 0.212225
0.404662 0.835927 0.212225
0.555372 0.835927 0.212225
0.706081 0.835927 0.212225
0.855693 0.834840 0.211435
0.989844 0.837146 0.203144
1.000000 0.844852 0.199000
0.000000 0.989844 0.239894
0.100837 0.989844 0.207423
0.248788 0.989844 0.203144
0.401583 0.989844 0.203144
0.554378 0.989844 0.203144
0.707173 0.989844 0.203144
0.859968 0.989844 0.203144
0.989844 0.989844 0.203144
1.000000 1.000000 0.199000
0.000000 1.000000 0.239000
0.098700 1.000000 0.203658
0.248681 1.000000 0.199000
0.403934 1.000000 0.199000
0.559187 1.000000 0.199000
0.714440 1.000000 0.199000
0.869693 1.000000 0.199000
1.000000 1.000000 0.199000
1.000000 1.000000 0.199000
0.000000 0.000000 0.381828
0.133134 0.000000 0.381828
0.271494 0.000000 0.381828
0.409853 0.000000 0.381828
0.554810 0.000000 0.382762
0.703423 0.000000 0.383697
0.855693 0.000000 0.384631
0.989844 0.000000 0.385566
1.000000 0.000000 0.386500
0.000000 0.119122 0.381828
0.124753 0.109943 0.381828
0.268101 0.109943 0.381828
0.409853 0.108821 0.380302
0.554810 0.102625 0.376207
0.703423 0.095470 0.371404
0.855693 0.087356 0.365745
0.989844 0.079154 0.360087
1.000000 0.075100 0.358768
0.000000 0.257481 0.381828
0.123955 0.252892 0.381828
0.264063 0.248302 0.381828
0.409853 0.247181 0.378987
0.554810 0.242813 0.373173
0.703423 0.237486 0.367513
0.855693 0.231200 0.361206
0.989844 0.224826 0.354990
1.000000 0.222600 0.353221
0.000000 0.395841 0.381828
0.123394 0.395841 0.380981
0.261754 0.395841 0.379973
0.409853 0.390690 0.371528
0.554810 0.384902 0.367070
0.703423 0.381021 0.361654
0.855693 0.376458 0.355279
0.989844 0.371912 0.348816
1.000000 0.371639 0.346500
0.000000 0.538880 0.382762
0.119192 0.538880 0.376613
0.259380 0.538880 0.373271
0.403720 0.538880 0.367707
0.554810 0.536978 0.367070
0.703423 0.532538 0.361654
0.855693 0.529143 0.355279
0.989844 0.526419 0.348816
1.000000 0.528756 0.346500
0.000000 0.685576 0.383697
0.114031 0.685576 0.371699
0.256047 0.685576 0.367475
0.401222 0.685576 0.362368
0.553113 0.685576 0.362368
0.703423 0.684055 0.361654
0.855693 0.681828 0.355279
0.989844 0.680927 0.348816
1.000000 0.685873 0.346500
0.000000 0.835927 0.384631
0.107912 0.835927 0.365983
0.251755 0.835927 0.361127
0.398492 0.835927 0.356069
0.551374 0.835927 0.356069
0.704256 0.835927 0.356069
0.855693 0.834513 0.355279
0.989844 0.835434 0.348816
1.000000 0.842990 0.346500
0.000000 0.989844 0.385566
0.100837 0.989844 0.359389
0.246509 0.989844 0.353980
0.395008 0.989844 0.348816
0.549515 0.989844 0.348816
0.704023 0.989844 0.348816
0.858530 0.989844 0.348816
0.989844 0.989844 0.348816
1.000000 1.000000 0.346500
0.000000 1.000000 0.386500
0.098700 1.000000 0.358008
0.246200 1.000000 0.352121
0.396777 1.000000 0.346500
0.553894 1.000000 0.346500
0.711011 1.000000 0.346500
0.868128 1.000000 0.346500
1.000000 1.000000 0.346500
1.000000 1.000000 0.346500
0.000000 0.000000 0.522950
0.134247 0.000000 0.522950
0.274435 0.000000 0.522950
0.414622 0.000000 0.522950
0.554810 0.000000 0.522950
0.703423 0.000000 0.525712
0.855693 0.000000 0.528475
0.989844 0.000000 0.531237
1.000000 0.000000 0.534000
0.000000 0.118317 0.522950
0.120642 0.103900 0.522950
0.265906 0.103900 0.522950
0.411170 0.103900 0.522950
0.554810 0.102625 0.521361
0.703423 0.095470 0.518718
0.855693 0.087356 0.515278
0.989844 0.079154 0.511884
1.000000 0.075100 0.512935
0.000000 0.258505 0.522950
0.119829 0.248606 0.522950
0.261271 0.244087 0.522950
0.409294 0.244087 0.522950
0.554810 0.242813 0.520625
0.703423 0.237486 0.516505
0.855693 0.231200 0.512105
0.989844 0.224826 0.508013
1.000000 0.222600 0.508722
0.000000 0.398692 0.522950
0.119829 0.394173 0.522950
0.260017 0.391483 0.522950
0.402951 0.384275 0.522950
0.554810 0.383000 0.518621
0.703423 0.379501 0.512242
0.855693 0.375044 0.506925
0.989844 0.370498 0.502206
1.000000 0.370100 0.502401
0.000000 0.538880 0.522950
0.119192 0.538880 0.522102
0.259380 0.538880 0.521641
0.399567 0.538880 0.520082
0.554810 0.531034 0.507258
0.703423 0.524189 0.503669
0.855693 0.520912 0.499122
0.989844 0.518031 0.494487
1.000000 0.519626 0.494000
0.000000 0.685576 0.525712
0.114031 0.685576 0.519269
0.256047 0.685576 0.517001
0.398063 0.685576 0.512266
0.545962 0.685576 0.504383
0.703423 0.682904 0.503669
0.855693 0.677407 0.499122
0.989844 0.675335 0.494487
1.000000 0.679787 0.494000
0.000000 0.835927 0.528475
0.107912 0.835927 0.515728
0.251755 0.835927 0.512409
0.395599 0.835927 0.506752
0.543674 0.835927 0.499913
0.700741 0.835927 0.499913
0.855693 0.833903 0.499122
0.989844 0.832639 0.494487
1.000000 0.839948 0.494000
0.000000 0.989844 0.531237
0.100837 0.989844 0.511354
0.246509 0.989844 0.507245
0.392181 0.989844 0.500996
0.541575 0.989844 0.494487
0.698879 0.989844 0.494487
0.856183 0.989844 0.494487
0.989844 0.989844 0.494487
1.000000 1.000000 0.494000
0.000000 1.000000 0.534000
0.098700 1.000000 0.512358
0.246200 1.000000 0.507886
0.393700 1.000000 0.501085
0.545251 1.000000 0.494000
0.705412 1.000000 0.494000
0.865573 1.000000 0.494000
1.000000 1.000000 0.494000
1.000000 1.000000 0.494000
0.000000 0.000000 0.667728
0.135361 0.000000 0.667728
0.277376 0.000000 0.667728
0.419392 0.000000 0.667728
0.561408 0.000000 0.667728
0.703423 0.000000 0.667728
0.855693 0.000000 0.672319
0.989844 0.000000 0.676909
1.000000 0.000000 0.681500
0.000000 0.117513 0.667728
0.115604 0.096898 0.667728
0.262988 0.096898 0.667728
0.410373 0.096898 0.667728
0.557757 0.096898 0.667728
0.703423 0.095470 0.666032
0.855693 0.087356 0.664810
0.989844 0.079154 0.663682
1.000000 0.075100 0.667103
0.000000 0.259529 0.667728
0.114745 0.243619 0.667728
0.257922 0.238913 0.667728
0.407197 0.238913 0.667728
0.556471 0.238913 0.667728
0.703423 0.237486 0.665496
0.855693 0.231200 0.663005
0.989844 0.224826 0.661036
1.000000 0.222600 0.664223
0.000000 0.401544 0.667728
0.114745 0.391237 0.667728
0.256761 0.387391 0.667728
0.400569 0.380929 0.667728
0.553789 0.380929 0.667728
0.703423 0.379501 0.664462
0.855693 0.375044 0.660057
0.989844 0.370498 0.657067
1.000000 0.370100 0.659903
0.000000 0.543560 0.667728
0.114745 0.538854 0.667728
0.256761 0.537098 0.667728
0.398777 0.533252 0.667728
0.544719 0.522945 0.667728
0.703423 0.521517 0.661647
0.855693 0.518887 0.654381
0.989844 0.516170 0.650452
1.000000 0.517600 0.652703
0.000000 0.685576 0.667728
0.114031 0.685576 0.666839
0.256047 0.685576 0.666526
0.398063 0.685576 0.665873
0.540078 0.685576 0.663665
0.703423 0.674554 0.645685
0.855693 0.666289 0.642966
0.989844 0.664565 0.640159
1.000000 0.668064 0.641500
0.000000 0.835927 0.672319
0.107912 0.835927 0.665473
0.251755 0.835927 0.663691
0.395599 0.835927 0.660653
0.539443 0.835927 0.654312
0.691166 0.835927 0.643757
0.855693 0.832370 0.642966
0.989844 0.827256 0.640159
1.000000 0.834088 0.641500
0.000000 0.989844 0.676909
0.100837 0.989844 0.663320
0.246509 0.989844 0.660511
0.392181 0.989844 0.656240
0.537853 0.989844 0.648961
0.688971 0.989844 0.640159
0.851662 0.989844 0.640159
0.989844 0.989844 0.640159
1.000000 1.000000 0.641500
0.000000 1.000000 0.681500
0.098700 1.000000 0.666708
0.246200 1.000000 0.663652
0.393700 1.000000 0.659003
0.541200 1.000000 0.651080
0.694628 1.000000 0.641500
0.860652 1.000000 0.641500
1.000000 1.000000 0.641500
1.000000 1.000000 0.641500
0.000000 0.000000 0.816163
0.136474 0.000000 0.816163
0.280317 0.000000 0.816163
0.424161 0.000000 0.816163
0.568005 0.000000 0.816163
0.711849 0.000000 0.816163
0.855693 0.000000 0.816163
0.989844 0.000000 0.822581
1.000000 0.000000 0.829000
0.000000 0.116709 0.816163
0.109620 0.088937 0.816163
0.259202 0.088937 0.816163
0.408784 0.088937 0.816163
0.558365 0.088937 0.816163
0.707947 0.088937 0.816163
0.855693 0.087356 0.814342
0.989844 0.079154 0.815480
1.000000 0.075100 0.821270
0.000000 0.260552 0.816163
0.108702 0.237766 0.816163
0.253703 0.232781 0.816163
0.404779 0.232781 0.816163
0.555855 0.232781 0.816163
0.706931 0.232781 0.816163
0.855693 0.231200 0.813905
0.989844 0.224826 0.814059
1.000000 0.222600 0.819724
0.000000 0.404396 0.816163
0.108702 0.387543 0.816163
0.252546 0.382964 0.816163
0.397954 0.376625 0.816163
0.551577 0.376625 0.816163
0.705199 0.376625 0.816163
0.855693 0.375044 0.813190
0.989844 0.370498 0.811928
1.000000 0.370100 0.817405
0.000000 0.548240 0.816163
0.108702 0.537321 0.816163
0.252546 0.534354 0.816163
0.396390 0.529173 0.816163
0.542648 0.520468 0.816163
0.701585 0.520468 0.816163
0.855693 0.518887 0.811814
0.989844 0.516170 0.808376
1.000000 0.517600 0.813539
0.000000 0.692084 0.816163
0.108702 0.687099 0.816163
0.252546 0.685745 0.816163
0.396390 0.683379 0.816163
0.540233 0.678198 0.816163
0.689367 0.664312 0.816163
0.855693 0.662731 0.808065
0.989844 0.661842 0.801271
1.000000 0.665100 0.805806
0.000000 0.835927 0.816163
0.107912 0.835927 0.815218
0.251755 0.835927 0.814972
0.395599 0.835927 0.814553
0.539443 0.835927 0.813679
0.683287 0.835927 0.810722
0.855693 0.821251 0.786810
0.989844 0.812586 0.785831
1.000000 0.818120 0.789000
0.000000 0.989844 0.822581
0.100837 0.989844 0.815285
0.246509 0.989844 0.813777
0.392181 0.989844 0.811484
0.537853 0.989844 0.807576
0.683524 0.989844 0.799418
0.839340 0.989844 0.785831
0.989844 0.989844 0.785831
1.000000 1.000000 0.789000
0.000000 1.000000 0.829000
0.098700 1.000000 0.821059
0.246200 1.000000 0.819417
0.393700 1.000000 0.816922
0.541200 1.000000 0.812668
0.688700 1.000000 0.803788
0.847241 1.000000 0.789000
1.000000 1.000000 0.789000
1.000000 1.000000 0.789000
0.000000 0.000000 0.968253
0.137587 0.000000 0.968253
0.283259 0.000000 0.968253
0.428931 0.000000 0.968253
0.574602 0.000000 0.968253
0.720274 0.000000 0.968253
0.865946 0.000000 0.968253
0.989844 0.000000 0.968253
1.000000 0.000000 0.976500
0.000000 0.115904 0.968253
0.102684 0.080018 0.968253
0.254500 0.080018 0.968253
0.406317 0.080018 0.968253
0.558134 0.080018 0.968253
0.709951 0.080018 0.968253
0.861768 0.080018 0.968253
0.989844 0.079154 0.967277
1.000000 0.075100 0.975438
0.000000 0.261576 0.968253
0.101700 0.230997 0.968253
0.248559 0.225690 0.968253
0.401645 0.225690 0.968253
0.554732 0.225690 0.968253
0.707818 0.225690 0.968253
0.860904 0.225690 0.968253
0.989844 0.224826 0.967082
1.000000 0.222600 0.975225
0.000000 0.407248 0.968253
0.101700 0.382987 0.968253
0.247372 0.377803 0.968253
0.394540 0.371362 0.968253
0.549557 0.371362 0.968253
0.704574 0.371362 0.968253
0.859591 0.371362 0.968253
0.989844 0.370498 0.966789
1.000000 0.370100 0.974907
0.000000 0.552920 0.968253
0.101700 0.534977 0.968253
0.247372 0.531143 0.968253
0.393044 0.525225 0.968253
0.540738 0.517034 0.968253
0.699046 0.517034 0.968253
0.857354 0.517034 0.968253
0.989844 0.516170 0.966301
1.000000 0.517600 0.974375
0.000000 0.698592 0.968253
0.101700 0.686967 0.968253
0.247372 0.684483 0.968253
0.393044 0.680649 0.968253
0.538716 0.673953 0.968253
0.687509 0.662705 0.968253
0.852684 0.662705 0.968253
0.989844 0.661842 0.965325
1.000000 0.665100 0.973312
0.000000 0.844264 0.968253
0.101700 0.838957 0.968253
0.247372 0.837823 0.968253
0.393044 0.836072 0.968253
0.538716 0.833016 0.968253
0.684388 0.826321 0.968253
0.836895 0.808377 0.968253
0.989844 0.807514 0.962394
1.000000 0.812600 0.970123
0.000000 0.989844 0.968253
0.100837 0.989844 0.967250
0.246509 0.989844 0.967043
0.392181 0.989844 0.966728
0.537853 0.989844 0.966191
0.683524 0.989844 0.965070
0.829196 0.989844 0.961277
0.989844 0.989844 0.931503
1.000000 1.000000 0.936500
0.000000 1.000000 0.976500
0.098700 1.000000 0.975409
0.246200 1.000000 0.975183
0.393700 1.000000 0.974840
0.541200 1.000000 0.974256
0.688700 1.000000 0.973035
0.836200 1.000000 0.968907
1.000000 1.000000 0.936500
1.000000 1.000000 0.936500
0.000000 0.000000 1.000000
0.138700 0.000000 1.000000
0.286200 0.000000 1.000000
0.433700 0.000000 1.000000
0.581200 0.000000 1.000000
0.728700 0.000000 1.000000
0.876200 0.000000 1.000000
1.000000 0.000000 1.000000
1.000000 0.000000 1.000000
0.000000 0.115100 1.000000
0.099767 0.075100 1.000000
0.253934 0.075100 1.000000
0.408102 0.075100 1.000000
0.562269 0.075100 1.000000
0.716436 0.075100 1.000000
0.870604 0.075100 1.000000
1.000000 0.075100 1.000000
1.000000 0.075100 1.000000
0.000000 0.262600 1.000000
0.098700 0.228354 1.000000
0.247480 0.222600 1.000000
0.402981 0.222600 1.000000
0.558482 0.222600 1.000000
0.713983 0.222600 1.000000
0.869484 0.222600 1.000000
1.000000 0.222600 1.000000
1.000000 0.222600 1.000000
0.000000 0.410100 1.000000
0.098700 0.382704 1.000000
0.246200 0.377043 1.000000
0.395300 0.370100 1.000000
0.552802 0.370100 1.000000
0.710304 0.370100 1.000000
0.867805 0.370100 1.000000
1.000000 0.370100 1.000000
1.000000 0.370100 1.000000
0.000000 0.557600 1.000000
0.098700 0.537054 1.000000
0.246200 0.532809 1.000000
0.393700 0.526352 1.000000
0.543334 0.517600 1.000000
0.704170 0.517600 1.000000
0.865007 0.517600 1.000000
1.000000 0.517600 1.000000
1.000000 0.517600 1.000000
0.000000 0.705100 1.000000
0.098700 0.691404 1.000000
0.246200 0.688574 1.000000
0.393700 0.684270 1.000000
0.541200 0.676934 1.000000
0.691901 0.665100 1.000000
0.859408 0.665100 1.000000
1.000000 0.665100 1.000000
1.000000 0.665100 1.000000
0.000000 0.852600 1.000000
0.098700 0.845755 1.000000
0.246200 0.844340 1.000000
0.393700 0.842189 1.000000
0.541200 0.838522 1.000000
0.688700 0.830868 1.000000
0.842604 0.812600 1.000000
1.000000 0.812600 1.000000
1.000000 0.812600 1.000000
0.000000 1.000000 1.000000
0.098700 1.000000 1.000000
0.246200 1.000000 1.000000
0.393700 1.000000 1.000000
0.541200 1.000000 1.000000
0.688700 1.000000 1.000000
0.836200 1.000000 1.000000
1.000000 0.960000 0.960000
1.000000 0.960000 0.960000
0.000000 1.000000 1.000000
0.098700 1.000000 1.000000
0.246200 1.000000 1.000000
0.393700 1.000000 1.000000
0.541200 1.000000 1.000000
0.688700 1.000000 1.000000
0.836200 1.000000 1.000000
1.000000 0.960000 0.960000
1.000000 0.960000 0.960000
