luts/original/blockbuster-teal.cube
TITLE "Blockbuster Teal"
LUT_3D_SIZE 5
DOMAIN_MIN 0.0 0.0 0.0
DOMAIN_MAX 1.0 1.0 1.0
0.000000 0.000000 0.028000
0.212814 0.000000 0.037186
0.456045 0.000000 0.043955
0.701696 0.000000 0.048304
0.949764 0.000000 0.050236
0.000000 0.250000 0.023690
0.223838 0.250000 0.016670
0.472942 0.240687 0.008432
0.722660 0.231339 0.000000
0.974796 0.230763 0.000000
0.000000 0.500000 0.005981
0.226151 0.500000 0.000000
0.489523 0.500000 0.000000
0.743624 0.497897 0.000000
0.999828 0.499914 0.000000
0.022997 0.750000 0.000000
0.252125 0.750000 0.000000
0.508357 0.750000 0.000000
0.764588 0.750000 0.000000
1.000000 0.750000 0.000000
0.042912 1.000000 0.000000
0.277569 1.000000 0.000000
0.535010 1.000000 0.000000
0.792451 1.000000 0.000000
1.000000 1.000000 0.000000
0.000555 0.000000 0.289705
0.214109 0.000000 0.285891
0.457751 0.000000 0.292249
0.703812 0.000000 0.296188
0.952291 0.000000 0.297709
0.000000 0.248908 0.276876
0.217866 0.245464 0.273062
0.474648 0.231271 0.259935
0.724776 0.213826 0.241368
0.977323 0.191361 0.215866
0.000000 0.500000 0.261408
0.216272 0.500000 0.246224
0.490476 0.500000 0.238206
0.745740 0.481284 0.216828
1.000000 0.460125 0.187645
0.000000 0.750000 0.232647
0.217309 0.750000 0.208071
0.493009 0.750000 0.201840
0.766705 0.748571 0.194605
1.000000 0.730705 0.162613
0.000000 1.000000 0.191788
0.224726 1.000000 0.159904
0.502303 1.000000 0.152463
0.779504 1.000000 0.145022
1.000000 1.000000 0.137581
0.001462 0.000000 0.550589
0.204434 0.000000 0.545566
0.459457 0.000000 0.540543
0.705928 0.000000 0.544072
0.954818 0.000000 0.545182
0.000000 0.245139 0.533692
0.199361 0.230816 0.528669
0.471027 0.228331 0.523647
0.726893 0.213699 0.508137
0.979850 0.191209 0.483120
0.000000 0.499209 0.516795
0.217271 0.498717 0.511773
0.472595 0.489673 0.506750
0.747857 0.462441 0.464973
1.000000 0.440580 0.435118
0.000000 0.750000 0.489819
0.218670 0.750000 0.473927
0.479177 0.750000 0.449723
0.768821 0.747042 0.442362
1.000000 0.721694 0.410086
0.000000 1.000000 0.450026
0.222623 1.000000 0.422829
0.488966 1.000000 0.399936
0.775314 1.000000 0.392495
1.000000 1.000000 0.385054
0.002721 0.000000 0.810651
0.195581 0.000000 0.804419
0.451813 0.000000 0.798187
0.708045 0.000000 0.791955
0.957345 0.000000 0.792655
0.000000 0.241821 0.789687
0.176850 0.213040 0.783455
0.449516 0.210679 0.777223
0.725291 0.211053 0.770991
0.982377 0.191057 0.750339
0.000000 0.492463 0.768722
0.199073 0.480782 0.762490
0.455678 0.463011 0.756259
0.749964 0.462311 0.750027
1.000000 0.440000 0.711702
0.000000 0.750000 0.747647
0.220786 0.750000 0.740748
0.477018 0.750000 0.732447
0.770938 0.730528 0.690119
1.000000 0.696892 0.657559
0.000000 1.000000 0.708851
0.225150 1.000000 0.690916
0.482591 1.000000 0.669029
0.760043 1.000000 0.639968
1.000000 1.000000 0.632527
0.004332 0.000000 0.995668
0.187549 0.000000 0.992479
0.444990 0.000000 0.989290
0.702431 0.000000 0.986101
0.959872 0.000000 0.982912
0.000000 0.238588 0.984940
0.153676 0.193961 0.981751
0.429040 0.191286 0.978562
0.707462 0.191478 0.975373
0.984904 0.190906 0.971161
0.000000 0.487106 0.974212
0.179352 0.462582 0.971023
0.436984 0.442537 0.967834
0.726068 0.442121 0.964645
1.000000 0.440000 0.956831
0.000000 0.741590 0.963484
0.205027 0.732632 0.960295
0.462660 0.722785 0.957106
0.728018 0.692765 0.953917
1.000000 0.690000 0.938903
0.000000 1.000000 0.950413
0.227677 1.000000 0.945319
0.485118 1.000000 0.939305
0.742559 1.000000 0.925925
1.000000 1.000000 0.880000
