luts/original/blue-sky-summer.cube
TITLE "Blue Sky Summer"
LUT_3D_SIZE 9
DOMAIN_MIN 0.0 0.0 0.0
DOMAIN_MAX 1.0 1.0 1.0
0.000000 0.000000 0.000000
0.120688 0.000000 0.000000
0.239750 0.000000 0.000000
0.357187 0.000000 0.000000
0.473000 0.000000 0.000000
0.587187 0.000000 0.000000
0.699750 0.000000 0.000000
0.810688 0.000000 0.000000
0.920000 0.000000 0.000000
0.000000 0.126078 0.000000
0.120688 0.126078 0.000000
0.239750 0.126281 0.000000
0.357187 0.126484 0.000000
0.473000 0.126688 0.000000
0.587187 0.126891 0.000000
0.699750 0.127094 0.000000
0.810688 0.127297 0.000000
0.920000 0.127500 0.000000
0.000000 0.252563 0.000000
0.119875 0.252563 0.000000
0.239750 0.252563 0.000000
0.357187 0.252969 0.000000
0.473000 0.253375 0.000000
0.587187 0.253781 0.000000
0.699750 0.254188 0.000000
0.810688 0.254594 0.000000
0.920000 0.255000 0.000000
0.000000 0.379453 0.000000
0.119063 0.379453 0.000000
0.238125 0.379453 0.000000
0.357187 0.379453 0.000000
0.473000 0.380062 0.000000
0.587187 0.380672 0.000000
0.699750 0.381281 0.000000
0.810688 0.381891 0.000000
0.920000 0.382500 0.000000
0.000000 0.506750 0.000000
0.118250 0.506750 0.000000
0.236500 0.506750 0.000000
0.354750 0.506750 0.000000
0.473000 0.506750 0.000000
0.587187 0.507563 0.000000
0.699750 0.508375 0.000000
0.810688 0.509188 0.000000
0.920000 0.510000 0.000000
0.000000 0.634453 0.000000
0.117438 0.634453 0.000000
0.234875 0.634453 0.000000
0.352313 0.634453 0.000000
0.469750 0.634453 0.000000
0.587187 0.634453 0.000000
0.699750 0.635469 0.000000
0.810688 0.636484 0.000000
0.920000 0.637500 0.000000
0.000000 0.762563 0.000000
0.116625 0.762563 0.000000
0.233250 0.762563 0.000000
0.349875 0.762563 0.000000
0.466500 0.762563 0.000000
0.583125 0.762563 0.000000
0.699750 0.762563 0.000000
0.810688 0.763781 0.000000
0.920000 0.765000 0.000000
0.000000 0.891078 0.000000
0.115812 0.891078 0.000000
0.231625 0.891078 0.000000
0.347438 0.891078 0.000000
0.463250 0.891078 0.000000
0.579063 0.891078 0.000000
0.694875 0.891078 0.000000
0.810688 0.891078 0.000000
0.920000 0.892500 0.000000
0.000000 1.000000 0.000000
0.115000 1.000000 0.000000
0.230000 1.000000 0.000000
0.345000 1.000000 0.000000
0.460000 1.000000 0.000000
0.575000 1.000000 0.000000
0.690000 1.000000 0.000000
0.805000 1.000000 0.000000
0.920000 1.000000 0.000000
0.000000 0.000000 0.131469
0.120688 0.000000 0.131469
0.239750 0.000000 0.132688
0.357187 0.000000 0.133906
0.473000 0.000000 0.135125
0.587187 0.000000 0.136344
0.699750 0.000000 0.137563
0.810688 0.000000 0.138781
0.920000 0.000000 0.140000
0.000000 0.126078 0.131469
0.120688 0.126078 0.131469
0.239750 0.126281 0.132688
0.357187 0.126484 0.133906
0.473000 0.126688 0.135125
0.587187 0.126891 0.136344
0.699750 0.127094 0.137563
0.810688 0.127297 0.138781
0.920000 0.127500 0.140000
0.000000 0.252563 0.132688
0.119875 0.252563 0.132688
0.239750 0.252563 0.132688
0.357187 0.252969 0.133906
0.473000 0.253375 0.135125
0.587187 0.253781 0.136344
0.699750 0.254188 0.137563
0.810688 0.254594 0.138781
0.920000 0.255000 0.140000
0.000000 0.379453 0.133906
0.119063 0.379453 0.133906
0.238125 0.379453 0.133906
0.357187 0.379453 0.133906
0.473000 0.380062 0.135125
0.587187 0.380672 0.136344
0.699750 0.381281 0.137563
0.810688 0.381891 0.138781
0.920000 0.382500 0.140000
0.000000 0.506750 0.135125
0.118250 0.506750 0.135125
0.236500 0.506750 0.135125
0.354750 0.506750 0.135125
0.473000 0.506750 0.135125
0.587187 0.507563 0.136344
0.699750 0.508375 0.137563
0.810688 0.509188 0.138781
0.920000 0.510000 0.140000
0.000000 0.634453 0.136344
0.117438 0.634453 0.136344
0.234875 0.634453 0.136344
0.352313 0.634453 0.136344
0.469750 0.634453 0.136344
0.587187 0.634453 0.136344
0.699750 0.635469 0.137563
0.810688 0.636484 0.138781
0.920000 0.637500 0.140000
0.000000 0.762563 0.137563
0.116625 0.762563 0.137563
0.233250 0.762563 0.137563
0.349875 0.762563 0.137563
0.466500 0.762563 0.137563
0.583125 0.762563 0.137563
0.699750 0.762563 0.137563
0.810688 0.763781 0.138781
0.920000 0.765000 0.140000
0.000000 0.891078 0.138781
0.115812 0.891078 0.138781
0.231625 0.891078 0.138781
0.347438 0.891078 0.138781
0.463250 0.891078 0.138781
0.579063 0.891078 0.138781
0.694875 0.891078 0.138781
0.810688 0.891078 0.138781
0.920000 0.892500 0.140000
0.000000 1.000000 0.140000
0.115000 1.000000 0.140000
0.230000 1.000000 0.140000
0.345000 1.000000 0.140000
0.460000 1.000000 0.140000
0.575000 1.000000 0.140000
0.690000 1.000000 0.140000
0.805000 1.000000 0.140000
0.920000 1.000000 0.140000
0.000000 0.000000 0.265375
0.119875 0.000000 0.265375
0.239750 0.000000 0.265375
0.357187 0.000000 0.267813
0.473000 0.000000 0.270250
0.587187 0.000000 0.272688
0.699750 0.000000 0.275125
0.810688 0.000000 0.277563
0.920000 0.000000 0.280000
0.000000 0.126281 0.265375
0.119875 0.126281 0.265375
0.239750 0.126281 0.265375
0.357187 0.126484 0.267813
0.473000 0.126688 0.270250
0.587187 0.126891 0.272688
0.699750 0.127094 0.275125
0.810688 0.127297 0.277563
0.920000 0.127500 0.280000
0.000000 0.252563 0.265375
0.119875 0.252563 0.265375
0.239750 0.252563 0.265375
0.357187 0.252969 0.267813
0.473000 0.253375 0.270250
0.587187 0.253781 0.272688
0.699750 0.254188 0.275125
0.810688 0.254594 0.277563
0.920000 0.255000 0.280000
0.000000 0.379453 0.267813
0.119063 0.379453 0.267813
0.238125 0.379453 0.267813
0.357187 0.379453 0.267813
0.473000 0.380062 0.270250
0.587187 0.380672 0.272688
0.699750 0.381281 0.275125
0.810688 0.381891 0.277563
0.920000 0.382500 0.280000
0.000000 0.506750 0.270250
0.118250 0.506750 0.270250
0.236500 0.506750 0.270250
0.354750 0.506750 0.270250
0.473000 0.506750 0.270250
0.587187 0.507563 0.272688
0.699750 0.508375 0.275125
0.810688 0.509188 0.277563
0.920000 0.510000 0.280000
0.000000 0.634453 0.272688
0.117438 0.634453 0.272688
0.234875 0.634453 0.272688
0.352313 0.634453 0.272688
0.469750 0.634453 0.272688
0.587187 0.634453 0.272688
0.699750 0.635469 0.275125
0.810688 0.636484 0.277563
0.920000 0.637500 0.280000
0.000000 0.762563 0.275125
0.116625 0.762563 0.275125
0.233250 0.762563 0.275125
0.349875 0.762563 0.275125
0.466500 0.762563 0.275125
0.583125 0.762563 0.275125
0.699750 0.762563 0.275125
0.810688 0.763781 0.277563
0.920000 0.765000 0.280000
0.000000 0.891078 0.277563
0.115812 0.891078 0.277563
0.231625 0.891078 0.277563
0.347438 0.891078 0.277563
0.463250 0.891078 0.277563
0.579063 0.891078 0.277563
0.694875 0.891078 0.277563
0.810688 0.891078 0.277563
0.920000 0.892500 0.280000
0.000000 1.000000 0.280000
0.115000 1.000000 0.280000
0.230000 1.000000 0.280000
0.345000 1.000000 0.280000
0.460000 1.000000 0.280000
0.575000 1.000000 0.280000
0.690000 1.000000 0.280000
0.805000 1.000000 0.280000
0.920000 1.000000 0.280000
0.000000 0.000000 0.401719
0.119063 0.000000 0.401719
0.238125 0.000000 0.401719
0.357187 0.000000 0.401719
0.473000 0.000000 0.405375
0.587187 0.000000 0.409031
0.699750 0.000000 0.412688
0.810688 0.000000 0.416344
0.920000 0.000000 0.420000
0.000000 0.126484 0.401719
0.119063 0.126484 0.401719
0.238125 0.126484 0.401719
0.357187 0.126484 0.401719
0.473000 0.126688 0.405375
0.587187 0.126891 0.409031
0.699750 0.127094 0.412688
0.810688 0.127297 0.416344
0.920000 0.127500 0.420000
0.000000 0.252969 0.401719
0.119063 0.252969 0.401719
0.238125 0.252969 0.401719
0.357187 0.252969 0.401719
0.473000 0.253375 0.405375
0.587187 0.253781 0.409031
0.699750 0.254188 0.412688
0.810688 0.254594 0.416344
0.920000 0.255000 0.420000
0.000000 0.379453 0.401719
0.119063 0.379453 0.401719
0.238125 0.379453 0.401719
0.357187 0.379453 0.401719
0.473000 0.380062 0.405375
0.587187 0.380672 0.409031
0.699750 0.381281 0.412688
0.810688 0.381891 0.416344
0.920000 0.382500 0.420000
0.000000 0.506750 0.405375
0.118250 0.506750 0.405375
0.236500 0.506750 0.405375
0.354750 0.506750 0.405375
0.473000 0.506750 0.405375
0.587187 0.507563 0.409031
0.699750 0.508375 0.412688
0.810688 0.509188 0.416344
0.920000 0.510000 0.420000
0.000000 0.634453 0.409031
0.117438 0.634453 0.409031
0.234875 0.634453 0.409031
0.352313 0.634453 0.409031
0.469750 0.634453 0.409031
0.587187 0.634453 0.409031
0.699750 0.635469 0.412688
0.810688 0.636484 0.416344
0.920000 0.637500 0.420000
0.000000 0.762563 0.412688
0.116625 0.762563 0.412688
0.233250 0.762563 0.412688
0.349875 0.762563 0.412688
0.466500 0.762563 0.412688
0.583125 0.762563 0.412688
0.699750 0.762563 0.412688
0.810688 0.763781 0.416344
0.920000 0.765000 0.420000
0.000000 0.891078 0.416344
0.115812 0.891078 0.416344
0.231625 0.891078 0.416344
0.347438 0.891078 0.416344
0.463250 0.891078 0.416344
0.579063 0.891078 0.416344
0.694875 0.891078 0.416344
0.810688 0.891078 0.416344
0.920000 0.892500 0.420000
0.000000 1.000000 0.420000
0.115000 1.000000 0.420000
0.230000 1.000000 0.420000
0.345000 1.000000 0.420000
0.460000 1.000000 0.420000
0.575000 1.000000 0.420000
0.690000 1.000000 0.420000
0.805000 1.000000 0.420000
0.920000 1.000000 0.420000
0.000000 0.000000 0.540500
0.118250 0.000000 0.540500
0.236500 0.000000 0.540500
0.354750 0.000000 0.540500
0.473000 0.000000 0.540500
0.587187 0.000000 0.545375
0.699750 0.000000 0.550250
0.810688 0.000000 0.555125
0.920000 0.000000 0.560000
0.000000 0.126688 0.540500
0.118250 0.126688 0.540500
0.236500 0.126688 0.540500
0.354750 0.126688 0.540500
0.473000 0.126688 0.540500
0.587187 0.126891 0.545375
0.699750 0.127094 0.550250
0.810688 0.127297 0.555125
0.920000 0.127500 0.560000
0.000000 0.253375 0.540500
0.118250 0.253375 0.540500
0.236500 0.253375 0.540500
0.354750 0.253375 0.540500
0.473000 0.253375 0.540500
0.587187 0.253781 0.545375
0.699750 0.254188 0.550250
0.810688 0.254594 0.555125
0.920000 0.255000 0.560000
0.000000 0.380062 0.540500
0.118250 0.380062 0.540500
0.236500 0.380062 0.540500
0.354750 0.380062 0.540500
0.473000 0.380062 0.540500
0.587187 0.380672 0.545375
0.699750 0.381281 0.550250
0.810688 0.381891 0.555125
0.920000 0.382500 0.560000
0.000000 0.506750 0.540500
0.118250 0.506750 0.540500
0.236500 0.506750 0.540500
0.354750 0.506750 0.540500
0.473000 0.506750 0.540500
0.587187 0.507563 0.545375
0.699750 0.508375 0.550250
0.810688 0.509188 0.555125
0.920000 0.510000 0.560000
0.000000 0.634453 0.545375
0.117438 0.634453 0.545375
0.234875 0.634453 0.545375
0.352313 0.634453 0.545375
0.469750 0.634453 0.545375
0.587187 0.634453 0.545375
0.699750 0.635469 0.550250
0.810688 0.636484 0.555125
0.920000 0.637500 0.560000
0.000000 0.762563 0.550250
0.116625 0.762563 0.550250
0.233250 0.762563 0.550250
0.349875 0.762563 0.550250
0.466500 0.762563 0.550250
0.583125 0.762563 0.550250
0.699750 0.762563 0.550250
0.810688 0.763781 0.555125
0.920000 0.765000 0.560000
0.000000 0.891078 0.555125
0.115812 0.891078 0.555125
0.231625 0.891078 0.555125
0.347438 0.891078 0.555125
0.463250 0.891078 0.555125
0.579063 0.891078 0.555125
0.694875 0.891078 0.555125
0.810688 0.891078 0.555125
0.920000 0.892500 0.560000
0.000000 1.000000 0.560000
0.115000 1.000000 0.560000
0.230000 1.000000 0.560000
0.345000 1.000000 0.560000
0.460000 1.000000 0.560000
0.575000 1.000000 0.560000
0.690000 1.000000 0.560000
0.805000 1.000000 0.560000
0.920000 1.000000 0.560000
0.000000 0.000000 0.681719
0.117438 0.000000 0.681719
0.234875 0.000000 0.681719
0.352313 0.000000 0.681719
0.469750 0.000000 0.681719
0.587187 0.000000 0.681719
0.699750 0.000000 0.687813
0.810688 0.000000 0.693906
0.920000 0.000000 0.700000
0.000000 0.126891 0.681719
0.117438 0.126891 0.681719
0.234875 0.126891 0.681719
0.352313 0.126891 0.681719
0.469750 0.126891 0.681719
0.587187 0.126891 0.681719
0.699750 0.127094 0.687813
0.810688 0.127297 0.693906
0.920000 0.127500 0.700000
0.000000 0.253781 0.681719
0.117438 0.253781 0.681719
0.234875 0.253781 0.681719
0.352313 0.253781 0.681719
0.469750 0.253781 0.681719
0.587187 0.253781 0.681719
0.699750 0.254188 0.687813
0.810688 0.254594 0.693906
0.920000 0.255000 0.700000
0.000000 0.380672 0.681719
0.117438 0.380672 0.681719
0.234875 0.380672 0.681719
0.352313 0.380672 0.681719
0.469750 0.380672 0.681719
0.587187 0.380672 0.681719
0.699750 0.381281 0.687813
0.810688 0.381891 0.693906
0.920000 0.382500 0.700000
0.000000 0.507563 0.681719
0.117438 0.507563 0.681719
0.234875 0.507563 0.681719
0.352313 0.507563 0.681719
0.469750 0.507563 0.681719
0.587187 0.507563 0.681719
0.699750 0.508375 0.687813
0.810688 0.509188 0.693906
0.920000 0.510000 0.700000
0.000000 0.634453 0.681719
0.117438 0.634453 0.681719
0.234875 0.634453 0.681719
0.352313 0.634453 0.681719
0.469750 0.634453 0.681719
0.587187 0.634453 0.681719
0.699750 0.635469 0.687813
0.810688 0.636484 0.693906
0.920000 0.637500 0.700000
0.000000 0.762563 0.687813
0.116625 0.762563 0.687813
0.233250 0.762563 0.687813
0.349875 0.762563 0.687813
0.466500 0.762563 0.687813
0.583125 0.762563 0.687813
0.699750 0.762563 0.687813
0.810688 0.763781 0.693906
0.920000 0.765000 0.700000
0.000000 0.891078 0.693906
0.115812 0.891078 0.693906
0.231625 0.891078 0.693906
0.347438 0.891078 0.693906
0.463250 0.891078 0.693906
0.579063 0.891078 0.693906
0.694875 0.891078 0.693906
0.810688 0.891078 0.693906
0.920000 0.892500 0.700000
0.000000 1.000000 0.700000
0.115000 1.000000 0.700000
0.230000 1.000000 0.700000
0.345000 1.000000 0.700000
0.460000 1.000000 0.700000
0.575000 1.000000 0.700000
0.690000 1.000000 0.700000
0.805000 1.000000 0.700000
0.920000 1.000000 0.700000
0.000000 0.000000 0.825375
0.116625 0.000000 0.825375
0.233250 0.000000 0.825375
0.349875 0.000000 0.825375
0.466500 0.000000 0.825375
0.583125 0.000000 0.825375
0.699750 0.000000 0.825375
0.810688 0.000000 0.832688
0.920000 0.000000 0.840000
0.000000 0.127094 0.825375
0.116625 0.127094 0.825375
0.233250 0.127094 0.825375
0.349875 0.127094 0.825375
0.466500 0.127094 0.825375
0.583125 0.127094 0.825375
0.699750 0.127094 0.825375
0.810688 0.127297 0.832688
0.920000 0.127500 0.840000
0.000000 0.254188 0.825375
0.116625 0.254188 0.825375
0.233250 0.254188 0.825375
0.349875 0.254188 0.825375
0.466500 0.254188 0.825375
0.583125 0.254188 0.825375
0.699750 0.254188 0.825375
0.810688 0.254594 0.832688
0.920000 0.255000 0.840000
0.000000 0.381281 0.825375
0.116625 0.381281 0.825375
0.233250 0.381281 0.825375
0.349875 0.381281 0.825375
0.466500 0.381281 0.825375
0.583125 0.381281 0.825375
0.699750 0.381281 0.825375
0.810688 0.381891 0.832688
0.920000 0.382500 0.840000
0.000000 0.508375 0.825375
0.116625 0.508375 0.825375
0.233250 0.508375 0.825375
0.349875 0.508375 0.825375
0.466500 0.508375 0.825375
0.583125 0.508375 0.825375
0.699750 0.508375 0.825375
0.810688 0.509188 0.832688
0.920000 0.510000 0.840000
0.000000 0.635469 0.825375
0.116625 0.635469 0.825375
0.233250 0.635469 0.825375
0.349875 0.635469 0.825375
0.466500 0.635469 0.825375
0.583125 0.635469 0.825375
0.699750 0.635469 0.825375
0.810688 0.636484 0.832688
0.920000 0.637500 0.840000
0.000000 0.762563 0.825375
0.116625 0.762563 0.825375
0.233250 0.762563 0.825375
0.349875 0.762563 0.825375
0.466500 0.762563 0.825375
0.583125 0.762563 0.825375
0.699750 0.762563 0.825375
0.810688 0.763781 0.832688
0.920000 0.765000 0.840000
0.000000 0.891078 0.832688
0.115812 0.891078 0.832688
0.231625 0.891078 0.832688
0.347438 0.891078 0.832688
0.463250 0.891078 0.832688
0.579063 0.891078 0.832688
0.694875 0.891078 0.832688
0.810688 0.891078 0.832688
0.920000 0.892500 0.840000
0.000000 1.000000 0.840000
0.115000 1.000000 0.840000
0.230000 1.000000 0.840000
0.345000 1.000000 0.840000
0.460000 1.000000 0.840000
0.575000 1.000000 0.840000
0.690000 1.000000 0.840000
0.805000 1.000000 0.840000
0.920000 1.000000 0.840000
0.000000 0.000000 0.971469
0.115812 0.000000 0.971469
0.231625 0.000000 0.971469
0.347438 0.000000 0.971469
0.463250 0.000000 0.971469
0.579063 0.000000 0.971469
0.694875 0.000000 0.971469
0.810688 0.000000 0.971469
0.920000 0.000000 0.980000
0.000000 0.127297 0.971469
0.115812 0.127297 0.971469
0.231625 0.127297 0.971469
0.347438 0.127297 0.971469
0.463250 0.127297 0.971469
0.579063 0.127297 0.971469
0.694875 0.127297 0.971469
0.810688 0.127297 0.971469
0.920000 0.127500 0.980000
0.000000 0.254594 0.971469
0.115812 0.254594 0.971469
0.231625 0.254594 0.971469
0.347438 0.254594 0.971469
0.463250 0.254594 0.971469
0.579063 0.254594 0.971469
0.694875 0.254594 0.971469
0.810688 0.254594 0.971469
0.920000 0.255000 0.980000
0.000000 0.381891 0.971469
0.115812 0.381891 0.971469
0.231625 0.381891 0.971469
0.347438 0.381891 0.971469
0.463250 0.381891 0.971469
0.579063 0.381891 0.971469
0.694875 0.381891 0.971469
0.810688 0.381891 0.971469
0.920000 0.382500 0.980000
0.000000 0.509188 0.971469
0.115812 0.509188 0.971469
0.231625 0.509188 0.971469
0.347438 0.509188 0.971469
0.463250 0.509188 0.971469
0.579063 0.509188 0.971469
0.694875 0.509188 0.971469
0.810688 0.509188 0.971469
0.920000 0.510000 0.980000
0.000000 0.636484 0.971469
0.115812 0.636484 0.971469
0.231625 0.636484 0.971469
0.347438 0.636484 0.971469
0.463250 0.636484 0.971469
0.579063 0.636484 0.971469
0.694875 0.636484 0.971469
0.810688 0.636484 0.971469
0.920000 0.637500 0.980000
0.000000 0.763781 0.971469
0.115812 0.763781 0.971469
0.231625 0.763781 0.971469
0.347438 0.763781 0.971469
0.463250 0.763781 0.971469
0.579063 0.763781 0.971469
0.694875 0.763781 0.971469
0.810688 0.763781 0.971469
0.920000 0.765000 0.980000
0.000000 0.891078 0.971469
0.115812 0.891078 0.971469
0.231625 0.891078 0.971469
0.347438 0.891078 0.971469
0.463250 0.891078 0.971469
0.579063 0.891078 0.971469
0.694875 0.891078 0.971469
0.810688 0.891078 0.971469
0.920000 0.892500 0.980000
0.000000 1.000000 0.980000
0.115000 1.000000 0.980000
0.230000 1.000000 0.980000
0.345000 1.000000 0.980000
0.460000 1.000000 0.980000
0.575000 1.000000 0.980000
0.690000 1.000000 0.980000
0.805000 1.000000 0.980000
0.920000 1.000000 0.980000
0.000000 0.000000 1.000000
0.115000 0.000000 1.000000
0.230000 0.000000 1.000000
0.345000 0.000000 1.000000
0.460000 0.000000 1.000000
0.575000 0.000000 1.000000
0.690000 0.000000 1.000000
0.805000 0.000000 1.000000
0.920000 0.000000 1.000000
0.000000 0.127500 1.000000
0.115000 0.127500 1.000000
0.230000 0.127500 1.000000
0.345000 0.127500 1.000000
0.460000 0.127500 1.000000
0.575000 0.127500 1.000000
0.690000 0.127500 1.000000
0.805000 0.127500 1.000000
0.920000 0.127500 1.000000
0.000000 0.255000 1.000000
0.115000 0.255000 1.000000
0.230000 0.255000 1.000000
0.345000 0.255000 1.000000
0.460000 0.255000 1.000000
0.575000 0.255000 1.000000
0.690000 0.255000 1.000000
0.805000 0.255000 1.000000
0.920000 0.255000 1.000000
0.000000 0.382500 1.000000
0.115000 0.382500 1.000000
0.230000 0.382500 1.000000
0.345000 0.382500 1.000000
0.460000 0.382500 1.000000
0.575000 0.382500 1.000000
0.690000 0.382500 1.000000
0.805000 0.382500 1.000000
0.920000 0.382500 1.000000
0.000000 0.510000 1.000000
0.115000 0.510000 1.000000
0.230000 0.510000 1.000000
0.345000 0.510000 1.000000
0.460000 0.510000 1.000000
0.575000 0.510000 1.000000
0.690000 0.510000 1.000000
0.805000 0.510000 1.000000
0.920000 0.510000 1.000000
0.000000 0.637500 1.000000
0.115000 0.637500 1.000000
0.230000 0.637500 1.000000
0.345000 0.637500 1.000000
0.460000 0.637500 1.000000
0.575000 0.637500 1.000000
0.690000 0.637500 1.000000
0.805000 0.637500 1.000000
0.920000 0.637500 1.000000
0.000000 0.765000 1.000000
0.115000 0.765000 1.000000
0.230000 0.765000 1.000000
0.345000 0.765000 1.000000
0.460000 0.765000 1.000000
0.575000 0.765000 1.000000
0.690000 0.765000 1.000000
0.805000 0.765000 1.000000
0.920000 0.765000 1.000000
0.000000 0.892500 1.000000
0.115000 0.892500 1.000000
0.230000 0.892500 1.000000
0.345000 0.892500 1.000000
0.460000 0.892500 1.000000
0.575000 0.892500 1.000000
0.690000 0.892500 1.000000
0.805000 0.892500 1.000000
0.920000 0.892500 1.000000
0.000000 1.000000 1.000000
0.115000 1.000000 1.000000
0.230000 1.000000 1.000000
0.345000 1.000000 1.000000
0.460000 1.000000 1.000000
0.575000 1.000000 1.000000
0.690000 1.000000 1.000000
0.805000 1.000000 1.000000
0.920000 1.000000 1.000000
