luts/original/blue-sky-summer.cube
TITLE "Blue Sky Summer"
LUT_3D_SIZE 5
DOMAIN_MIN 0.0 0.0 0.0
DOMAIN_MAX 1.0 1.0 1.0
0.000000 0.000000 0.000000
0.239750 0.000000 0.000000
0.473000 0.000000 0.000000
0.699750 0.000000 0.000000
0.920000 0.000000 0.000000
0.000000 0.252563 0.000000
0.239750 0.252563 0.000000
0.473000 0.253375 0.000000
0.699750 0.254188 0.000000
0.920000 0.255000 0.000000
0.000000 0.506750 0.000000
0.236500 0.506750 0.000000
0.473000 0.506750 0.000000
0.699750 0.508375 0.000000
0.920000 0.510000 0.000000
0.000000 0.762563 0.000000
0.233250 0.762563 0.000000
0.466500 0.762563 0.000000
0.699750 0.762563 0.000000
0.920000 0.765000 0.000000
0.000000 1.000000 0.000000
0.230000 1.000000 0.000000
0.460000 1.000000 0.000000
0.690000 1.000000 0.000000
0.920000 1.000000 0.000000
0.000000 0.000000 0.265375
0.239750 0.000000 0.265375
0.473000 0.000000 0.270250
0.699750 0.000000 0.275125
0.920000 0.000000 0.280000
0.000000 0.252563 0.265375
0.239750 0.252563 0.265375
0.473000 0.253375 0.270250
0.699750 0.254188 0.275125
0.920000 0.255000 0.280000
0.000000 0.506750 0.270250
0.236500 0.506750 0.270250
0.473000 0.506750 0.270250
0.699750 0.508375 0.275125
0.920000 0.510000 0.280000
0.000000 0.762563 0.275125
0.233250 0.762563 0.275125
0.466500 0.762563 0.275125
0.699750 0.762563 0.275125
0.920000 0.765000 0.280000
0.000000 1.000000 0.280000
0.230000 1.000000 0.280000
0.460000 1.000000 0.280000
0.690000 1.000000 0.280000
0.920000 1.000000 0.280000
0.000000 0.000000 0.540500
0.236500 0.000000 0.540500
0.473000 0.000000 0.540500
0.699750 0.000000 0.550250
0.920000 0.000000 0.560000
0.000000 0.253375 0.540500
0.236500 0.253375 0.540500
0.473000 0.253375 0.540500
0.699750 0.254188 0.550250
0.920000 0.255000 0.560000
0.000000 0.506750 0.540500
0.236500 0.506750 0.540500
0.473000 0.506750 0.540500
0.699750 0.508375 0.550250
0.920000 0.510000 0.560000
0.000000 0.762563 0.550250
0.233250 0.762563 0.550250
0.466500 0.762563 0.550250
0.699750 0.762563 0.550250
0.920000 0.765000 0.560000
0.000000 1.000000 0.560000
0.230000 1.000000 0.560000
0.460000 1.000000 0.560000
0.690000 1.000000 0.560000
0.920000 1.000000 0.560000
0.000000 0.000000 0.825375
0.233250 0.000000 0.825375
0.466500 0.000000 0.825375
0.699750 0.000000 0.825375
0.920000 0.000000 0.840000
0.000000 0.254188 0.825375
0.233250 0.254188 0.825375
0.466500 0.254188 0.825375
0.699750 0.254188 0.825375
0.920000 0.255000 0.840000
0.000000 0.508375 0.825375
0.233250 0.508375 0.825375
0.466500 0.508375 0.825375
0.699750 0.508375 0.825375
0.920000 0.510000 0.840000
0.000000 0.762563 0.825375
0.233250 0.762563 0.825375
0.466500 0.762563 0.825375
0.699750 0.762563 0.825375
0.920000 0.765000 0.840000
0.000000 1.000000 0.840000
0.230000 1.000000 0.840000
0.460000 1.000000 0.840000
0.690000 1.000000 0.840000
0.920000 1.000000 0.840000
0.000000 0.000000 1.000000
0.230000 0.000000 1.000000
0.460000 0.000000 1.000000
0.690000 0.000000 1.000000
0.920000 0.000000 1.000000
0.000000 0.255000 1.000000
0.230000 0.255000 1.000000
0.460000 0.255000 1.000000
0.690000 0.255000 1.000000
0.920000 0.255000 1.000000
0.000000 0.510000 1.000000
0.230000 0.510000 1.000000
0.460000 0.510000 1.000000
0.690000 0.510000 1.000000
0.920000 0.510000 1.000000
0.000000 0.765000 1.000000
0.230000 0.765000 1.000000
0.460000 0.765000 1.000000
0.690000 0.765000 1.000000
0.920000 0.765000 1.000000
0.000000 1.000000 1.000000
0.230000 1.000000 1.000000
0.460000 1.000000 1.000000
0.690000 1.000000 1.000000
0.920000 1.000000 1.000000
