luts/original/blue-sky-summer.cube
TITLE "Blue Sky Summer"
LUT_3D_SIZE 33
DOMAIN_MIN 0.0 0.0 0.0
DOMAIN_MAX 1.0 1.0 1.0
0.000000 0.000000 0.000000
0.030324 0.000000 0.000000
0.060547 0.000000 0.000000
0.090668 0.000000 0.000000
0.120688 0.000000 0.000000
0.150605 0.000000 0.000000
0.180422 0.000000 0.000000
0.210137 0.000000 0.000000
0.239750 0.000000 0.000000
0.269262 0.000000 0.000000
0.298672 0.000000 0.000000
0.327980 0.000000 0.000000
0.357187 0.000000 0.000000
0.386293 0.000000 0.000000
0.415297 0.000000 0.000000
0.444199 0.000000 0.000000
0.473000 0.000000 0.000000
0.501699 0.000000 0.000000
0.530297 0.000000 0.000000
0.558793 0.000000 0.000000
0.587187 0.000000 0.000000
0.615480 0.000000 0.000000
0.643672 0.000000 0.000000
0.671762 0.000000 0.000000
0.699750 0.000000 0.000000
0.727637 0.000000 0.000000
0.755422 0.000000 0.000000
0.783105 0.000000 0.000000
0.810688 0.000000 0.000000
0.838168 0.000000 0.000000
0.865547 0.000000 0.000000
0.892824 0.000000 0.000000
0.920000 0.000000 0.000000
0.000000 0.031481 0.000000
0.030324 0.031481 0.000000
0.060547 0.031494 0.000000
0.090668 0.031507 0.000000
0.120688 0.031520 0.000000
0.150605 0.031532 0.000000
0.180422 0.031545 0.000000
0.210137 0.031558 0.000000
0.239750 0.031570 0.000000
0.269262 0.031583 0.000000
0.298672 0.031596 0.000000
0.327980 0.031608 0.000000
0.357187 0.031621 0.000000
0.386293 0.031634 0.000000
0.415297 0.031646 0.000000
0.444199 0.031659 0.000000
0.473000 0.031672 0.000000
0.501699 0.031685 0.000000
0.530297 0.031697 0.000000
0.558793 0.031710 0.000000
0.587187 0.031723 0.000000
0.615480 0.031735 0.000000
0.643672 0.031748 0.000000
0.671762 0.031761 0.000000
0.699750 0.031773 0.000000
0.727637 0.031786 0.000000
0.755422 0.031799 0.000000
0.783105 0.031812 0.000000
0.810688 0.031824 0.000000
0.838168 0.031837 0.000000
0.865547 0.031850 0.000000
0.892824 0.031862 0.000000
0.920000 0.031875 0.000000
0.000000 0.062988 0.000000
0.030273 0.062988 0.000000
0.060547 0.062988 0.000000
0.090668 0.063014 0.000000
0.120688 0.063039 0.000000
0.150605 0.063064 0.000000
0.180422 0.063090 0.000000
0.210137 0.063115 0.000000
0.239750 0.063141 0.000000
0.269262 0.063166 0.000000
0.298672 0.063191 0.000000
0.327980 0.063217 0.000000
0.357187 0.063242 0.000000
0.386293 0.063268 0.000000
0.415297 0.063293 0.000000
0.444199 0.063318 0.000000
0.473000 0.063344 0.000000
0.501699 0.063369 0.000000
0.530297 0.063395 0.000000
0.558793 0.063420 0.000000
0.587187 0.063445 0.000000
0.615480 0.063471 0.000000
0.643672 0.063496 0.000000
0.671762 0.063521 0.000000
0.699750 0.063547 0.000000
0.727637 0.063572 0.000000
0.755422 0.063598 0.000000
0.783105 0.063623 0.000000
0.810688 0.063648 0.000000
0.838168 0.063674 0.000000
0.865547 0.063699 0.000000
0.892824 0.063725 0.000000
0.920000 0.063750 0.000000
0.000000 0.094521 0.000000
0.030223 0.094521 0.000000
0.060445 0.094521 0.000000
0.090668 0.094521 0.000000
0.120688 0.094559 0.000000
0.150605 0.094597 0.000000
0.180422 0.094635 0.000000
0.210137 0.094673 0.000000
0.239750 0.094711 0.000000
0.269262 0.094749 0.000000
0.298672 0.094787 0.000000
0.327980 0.094825 0.000000
0.357187 0.094863 0.000000
0.386293 0.094901 0.000000
0.415297 0.094939 0.000000
0.444199 0.094978 0.000000
0.473000 0.095016 0.000000
0.501699 0.095054 0.000000
0.530297 0.095092 0.000000
0.558793 0.095130 0.000000
0.587187 0.095168 0.000000
0.615480 0.095206 0.000000
0.643672 0.095244 0.000000
0.671762 0.095282 0.000000
0.699750 0.095320 0.000000
0.727637 0.095358 0.000000
0.755422 0.095396 0.000000
0.783105 0.095435 0.000000
0.810688 0.095473 0.000000
0.838168 0.095511 0.000000
0.865547 0.095549 0.000000
0.892824 0.095587 0.000000
0.920000 0.095625 0.000000
0.000000 0.126078 0.000000
0.030172 0.126078 0.000000
0.060344 0.126078 0.000000
0.090516 0.126078 0.000000
0.120688 0.126078 0.000000
0.150605 0.126129 0.000000
0.180422 0.126180 0.000000
0.210137 0.126230 0.000000
0.239750 0.126281 0.000000
0.269262 0.126332 0.000000
0.298672 0.126383 0.000000
0.327980 0.126434 0.000000
0.357187 0.126484 0.000000
0.386293 0.126535 0.000000
0.415297 0.126586 0.000000
0.444199 0.126637 0.000000
0.473000 0.126688 0.000000
0.501699 0.126738 0.000000
0.530297 0.126789 0.000000
0.558793 0.126840 0.000000
0.587187 0.126891 0.000000
0.615480 0.126941 0.000000
0.643672 0.126992 0.000000
0.671762 0.127043 0.000000
0.699750 0.127094 0.000000
0.727637 0.127145 0.000000
0.755422 0.127195 0.000000
0.783105 0.127246 0.000000
0.810688 0.127297 0.000000
0.838168 0.127348 0.000000
0.865547 0.127398 0.000000
0.892824 0.127449 0.000000
0.920000 0.127500 0.000000
0.000000 0.157661 0.000000
0.030121 0.157661 0.000000
0.060242 0.157661 0.000000
0.090363 0.157661 0.000000
0.120484 0.157661 0.000000
0.150605 0.157661 0.000000
0.180422 0.157725 0.000000
0.210137 0.157788 0.000000
0.239750 0.157852 0.000000
0.269262 0.157915 0.000000
0.298672 0.157979 0.000000
0.327980 0.158042 0.000000
0.357187 0.158105 0.000000
0.386293 0.158169 0.000000
0.415297 0.158232 0.000000
0.444199 0.158296 0.000000
0.473000 0.158359 0.000000
0.501699 0.158423 0.000000
0.530297 0.158486 0.000000
0.558793 0.158550 0.000000
0.587187 0.158613 0.000000
0.615480 0.158677 0.000000
0.643672 0.158740 0.000000
0.671762 0.158804 0.000000
0.699750 0.158867 0.000000
0.727637 0.158931 0.000000
0.755422 0.158994 0.000000
0.783105 0.159058 0.000000
0.810688 0.159121 0.000000
0.838168 0.159185 0.000000
0.865547 0.159248 0.000000
0.892824 0.159312 0.000000
0.920000 0.159375 0.000000
0.000000 0.189270 0.000000
0.030070 0.189270 0.000000
0.060141 0.189270 0.000000
0.090211 0.189270 0.000000
0.120281 0.189270 0.000000
0.150352 0.189270 0.000000
0.180422 0.189270 0.000000
0.210137 0.189346 0.000000
0.239750 0.189422 0.000000
0.269262 0.189498 0.000000
0.298672 0.189574 0.000000
0.327980 0.189650 0.000000
0.357187 0.189727 0.000000
0.386293 0.189803 0.000000
0.415297 0.189879 0.000000
0.444199 0.189955 0.000000
0.473000 0.190031 0.000000
0.501699 0.190107 0.000000
0.530297 0.190184 0.000000
0.558793 0.190260 0.000000
0.587187 0.190336 0.000000
0.615480 0.190412 0.000000
0.643672 0.190488 0.000000
0.671762 0.190564 0.000000
0.699750 0.190641 0.000000
0.727637 0.190717 0.000000
0.755422 0.190793 0.000000
0.783105 0.190869 0.000000
0.810688 0.190945 0.000000
0.838168 0.191021 0.000000
0.865547 0.191098 0.000000
0.892824 0.191174 0.000000
0.920000 0.191250 0.000000
0.000000 0.220903 0.000000
0.030020 0.220903 0.000000
0.060039 0.220903 0.000000
0.090059 0.220903 0.000000
0.120078 0.220903 0.000000
0.150098 0.220903 0.000000
0.180117 0.220903 0.000000
0.210137 0.220903 0.000000
0.239750 0.220992 0.000000
0.269262 0.221081 0.000000
0.298672 0.221170 0.000000
0.327980 0.221259 0.000000
0.357187 0.221348 0.000000
0.386293 0.221437 0.000000
0.415297 0.221525 0.000000
0.444199 0.221614 0.000000
0.473000 0.221703 0.000000
0.501699 0.221792 0.000000
0.530297 0.221881 0.000000
0.558793 0.221970 0.000000
0.587187 0.222059 0.000000
0.615480 0.222147 0.000000
0.643672 0.222236 0.000000
0.671762 0.222325 0.000000
0.699750 0.222414 0.000000
0.727637 0.222503 0.000000
0.755422 0.222592 0.000000
0.783105 0.222681 0.000000
0.810688 0.222770 0.000000
0.838168 0.222858 0.000000
0.865547 0.222947 0.000000
0.892824 0.223036 0.000000
0.920000 0.223125 0.000000
0.000000 0.252563 0.000000
0.029969 0.252563 0.000000
0.059938 0.252563 0.000000
0.089906 0.252563 0.000000
0.119875 0.252563 0.000000
0.149844 0.252563 0.000000
0.179813 0.252563 0.000000
0.209781 0.252563 0.000000
0.239750 0.252563 0.000000
0.269262 0.252664 0.000000
0.298672 0.252766 0.000000
0.327980 0.252867 0.000000
0.357187 0.252969 0.000000
0.386293 0.253070 0.000000
0.415297 0.253172 0.000000
0.444199 0.253273 0.000000
0.473000 0.253375 0.000000
0.501699 0.253477 0.000000
0.530297 0.253578 0.000000
0.558793 0.253680 0.000000
0.587187 0.253781 0.000000
0.615480 0.253883 0.000000
0.643672 0.253984 0.000000
0.671762 0.254086 0.000000
0.699750 0.254188 0.000000
0.727637 0.254289 0.000000
0.755422 0.254391 0.000000
0.783105 0.254492 0.000000
0.810688 0.254594 0.000000
0.838168 0.254695 0.000000
0.865547 0.254797 0.000000
0.892824 0.254898 0.000000
0.920000 0.255000 0.000000
0.000000 0.284247 0.000000
0.029918 0.284247 0.000000
0.059836 0.284247 0.000000
0.089754 0.284247 0.000000
0.119672 0.284247 0.000000
0.149590 0.284247 0.000000
0.179508 0.284247 0.000000
0.209426 0.284247 0.000000
0.239344 0.284247 0.000000
0.269262 0.284247 0.000000
0.298672 0.284361 0.000000
0.327980 0.284476 0.000000
0.357187 0.284590 0.000000
0.386293 0.284704 0.000000
0.415297 0.284818 0.000000
0.444199 0.284933 0.000000
0.473000 0.285047 0.000000
0.501699 0.285161 0.000000
0.530297 0.285275 0.000000
0.558793 0.285390 0.000000
0.587187 0.285504 0.000000
0.615480 0.285618 0.000000
0.643672 0.285732 0.000000
0.671762 0.285847 0.000000
0.699750 0.285961 0.000000
0.727637 0.286075 0.000000
0.755422 0.286189 0.000000
0.783105 0.286304 0.000000
0.810688 0.286418 0.000000
0.838168 0.286532 0.000000
0.865547 0.286646 0.000000
0.892824 0.286761 0.000000
0.920000 0.286875 0.000000
0.000000 0.315957 0.000000
0.029867 0.315957 0.000000
0.059734 0.315957 0.000000
0.089602 0.315957 0.000000
0.119469 0.315957 0.000000
0.149336 0.315957 0.000000
0.179203 0.315957 0.000000
0.209070 0.315957 0.000000
0.238937 0.315957 0.000000
0.268805 0.315957 0.000000
0.298672 0.315957 0.000000
0.327980 0.316084 0.000000
0.357187 0.316211 0.000000
0.386293 0.316338 0.000000
0.415297 0.316465 0.000000
0.444199 0.316592 0.000000
0.473000 0.316719 0.000000
0.501699 0.316846 0.000000
0.530297 0.316973 0.000000
0.558793 0.317100 0.000000
0.587187 0.317227 0.000000
0.615480 0.317354 0.000000
0.643672 0.317480 0.000000
0.671762 0.317607 0.000000
0.699750 0.317734 0.000000
0.727637 0.317861 0.000000
0.755422 0.317988 0.000000
0.783105 0.318115 0.000000
0.810688 0.318242 0.000000
0.838168 0.318369 0.000000
0.865547 0.318496 0.000000
0.892824 0.318623 0.000000
0.920000 0.318750 0.000000
0.000000 0.347692 0.000000
0.029816 0.347692 0.000000
0.059633 0.347692 0.000000
0.089449 0.347692 0.000000
0.119266 0.347692 0.000000
0.149082 0.347692 0.000000
0.178898 0.347692 0.000000
0.208715 0.347692 0.000000
0.238531 0.347692 0.000000
0.268348 0.347692 0.000000
0.298164 0.347692 0.000000
0.327980 0.347692 0.000000
0.357187 0.347832 0.000000
0.386293 0.347972 0.000000
0.415297 0.348111 0.000000
0.444199 0.348251 0.000000
0.473000 0.348391 0.000000
0.501699 0.348530 0.000000
0.530297 0.348670 0.000000
0.558793 0.348810 0.000000
0.587187 0.348949 0.000000
0.615480 0.349089 0.000000
0.643672 0.349229 0.000000
0.671762 0.349368 0.000000
0.699750 0.349508 0.000000
0.727637 0.349647 0.000000
0.755422 0.349787 0.000000
0.783105 0.349927 0.000000
0.810688 0.350066 0.000000
0.838168 0.350206 0.000000
0.865547 0.350346 0.000000
0.892824 0.350485 0.000000
0.920000 0.350625 0.000000
0.000000 0.379453 0.000000
0.029766 0.379453 0.000000
0.059531 0.379453 0.000000
0.089297 0.379453 0.000000
0.119063 0.379453 0.000000
0.148828 0.379453 0.000000
0.178594 0.379453 0.000000
0.208359 0.379453 0.000000
0.238125 0.379453 0.000000
0.267891 0.379453 0.000000
0.297656 0.379453 0.000000
0.327422 0.379453 0.000000
0.357187 0.379453 0.000000
0.386293 0.379605 0.000000
0.415297 0.379758 0.000000
0.444199 0.379910 0.000000
0.473000 0.380062 0.000000
0.501699 0.380215 0.000000
0.530297 0.380367 0.000000
0.558793 0.380520 0.000000
0.587187 0.380672 0.000000
0.615480 0.380824 0.000000
0.643672 0.380977 0.000000
0.671762 0.381129 0.000000
0.699750 0.381281 0.000000
0.727637 0.381434 0.000000
0.755422 0.381586 0.000000
0.783105 0.381738 0.000000
0.810688 0.381891 0.000000
0.838168 0.382043 0.000000
0.865547 0.382195 0.000000
0.892824 0.382348 0.000000
0.920000 0.382500 0.000000
0.000000 0.411239 0.000000
0.029715 0.411239 0.000000
0.059430 0.411239 0.000000
0.089145 0.411239 0.000000
0.118859 0.411239 0.000000
0.148574 0.411239 0.000000
0.178289 0.411239 0.000000
0.208004 0.411239 0.000000
0.237719 0.411239 0.000000
0.267434 0.411239 0.000000
0.297148 0.411239 0.000000
0.326863 0.411239 0.000000
0.356578 0.411239 0.000000
0.386293 0.411239 0.000000
0.415297 0.411404 0.000000
0.444199 0.411569 0.000000
0.473000 0.411734 0.000000
0.501699 0.411899 0.000000
0.530297 0.412064 0.000000
0.558793 0.412229 0.000000
0.587187 0.412395 0.000000
0.615480 0.412560 0.000000
0.643672 0.412725 0.000000
0.671762 0.412890 0.000000
0.699750 0.413055 0.000000
0.727637 0.413220 0.000000
0.755422 0.413385 0.000000
0.783105 0.413550 0.000000
0.810688 0.413715 0.000000
0.838168 0.413880 0.000000
0.865547 0.414045 0.000000
0.892824 0.414210 0.000000
0.920000 0.414375 0.000000
0.000000 0.443051 0.000000
0.029664 0.443051 0.000000
0.059328 0.443051 0.000000
0.088992 0.443051 0.000000
0.118656 0.443051 0.000000
0.148320 0.443051 0.000000
0.177984 0.443051 0.000000
0.207648 0.443051 0.000000
0.237313 0.443051 0.000000
0.266977 0.443051 0.000000
0.296641 0.443051 0.000000
0.326305 0.443051 0.000000
0.355969 0.443051 0.000000
0.385633 0.443051 0.000000
0.415297 0.443051 0.000000
0.444199 0.443229 0.000000
0.473000 0.443406 0.000000
0.501699 0.443584 0.000000
0.530297 0.443762 0.000000
0.558793 0.443939 0.000000
0.587187 0.444117 0.000000
0.615480 0.444295 0.000000
0.643672 0.444473 0.000000
0.671762 0.444650 0.000000
0.699750 0.444828 0.000000
0.727637 0.445006 0.000000
0.755422 0.445184 0.000000
0.783105 0.445361 0.000000
0.810688 0.445539 0.000000
0.838168 0.445717 0.000000
0.865547 0.445895 0.000000
0.892824 0.446072 0.000000
0.920000 0.446250 0.000000
0.000000 0.474888 0.000000
0.029613 0.474888 0.000000
0.059227 0.474888 0.000000
0.088840 0.474888 0.000000
0.118453 0.474888 0.000000
0.148066 0.474888 0.000000
0.177680 0.474888 0.000000
0.207293 0.474888 0.000000
0.236906 0.474888 0.000000
0.266520 0.474888 0.000000
0.296133 0.474888 0.000000
0.325746 0.474888 0.000000
0.355359 0.474888 0.000000
0.384973 0.474888 0.000000
0.414586 0.474888 0.000000
0.444199 0.474888 0.000000
0.473000 0.475078 0.000000
0.501699 0.475269 0.000000
0.530297 0.475459 0.000000
0.558793 0.475649 0.000000
0.587187 0.475840 0.000000
0.615480 0.476030 0.000000
0.643672 0.476221 0.000000
0.671762 0.476411 0.000000
0.699750 0.476602 0.000000
0.727637 0.476792 0.000000
0.755422 0.476982 0.000000
0.783105 0.477173 0.000000
0.810688 0.477363 0.000000
0.838168 0.477554 0.000000
0.865547 0.477744 0.000000
0.892824 0.477935 0.000000
0.920000 0.478125 0.000000
0.000000 0.506750 0.000000
0.029563 0.506750 0.000000
0.059125 0.506750 0.000000
0.088688 0.506750 0.000000
0.118250 0.506750 0.000000
0.147813 0.506750 0.000000
0.177375 0.506750 0.000000
0.206937 0.506750 0.000000
0.236500 0.506750 0.000000
0.266063 0.506750 0.000000
0.295625 0.506750 0.000000
0.325188 0.506750 0.000000
0.354750 0.506750 0.000000
0.384313 0.506750 0.000000
0.413875 0.506750 0.000000
0.443438 0.506750 0.000000
0.473000 0.506750 0.000000
0.501699 0.506953 0.000000
0.530297 0.507156 0.000000
0.558793 0.507359 0.000000
0.587187 0.507563 0.000000
0.615480 0.507766 0.000000
0.643672 0.507969 0.000000
0.671762 0.508172 0.000000
0.699750 0.508375 0.000000
0.727637 0.508578 0.000000
0.755422 0.508781 0.000000
0.783105 0.508984 0.000000
0.810688 0.509188 0.000000
0.838168 0.509391 0.000000
0.865547 0.509594 0.000000
0.892824 0.509797 0.000000
0.920000 0.510000 0.000000
0.000000 0.538638 0.000000
0.029512 0.538638 0.000000
0.059023 0.538638 0.000000
0.088535 0.538638 0.000000
0.118047 0.538638 0.000000
0.147559 0.538638 0.000000
0.177070 0.538638 0.000000
0.206582 0.538638 0.000000
0.236094 0.538638 0.000000
0.265605 0.538638 0.000000
0.295117 0.538638 0.000000
0.324629 0.538638 0.000000
0.354141 0.538638 0.000000
0.383652 0.538638 0.000000
0.413164 0.538638 0.000000
0.442676 0.538638 0.000000
0.472188 0.538638 0.000000
0.501699 0.538638 0.000000
0.530297 0.538854 0.000000
0.558793 0.539069 0.000000
0.587187 0.539285 0.000000
0.615480 0.539501 0.000000
0.643672 0.539717 0.000000
0.671762 0.539933 0.000000
0.699750 0.540148 0.000000
0.727637 0.540364 0.000000
0.755422 0.540580 0.000000
0.783105 0.540796 0.000000
0.810688 0.541012 0.000000
0.838168 0.541228 0.000000
0.865547 0.541443 0.000000
0.892824 0.541659 0.000000
0.920000 0.541875 0.000000
0.000000 0.570551 0.000000
0.029461 0.570551 0.000000
0.058922 0.570551 0.000000
0.088383 0.570551 0.000000
0.117844 0.570551 0.000000
0.147305 0.570551 0.000000
0.176766 0.570551 0.000000
0.206227 0.570551 0.000000
0.235687 0.570551 0.000000
0.265148 0.570551 0.000000
0.294609 0.570551 0.000000
0.324070 0.570551 0.000000
0.353531 0.570551 0.000000
0.382992 0.570551 0.000000
0.412453 0.570551 0.000000
0.441914 0.570551 0.000000
0.471375 0.570551 0.000000
0.500836 0.570551 0.000000
0.530297 0.570551 0.000000
0.558793 0.570779 0.000000
0.587187 0.571008 0.000000
0.615480 0.571236 0.000000
0.643672 0.571465 0.000000
0.671762 0.571693 0.000000
0.699750 0.571922 0.000000
0.727637 0.572150 0.000000
0.755422 0.572379 0.000000
0.783105 0.572607 0.000000
0.810688 0.572836 0.000000
0.838168 0.573064 0.000000
0.865547 0.573293 0.000000
0.892824 0.573521 0.000000
0.920000 0.573750 0.000000
0.000000 0.602489 0.000000
0.029410 0.602489 0.000000
0.058820 0.602489 0.000000
0.088230 0.602489 0.000000
0.117641 0.602489 0.000000
0.147051 0.602489 0.000000
0.176461 0.602489 0.000000
0.205871 0.602489 0.000000
0.235281 0.602489 0.000000
0.264691 0.602489 0.000000
0.294102 0.602489 0.000000
0.323512 0.602489 0.000000
0.352922 0.602489 0.000000
0.382332 0.602489 0.000000
0.411742 0.602489 0.000000
0.441152 0.602489 0.000000
0.470562 0.602489 0.000000
0.499973 0.602489 0.000000
0.529383 0.602489 0.000000
0.558793 0.602489 0.000000
0.587187 0.602730 0.000000
0.615480 0.602972 0.000000
0.643672 0.603213 0.000000
0.671762 0.603454 0.000000
0.699750 0.603695 0.000000
0.727637 0.603937 0.000000
0.755422 0.604178 0.000000
0.783105 0.604419 0.000000
0.810688 0.604660 0.000000
0.838168 0.604901 0.000000
0.865547 0.605143 0.000000
0.892824 0.605384 0.000000
0.920000 0.605625 0.000000
0.000000 0.634453 0.000000
0.029359 0.634453 0.000000
0.058719 0.634453 0.000000
0.088078 0.634453 0.000000
0.117438 0.634453 0.000000
0.146797 0.634453 0.000000
0.176156 0.634453 0.000000
0.205516 0.634453 0.000000
0.234875 0.634453 0.000000
0.264234 0.634453 0.000000
0.293594 0.634453 0.000000
0.322953 0.634453 0.000000
0.352313 0.634453 0.000000
0.381672 0.634453 0.000000
0.411031 0.634453 0.000000
0.440391 0.634453 0.000000
0.469750 0.634453 0.000000
0.499109 0.634453 0.000000
0.528469 0.634453 0.000000
0.557828 0.634453 0.000000
0.587187 0.634453 0.000000
0.615480 0.634707 0.000000
0.643672 0.634961 0.000000
0.671762 0.635215 0.000000
0.699750 0.635469 0.000000
0.727637 0.635723 0.000000
0.755422 0.635977 0.000000
0.783105 0.636230 0.000000
0.810688 0.636484 0.000000
0.838168 0.636738 0.000000
0.865547 0.636992 0.000000
0.892824 0.637246 0.000000
0.920000 0.637500 0.000000
0.000000 0.666442 0.000000
0.029309 0.666442 0.000000
0.058617 0.666442 0.000000
0.087926 0.666442 0.000000
0.117234 0.666442 0.000000
0.146543 0.666442 0.000000
0.175852 0.666442 0.000000
0.205160 0.666442 0.000000
0.234469 0.666442 0.000000
0.263777 0.666442 0.000000
0.293086 0.666442 0.000000
0.322395 0.666442 0.000000
0.351703 0.666442 0.000000
0.381012 0.666442 0.000000
0.410320 0.666442 0.000000
0.439629 0.666442 0.000000
0.468938 0.666442 0.000000
0.498246 0.666442 0.000000
0.527555 0.666442 0.000000
0.556863 0.666442 0.000000
0.586172 0.666442 0.000000
0.615480 0.666442 0.000000
0.643672 0.666709 0.000000
0.671762 0.666976 0.000000
0.699750 0.667242 0.000000
0.727637 0.667509 0.000000
0.755422 0.667775 0.000000
0.783105 0.668042 0.000000
0.810688 0.668309 0.000000
0.838168 0.668575 0.000000
0.865547 0.668842 0.000000
0.892824 0.669108 0.000000
0.920000 0.669375 0.000000
0.000000 0.698457 0.000000
0.029258 0.698457 0.000000
0.058516 0.698457 0.000000
0.087773 0.698457 0.000000
0.117031 0.698457 0.000000
0.146289 0.698457 0.000000
0.175547 0.698457 0.000000
0.204805 0.698457 0.000000
0.234063 0.698457 0.000000
0.263320 0.698457 0.000000
0.292578 0.698457 0.000000
0.321836 0.698457 0.000000
0.351094 0.698457 0.000000
0.380352 0.698457 0.000000
0.409609 0.698457 0.000000
0.438867 0.698457 0.000000
0.468125 0.698457 0.000000
0.497383 0.698457 0.000000
0.526641 0.698457 0.000000
0.555898 0.698457 0.000000
0.585156 0.698457 0.000000
0.614414 0.698457 0.000000
0.643672 0.698457 0.000000
0.671762 0.698736 0.000000
0.699750 0.699016 0.000000
0.727637 0.699295 0.000000
0.755422 0.699574 0.000000
0.783105 0.699854 0.000000
0.810688 0.700133 0.000000
0.838168 0.700412 0.000000
0.865547 0.700691 0.000000
0.892824 0.700971 0.000000
0.920000 0.701250 0.000000
0.000000 0.730497 0.000000
0.029207 0.730497 0.000000
0.058414 0.730497 0.000000
0.087621 0.730497 0.000000
0.116828 0.730497 0.000000
0.146035 0.730497 0.000000
0.175242 0.730497 0.000000
0.204449 0.730497 0.000000
0.233656 0.730497 0.000000
0.262863 0.730497 0.000000
0.292070 0.730497 0.000000
0.321277 0.730497 0.000000
0.350484 0.730497 0.000000
0.379691 0.730497 0.000000
0.408898 0.730497 0.000000
0.438105 0.730497 0.000000
0.467313 0.730497 0.000000
0.496520 0.730497 0.000000
0.525727 0.730497 0.000000
0.554934 0.730497 0.000000
0.584141 0.730497 0.000000
0.613348 0.730497 0.000000
0.642555 0.730497 0.000000
0.671762 0.730497 0.000000
0.699750 0.730789 0.000000
0.727637 0.731081 0.000000
0.755422 0.731373 0.000000
0.783105 0.731665 0.000000
0.810688 0.731957 0.000000
0.838168 0.732249 0.000000
0.865547 0.732541 0.000000
0.892824 0.732833 0.000000
0.920000 0.733125 0.000000
0.000000 0.762563 0.000000
0.029156 0.762563 0.000000
0.058313 0.762563 0.000000
0.087469 0.762563 0.000000
0.116625 0.762563 0.000000
0.145781 0.762563 0.000000
0.174937 0.762563 0.000000
0.204094 0.762563 0.000000
0.233250 0.762563 0.000000
0.262406 0.762563 0.000000
0.291563 0.762563 0.000000
0.320719 0.762563 0.000000
0.349875 0.762563 0.000000
0.379031 0.762563 0.000000
0.408188 0.762563 0.000000
0.437344 0.762563 0.000000
0.466500 0.762563 0.000000
0.495656 0.762563 0.000000
0.524813 0.762563 0.000000
0.553969 0.762563 0.000000
0.583125 0.762563 0.000000
0.612281 0.762563 0.000000
0.641437 0.762563 0.000000
0.670594 0.762563 0.000000
0.699750 0.762563 0.000000
0.727637 0.762867 0.000000
0.755422 0.763172 0.000000
0.783105 0.763477 0.000000
0.810688 0.763781 0.000000
0.838168 0.764086 0.000000
0.865547 0.764391 0.000000
0.892824 0.764695 0.000000
0.920000 0.765000 0.000000
0.000000 0.794653 0.000000
0.029105 0.794653 0.000000
0.058211 0.794653 0.000000
0.087316 0.794653 0.000000
0.116422 0.794653 0.000000
0.145527 0.794653 0.000000
0.174633 0.794653 0.000000
0.203738 0.794653 0.000000
0.232844 0.794653 0.000000
0.261949 0.794653 0.000000
0.291055 0.794653 0.000000
0.320160 0.794653 0.000000
0.349266 0.794653 0.000000
0.378371 0.794653 0.000000
0.407477 0.794653 0.000000
0.436582 0.794653 0.000000
0.465688 0.794653 0.000000
0.494793 0.794653 0.000000
0.523898 0.794653 0.000000
0.553004 0.794653 0.000000
0.582109 0.794653 0.000000
0.611215 0.794653 0.000000
0.640320 0.794653 0.000000
0.669426 0.794653 0.000000
0.698531 0.794653 0.000000
0.727637 0.794653 0.000000
0.755422 0.794971 0.000000
0.783105 0.795288 0.000000
0.810688 0.795605 0.000000
0.838168 0.795923 0.000000
0.865547 0.796240 0.000000
0.892824 0.796558 0.000000
0.920000 0.796875 0.000000
0.000000 0.826770 0.000000
0.029055 0.826770 0.000000
0.058109 0.826770 0.000000
0.087164 0.826770 0.000000
0.116219 0.826770 0.000000
0.145273 0.826770 0.000000
0.174328 0.826770 0.000000
0.203383 0.826770 0.000000
0.232438 0.826770 0.000000
0.261492 0.826770 0.000000
0.290547 0.826770 0.000000
0.319602 0.826770 0.000000
0.348656 0.826770 0.000000
0.377711 0.826770 0.000000
0.406766 0.826770 0.000000
0.435820 0.826770 0.000000
0.464875 0.826770 0.000000
0.493930 0.826770 0.000000
0.522984 0.826770 0.000000
0.552039 0.826770 0.000000
0.581094 0.826770 0.000000
0.610148 0.826770 0.000000
0.639203 0.826770 0.000000
0.668258 0.826770 0.000000
0.697313 0.826770 0.000000
0.726367 0.826770 0.000000
0.755422 0.826770 0.000000
