luts/original/brown-editorial.cube
TITLE "Brown Editorial"
LUT_3D_SIZE 5
DOMAIN_MIN 0.0 0.0 0.0
DOMAIN_MAX 1.0 1.0 1.0
0.000000 0.000000 0.000000
0.172088 0.000000 0.000000
0.482174 0.000000 0.000000
0.809788 0.000000 0.000000
1.000000 0.000000 0.000000
0.000000 0.111394 0.000000
0.189618 0.118998 0.000000
0.525972 0.126781 0.000000
0.867804 0.133532 0.000000
1.000000 0.139810 0.000000
0.000000 0.374515 0.000000
0.215880 0.391232 0.000000
0.596192 0.403936 0.000000
0.927011 0.398969 0.000000
1.000000 0.394011 0.000000
0.000000 0.678852 0.000000
0.234268 0.671687 0.000000
0.627360 0.664488 0.000000
0.952671 0.657256 0.000000
1.000000 0.649993 0.000000
0.000000 0.887538 0.000000
0.248216 0.880610 0.000000
0.654415 0.876414 0.000000
0.965685 0.876414 0.000000
1.000000 0.876414 0.000000
0.000000 0.000000 0.063328
0.173832 0.000000 0.070763
0.486595 0.000000 0.078498
0.815162 0.000000 0.086526
1.000000 0.000000 0.094839
0.000000 0.113956 0.089520
0.191419 0.121621 0.097934
0.530921 0.129368 0.106447
0.875882 0.135668 0.112186
1.000000 0.141933 0.117683
0.000000 0.380220 0.114216
0.219161 0.396851 0.119620
0.599356 0.402248 0.120286
0.929783 0.397284 0.116715
1.000000 0.392329 0.113182
0.000000 0.676422 0.115424
0.235665 0.669246 0.111906
0.630483 0.662035 0.108428
0.955032 0.654793 0.104990
1.000000 0.647519 0.101592
0.000000 0.885202 0.103748
0.249637 0.878223 0.100365
0.654415 0.876414 0.099506
0.965685 0.876414 0.099506
1.000000 0.876414 0.099506
0.000000 0.000000 0.179333
0.175582 0.000000 0.200904
0.491017 0.000000 0.223237
0.820485 0.000000 0.246269
1.000000 0.000000 0.269934
0.000000 0.116539 0.254814
0.193225 0.124265 0.278695
0.538406 0.131511 0.299765
0.883815 0.137800 0.315408
1.000000 0.144051 0.330268
0.000000 0.385897 0.320911
0.222473 0.402438 0.335475
0.602516 0.400561 0.329111
0.932516 0.395600 0.319345
1.000000 0.390649 0.309645
0.000000 0.673989 0.315805
0.237065 0.666801 0.306131
0.633602 0.659579 0.296529
0.957349 0.652326 0.287003
1.000000 0.645042 0.277557
0.000000 0.882849 0.283555
0.250709 0.876414 0.274924
0.654415 0.876414 0.274924
0.965685 0.876414 0.274924
1.000000 0.876414 0.274924
0.000000 0.000000 0.337869
0.177338 0.000000 0.376216
0.495439 0.000000 0.415238
0.825756 0.000000 0.454720
1.000000 0.000000 0.494446
0.000000 0.119143 0.469166
0.195036 0.126929 0.508928
0.545923 0.133650 0.538450
0.891596 0.139927 0.562948
1.000000 0.146164 0.585814
0.000000 0.391544 0.571463
0.224686 0.403842 0.586542
0.605672 0.398875 0.571209
0.935208 0.393918 0.555819
1.000000 0.388969 0.540382
0.000000 0.671552 0.550203
0.238467 0.664352 0.534753
0.636716 0.657119 0.519274
0.959622 0.649856 0.503780
1.000000 0.642995 0.489201
0.000000 0.880478 0.498138
0.250709 0.876414 0.489201
0.654415 0.876414 0.489201
0.965685 0.876414 0.489201
1.000000 0.876414 0.489201
0.000000 0.000000 0.523442
0.179099 0.000000 0.576235
0.499862 0.000000 0.628292
0.830975 0.000000 0.679106
1.000000 0.000000 0.728166
0.000000 0.121767 0.697196
0.197142 0.129487 0.744255
0.553468 0.135786 0.774133
0.899217 0.142050 0.801192
1.000000 0.146894 0.818752
0.000000 0.397161 0.810360
0.226066 0.402154 0.812692
0.608824 0.397191 0.795722
0.937860 0.392236 0.778294
1.000000 0.387291 0.760440
0.000000 0.669110 0.771842
0.239872 0.661899 0.753840
0.639825 0.654656 0.735453
0.961850 0.647382 0.716710
1.000000 0.642995 0.705285
0.000000 0.878091 0.709804
0.250709 0.876414 0.705285
0.654415 0.876414 0.705285
0.965685 0.876414 0.705285
1.000000 0.876414 0.705285
