luts/original/brown-editorial.cube
TITLE "Brown Editorial"
LUT_3D_SIZE 9
DOMAIN_MIN 0.0 0.0 0.0
DOMAIN_MAX 1.0 1.0 1.0
0.000000 0.000000 0.000000
0.062400 0.000000 0.000000
0.172088 0.000000 0.000000
0.316716 0.000000 0.000000
0.482174 0.000000 0.000000
0.652501 0.000000 0.000000
0.809788 0.000000 0.000000
0.934093 0.000000 0.000000
1.000000 0.000000 0.000000
0.000000 0.037778 0.000000
0.065417 0.039051 0.000000
0.180783 0.040340 0.000000
0.332248 0.041643 0.000000
0.504076 0.042960 0.000000
0.678555 0.044293 0.000000
0.835898 0.045639 0.000000
0.954148 0.047001 0.000000
1.000000 0.048355 0.000000
0.000000 0.111394 0.000000
0.068487 0.115174 0.000000
0.189618 0.118998 0.000000
0.347937 0.122867 0.000000
0.525972 0.126781 0.000000
0.706435 0.130380 0.000000
0.867804 0.133532 0.000000
0.979189 0.136675 0.000000
1.000000 0.139810 0.000000
0.000000 0.225641 0.000000
0.071608 0.232830 0.000000
0.200092 0.238880 0.000000
0.369756 0.244622 0.000000
0.560684 0.250341 0.000000
0.748994 0.256034 0.000000
0.906322 0.261698 0.000000
0.999398 0.267333 0.000000
1.000000 0.265716 0.000000
0.000000 0.374515 0.000000
0.076931 0.382905 0.000000
0.215880 0.391232 0.000000
0.397582 0.399494 0.000000
0.596192 0.403936 0.000000
0.780863 0.401451 0.000000
0.927011 0.398969 0.000000
1.000000 0.396489 0.000000
1.000000 0.394011 0.000000
0.000000 0.546129 0.000000
0.081935 0.546821 0.000000
0.227383 0.543675 0.000000
0.412562 0.540527 0.000000
0.611825 0.537378 0.000000
0.797603 0.534228 0.000000
0.940349 0.531077 0.000000
1.000000 0.527924 0.000000
1.000000 0.524771 0.000000
0.000000 0.678852 0.000000
0.084353 0.675273 0.000000
0.234268 0.671687 0.000000
0.424374 0.668091 0.000000
0.627360 0.664488 0.000000
0.813915 0.660876 0.000000
0.952671 0.657256 0.000000
1.000000 0.653628 0.000000
1.000000 0.649993 0.000000
0.000000 0.793310 0.000000
0.086798 0.789606 0.000000
0.241213 0.785882 0.000000
0.436222 0.782138 0.000000
0.642783 0.778374 0.000000
0.829774 0.774590 0.000000
0.963932 0.770788 0.000000
1.000000 0.768669 0.000000
1.000000 0.768669 0.000000
0.000000 0.887538 0.000000
0.089268 0.884093 0.000000
0.248216 0.880610 0.000000
0.448102 0.877090 0.000000
0.654415 0.876414 0.000000
0.836944 0.876414 0.000000
0.965685 0.876414 0.000000
1.000000 0.876414 0.000000
1.000000 0.876414 0.000000
0.000000 0.000000 0.024634
0.062702 0.000000 0.025953
0.172959 0.000000 0.027294
0.318276 0.000000 0.028657
0.484385 0.000000 0.030042
0.655150 0.000000 0.031449
0.812481 0.000000 0.032878
0.936237 0.000000 0.034328
1.000000 0.000000 0.035800
0.000000 0.038209 0.029159
0.065725 0.039487 0.030552
0.181669 0.040781 0.031967
0.333825 0.042089 0.033404
0.506288 0.043411 0.034862
0.681161 0.044748 0.036341
0.838462 0.046100 0.037842
0.956024 0.047466 0.039364
1.000000 0.048729 0.040690
0.000000 0.112673 0.033932
0.068800 0.116467 0.035398
0.190518 0.120307 0.036885
0.349529 0.124191 0.038394
0.528180 0.128120 0.039924
0.710761 0.131451 0.041060
0.871860 0.134600 0.042062
0.981637 0.137741 0.043043
1.000000 0.140872 0.044001
0.000000 0.228075 0.038949
0.072019 0.235076 0.040412
0.201651 0.240833 0.041427
0.372519 0.246567 0.042422
0.564480 0.252277 0.043395
0.753246 0.257961 0.044344
0.909986 0.263615 0.045271
1.000000 0.266842 0.045674
1.000000 0.265137 0.045046
0.000000 0.377371 0.042779
0.077497 0.385740 0.043743
0.217516 0.394045 0.044684
0.400447 0.402284 0.045602
0.597774 0.403092 0.045445
0.782571 0.400608 0.044818
0.928402 0.398126 0.044194
1.000000 0.395647 0.043573
1.000000 0.393170 0.042956
0.000000 0.548897 0.045845
0.082178 0.545752 0.045216
0.228075 0.542606 0.044590
0.413753 0.539458 0.043968
0.613398 0.536308 0.043348
0.799269 0.533158 0.042732
0.941639 0.530006 0.042119
1.000000 0.526853 0.041509
1.000000 0.523700 0.040902
0.000000 0.677637 0.043742
0.084599 0.674056 0.043123
0.234966 0.670467 0.042508
0.425568 0.666868 0.041896
0.628922 0.663262 0.041287
0.815537 0.659647 0.040682
0.953857 0.656025 0.040079
1.000000 0.652394 0.039480
1.000000 0.648756 0.038884
0.000000 0.792054 0.041674
0.087046 0.788344 0.041066
0.241917 0.784613 0.040462
0.437420 0.780862 0.039860
0.644334 0.777091 0.039262
0.831349 0.773301 0.038667
0.965008 0.769492 0.038076
1.000000 0.768669 0.037948
1.000000 0.768669 0.037948
0.000000 0.886372 0.039642
0.089519 0.882914 0.039045
0.248926 0.879419 0.038452
0.448777 0.876414 0.037948
0.654415 0.876414 0.037948
0.836944 0.876414 0.037948
0.965685 0.876414 0.037948
1.000000 0.876414 0.037948
1.000000 0.876414 0.037948
0.000000 0.000000 0.063328
0.063005 0.000000 0.067007
0.173832 0.000000 0.070763
0.319838 0.000000 0.074593
0.486595 0.000000 0.078498
0.657795 0.000000 0.082476
0.815162 0.000000 0.086526
0.938354 0.000000 0.090647
1.000000 0.000000 0.094839
0.000000 0.038641 0.076006
0.066033 0.039925 0.079938
0.182556 0.041223 0.083942
0.335403 0.042536 0.088018
0.508499 0.043864 0.092165
0.683762 0.045206 0.096382
0.841011 0.046562 0.100668
0.957870 0.047933 0.105021
1.000000 0.049103 0.108297
0.000000 0.113956 0.089520
0.069113 0.117766 0.093692
0.191419 0.121621 0.097934
0.351122 0.125520 0.102245
0.530921 0.129368 0.106447
0.715081 0.132522 0.109345
0.875882 0.135668 0.112186
0.983999 0.138805 0.114966
1.000000 0.141933 0.117683
0.000000 0.230516 0.103831
0.072559 0.237033 0.107509
0.203218 0.242783 0.110386
0.375292 0.248509 0.113205
0.568282 0.254210 0.115962
0.757487 0.259884 0.118656
0.913605 0.265529 0.121283
1.000000 0.266263 0.120940
1.000000 0.264559 0.119146
0.000000 0.380220 0.114216
0.078066 0.388568 0.116950
0.219161 0.396851 0.119620
0.403166 0.404733 0.122086
0.599356 0.402248 0.120286
0.784276 0.399765 0.118495
0.929783 0.397284 0.116715
1.000000 0.394806 0.114944
1.000000 0.392329 0.113182
0.000000 0.547830 0.121429
0.082421 0.544684 0.119633
0.228768 0.541537 0.117846
0.414944 0.538388 0.116069
0.614970 0.535239 0.114301
0.800932 0.532088 0.112544
0.942920 0.528936 0.110796
1.000000 0.525783 0.109058
1.000000 0.522629 0.107330
0.000000 0.676422 0.115424
0.084845 0.672838 0.113660
0.235665 0.669246 0.111906
0.426763 0.665645 0.110162
0.630483 0.662035 0.108428
0.817155 0.658418 0.106704
0.955032 0.654793 0.104990
1.000000 0.651160 0.103286
1.000000 0.647519 0.101592
0.000000 0.790797 0.109530
0.087295 0.787079 0.107799
0.242622 0.783341 0.106079
0.438618 0.779583 0.104368
0.645883 0.775806 0.102668
0.832918 0.772010 0.100978
0.965685 0.768669 0.099506
1.000000 0.768669 0.099506
1.000000 0.768669 0.099506
0.000000 0.885202 0.103748
0.089770 0.881731 0.102051
0.249637 0.878223 0.100365
0.448777 0.876414 0.099506
0.654415 0.876414 0.099506
0.836944 0.876414 0.099506
0.965685 0.876414 0.099506
1.000000 0.876414 0.099506
1.000000 0.876414 0.099506
0.000000 0.000000 0.115263
0.063308 0.000000 0.122141
0.174706 0.000000 0.129162
0.321402 0.000000 0.136320
0.488806 0.000000 0.143614
0.660436 0.000000 0.151040
0.817830 0.000000 0.158594
0.940446 0.000000 0.166273
1.000000 0.000000 0.174073
0.000000 0.039076 0.138960
0.066341 0.040364 0.146302
0.183444 0.041667 0.153775
0.336983 0.042985 0.161375
0.510710 0.044318 0.169099
0.686357 0.045665 0.176943
0.843547 0.047026 0.184904
0.960034 0.048376 0.192723
1.000000 0.049476 0.198067
0.000000 0.115245 0.164173
0.069427 0.119070 0.171941
0.192321 0.122940 0.179828
0.352717 0.126855 0.187831
0.534660 0.130440 0.194681
0.719396 0.133591 0.199985
0.879867 0.136734 0.205176
0.986272 0.139868 0.210248
1.000000 0.142993 0.215197
0.000000 0.232966 0.190773
0.073102 0.238988 0.196625
0.204792 0.244730 0.201888
0.378076 0.250448 0.207036
0.572090 0.256140 0.212064
0.761717 0.261805 0.216968
0.917137 0.267389 0.221690
1.000000 0.265684 0.218389
1.000000 0.263981 0.215103
0.000000 0.383062 0.208881
0.078638 0.391388 0.213864
0.220813 0.399648 0.218722
0.404353 0.403889 0.220486
0.600936 0.401404 0.217191
0.785976 0.398922 0.213910
0.931154 0.396442 0.210646
1.000000 0.393964 0.207396
1.000000 0.391489 0.204163
0.000000 0.546761 0.219284
0.082665 0.543615 0.215995
0.229462 0.540468 0.212720
0.416135 0.537319 0.209461
0.616541 0.534169 0.206218
0.802589 0.531017 0.202990
0.944190 0.527865 0.199779
1.000000 0.524712 0.196584
1.000000 0.521557 0.193406
0.000000 0.675206 0.208278
0.085091 0.671619 0.205041
0.236365 0.668024 0.201819
0.427958 0.664420 0.198614
0.632043 0.660808 0.195425
0.818767 0.657188 0.192253
0.956196 0.653560 0.189097
1.000000 0.649924 0.185958
1.000000 0.646281 0.182837
0.000000 0.789536 0.197451
0.087543 0.785812 0.194268
0.243328 0.782067 0.191102
0.439817 0.778303 0.187952
0.647430 0.774519 0.184820
0.834483 0.770716 0.181705
0.965685 0.768669 0.180042
1.000000 0.768669 0.180042
1.000000 0.768669 0.180042
0.000000 0.884028 0.186810
0.090021 0.880544 0.183684
0.250348 0.877024 0.180575
0.448777 0.876414 0.180042
0.654415 0.876414 0.180042
0.836944 0.876414 0.180042
0.965685 0.876414 0.180042
1.000000 0.876414 0.180042
1.000000 0.876414 0.180042
0.000000 0.000000 0.179333
0.063612 0.000000 0.190019
0.175582 0.000000 0.200904
0.322968 0.000000 0.211980
0.491017 0.000000 0.223237
0.663073 0.000000 0.234670
0.820485 0.000000 0.246269
0.942510 0.000000 0.258026
1.000000 0.000000 0.269934
0.000000 0.039512 0.216057
0.066651 0.040805 0.227380
0.184334 0.042113 0.238874
0.338565 0.043436 0.250531
0.512921 0.044774 0.262344
0.688948 0.046126 0.274305
0.846069 0.047492 0.286406
0.963039 0.048750 0.296837
1.000000 0.049849 0.304821
0.000000 0.116539 0.254814
0.069741 0.120380 0.266682
0.193225 0.124265 0.278695
0.354313 0.128194 0.290845
0.538406 0.131511 0.299765
0.723704 0.134659 0.307682
0.883815 0.137800 0.315408
0.988454 0.140931 0.322939
1.000000 0.144051 0.330268
0.000000 0.235184 0.294635
0.073648 0.240941 0.302669
0.206375 0.246675 0.310517
0.380870 0.252384 0.318173
0.575904 0.258067 0.325630
0.765936 0.263722 0.332885
0.918595 0.266810 0.335809
1.000000 0.265105 0.330896
1.000000 0.263403 0.325999
0.000000 0.385897 0.320911
0.079213 0.394201 0.328295
0.222473 0.402438 0.335475
0.405540 0.403045 0.334019
0.602516 0.400561 0.329111
0.787672 0.398080 0.324220
0.932516 0.395600 0.319345
1.000000 0.393124 0.314486
1.000000 0.390649 0.309645
0.000000 0.545693 0.332230
0.082908 0.542547 0.327329
0.230156 0.539399 0.322443
0.417327 0.536249 0.317574
0.618110 0.533099 0.312722
0.804243 0.529947 0.307887
0.945449 0.526794 0.303070
1.000000 0.523640 0.298271
1.000000 0.520486 0.293492
0.000000 0.673989 0.315805
0.085337 0.670399 0.310959
0.237065 0.666801 0.306131
0.429154 0.663194 0.301321
0.633602 0.659579 0.296529
0.820375 0.655956 0.291756
0.957349 0.652326 0.287003
1.000000 0.648688 0.282270
1.000000 0.645042 0.277557
0.000000 0.788274 0.299574
0.087792 0.784542 0.294789
0.244034 0.780791 0.290024
0.441016 0.777020 0.285278
0.648977 0.773230 0.280552
0.836043 0.769420 0.275846
0.965685 0.768669 0.274924
1.000000 0.768669 0.274924
1.000000 0.768669 0.274924
0.000000 0.882849 0.283555
0.090273 0.879353 0.278836
0.250709 0.876414 0.274924
0.448777 0.876414 0.274924
0.654415 0.876414 0.274924
0.836944 0.876414 0.274924
0.965685 0.876414 0.274924
1.000000 0.876414 0.274924
1.000000 0.876414 0.274924
0.000000 0.000000 0.254119
0.063916 0.000000 0.268966
0.176459 0.000000 0.284037
0.324535 0.000000 0.299317
0.493228 0.000000 0.314789
0.665706 0.000000 0.330438
0.823127 0.000000 0.346250
0.944548 0.000000 0.362207
1.000000 0.000000 0.378296
0.000000 0.039949 0.304928
0.066960 0.041248 0.320467
0.185226 0.042561 0.336177
0.340148 0.043889 0.352043
0.515131 0.045231 0.368050
0.691534 0.046588 0.384182
0.848577 0.047959 0.400424
0.965968 0.049123 0.412439
1.000000 0.050222 0.422950
0.000000 0.117838 0.357855
0.070056 0.121694 0.373910
0.194130 0.125594 0.390083
0.356357 0.129427 0.405609
0.542161 0.132581 0.416298
0.728006 0.135727 0.426706
0.887725 0.138864 0.436828
0.990544 0.141992 0.446656
1.000000 0.145108 0.456185
0.000000 0.237142 0.409533
0.074197 0.242891 0.420120
0.207965 0.248617 0.430425
0.383675 0.254317 0.440440
0.579724 0.259991 0.450160
0.770142 0.265635 0.459580
0.920044 0.266231 0.458058
1.000000 0.264527 0.451623
1.000000 0.262826 0.445194
0.000000 0.388724 0.444013
0.079791 0.397006 0.453624
0.223996 0.404686 0.462153
0.406728 0.402201 0.455714
0.604094 0.399718 0.449281
0.789364 0.397237 0.442856
0.933867 0.394759 0.436439
1.000000 0.392283 0.430030
1.000000 0.389809 0.423632
0.000000 0.544625 0.453372
0.083152 0.541478 0.446941
0.230851 0.538329 0.440519
0.418519 0.535179 0.434104
0.619679 0.532028 0.427700
0.805892 0.528876 0.421305
0.946698 0.525723 0.414922
1.000000 0.522569 0.408551
1.000000 0.519415 0.402193
0.000000 0.672771 0.431772
0.085584 0.669178 0.425370
0.237766 0.665577 0.418980
0.430350 0.661967 0.412601
0.635160 0.658350 0.406235
0.821979 0.654724 0.399882
0.958491 0.651091 0.393543
1.000000 0.647451 0.387220
1.000000 0.643803 0.380913
0.000000 0.787009 0.410282
0.088041 0.783271 0.403920
0.244740 0.779513 0.397572
0.442215 0.775735 0.391239
0.650522 0.771938 0.384922
0.836944 0.768669 0.379521
0.965685 0.768669 0.379521
1.000000 0.768669 0.379521
1.000000 0.768669 0.379521
0.000000 0.881666 0.388937
0.090524 0.878157 0.382626
0.250709 0.876414 0.379521
0.448777 0.876414 0.379521
0.654415 0.876414 0.379521
0.836944 0.876414 0.379521
0.965685 0.876414 0.379521
1.000000 0.876414 0.379521
1.000000 0.876414 0.379521
0.000000 0.000000 0.337869
0.064221 0.000000 0.356945
0.177338 0.000000 0.376216
0.326104 0.000000 0.395656
0.495439 0.000000 0.415238
0.668334 0.000000 0.434935
0.825756 0.000000 0.454720
0.946558 0.000000 0.474566
1.000000 0.000000 0.494446
0.000000 0.040389 0.402770
0.067270 0.041692 0.422397
0.186118 0.043010 0.442129
0.341733 0.044343 0.461939
0.517342 0.045690 0.481801
0.694115 0.047052 0.501688
0.851641 0.048397 0.520820
0.968820 0.049497 0.533817
1.000000 0.050594 0.546415
0.000000 0.119143 0.469166
0.070371 0.123014 0.489040
0.195036 0.126929 0.508928
0.359068 0.130499 0.525597
0.545923 0.133650 0.538450
0.732301 0.136793 0.550902
0.891596 0.139927 0.562948
0.992540 0.143051 0.574586
1.000000 0.146164 0.585814
0.000000 0.239096 0.530323
0.074748 0.244838 0.543030
0.209563 0.250556 0.555334
0.386490 0.256247 0.567233
0.583549 0.261911 0.578722
0.774151 0.267357 0.589325
0.921483 0.265652 0.581674
1.000000 0.263949 0.574005
1.000000 0.262249 0.566321
0.000000 0.391544 0.571463
0.080372 0.399803 0.582802
0.224686 0.403842 0.586542
0.407916 0.401358 0.578884
0.605672 0.398875 0.571209
0.791052 0.396396 0.563520
0.935208 0.393918 0.555819
1.000000 0.391442 0.548105
1.000000 0.388969 0.540382
0.000000 0.543556 0.576091
0.083397 0.540409 0.568412
0.231546 0.537260 0.560718
0.419712 0.534109 0.553012
0.621247 0.530958 0.545295
0.807536 0.527806 0.537568
0.947937 0.524652 0.529834
1.000000 0.521498 0.522094
1.000000 0.518343 0.514349
0.000000 0.671552 0.550203
0.085831 0.667956 0.542483
0.238467 0.664352 0.534753
0.431546 0.660740 0.527017
0.636716 0.657119 0.519274
0.823577 0.653491 0.511528
0.959622 0.649856 0.503780
1.000000 0.646213 0.496031
1.000000 0.642995 0.489201
0.000000 0.785742 0.524199
0.088291 0.781997 0.516455
0.245448 0.778232 0.508708
0.443414 0.774448 0.500959
0.652065 0.770644 0.493210
0.836944 0.768669 0.489201
0.965685 0.768669 0.489201
1.000000 0.768669 0.489201
1.000000 0.768669 0.489201
0.000000 0.880478 0.498138
0.090777 0.876957 0.490389
0.250709 0.876414 0.489201
0.448777 0.876414 0.489201
0.654415 0.876414 0.489201
0.836944 0.876414 0.489201
0.965685 0.876414 0.489201
1.000000 0.876414 0.489201
1.000000 0.876414 0.489201
0.000000 0.000000 0.428473
0.064527 0.000000 0.451533
0.178218 0.000000 0.474682
0.327675 0.000000 0.497877
0.497651 0.000000 0.521077
0.670958 0.000000 0.544238
0.828372 0.000000 0.567317
0.948541 0.000000 0.590272
1.000000 0.000000 0.613060
0.000000 0.040830 0.506325
0.067581 0.042138 0.529516
0.187012 0.043461 0.552652
0.343319 0.044799 0.575691
0.519552 0.046151 0.598590
0.696690 0.047518 0.621307
0.855825 0.048770 0.640372
0.971594 0.049870 0.654830
1.000000 0.050966 0.668746
0.000000 0.120452 0.584046
0.070687 0.124338 0.606884
0.195944 0.128268 0.629524
0.361789 0.131570 0.645699
0.549692 0.134718 0.659959
0.736587 0.137859 0.673677
0.895427 0.140989 0.686852
0.994439 0.144110 0.699488
1.000000 0.147214 0.711566
0.000000 0.241049 0.650953
0.075303 0.246782 0.665016
0.211169 0.252492 0.678536
0.389315 0.258174 0.691515
0.587379 0.263828 0.703955
0.775875 0.266778 0.708536
0.922912 0.265073 0.700173
1.000000 0.263371 0.691753
1.000000 0.261673 0.683279
0.000000 0.394356 0.696106
0.080956 0.402592 0.708351
0.225375 0.402998 0.705498
0.409105 0.400514 0.697114
0.607249 0.398033 0.688674
0.792735 0.395554 0.680180
0.936539 0.393077 0.671635
1.000000 0.390602 0.663041
1.000000 0.388130 0.654401
0.000000 0.542487 0.694048
0.083641 0.539339 0.685588
0.232242 0.536190 0.677075
0.420905 0.533039 0.668512
0.622814 0.529888 0.659901
0.809176 0.526735 0.651245
0.949164 0.523581 0.642546
1.000000 0.520427 0.633806
1.000000 0.517271 0.625029
0.000000 0.670331 0.665382
0.086078 0.666733 0.656755
0.239169 0.663126 0.648082
0.432743 0.659511 0.639368
0.638271 0.655888 0.630615
0.825171 0.652258 0.621825
0.960742 0.648619 0.613000
1.000000 0.644974 0.604144
1.000000 0.642995 0.599333
0.000000 0.784472 0.636186
0.088541 0.780720 0.627419
0.246156 0.776949 0.618616
0.444614 0.773158 0.609780
0.653608 0.769348 0.600912
0.836944 0.768669 0.599333
0.965685 0.768669 0.599333
1.000000 0.768669 0.599333
1.000000 0.768669 0.599333
0.000000 0.879286 0.606555
0.090890 0.876414 0.599333
0.250709 0.876414 0.599333
0.448777 0.876414 0.599333
0.654415 0.876414 0.599333
0.836944 0.876414 0.599333
0.965685 0.876414 0.599333
1.000000 0.876414 0.599333
1.000000 0.876414 0.599333
0.000000 0.000000 0.523442
0.064833 0.000000 0.549899
0.179099 0.000000 0.576235
0.329247 0.000000 0.602387
0.499862 0.000000 0.628292
0.673577 0.000000 0.653886
0.830975 0.000000 0.679106
0.950497 0.000000 0.703887
1.000000 0.000000 0.728166
0.000000 0.041272 0.611850
0.067892 0.042586 0.637649
0.187908 0.043914 0.663114
0.344907 0.045257 0.688182
0.521761 0.046614 0.712787
0.699261 0.047985 0.736868
0.859979 0.049144 0.754065
0.974286 0.050242 0.768906
1.000000 0.051337 0.783039
0.000000 0.121767 0.697196
0.071004 0.125668 0.721618
0.197142 0.129487 0.744255
0.364521 0.132640 0.759551
0.553468 0.135786 0.774133
0.740866 0.138923 0.788010
0.899217 0.142050 0.801192
0.996241 0.145167 0.813691
1.000000 0.146894 0.818752
0.000000 0.242999 0.764942
0.075860 0.248724 0.779266
0.212783 0.254424 0.792889
0.392150 0.260097 0.805821
0.591214 0.265741 0.818074
0.777596 0.266198 0.815730
0.924332 0.264495 0.807348
1.000000 0.262794 0.798846
1.000000 0.261097 0.790228
0.000000 0.397161 0.810360
0.081472 0.404639 0.820997
0.226066 0.402154 0.812692
0.410295 0.399671 0.804266
0.608824 0.397191 0.795722
0.794414 0.394712 0.787063
0.937860 0.392236 0.778294
1.000000 0.389763 0.769418
1.000000 0.387291 0.760440
0.000000 0.541418 0.801169
0.083886 0.538270 0.792582
0.232939 0.535120 0.783883
0.422098 0.531969 0.775075
0.624379 0.528817 0.766161
0.810811 0.525664 0.757146
0.950381 0.522510 0.748034
1.000000 0.519355 0.738827
1.000000 0.516200 0.729530
0.000000 0.669110 0.771842
0.086326 0.665509 0.762891
0.239872 0.661899 0.753840
0.433940 0.658282 0.744693
0.639825 0.654656 0.735453
0.826760 0.651023 0.726124
0.961850 0.647382 0.716710
1.000000 0.643734 0.707215
1.000000 0.642995 0.705285
0.000000 0.783200 0.741339
0.088791 0.779442 0.732066
0.246864 0.775664 0.722706
0.445814 0.771866 0.713262
0.654415 0.768669 0.705285
0.836944 0.768669 0.705285
0.965685 0.768669 0.705285
1.000000 0.768669 0.705285
1.000000 0.768669 0.705285
0.000000 0.878091 0.709804
0.090890 0.876414 0.705285
0.250709 0.876414 0.705285
0.448777 0.876414 0.705285
0.654415 0.876414 0.705285
0.836944 0.876414 0.705285
0.965685 0.876414 0.705285
1.000000 0.876414 0.705285
1.000000 0.876414 0.705285
