luts/original/brown-editorial.cube
TITLE "Brown Editorial"
LUT_3D_SIZE 33
DOMAIN_MIN 0.0 0.0 0.0
DOMAIN_MAX 1.0 1.0 1.0
0.000000 0.000000 0.000000
0.010555 0.000000 0.000000
0.024584 0.000000 0.000000
0.041922 0.000000 0.000000
0.062400 0.000000 0.000000
0.085842 0.000000 0.000000
0.112064 0.000000 0.000000
0.140878 0.000000 0.000000
0.172088 0.000000 0.000000
0.205490 0.000000 0.000000
0.240874 0.000000 0.000000
0.278024 0.000000 0.000000
0.316716 0.000000 0.000000
0.356719 0.000000 0.000000
0.397795 0.000000 0.000000
0.439697 0.000000 0.000000
0.482174 0.000000 0.000000
0.524965 0.000000 0.000000
0.567802 0.000000 0.000000
0.610408 0.000000 0.000000
0.652501 0.000000 0.000000
0.693788 0.000000 0.000000
0.733972 0.000000 0.000000
0.772744 0.000000 0.000000
0.809788 0.000000 0.000000
0.844782 0.000000 0.000000
0.877392 0.000000 0.000000
0.907279 0.000000 0.000000
0.934093 0.000000 0.000000
0.957477 0.000000 0.000000
0.977064 0.000000 0.000000
0.992479 0.000000 0.000000
1.000000 0.000000 0.000000
0.000000 0.006499 0.000000
0.010662 0.006547 0.000000
0.024854 0.006596 0.000000
0.042408 0.006645 0.000000
0.063149 0.006694 0.000000
0.086895 0.006743 0.000000
0.113459 0.006792 0.000000
0.142643 0.006841 0.000000
0.174248 0.006891 0.000000
0.208064 0.006940 0.000000
0.243875 0.006989 0.000000
0.281458 0.007039 0.000000
0.320583 0.007088 0.000000
0.361014 0.007138 0.000000
0.402504 0.007187 0.000000
0.444802 0.007237 0.000000
0.487649 0.007287 0.000000
0.530776 0.007337 0.000000
0.573909 0.007387 0.000000
0.616766 0.007437 0.000000
0.659054 0.007487 0.000000
0.700476 0.007537 0.000000
0.740725 0.007587 0.000000
0.779486 0.007637 0.000000
0.816435 0.007687 0.000000
0.851240 0.007738 0.000000
0.883563 0.007788 0.000000
0.913053 0.007839 0.000000
0.939354 0.007889 0.000000
0.962100 0.007940 0.000000
0.980915 0.007990 0.000000
0.995416 0.008041 0.000000
1.000000 0.008092 0.000000
0.000000 0.014871 0.000000
0.010768 0.014989 0.000000
0.025125 0.015107 0.000000
0.042897 0.015225 0.000000
0.063902 0.015344 0.000000
0.087954 0.015463 0.000000
0.114859 0.015582 0.000000
0.144416 0.015702 0.000000
0.176418 0.015821 0.000000
0.210648 0.015941 0.000000
0.246886 0.016062 0.000000
0.284903 0.016182 0.000000
0.324461 0.016303 0.000000
0.365318 0.016424 0.000000
0.407221 0.016545 0.000000
0.449912 0.016667 0.000000
0.493124 0.016788 0.000000
0.536583 0.016910 0.000000
0.580007 0.017033 0.000000
0.623106 0.017155 0.000000
0.665582 0.017278 0.000000
0.707128 0.017401 0.000000
0.747430 0.017524 0.000000
0.786165 0.017648 0.000000
0.823003 0.017772 0.000000
0.857603 0.017896 0.000000
0.889617 0.018020 0.000000
0.918689 0.018144 0.000000
0.944452 0.018269 0.000000
0.966532 0.018394 0.000000
0.984546 0.018519 0.000000
0.998101 0.018645 0.000000
1.000000 0.018771 0.000000
0.000000 0.025255 0.000000
0.010875 0.025462 0.000000
0.025397 0.025670 0.000000
0.043387 0.025878 0.000000
0.064658 0.026088 0.000000
0.089018 0.026297 0.000000
0.116266 0.026507 0.000000
0.146197 0.026718 0.000000
0.178596 0.026929 0.000000
0.213243 0.027141 0.000000
0.249909 0.027354 0.000000
0.288359 0.027566 0.000000
0.328349 0.027780 0.000000
0.369631 0.027994 0.000000
0.411945 0.028208 0.000000
0.455026 0.028424 0.000000
0.498600 0.028639 0.000000
0.542386 0.028855 0.000000
0.586095 0.029072 0.000000
0.629429 0.029289 0.000000
0.672083 0.029507 0.000000
0.713742 0.029725 0.000000
0.754085 0.029944 0.000000
0.792781 0.030164 0.000000
0.829492 0.030384 0.000000
0.863868 0.030604 0.000000
0.895554 0.030825 0.000000
0.924184 0.031047 0.000000
0.949385 0.031269 0.000000
0.970772 0.031492 0.000000
0.987954 0.031715 0.000000
1.000000 0.031938 0.000000
1.000000 0.032163 0.000000
0.000000 0.037778 0.000000
0.010983 0.038095 0.000000
0.025671 0.038413 0.000000
0.043879 0.038732 0.000000
0.065417 0.039051 0.000000
0.090086 0.039372 0.000000
0.117679 0.039694 0.000000
0.147985 0.040016 0.000000
0.180783 0.040340 0.000000
0.215847 0.040664 0.000000
0.252941 0.040989 0.000000
0.291825 0.041316 0.000000
0.332248 0.041643 0.000000
0.373953 0.041971 0.000000
0.416676 0.042300 0.000000
0.460144 0.042630 0.000000
0.504076 0.042960 0.000000
0.548184 0.043292 0.000000
0.592172 0.043625 0.000000
0.635733 0.043958 0.000000
0.678555 0.044293 0.000000
0.720317 0.044628 0.000000
0.760689 0.044964 0.000000
0.799332 0.045301 0.000000
0.835898 0.045639 0.000000
0.870032 0.045978 0.000000
0.901370 0.046318 0.000000
0.929536 0.046659 0.000000
0.954148 0.047001 0.000000
0.974815 0.047343 0.000000
0.991135 0.047687 0.000000
1.000000 0.048031 0.000000
1.000000 0.048355 0.000000
0.000000 0.052558 0.000000
0.011090 0.053004 0.000000
0.025945 0.053452 0.000000
0.044374 0.053901 0.000000
0.066180 0.054351 0.000000
0.091158 0.054802 0.000000
0.119098 0.055255 0.000000
0.149780 0.055709 0.000000
0.182979 0.056165 0.000000
0.218460 0.056622 0.000000
0.255984 0.057080 0.000000
0.295301 0.057539 0.000000
0.336156 0.058000 0.000000
0.378284 0.058463 0.000000
0.421414 0.058926 0.000000
0.465266 0.059391 0.000000
0.509552 0.059858 0.000000
0.553977 0.060325 0.000000
0.598236 0.060795 0.000000
0.642017 0.061265 0.000000
0.684999 0.061737 0.000000
0.726853 0.062210 0.000000
0.767240 0.062684 0.000000
0.805815 0.063160 0.000000
0.842221 0.063637 0.000000
0.876095 0.064115 0.000000
0.907062 0.064595 0.000000
0.934741 0.065076 0.000000
0.958740 0.065558 0.000000
0.979168 0.065976 0.000000
0.995043 0.066361 0.000000
1.000000 0.066746 0.000000
1.000000 0.067131 0.000000
0.000000 0.069699 0.000000
0.011198 0.070293 0.000000
0.026220 0.070888 0.000000
0.044870 0.071486 0.000000
0.066946 0.072085 0.000000
0.092236 0.072686 0.000000
0.120523 0.073289 0.000000
0.151583 0.073894 0.000000
0.185184 0.074500 0.000000
0.221084 0.075109 0.000000
0.259037 0.075719 0.000000
0.298788 0.076331 0.000000
0.340074 0.076945 0.000000
0.382623 0.077561 0.000000
0.426158 0.078178 0.000000
0.470391 0.078798 0.000000
0.515027 0.079419 0.000000
0.559763 0.080042 0.000000
0.604288 0.080667 0.000000
0.648280 0.081293 0.000000
0.691412 0.081922 0.000000
0.733347 0.082552 0.000000
0.773737 0.083184 0.000000
0.812229 0.083817 0.000000
0.848459 0.084453 0.000000
0.882088 0.085086 0.000000
0.913792 0.085595 0.000000
0.941869 0.086103 0.000000
0.965832 0.086612 0.000000
0.985177 0.087120 0.000000
0.999381 0.087627 0.000000
1.000000 0.088135 0.000000
1.000000 0.088642 0.000000
0.000000 0.089288 0.000000
0.011306 0.090047 0.000000
0.026496 0.090808 0.000000
0.045369 0.091572 0.000000
0.067715 0.092338 0.000000
0.093318 0.093106 0.000000
0.121955 0.093877 0.000000
0.153394 0.094650 0.000000
0.187397 0.095425 0.000000
0.223717 0.096203 0.000000
0.262100 0.096983 0.000000
0.302285 0.097766 0.000000
0.344001 0.098550 0.000000
0.386970 0.099337 0.000000
0.430908 0.100126 0.000000
0.475518 0.100918 0.000000
0.520500 0.101712 0.000000
0.565543 0.102508 0.000000
0.610326 0.103306 0.000000
0.654522 0.104107 0.000000
0.697795 0.104909 0.000000
0.739798 0.105714 0.000000
0.780697 0.106457 0.000000
0.820379 0.107101 0.000000
0.857612 0.107744 0.000000
0.891945 0.108387 0.000000
0.922909 0.109030 0.000000
0.950016 0.109673 0.000000
0.972760 0.110315 0.000000
0.990616 0.110956 0.000000
1.000000 0.111597 0.000000
1.000000 0.112238 0.000000
1.000000 0.112879 0.000000
0.000000 0.111394 0.000000
0.011414 0.112335 0.000000
0.026773 0.113278 0.000000
0.045869 0.114224 0.000000
0.068487 0.115174 0.000000
0.094405 0.116125 0.000000
0.123392 0.117080 0.000000
0.155212 0.118038 0.000000
0.189618 0.118998 0.000000
0.226359 0.119961 0.000000
0.265173 0.120927 0.000000
0.305791 0.121896 0.000000
0.347937 0.122867 0.000000
0.391325 0.123841 0.000000
0.435663 0.124818 0.000000
0.480648 0.125798 0.000000
0.525972 0.126781 0.000000
0.571314 0.127766 0.000000
0.616349 0.128754 0.000000
0.661707 0.129592 0.000000
0.706435 0.130380 0.000000
0.749834 0.131169 0.000000
0.791487 0.131957 0.000000
0.830961 0.132745 0.000000
0.867804 0.133532 0.000000
0.901545 0.134318 0.000000
0.931698 0.135104 0.000000
0.957754 0.135890 0.000000
0.979189 0.136675 0.000000
0.995455 0.137460 0.000000
1.000000 0.138243 0.000000
1.000000 0.139027 0.000000
1.000000 0.139810 0.000000
0.000000 0.136069 0.000000
0.011522 0.137205 0.000000
0.027051 0.138345 0.000000
0.046371 0.139488 0.000000
0.069263 0.140635 0.000000
0.095496 0.141785 0.000000
0.124836 0.142938 0.000000
0.157037 0.144094 0.000000
0.191849 0.145254 0.000000
0.229011 0.146417 0.000000
0.268255 0.147583 0.000000
0.309307 0.148752 0.000000
0.351882 0.149924 0.000000
0.395687 0.151100 0.000000
0.440423 0.152279 0.000000
0.485908 0.153432 0.000000
0.532701 0.154375 0.000000
0.579596 0.155317 0.000000
0.626225 0.156259 0.000000
0.672206 0.157201 0.000000
0.717138 0.158142 0.000000
0.760605 0.159082 0.000000
0.802173 0.160022 0.000000
0.841389 0.160961 0.000000
0.877785 0.161899 0.000000
0.910871 0.162836 0.000000
0.940139 0.163773 0.000000
0.965062 0.164709 0.000000
0.985093 0.165644 0.000000
0.999666 0.166579 0.000000
1.000000 0.167513 0.000000
1.000000 0.168445 0.000000
1.000000 0.169377 0.000000
0.000000 0.163338 0.000000
0.011631 0.164683 0.000000
0.027330 0.166032 0.000000
0.046875 0.167385 0.000000
0.070041 0.168741 0.000000
0.096592 0.170101 0.000000
0.126285 0.171465 0.000000
0.158870 0.172832 0.000000
0.194087 0.174203 0.000000
0.231671 0.175578 0.000000
0.271348 0.176956 0.000000
0.312833 0.178338 0.000000
0.356230 0.179586 0.000000
0.401394 0.180690 0.000000
0.447633 0.181794 0.000000
0.494613 0.182896 0.000000
0.541984 0.183998 0.000000
0.589379 0.185099 0.000000
0.636417 0.186199 0.000000
0.682697 0.187298 0.000000
0.727804 0.188397 0.000000
0.771303 0.189494 0.000000
0.812742 0.190591 0.000000
0.851652 0.191686 0.000000
0.887542 0.192781 0.000000
0.919905 0.193874 0.000000
0.948212 0.194967 0.000000
0.971916 0.196058 0.000000
0.990448 0.197149 0.000000
1.000000 0.198238 0.000000
1.000000 0.199326 0.000000
1.000000 0.200413 0.000000
1.000000 0.201499 0.000000
0.000000 0.193204 0.000000
0.011740 0.194768 0.000000
0.027609 0.196336 0.000000
0.047382 0.197908 0.000000
0.070823 0.199485 0.000000
0.097693 0.201065 0.000000
0.127740 0.202649 0.000000
0.160709 0.204237 0.000000
0.196334 0.205829 0.000000
0.234809 0.207149 0.000000
0.275633 0.208419 0.000000
0.318452 0.209689 0.000000
0.362960 0.210957 0.000000
0.408842 0.212224 0.000000
0.455763 0.213491 0.000000
0.503375 0.214756 0.000000
0.551312 0.216020 0.000000
0.599194 0.217282 0.000000
0.646620 0.218544 0.000000
0.693175 0.219804 0.000000
0.738425 0.221063 0.000000
0.781919 0.222321 0.000000
0.823185 0.223578 0.000000
0.861735 0.224833 0.000000
0.897060 0.226087 0.000000
0.928630 0.227339 0.000000
0.955898 0.228590 0.000000
0.978293 0.229840 0.000000
0.995225 0.231088 0.000000
1.000000 0.232334 0.000000
1.000000 0.233579 0.000000
1.000000 0.234822 0.000000
1.000000 0.235113 0.000000
0.000000 0.225641 0.000000
0.011849 0.227432 0.000000
0.027890 0.229227 0.000000
0.047890 0.231026 0.000000
0.071608 0.232830 0.000000
0.098846 0.234559 0.000000
0.129567 0.236001 0.000000
0.163402 0.237441 0.000000
0.200092 0.238880 0.000000
0.239366 0.240318 0.000000
0.280938 0.241754 0.000000
0.324507 0.243189 0.000000
0.369756 0.244622 0.000000
0.416355 0.246054 0.000000
0.463955 0.247485 0.000000
0.512191 0.248914 0.000000
0.560684 0.250341 0.000000
0.609035 0.251767 0.000000
0.656829 0.253191 0.000000
0.703633 0.254613 0.000000
0.748994 0.256034 0.000000
0.792443 0.257453 0.000000
0.833490 0.258870 0.000000
0.871626 0.260285 0.000000
0.906322 0.261698 0.000000
0.937028 0.263110 0.000000
0.963174 0.264520 0.000000
0.984169 0.265927 0.000000
0.999398 0.267333 0.000000
1.000000 0.266995 0.000000
1.000000 0.266568 0.000000
1.000000 0.266142 0.000000
1.000000 0.265716 0.000000
0.000000 0.260594 0.000000
0.011959 0.262616 0.000000
0.028205 0.264405 0.000000
0.048566 0.266019 0.000000
0.072817 0.267631 0.000000
0.100731 0.269242 0.000000
0.132067 0.270851 0.000000
0.166568 0.272458 0.000000
0.203967 0.274064 0.000000
0.243978 0.275667 0.000000
0.286302 0.277269 0.000000
0.330625 0.278868 0.000000
0.376617 0.280466 0.000000
0.423932 0.282062 0.000000
0.472205 0.283655 0.000000
0.521059 0.285247 0.000000
0.570096 0.286836 0.000000
0.618900 0.288423 0.000000
0.667040 0.290008 0.000000
0.714065 0.291591 0.000000
0.759504 0.293172 0.000000
0.802867 0.294750 0.000000
0.843646 0.296326 0.000000
0.881312 0.297899 0.000000
0.915313 0.299470 0.000000
0.944646 0.300393 0.000000
0.968485 0.299917 0.000000
0.987417 0.299441 0.000000
1.000000 0.298965 0.000000
1.000000 0.298489 0.000000
1.000000 0.298014 0.000000
1.000000 0.297538 0.000000
1.000000 0.297063 0.000000
0.000000 0.297079 0.000000
0.012136 0.298864 0.000000
0.028686 0.300647 0.000000
0.049439 0.302428 0.000000
0.074171 0.304206 0.000000
0.102642 0.305982 0.000000
0.134599 0.307756 0.000000
0.169776 0.309527 0.000000
0.207890 0.311295 0.000000
0.248644 0.313062 0.000000
0.291726 0.314825 0.000000
0.336807 0.316586 0.000000
0.383543 0.318345 0.000000
0.431571 0.320101 0.000000
0.480514 0.321854 0.000000
0.529976 0.323604 0.000000
0.579544 0.325352 0.000000
0.628784 0.327097 0.000000
0.677247 0.328839 0.000000
0.724464 0.330578 0.000000
0.769944 0.332314 0.000000
0.813180 0.334047 0.000000
0.852462 0.334244 0.000000
0.888021 0.333718 0.000000
0.919976 0.333192 0.000000
0.947863 0.332667 0.000000
0.971214 0.332142 0.000000
0.989549 0.331617 0.000000
1.000000 0.331092 0.000000
1.000000 0.330568 0.000000
1.000000 0.330043 0.000000
1.000000 0.329519 0.000000
1.000000 0.328995 0.000000
0.000000 0.334916 0.000000
0.012324 0.336864 0.000000
0.029172 0.338809 0.000000
0.050324 0.340751 0.000000
0.075542 0.342690 0.000000
0.104577 0.344626 0.000000
0.137164 0.346559 0.000000
0.173024 0.348488 0.000000
0.211861 0.350415 0.000000
0.253365 0.352338 0.000000
0.297209 0.354258 0.000000
0.343051 0.356175 0.000000
0.390531 0.358088 0.000000
0.439272 0.359998 0.000000
0.488879 0.361904 0.000000
0.538940 0.363807 0.000000
0.589025 0.365706 0.000000
0.638683 0.367602 0.000000
0.687367 0.369385 0.000000
0.732936 0.368811 0.000000
0.776614 0.368237 0.000000
0.817962 0.367663 0.000000
0.856534 0.367089 0.000000
0.891874 0.366515 0.000000
0.923523 0.365942 0.000000
0.951010 0.365369 0.000000
0.973859 0.364795 0.000000
0.991583 0.364222 0.000000
1.000000 0.363650 0.000000
1.000000 0.363077 0.000000
1.000000 0.362504 0.000000
1.000000 0.361932 0.000000
1.000000 0.361360 0.000000
0.000000 0.374515 0.000000
0.012513 0.376618 0.000000
0.029664 0.378717 0.000000
0.051219 0.380813 0.000000
0.076931 0.382905 0.000000
0.106538 0.384993 0.000000
0.139763 0.387076 0.000000
0.176313 0.389156 0.000000
0.215880 0.391232 0.000000
0.258140 0.393304 0.000000
0.302752 0.395371 0.000000
0.349357 0.397435 0.000000
0.397582 0.399494 0.000000
0.447033 0.401548 0.000000
0.497298 0.403599 0.000000
0.547305 0.404557 0.000000
0.596192 0.403936 0.000000
0.644419 0.403314 0.000000
0.691561 0.402693 0.000000
0.737188 0.402072 0.000000
0.780863 0.401451 0.000000
0.822140 0.400830 0.000000
0.860565 0.400210 0.000000
0.895678 0.399589 0.000000
0.927011 0.398969 0.000000
0.954086 0.398349 0.000000
0.976419 0.397729 0.000000
0.993518 0.397109 0.000000
1.000000 0.396489 0.000000
1.000000 0.395869 0.000000
1.000000 0.395250 0.000000
1.000000 0.394630 0.000000
1.000000 0.394011 0.000000
0.000000 0.415677 0.000000
0.012705 0.417926 0.000000
0.030162 0.420169 0.000000
0.052126 0.422408 0.000000
0.078338 0.424642 0.000000
0.108524 0.426871 0.000000
0.142394 0.429095 0.000000
0.179642 0.431313 0.000000
0.219947 0.433527 0.000000
0.262969 0.435736 0.000000
0.308353 0.437940 0.000000
0.355725 0.440138 0.000000
0.403731 0.440124 0.000000
0.452424 0.439457 0.000000
0.501657 0.438791 0.000000
0.551023 0.438124 0.000000
0.600109 0.437458 0.000000
0.648491 0.436791 0.000000
0.695741 0.436125 0.000000
0.741421 0.435459 0.000000
0.785086 0.434793 0.000000
0.826285 0.434127 0.000000
0.864556 0.433461 0.000000
0.899432 0.432795 0.000000
0.930438 0.432130 0.000000
0.957089 0.431464 0.000000
0.978894 0.430799 0.000000
0.995353 0.430133 0.000000
1.000000 0.429468 0.000000
1.000000 0.428803 0.000000
1.000000 0.428138 0.000000
1.000000 0.427473 0.000000
1.000000 0.426808 0.000000
0.000000 0.458177 0.000000
0.012899 0.460557 0.000000
0.030666 0.462932 0.000000
0.053045 0.465300 0.000000
0.079764 0.467662 0.000000
0.110536 0.470019 0.000000
0.145059 0.472369 0.000000
0.183014 0.474713 0.000000
0.223964 0.476637 0.000000
0.266878 0.475927 0.000000
0.311892 0.475217 0.000000
0.358621 0.474508 0.000000
0.406672 0.473798 0.000000
0.455648 0.473089 0.000000
0.505142 0.472379 0.000000
0.554739 0.471670 0.000000
0.604020 0.470960 0.000000
0.652555 0.470251 0.000000
0.699908 0.469542 0.000000
0.745635 0.468833 0.000000
0.789285 0.468124 0.000000
0.830397 0.467414 0.000000
0.868506 0.466705 0.000000
0.903136 0.465996 0.000000
0.933804 0.465288 0.000000
0.960019 0.464579 0.000000
0.981282 0.463870 0.000000
0.997087 0.463161 0.000000
1.000000 0.462452 0.000000
1.000000 0.461744 0.000000
1.000000 0.461035 0.000000
1.000000 0.460327 0.000000
1.000000 0.459618 0.000000
0.000000 0.501757 0.000000
0.013095 0.504253 0.000000
0.031176 0.506742 0.000000
0.053974 0.509224 0.000000
0.081207 0.511698 0.000000
0.112395 0.512557 0.000000
0.147047 0.511807 0.000000
0.184929 0.511058 0.000000
0.225672 0.510308 0.000000
0.268899 0.509558 0.000000
0.314227 0.508808 0.000000
0.361265 0.508059 0.000000
0.409616 0.507309 0.000000
0.458874 0.506559 0.000000
0.508626 0.505809 0.000000
0.558453 0.505060 0.000000
0.607925 0.504310 0.000000
0.656609 0.503560 0.000000
0.704061 0.502810 0.000000
0.749829 0.502061 0.000000
0.793457 0.501311 0.000000
0.834476 0.500561 0.000000
0.872414 0.499811 0.000000
0.906788 0.499061 0.000000
0.937107 0.498311 0.000000
0.962875 0.497562 0.000000
0.983583 0.496812 0.000000
0.998718 0.496062 0.000000
1.000000 0.495312 0.000000
1.000000 0.494562 0.000000
1.000000 0.493813 0.000000
1.000000 0.493063 0.000000
1.000000 0.492313 0.000000
0.000000 0.546129 0.000000
0.013292 0.548721 0.000000
0.031613 0.548393 0.000000
0.054608 0.547607 0.000000
0.081935 0.546821 0.000000
0.113240 0.546034 0.000000
0.148163 0.545248 0.000000
0.186336 0.544461 0.000000
0.227383 0.543675 0.000000
0.270923 0.542888 0.000000
0.316565 0.542101 0.000000
0.363913 0.541314 0.000000
0.412562 0.540527 0.000000
0.462101 0.539740 0.000000
0.512110 0.538953 0.000000
0.562163 0.538166 0.000000
0.611825 0.537378 0.000000
0.660653 0.536591 0.000000
0.708199 0.535803 0.000000
0.754004 0.535016 0.000000
0.797603 0.534228 0.000000
0.838522 0.533440 0.000000
0.876280 0.532652 0.000000
0.910388 0.531865 0.000000
0.940349 0.531077 0.000000
0.965656 0.530289 0.000000
0.985796 0.529501 0.000000
1.000000 0.528712 0.000000
1.000000 0.527924 0.000000
1.000000 0.527136 0.000000
1.000000 0.526348 0.000000
1.000000 0.525559 0.000000
1.000000 0.524771 0.000000
0.000000 0.583169 0.000000
0.013379 0.582350 0.000000
0.031827 0.581531 0.000000
0.054997 0.580711 0.000000
0.082537 0.579892 0.000000
0.114088 0.579072 0.000000
0.149282 0.578252 0.000000
0.187746 0.577432 0.000000
0.229099 0.576612 0.000000
0.272951 0.575791 0.000000
0.318907 0.574971 0.000000
0.366564 0.574150 0.000000
0.415511 0.573329 0.000000
0.465330 0.572508 0.000000
0.515594 0.571686 0.000000
0.565871 0.570865 0.000000
0.615718 0.570043 0.000000
0.664688 0.569221 0.000000
0.712323 0.568399 0.000000
0.758158 0.567577 0.000000
0.801722 0.566755 0.000000
0.842533 0.565932 0.000000
0.880103 0.565110 0.000000
0.913936 0.564287 0.000000
0.943526 0.563464 0.000000
0.968361 0.562641 0.000000
0.987919 0.561818 0.000000
1.000000 0.560994 0.000000
1.000000 0.560171 0.000000
1.000000 0.559347 0.000000
1.000000 0.558523 0.000000
1.000000 0.557699 0.000000
1.000000 0.556875 0.000000
0.000000 0.615794 0.000000
0.013461 0.614946 0.000000
0.032041 0.614098 0.000000
0.055387 0.613249 0.000000
0.083141 0.612400 0.000000
0.114938 0.611551 0.000000
0.150404 0.610701 0.000000
0.189160 0.609851 0.000000
0.230818 0.609001 0.000000
0.274983 0.608150 0.000000
0.321254 0.607299 0.000000
0.369219 0.606448 0.000000
0.418463 0.605597 0.000000
0.468560 0.604745 0.000000
0.519077 0.603894 0.000000
0.569575 0.603041 0.000000
0.619605 0.602189 0.000000
0.668712 0.601336 0.000000
0.716432 0.600483 0.000000
0.762292 0.599630 0.000000
0.805814 0.598777 0.000000
0.846510 0.597923 0.000000
0.883883 0.597069 0.000000
0.917431 0.596215 0.000000
0.946640 0.595360 0.000000
0.970990 0.594506 0.000000
0.989952 0.593651 0.000000
1.000000 0.592796 0.000000
1.000000 0.591940 0.000000
1.000000 0.591084 0.000000
1.000000 0.590229 0.000000
1.000000 0.589372 0.000000
1.000000 0.588516 0.000000
0.000000 0.647725 0.000000
0.013544 0.646852 0.000000
0.032255 0.645978 0.000000
0.055778 0.645104 0.000000
0.083746 0.644230 0.000000
0.115790 0.643355 0.000000
0.151529 0.642480 0.000000
0.190577 0.641604 0.000000
0.232541 0.640728 0.000000
0.277019 0.639852 0.000000
0.323604 0.638975 0.000000
0.371878 0.638098 0.000000
0.421417 0.637220 0.000000
0.471791 0.636342 0.000000
0.522560 0.635463 0.000000
0.573276 0.634585 0.000000
0.623486 0.633705 0.000000
0.672726 0.632826 0.000000
0.720525 0.631946 0.000000
0.766405 0.631066 0.000000
0.809879 0.630185 0.000000
0.850451 0.629304 0.000000
0.887619 0.628422 0.000000
0.920872 0.627541 0.000000
0.949688 0.626658 0.000000
0.973541 0.625776 0.000000
0.991894 0.624893 0.000000
1.000000 0.624010 0.000000
1.000000 0.623126 0.000000
1.000000 0.622242 0.000000
1.000000 0.621358 0.000000
1.000000 0.620473 0.000000
1.000000 0.619588 0.000000
0.000000 0.678852 0.000000
0.013626 0.677958 0.000000
0.032470 0.677064 0.000000
0.056170 0.676169 0.000000
0.084353 0.675273 0.000000
0.116644 0.674378 0.000000
0.152656 0.673481 0.000000
0.191998 0.672584 0.000000
0.234268 0.671687 0.000000
0.279060 0.670789 0.000000
0.325958 0.669890 0.000000
0.374539 0.668991 0.000000
0.424374 0.668091 0.000000
0.475023 0.667191 0.000000
0.526041 0.666291 0.000000
0.576974 0.665389 0.000000
0.627360 0.664488 0.000000
0.676729 0.663585 0.000000
0.724603 0.662683 0.000000
0.770497 0.661779 0.000000
0.813915 0.660876 0.000000
0.854357 0.659971 0.000000
0.891311 0.659067 0.000000
0.924258 0.658161 0.000000
0.952671 0.657256 0.000000
0.976015 0.656350 0.000000
0.993744 0.655443 0.000000
1.000000 0.654536 0.000000
1.000000 0.653628 0.000000
1.000000 0.652720 0.000000
1.000000 0.651811 0.000000
1.000000 0.650902 0.000000
1.000000 0.649993 0.000000
0.000000 0.709069 0.000000
0.013709 0.708160 0.000000
0.032686 0.707250 0.000000
0.056563 0.706339 0.000000
0.084962 0.705428 0.000000
0.117501 0.704515 0.000000
0.153787 0.703603 0.000000
0.193421 0.702689 0.000000
0.235998 0.701775 0.000000
0.281104 0.700860 0.000000
0.328315 0.699944 0.000000
0.377204 0.699028 0.000000
0.427333 0.698111 0.000000
0.478256 0.697193 0.000000
0.529521 0.696275 0.000000
0.580668 0.695356 0.000000
0.631227 0.694437 0.000000
0.680721 0.693516 0.000000
0.728665 0.692595 0.000000
0.774567 0.691674 0.000000
0.817924 0.690752 0.000000
0.858227 0.689829 0.000000
0.894957 0.688905 0.000000
0.927590 0.687981 0.000000
0.955588 0.687056 0.000000
0.978409 0.686131 0.000000
0.995501 0.685205 0.000000
1.000000 0.684278 0.000000
1.000000 0.683350 0.000000
1.000000 0.682422 0.000000
1.000000 0.681494 0.000000
1.000000 0.680565 0.000000
1.000000 0.679635 0.000000
0.000000 0.738279 0.000000
0.013791 0.737359 0.000000
0.032902 0.736439 0.000000
0.056956 0.735517 0.000000
0.085572 0.734595 0.000000
0.118360 0.733671 0.000000
0.154920 0.732747 0.000000
0.194849 0.731822 0.000000
0.237733 0.730896 0.000000
0.283151 0.729970 0.000000
0.330677 0.729042 0.000000
0.379872 0.728114 0.000000
0.430294 0.727184 0.000000
0.481490 0.726254 0.000000
0.533001 0.725323 0.000000
0.584358 0.724391 0.000000
0.635086 0.723459 0.000000
0.684701 0.722525 0.000000
0.732711 0.721591 0.000000
0.778615 0.720656 0.000000
0.821903 0.719720 0.000000
0.862060 0.718783 0.000000
0.898558 0.717846 0.000000
0.930865 0.716907 0.000000
0.958437 0.715968 0.000000
0.980724 0.715028 0.000000
0.997164 0.714087 0.000000
