luts/original/cinema-warm.cube
TITLE "Cinema Warm"
LUT_3D_SIZE 33
DOMAIN_MIN 0.0 0.0 0.0
DOMAIN_MAX 1.0 1.0 1.0
0.000000 0.000000 0.014000
0.019875 0.000000 0.014517
0.047498 0.000000 0.015002
0.078295 0.000000 0.015455
0.109125 0.000000 0.015875
0.139988 0.000000 0.016262
0.170882 0.000000 0.016618
0.201809 0.000000 0.016941
0.232769 0.000000 0.017231
0.263761 0.000000 0.017489
0.294785 0.000000 0.017715
0.325841 0.000000 0.017909
0.356930 0.000000 0.018070
0.388052 0.000000 0.018198
0.419206 0.000000 0.018294
0.450392 0.000000 0.018358
0.481610 0.000000 0.018390
0.512861 0.000000 0.018389
0.544145 0.000000 0.018355
0.575460 0.000000 0.018290
0.606808 0.000000 0.018192
0.638189 0.000000 0.018061
0.669602 0.000000 0.017898
0.701047 0.000000 0.017703
0.732525 0.000000 0.017475
0.764035 0.000000 0.017215
0.795577 0.000000 0.016923
0.827152 0.000000 0.016598
0.858759 0.000000 0.016241
0.890399 0.000000 0.015851
0.922071 0.000000 0.015429
0.953775 0.000000 0.014975
0.985512 0.000000 0.014488
0.000109 0.031156 0.013819
0.019996 0.031167 0.013524
0.047987 0.030971 0.013954
0.079397 0.030283 0.013515
0.110282 0.029682 0.013226
0.141199 0.029030 0.012882
0.172148 0.028325 0.012458
0.203129 0.027568 0.011950
0.234143 0.026767 0.011366
0.265190 0.025925 0.010709
0.296268 0.025032 0.009967
0.327379 0.024088 0.009141
0.358523 0.023093 0.008230
0.389699 0.022047 0.007235
0.420907 0.020950 0.006155
0.452148 0.019802 0.004991
0.483421 0.018604 0.003743
0.514726 0.017354 0.002409
0.546064 0.016054 0.000992
0.577434 0.015204 0.000000
0.608837 0.015361 0.000000
0.640272 0.015549 0.000000
0.671739 0.015768 0.000000
0.703239 0.016018 0.000000
0.734771 0.016300 0.000000
0.766335 0.016612 0.000000
0.797932 0.016956 0.000000
0.829562 0.017332 0.000000
0.861223 0.017738 0.000000
0.892917 0.018176 0.000000
0.924644 0.018646 0.000000
0.956403 0.019147 0.000000
0.988194 0.019679 0.000000
0.000420 0.062500 0.013068
0.019671 0.062500 0.012739
0.048617 0.062500 0.012036
0.080466 0.062500 0.012223
0.111438 0.061693 0.011948
0.142410 0.060992 0.011572
0.173413 0.060285 0.011111
0.204449 0.059543 0.010566
0.235518 0.058759 0.009937
0.266619 0.057928 0.009223
0.297752 0.057050 0.008424
0.328917 0.056123 0.007541
0.360115 0.055147 0.006574
0.391346 0.054120 0.005522
0.422608 0.053044 0.004386
0.453903 0.051917 0.003165
0.485231 0.050740 0.001860
0.516591 0.049513 0.000470
0.547983 0.049157 0.000000
0.579408 0.049270 0.000000
0.610865 0.049419 0.000000
0.642354 0.049603 0.000000
0.673876 0.049823 0.000000
0.705430 0.050077 0.000000
0.737017 0.050366 0.000000
0.768636 0.050688 0.000000
0.800287 0.051044 0.000000
0.831971 0.051433 0.000000
0.863687 0.051855 0.000000
0.895436 0.052310 0.000000
0.927217 0.052798 0.000000
0.959030 0.053319 0.000000
0.990876 0.053872 0.000000
0.000663 0.093750 0.012054
0.019290 0.093750 0.011706
0.048526 0.093750 0.010935
0.080892 0.093750 0.010607
0.112595 0.093689 0.010745
0.143621 0.092952 0.010312
0.174679 0.092237 0.009795
0.205769 0.091500 0.009193
0.236892 0.090727 0.008507
0.268048 0.089911 0.007736
0.299235 0.089050 0.006881
0.330455 0.088142 0.005942
0.361708 0.087185 0.004918
0.392993 0.086180 0.003809
0.424310 0.085125 0.002616
0.455659 0.084020 0.001339
0.487041 0.082884 0.000000
0.518456 0.082905 0.000000
0.549902 0.082972 0.000000
0.581382 0.083081 0.000000
0.612893 0.083230 0.000000
0.644437 0.083420 0.000000
0.676013 0.083647 0.000000
0.707622 0.083912 0.000000
0.739263 0.084213 0.000000
0.770937 0.084550 0.000000
0.802643 0.084922 0.000000
0.834381 0.085330 0.000000
0.866152 0.085771 0.000000
0.897955 0.086247 0.000000
0.929790 0.086757 0.000000
0.961658 0.087301 0.000000
0.993558 0.087878 0.000000
0.000928 0.125000 0.010872
0.018931 0.125000 0.010506
0.048566 0.125000 0.009780
0.080880 0.125000 0.009436
0.113183 0.125000 0.009092
0.144832 0.124866 0.009053
0.175944 0.124156 0.008479
0.207089 0.123430 0.007820
0.238267 0.122672 0.007078
0.269477 0.121874 0.006250
0.300719 0.121033 0.005338
0.331993 0.120145 0.004342
0.363300 0.119209 0.003262
0.394639 0.118226 0.002096
0.426011 0.117193 0.000847
0.457415 0.116477 0.000000
0.488852 0.116442 0.000000
0.520321 0.116460 0.000000
0.551822 0.116529 0.000000
0.583355 0.116643 0.000000
0.614921 0.116802 0.000000
0.646520 0.117004 0.000000
0.678151 0.117245 0.000000
0.709814 0.117527 0.000000
0.741509 0.117846 0.000000
0.773237 0.118203 0.000000
0.804998 0.118596 0.000000
0.836791 0.119026 0.000000
0.868616 0.119491 0.000000
0.900473 0.119991 0.000000
0.932363 0.120526 0.000000
0.964285 0.121096 0.000000
0.996240 0.121699 0.000000
0.001215 0.156250 0.009523
0.018593 0.156250 0.009139
0.048660 0.156250 0.008465
0.080970 0.156250 0.008105
0.113272 0.156250 0.007745
0.145566 0.156250 0.007385
0.177210 0.156045 0.007162
0.208410 0.155336 0.006447
0.239641 0.154597 0.005648
0.270906 0.153820 0.004764
0.302202 0.152999 0.003796
0.333531 0.152133 0.002743
0.364893 0.151220 0.001605
0.396286 0.150259 0.000384
0.427713 0.149852 0.000000
0.459171 0.149758 0.000000
0.490662 0.149728 0.000000
0.522185 0.149755 0.000000
0.553741 0.149836 0.000000
0.585329 0.149965 0.000000
0.616950 0.150141 0.000000
0.648603 0.150361 0.000000
0.680288 0.150624 0.000000
0.712006 0.150927 0.000000
0.743756 0.151270 0.000000
0.775538 0.151651 0.000000
0.807353 0.152070 0.000000
0.839200 0.152525 0.000000
0.871080 0.153017 0.000000
0.902992 0.153545 0.000000
0.934936 0.154108 0.000000
0.966913 0.154707 0.000000
0.998922 0.155340 0.000000
0.001523 0.187500 0.008006
0.018278 0.187500 0.007604
0.048815 0.187500 0.006990
0.081139 0.187500 0.006614
0.113457 0.187500 0.006238
0.145769 0.187500 0.005862
0.178074 0.187500 0.005485
0.209730 0.187220 0.005075
0.241016 0.186503 0.004218
0.272335 0.185748 0.003278
0.303686 0.184950 0.002253
0.335069 0.184107 0.001143
0.366485 0.183243 0.000000
0.397933 0.182999 0.000000
0.429414 0.182844 0.000000
0.460927 0.182764 0.000000
0.492472 0.182751 0.000000
0.524050 0.182798 0.000000
0.555660 0.182900 0.000000
0.587303 0.183053 0.000000
0.618978 0.183253 0.000000
0.650685 0.183499 0.000000
0.682425 0.183787 0.000000
0.714197 0.184118 0.000000
0.746002 0.184488 0.000000
0.777839 0.184898 0.000000
0.809708 0.185346 0.000000
0.841610 0.185832 0.000000
0.873544 0.186354 0.000000
0.905510 0.186913 0.000000
0.937509 0.187500 0.000000
0.969540 0.187500 0.000000
1.000000 0.187500 0.000000
0.001854 0.218750 0.006322
0.017984 0.218750 0.005903
0.049034 0.218750 0.005356
0.081381 0.218750 0.004963
0.113724 0.218750 0.004571
0.146061 0.218750 0.004179
0.178392 0.218750 0.003786
0.210718 0.218750 0.003394
0.242390 0.218391 0.002789
0.273764 0.217660 0.001792
0.305169 0.216886 0.000710
0.336607 0.216229 0.000000
0.368077 0.215904 0.000000
0.399580 0.215686 0.000000
0.431115 0.215558 0.000000
0.462683 0.215506 0.000000
0.494283 0.215522 0.000000
0.525915 0.215598 0.000000
0.557580 0.215729 0.000000
0.589277 0.215913 0.000000
0.621006 0.216144 0.000000
0.652768 0.216421 0.000000
0.684562 0.216741 0.000000
0.716389 0.217104 0.000000
0.748248 0.217507 0.000000
0.780139 0.217950 0.000000
0.812063 0.218431 0.000000
0.844019 0.218750 0.000000
0.876008 0.218750 0.000000
0.908029 0.218750 0.000000
0.940082 0.218750 0.000000
0.972168 0.218750 0.000000
1.000000 0.218750 0.000000
0.002206 0.250000 0.004471
0.017713 0.250000 0.004034
0.049317 0.250000 0.003562
0.081694 0.250000 0.003153
0.114065 0.250000 0.002744
0.146432 0.250000 0.002336
0.178793 0.250000 0.001927
0.211150 0.250000 0.001519
0.243503 0.250000 0.001110
0.275193 0.249558 0.000306
0.306653 0.248958 0.000000
0.338145 0.248548 0.000000
0.369670 0.248268 0.000000
0.401227 0.248092 0.000000
0.432817 0.248005 0.000000
0.464439 0.247992 0.000000
0.496093 0.248047 0.000000
0.527780 0.248161 0.000000
0.559499 0.248330 0.000000
0.591251 0.248551 0.000000
0.623034 0.248819 0.000000
0.654851 0.249133 0.000000
0.686700 0.249490 0.000000
0.718581 0.249890 0.000000
0.750494 0.250000 0.000000
0.782440 0.250000 0.000000
0.814418 0.250000 0.000000
0.846429 0.250000 0.000000
0.878472 0.250000 0.000000
0.910547 0.250000 0.000000
0.942655 0.250000 0.000000
0.974795 0.250000 0.000000
1.000000 0.250000 0.000000
0.002585 0.281250 0.002457
0.017498 0.281250 0.002033
0.049667 0.281250 0.001608
0.082074 0.281250 0.001183
0.114478 0.281250 0.000758
0.146877 0.281250 0.000333
0.179307 0.281250 0.000000
0.211801 0.281250 0.000000
0.244189 0.281250 0.000000
0.276474 0.281250 0.000000
0.308136 0.280906 0.000000
0.339683 0.280566 0.000000
0.371262 0.280348 0.000000
0.402874 0.280229 0.000000
0.434518 0.280194 0.000000
0.466195 0.280232 0.000000
0.497903 0.280334 0.000000
0.529645 0.280495 0.000000
0.561418 0.280709 0.000000
0.593224 0.280973 0.000000
0.625063 0.281250 0.000000
0.656934 0.281250 0.000000
0.688837 0.281250 0.000000
0.720772 0.281250 0.000000
0.752740 0.281250 0.000000
0.784741 0.281250 0.000000
0.816773 0.281250 0.000000
0.848839 0.281250 0.000000
0.880936 0.281250 0.000000
0.913066 0.281250 0.000000
0.945228 0.281250 0.000000
0.977423 0.281250 0.000000
1.000000 0.281250 0.000000
0.003084 0.312500 0.000376
0.017700 0.312500 0.000000
0.050521 0.312500 0.000000
0.083243 0.312500 0.000000
0.115866 0.312500 0.000000
0.148391 0.312500 0.000000
0.180818 0.312500 0.000000
0.213149 0.312500 0.000000
0.245385 0.312500 0.000000
0.277525 0.312500 0.000000
0.309571 0.312500 0.000000
0.341221 0.312297 0.000000
0.372855 0.312156 0.000000
0.404521 0.312108 0.000000
0.436220 0.312137 0.000000
0.467950 0.312234 0.000000
0.499714 0.312393 0.000000
0.531510 0.312500 0.000000
0.563338 0.312500 0.000000
0.595198 0.312500 0.000000
0.627091 0.312500 0.000000
0.659016 0.312500 0.000000
0.690974 0.312500 0.000000
0.722964 0.312500 0.000000
0.754986 0.312500 0.000000
0.787041 0.312500 0.000000
0.819129 0.312500 0.000000
0.851248 0.312500 0.000000
0.883400 0.312500 0.000000
0.915585 0.312500 0.000000
0.947801 0.312500 0.000000
0.980050 0.312500 0.000000
1.000000 0.312500 0.000000
0.005424 0.343750 0.000000
0.020322 0.343750 0.000000
0.052970 0.343750 0.000000
0.085527 0.343750 0.000000
0.117993 0.343750 0.000000
0.150368 0.343750 0.000000
0.182653 0.343750 0.000000
0.214849 0.343750 0.000000
0.246957 0.343750 0.000000
0.278976 0.343750 0.000000
0.310908 0.343750 0.000000
0.342754 0.343750 0.000000
0.374447 0.343705 0.000000
0.406168 0.343737 0.000000
0.437921 0.343750 0.000000
0.469706 0.343750 0.000000
0.501524 0.343750 0.000000
0.533374 0.343750 0.000000
0.565257 0.343750 0.000000
0.597172 0.343750 0.000000
0.629119 0.343750 0.000000
0.661099 0.343750 0.000000
0.693111 0.343750 0.000000
0.725156 0.343750 0.000000
0.757233 0.343750 0.000000
0.789342 0.343750 0.000000
0.821484 0.343750 0.000000
0.853658 0.343750 0.000000
0.885864 0.343750 0.000000
0.918103 0.343750 0.000000
0.950374 0.343750 0.000000
0.982678 0.343750 0.000000
1.000000 0.343750 0.000000
0.008271 0.375000 0.000000
0.023110 0.375000 0.000000
0.055613 0.375000 0.000000
0.088031 0.375000 0.000000
0.120364 0.375000 0.000000
0.152612 0.375000 0.000000
0.184777 0.375000 0.000000
0.216859 0.375000 0.000000
0.248857 0.375000 0.000000
0.280774 0.375000 0.000000
0.312593 0.375000 0.000000
0.344316 0.375000 0.000000
0.376040 0.375000 0.000000
0.407815 0.375000 0.000000
0.439622 0.375000 0.000000
0.471462 0.375000 0.000000
0.503335 0.375000 0.000000
0.535239 0.375000 0.000000
0.567176 0.375000 0.000000
0.599146 0.375000 0.000000
0.631148 0.375000 0.000000
0.663182 0.375000 0.000000
0.695248 0.375000 0.000000
0.727347 0.375000 0.000000
0.759479 0.375000 0.000000
0.791643 0.375000 0.000000
0.823839 0.375000 0.000000
0.856067 0.375000 0.000000
0.888328 0.375000 0.000000
0.920622 0.375000 0.000000
0.952947 0.375000 0.000000
0.985305 0.375000 0.000000
1.000000 0.375000 0.000000
0.011263 0.406250 0.000000
0.026074 0.406250 0.000000
0.058452 0.406250 0.000000
0.090751 0.406250 0.000000
0.122969 0.406250 0.000000
0.155108 0.406250 0.000000
0.187169 0.406250 0.000000
0.219024 0.406250 0.000000
0.250764 0.406250 0.000000
0.282503 0.406250 0.000000
0.314243 0.406250 0.000000
0.345983 0.406250 0.000000
0.377722 0.406250 0.000000
0.409462 0.406250 0.000000
0.441324 0.406250 0.000000
0.473218 0.406250 0.000000
0.505145 0.406250 0.000000
0.537104 0.406250 0.000000
0.569096 0.406250 0.000000
0.601120 0.406250 0.000000
0.633176 0.406250 0.000000
0.665265 0.406250 0.000000
0.697386 0.406250 0.000000
0.729539 0.406250 0.000000
0.761725 0.406250 0.000000
0.793943 0.406250 0.000000
0.826194 0.406250 0.000000
0.858477 0.406250 0.000000
0.890792 0.406250 0.000000
0.923140 0.406250 0.000000
0.955520 0.406250 0.000000
0.987933 0.406250 0.000000
1.000000 0.406250 0.000000
0.014405 0.437500 0.000000
0.029218 0.437500 0.000000
0.061488 0.437500 0.000000
0.093682 0.437500 0.000000
0.125468 0.437500 0.000000
0.157223 0.437500 0.000000
0.188979 0.437500 0.000000
0.220735 0.437500 0.000000
0.252491 0.437500 0.000000
0.284246 0.437500 0.000000
0.316002 0.437500 0.000000
0.347758 0.437500 0.000000
0.379514 0.437500 0.000000
0.411269 0.437500 0.000000
0.443025 0.437500 0.000000
0.474974 0.437500 0.000000
0.506955 0.437500 0.000000
0.538969 0.437500 0.000000
0.571015 0.437500 0.000000
0.603093 0.437500 0.000000
0.635204 0.437500 0.000000
0.667347 0.437500 0.000000
0.699523 0.437500 0.000000
0.731731 0.437500 0.000000
0.763971 0.437500 0.000000
0.796244 0.437500 0.000000
0.828549 0.437500 0.000000
0.860887 0.437500 0.000000
0.893256 0.437500 0.000000
0.925659 0.437500 0.000000
0.958093 0.437500 0.000000
0.990561 0.437500 0.000000
1.000000 0.437500 0.000000
0.017559 0.468750 0.000000
0.031923 0.468750 0.000000
0.063694 0.468750 0.000000
0.095466 0.468750 0.000000
0.127238 0.468750 0.000000
0.159010 0.468750 0.000000
0.190782 0.468750 0.000000
0.222554 0.468750 0.000000
0.254326 0.468750 0.000000
0.286098 0.468750 0.000000
0.317870 0.468750 0.000000
0.349642 0.468750 0.000000
0.381414 0.468750 0.000000
0.413186 0.468750 0.000000
0.444958 0.468750 0.000000
0.476730 0.468750 0.000000
0.508766 0.468750 0.000000
0.540834 0.468750 0.000000
0.572934 0.468750 0.000000
0.605067 0.468750 0.000000
0.637232 0.468750 0.000000
0.669430 0.468750 0.000000
0.701660 0.468750 0.000000
0.733923 0.468750 0.000000
0.766217 0.468750 0.000000
0.798545 0.468750 0.000000
0.830904 0.468750 0.000000
0.863296 0.468750 0.000000
0.895721 0.468750 0.000000
0.928177 0.468750 0.000000
0.960667 0.468750 0.000000
0.993188 0.468750 0.000000
1.000000 0.468750 0.000000
0.019310 0.500000 0.000000
0.033754 0.500000 0.000000
0.065542 0.500000 0.000000
0.097330 0.500000 0.000000
0.129118 0.500000 0.000000
0.160906 0.500000 0.000000
0.192694 0.500000 0.000000
0.224483 0.500000 0.000000
0.256271 0.500000 0.000000
0.288059 0.500000 0.000000
0.319847 0.500000 0.000000
0.351635 0.500000 0.000000
0.383423 0.500000 0.000000
0.415211 0.500000 0.000000
0.447000 0.500000 0.000000
0.478788 0.500000 0.000000
0.510576 0.500000 0.000000
0.542699 0.500000 0.000000
0.574853 0.500000 0.000000
0.607041 0.500000 0.000000
0.639261 0.500000 0.000000
0.671513 0.500000 0.000000
0.703797 0.500000 0.000000
0.736114 0.500000 0.000000
0.768464 0.500000 0.000000
0.800845 0.500000 0.000000
0.833259 0.500000 0.000000
0.865706 0.500000 0.000000
0.898185 0.500000 0.000000
0.930696 0.500000 0.000000
0.963240 0.500000 0.000000
0.995816 0.500000 0.000000
1.000000 0.500000 0.000000
0.021135 0.531250 0.000000
0.035694 0.531250 0.000000
0.067498 0.531250 0.000000
0.099303 0.531250 0.000000
0.131107 0.531250 0.000000
0.162911 0.531250 0.000000
0.194716 0.531250 0.000000
0.226520 0.531250 0.000000
0.258324 0.531250 0.000000
0.290129 0.531250 0.000000
0.321933 0.531250 0.000000
0.353737 0.531250 0.000000
0.385542 0.531250 0.000000
0.417346 0.531250 0.000000
0.449150 0.531250 0.000000
0.480955 0.531250 0.000000
0.512759 0.531250 0.000000
0.544563 0.531250 0.000000
0.576773 0.531250 0.000000
0.609015 0.531250 0.000000
0.641289 0.531250 0.000000
0.673595 0.531250 0.000000
0.705935 0.531250 0.000000
0.738306 0.531250 0.000000
0.770710 0.531250 0.000000
0.803146 0.531250 0.000000
0.835614 0.531250 0.000000
0.868115 0.531250 0.000000
0.900649 0.531250 0.000000
0.933214 0.531250 0.000000
0.965813 0.531250 0.000000
0.998443 0.531250 0.000000
1.000000 0.531250 0.000000
0.023032 0.562500 0.000000
0.037743 0.562500 0.000000
0.069564 0.562500 0.000000
0.101384 0.562500 0.000000
0.133205 0.562500 0.000000
0.165025 0.562500 0.000000
0.196846 0.562500 0.000000
0.228666 0.562500 0.000000
0.260487 0.562500 0.000000
0.292307 0.562500 0.000000
0.324128 0.562500 0.000000
0.355948 0.562500 0.000000
0.387769 0.562500 0.000000
0.419589 0.562500 0.000000
0.451410 0.562500 0.000000
0.483231 0.562500 0.000000
0.515051 0.562500 0.000000
0.546872 0.562500 0.000000
0.578692 0.562500 0.000000
0.610988 0.562500 0.000000
0.643317 0.562500 0.000000
0.675678 0.562500 0.000000
0.708072 0.562500 0.000000
0.740498 0.562500 0.000000
0.772956 0.562500 0.000000
0.805447 0.562500 0.000000
0.837970 0.562500 0.000000
0.870525 0.562500 0.000000
0.903113 0.562500 0.000000
0.935733 0.562500 0.000000
0.968386 0.562500 0.000000
0.999365 0.562500 0.000000
1.000000 0.562500 0.000000
0.025001 0.593750 0.000000
0.039901 0.593750 0.000000
0.071738 0.593750 0.000000
0.103575 0.593750 0.000000
0.135411 0.593750 0.000000
0.167248 0.593750 0.000000
0.199085 0.593750 0.000000
0.230921 0.593750 0.000000
0.262758 0.593750 0.000000
0.294595 0.593750 0.000000
0.326432 0.593750 0.000000
0.358268 0.593750 0.000000
0.390105 0.593750 0.000000
0.421942 0.593750 0.000000
0.453779 0.593750 0.000000
0.485615 0.593750 0.000000
0.517452 0.593750 0.000000
0.549289 0.593750 0.000000
0.581125 0.593750 0.000000
0.612962 0.593750 0.000000
0.645345 0.593750 0.000000
0.677761 0.593750 0.000000
0.710209 0.593750 0.000000
0.742689 0.593750 0.000000
0.775202 0.593750 0.000000
0.807747 0.593750 0.000000
0.840325 0.593750 0.000000
0.872935 0.593750 0.000000
0.905577 0.593750 0.000000
0.938252 0.593750 0.000000
0.970959 0.593750 0.000000
0.999365 0.593750 0.000000
1.000000 0.593750 0.000000
0.027044 0.625000 0.000000
0.042168 0.625000 0.000000
0.074021 0.625000 0.000000
0.105874 0.625000 0.000000
0.137727 0.625000 0.000000
0.169580 0.625000 0.000000
0.201433 0.625000 0.000000
0.233286 0.625000 0.000000
0.265139 0.625000 0.000000
0.296992 0.625000 0.000000
0.328844 0.625000 0.000000
0.360697 0.625000 0.000000
0.392550 0.625000 0.000000
0.424403 0.625000 0.000000
0.456256 0.625000 0.000000
0.488109 0.625000 0.000000
0.519962 0.625000 0.000000
0.551815 0.625000 0.000000
0.583668 0.625000 0.000000
0.615521 0.625000 0.000000
0.647374 0.625000 0.000000
0.679844 0.625000 0.000000
0.712346 0.625000 0.000000
0.744881 0.625000 0.000000
0.777448 0.625000 0.000000
0.810048 0.625000 0.000000
0.842680 0.625000 0.000000
0.875344 0.625000 0.000000
0.908041 0.625000 0.000000
0.940770 0.625000 0.000000
0.973532 0.625000 0.000000
0.999365 0.625000 0.000000
1.000000 0.625000 0.000000
0.029158 0.656250 0.000000
0.044544 0.656250 0.000000
0.076413 0.656250 0.000000
0.108282 0.656250 0.000000
0.140152 0.656250 0.000000
0.172021 0.656250 0.000000
0.203890 0.656250 0.000000
0.235759 0.656250 0.000000
0.267628 0.656250 0.000000
0.299497 0.656250 0.000000
0.331366 0.656250 0.000000
0.363235 0.656250 0.000000
0.395104 0.656250 0.000000
0.426974 0.656250 0.000000
0.458843 0.656250 0.000000
0.490712 0.656250 0.000000
0.522581 0.656250 0.000000
0.554450 0.656250 0.000000
0.586319 0.656250 0.000000
0.618188 0.656250 0.000000
0.650057 0.656250 0.000000
0.681926 0.656250 0.000000
0.714483 0.656250 0.000000
0.747073 0.656250 0.000000
0.779694 0.656250 0.000000
0.812348 0.656250 0.000000
0.845035 0.656250 0.000000
0.877754 0.656250 0.000000
0.910505 0.656250 0.000000
0.943289 0.656250 0.000000
0.976105 0.656250 0.000000
0.999365 0.656250 0.000000
1.000000 0.656250 0.000000
0.031346 0.687500 0.000000
0.047029 0.687500 0.000000
0.078914 0.687500 0.000000
0.110800 0.687500 0.000000
0.142685 0.687500 0.000000
0.174570 0.687500 0.000000
0.206456 0.687500 0.000000
0.238341 0.687500 0.000000
0.270226 0.687500 0.000000
0.302112 0.687500 0.000000
0.333997 0.687500 0.000000
0.365882 0.687500 0.000000
0.397768 0.687500 0.000000
0.429653 0.687500 0.000000
0.461538 0.687500 0.000000
0.493423 0.687500 0.000000
0.525309 0.687500 0.000000
0.557194 0.687500 0.000000
0.589079 0.687500 0.000000
0.620965 0.687500 0.000000
0.652850 0.687500 0.000000
0.684735 0.687500 0.000000
0.716621 0.687500 0.000000
0.749264 0.687500 0.000000
0.781941 0.687500 0.000000
0.814649 0.687500 0.000000
0.847390 0.687500 0.000000
0.880163 0.687500 0.000000
0.912969 0.687500 0.000000
0.945807 0.687500 0.000000
0.978678 0.687500 0.000000
0.999365 0.687500 0.000000
1.000000 0.687500 0.000000
0.033606 0.718750 0.000000
0.049623 0.718750 0.000000
0.081525 0.718750 0.000000
0.113426 0.718750 0.000000
0.145328 0.718750 0.000000
0.177229 0.718750 0.000000
0.209131 0.718750 0.000000
0.241032 0.718750 0.000000
0.272934 0.718750 0.000000
0.304835 0.718750 0.000000
0.336737 0.718750 0.000000
0.368638 0.718750 0.000000
0.400540 0.718750 0.000000
0.432441 0.718750 0.000000
0.464343 0.718750 0.000000
0.496244 0.718750 0.000000
0.528146 0.718750 0.000000
0.560047 0.718750 0.000000
0.591949 0.718750 0.000000
0.623850 0.718750 0.000000
0.655752 0.718750 0.000000
0.687653 0.718750 0.000000
0.719555 0.718750 0.000000
0.751456 0.718750 0.000000
0.784187 0.718750 0.000000
0.816950 0.718750 0.000000
0.849745 0.718750 0.000000
0.882573 0.718750 0.000000
0.915433 0.718750 0.000000
0.948326 0.718750 0.000000
0.981251 0.718750 0.000000
0.999365 0.718750 0.000000
1.000000 0.718750 0.000000
0.035939 0.750000 0.000000
0.052326 0.750000 0.000000
0.084244 0.750000 0.000000
0.116161 0.750000 0.000000
0.148079 0.750000 0.000000
0.179997 0.750000 0.000000
0.211914 0.750000 0.000000
0.243832 0.750000 0.000000
0.275750 0.750000 0.000000
0.307667 0.750000 0.000000
0.339585 0.750000 0.000000
0.371503 0.750000 0.000000
0.403421 0.750000 0.000000
0.435338 0.750000 0.000000
0.467256 0.750000 0.000000
0.499174 0.750000 0.000000
0.531091 0.750000 0.000000
0.563009 0.750000 0.000000
0.594927 0.750000 0.000000
0.626844 0.750000 0.000000
0.658762 0.750000 0.000000
0.690680 0.750000 0.000000
0.722598 0.750000 0.000000
0.754515 0.750000 0.000000
0.786433 0.750000 0.000000
0.819250 0.750000 0.000000
0.852100 0.750000 0.000000
0.884983 0.750000 0.000000
0.917897 0.750000 0.000000
0.950844 0.750000 0.000000
0.983824 0.750000 0.000000
0.999365 0.750000 0.000000
1.000000 0.750000 0.000000
0.038344 0.781250 0.000000
0.055138 0.781250 0.000000
0.087072 0.781250 0.000000
0.119006 0.781250 0.000000
0.150939 0.781250 0.000000
0.182873 0.781250 0.000000
0.214807 0.781250 0.000000
0.246741 0.781250 0.000000
0.278675 0.781250 0.000000
0.310609 0.781250 0.000000
0.342543 0.781250 0.000000
0.374477 0.781250 0.000000
0.406411 0.781250 0.000000
0.438344 0.781250 0.000000
0.470278 0.781250 0.000000
0.502212 0.781250 0.000000
0.534146 0.781250 0.000000
0.566080 0.781250 0.000000
0.598014 0.781250 0.000000
0.629948 0.781250 0.000000
0.661882 0.781250 0.000000
0.693816 0.781250 0.000000
0.725749 0.781250 0.000000
0.757683 0.781250 0.000000
0.789617 0.781250 0.000000
0.821551 0.781250 0.000000
0.854455 0.781250 0.000000
0.887392 0.781250 0.000000
0.920361 0.781250 0.000000
0.953363 0.781250 0.000000
0.986397 0.781250 0.000000
0.999365 0.781250 0.000000
1.000000 0.781250 0.000000
0.040822 0.812500 0.000000
0.058058 0.812500 0.000000
0.090009 0.812500 0.000000
0.121959 0.812500 0.000000
0.153909 0.812500 0.000000
0.185859 0.812500 0.000000
0.217809 0.812500 0.000000
0.249759 0.812500 0.000000
0.281709 0.812500 0.000000
0.313659 0.812500 0.000000
0.345609 0.812500 0.000000
0.377559 0.812500 0.000000
0.409509 0.812500 0.000000
0.441460 0.812500 0.000000
0.473410 0.812500 0.000000
0.505360 0.812500 0.000000
0.537310 0.812500 0.000000
0.569260 0.812500 0.000000
0.601210 0.812500 0.000000
0.633160 0.812500 0.000000
0.665110 0.812500 0.000000
0.697060 0.812500 0.000000
0.729010 0.812500 0.000000
0.760960 0.812500 0.000000
0.792910 0.812500 0.000000
0.824861 0.812500 0.000000
0.856811 0.812500 0.000000
