luts/original/cinema-warm.cube
TITLE "Cinema Warm"
LUT_3D_SIZE 9
DOMAIN_MIN 0.0 0.0 0.0
DOMAIN_MAX 1.0 1.0 1.0
0.000000 0.000000 0.014000
0.109125 0.000000 0.015875
0.232769 0.000000 0.017231
0.356930 0.000000 0.018070
0.481610 0.000000 0.018390
0.606808 0.000000 0.018192
0.732525 0.000000 0.017475
0.858759 0.000000 0.016241
0.985512 0.000000 0.014488
0.000928 0.125000 0.010872
0.113183 0.125000 0.009092
0.238267 0.122672 0.007078
0.363300 0.119209 0.003262
0.488852 0.116442 0.000000
0.614921 0.116802 0.000000
0.741509 0.117846 0.000000
0.868616 0.119491 0.000000
0.996240 0.121699 0.000000
0.002206 0.250000 0.004471
0.114065 0.250000 0.002744
0.243503 0.250000 0.001110
0.369670 0.248268 0.000000
0.496093 0.248047 0.000000
0.623034 0.248819 0.000000
0.750494 0.250000 0.000000
0.878472 0.250000 0.000000
1.000000 0.250000 0.000000
0.008271 0.375000 0.000000
0.120364 0.375000 0.000000
0.248857 0.375000 0.000000
0.376040 0.375000 0.000000
0.503335 0.375000 0.000000
0.631148 0.375000 0.000000
0.759479 0.375000 0.000000
0.888328 0.375000 0.000000
1.000000 0.375000 0.000000
0.019310 0.500000 0.000000
0.129118 0.500000 0.000000
0.256271 0.500000 0.000000
0.383423 0.500000 0.000000
0.510576 0.500000 0.000000
0.639261 0.500000 0.000000
0.768464 0.500000 0.000000
0.898185 0.500000 0.000000
1.000000 0.500000 0.000000
0.027044 0.625000 0.000000
0.137727 0.625000 0.000000
0.265139 0.625000 0.000000
0.392550 0.625000 0.000000
0.519962 0.625000 0.000000
0.647374 0.625000 0.000000
0.777448 0.625000 0.000000
0.908041 0.625000 0.000000
1.000000 0.625000 0.000000
0.035939 0.750000 0.000000
0.148079 0.750000 0.000000
0.275750 0.750000 0.000000
0.403421 0.750000 0.000000
0.531091 0.750000 0.000000
0.658762 0.750000 0.000000
0.786433 0.750000 0.000000
0.917897 0.750000 0.000000
1.000000 0.750000 0.000000
0.045996 0.875000 0.000000
0.160174 0.875000 0.000000
0.288104 0.875000 0.000000
0.416034 0.875000 0.000000
0.543964 0.875000 0.000000
0.671894 0.875000 0.000000
0.799824 0.875000 0.000000
0.927754 0.875000 0.000000
1.000000 0.875000 0.000000
0.057216 1.000000 0.000000
0.174013 1.000000 0.000000
0.302202 1.000000 0.000000
0.430391 1.000000 0.000000
0.558580 1.000000 0.000000
0.686769 1.000000 0.000000
0.814958 1.000000 0.000000
0.943147 1.000000 0.000000
1.000000 1.000000 0.000000
0.000311 0.000000 0.141783
0.109592 0.000000 0.140408
0.233324 0.000000 0.141676
0.357573 0.000000 0.142427
0.482341 0.000000 0.142659
0.607627 0.000000 0.142373
0.733432 0.000000 0.141568
0.859754 0.000000 0.140246
0.986595 0.000000 0.138405
0.000753 0.124487 0.137157
0.111631 0.123706 0.135781
0.238822 0.120322 0.132489
0.363943 0.116536 0.128274
0.489583 0.111917 0.122896
0.615740 0.106464 0.116189
0.742416 0.100178 0.108127
0.869611 0.093059 0.098701
0.997323 0.085107 0.087907
0.002576 0.250000 0.131603
0.112561 0.250000 0.128240
0.243821 0.250000 0.125555
0.370313 0.245641 0.120968
0.496824 0.241027 0.114803
0.623854 0.235826 0.107286
0.751401 0.229895 0.098418
0.879467 0.223192 0.088198
1.000000 0.216027 0.076949
0.004262 0.375000 0.122857
0.113990 0.375000 0.118447
0.245317 0.375000 0.116305
0.376683 0.374901 0.114344
0.504066 0.370375 0.107272
0.631967 0.365408 0.098849
0.760386 0.359773 0.089074
0.889323 0.353398 0.077948
1.000000 0.347029 0.066221
0.006298 0.500000 0.111433
0.116857 0.500000 0.106651
0.248607 0.500000 0.104498
0.380283 0.500000 0.102346
0.511307 0.499428 0.099741
0.640080 0.494762 0.090411
0.769371 0.489462 0.079730
0.899180 0.483438 0.067697
1.000000 0.477888 0.055493
0.008683 0.625000 0.097330
0.120947 0.625000 0.092548
0.253118 0.625000 0.090136
0.385230 0.625000 0.087724
0.517286 0.625000 0.085313
0.648193 0.623916 0.081973
0.778355 0.618978 0.070386
0.909036 0.613325 0.057446
1.000000 0.608611 0.044765
0.011418 0.750000 0.080549
0.126063 0.750000 0.075889
0.258748 0.750000 0.073218
0.391385 0.750000 0.070547
0.523975 0.750000 0.067877
0.656517 0.750000 0.065206
0.787340 0.748338 0.061041
0.918892 0.743071 0.047196
1.000000 0.739200 0.034037
0.014503 0.875000 0.061088
0.132221 0.875000 0.056674
0.265468 0.875000 0.053745
0.398673 0.875000 0.050815
0.531835 0.875000 0.047885
0.664956 0.875000 0.044955
0.798036 0.875000 0.042025
0.928749 0.872685 0.036945
1.000000 0.869662 0.023309
0.017938 1.000000 0.038949
0.139428 1.000000 0.034904
0.273263 1.000000 0.031715
0.407060 1.000000 0.028526
0.540818 1.000000 0.025337
0.674539 1.000000 0.022148
0.808222 1.000000 0.018959
0.941867 1.000000 0.015770
1.000000 1.000000 0.012581
0.000740 0.000000 0.269390
0.107244 0.000000 0.267756
0.233879 0.000000 0.266121
0.358216 0.000000 0.266784
0.483072 0.000000 0.266928
0.608446 0.000000 0.266554
0.734339 0.000000 0.265661
0.860749 0.000000 0.264251
0.987678 0.000000 0.262322
0.000000 0.122504 0.263892
0.107127 0.120162 0.262257
0.237798 0.119450 0.260623
0.364586 0.116510 0.257130
0.490314 0.111887 0.251640
0.616560 0.106431 0.245044
0.743323 0.100142 0.237176
0.870606 0.093020 0.227983
0.998406 0.085064 0.217446
0.002610 0.249643 0.258394
0.112845 0.249530 0.256759
0.239545 0.247335 0.255125
0.370956 0.241256 0.245803
0.497555 0.236598 0.239240
0.624673 0.231107 0.231456
0.752308 0.224920 0.222475
0.880462 0.217927 0.212163
1.000000 0.210481 0.200866
0.004691 0.375000 0.250336
0.114633 0.375000 0.247138
0.241629 0.375000 0.240662
0.377326 0.374735 0.238675
0.504797 0.368154 0.231512
0.632786 0.362355 0.222997
0.761293 0.356145 0.213130
0.890318 0.349283 0.201913
1.000000 0.342527 0.190138
0.006785 0.500000 0.239245
0.117080 0.500000 0.234913
0.245416 0.500000 0.228767
0.379256 0.500000 0.226615
0.512038 0.499127 0.223981
0.640899 0.493158 0.214559
0.770278 0.487032 0.203786
0.900175 0.480369 0.191662
1.000000 0.474378 0.179410
0.009229 0.625000 0.225477
0.120459 0.625000 0.220149
0.249982 0.625000 0.214317
0.383581 0.625000 0.211905
0.517082 0.625000 0.209494
0.649012 0.623562 0.206122
0.779262 0.617620 0.194442
0.910031 0.611212 0.181411
1.000000 0.606044 0.168682
0.012023 0.750000 0.209030
0.124768 0.750000 0.202749
0.255542 0.750000 0.197311
0.389352 0.750000 0.194640
0.523089 0.750000 0.191970
0.656754 0.750000 0.189299
0.788247 0.747941 0.185098
0.919887 0.741833 0.171161
1.000000 0.737532 0.157954
0.015167 0.875000 0.189905
0.130008 0.875000 0.182678
0.262135 0.875000 0.177749
0.396334 0.875000 0.174820
0.530473 0.875000 0.171890
0.664553 0.875000 0.168960
0.798576 0.875000 0.166030
0.929744 0.872250 0.160910
1.000000 0.868848 0.147226
0.018660 1.000000 0.168101
0.136179 1.000000 0.159920
0.269775 1.000000 0.155632
0.404450 1.000000 0.152443
0.539074 1.000000 0.149254
0.673648 1.000000 0.146065
0.808172 1.000000 0.142876
0.942646 1.000000 0.139687
1.000000 1.000000 0.136498
0.001286 0.000000 0.396821
0.105073 0.000000 0.394927
0.231966 0.000000 0.393034
0.358860 0.000000 0.391140
0.483803 0.000000 0.391197
0.609265 0.000000 0.390735
0.735246 0.000000 0.389754
0.861744 0.000000 0.388256
0.988761 0.000000 0.386239
0.000000 0.121101 0.390451
0.101994 0.116281 0.388558
0.232625 0.115627 0.386664
0.364081 0.115703 0.384771
0.491045 0.111858 0.380378
0.617379 0.106399 0.373895
0.744230 0.100106 0.366221
0.871601 0.092980 0.357264
0.999489 0.085020 0.346984
0.000510 0.246521 0.384081
0.108618 0.245403 0.382188
0.235588 0.241451 0.380294
0.370807 0.240958 0.378401
0.498286 0.236569 0.370205
0.625492 0.231074 0.361847
0.753215 0.224746 0.352604
0.881457 0.217585 0.342179
1.000000 0.210000 0.330905
0.005011 0.374884 0.377712
0.115243 0.374951 0.375818
0.242169 0.375000 0.373794
0.377969 0.370488 0.363006
0.505528 0.362074 0.355751
0.633605 0.356553 0.347145
0.762200 0.350310 0.337187
0.891313 0.343279 0.325878
1.000000 0.336297 0.314055
0.007272 0.500000 0.367068
0.117811 0.500000 0.363728
0.244964 0.500000 0.358717
0.375134 0.500000 0.350884
0.512769 0.498372 0.348220
0.641718 0.490213 0.338707
0.771185 0.483200 0.327843
0.901170 0.475947 0.315627
1.000000 0.469543 0.303327
0.009775 0.625000 0.353633
0.121278 0.625000 0.349176
0.248689 0.625000 0.342716
0.379720 0.625000 0.336086
0.515972 0.625000 0.333675
0.649831 0.622930 0.330270
0.780169 0.615515 0.318499
0.911026 0.608201 0.305377
1.000000 0.602525 0.292599
0.012628 0.750000 0.337521
0.125675 0.750000 0.332041
0.253346 0.750000 0.324478
0.385550 0.750000 0.318733
0.521133 0.750000 0.316063
0.656595 0.750000 0.313392
0.789154 0.747337 0.309155
0.920882 0.740087 0.295126
1.000000 0.735254 0.281871
0.015830 0.875000 0.318730
0.131003 0.875000 0.312261
0.258933 0.875000 0.303725
0.392487 0.875000 0.298825
0.528050 0.875000 0.295895
0.663525 0.875000 0.292965
0.798914 0.875000 0.290035
0.930739 0.871643 0.284875
1.000000 0.867742 0.271143
0.019382 1.000000 0.297262
0.137262 1.000000 0.289811
0.265451 1.000000 0.280361
0.400502 1.000000 0.276360
0.536310 1.000000 0.273171
0.672049 1.000000 0.269982
0.807717 1.000000 0.266793
0.943317 1.000000 0.263604
1.000000 1.000000 0.260415
0.001949 0.000000 0.524076
0.103077 0.000000 0.521923
0.230229 0.000000 0.519771
0.357382 0.000000 0.517618
0.484534 0.000000 0.515466
0.610084 0.000000 0.514916
0.736153 0.000000 0.513847
0.862739 0.000000 0.512261
0.989844 0.000000 0.510156
0.000000 0.119736 0.516834
0.096231 0.111645 0.514682
0.227256 0.110999 0.512529
0.359072 0.111085 0.510377
0.490905 0.111171 0.508224
0.618198 0.106366 0.502741
0.745137 0.100070 0.495264
0.872596 0.092940 0.486543
1.000000 0.085000 0.476545
0.000000 0.243831 0.509593
0.103762 0.240929 0.507441
0.231001 0.236693 0.505288
0.364679 0.236375 0.503135
0.498860 0.236461 0.500983
0.626311 0.231041 0.492225
0.754122 0.224710 0.482863
0.882452 0.217546 0.472493
1.000000 0.210000 0.461431
0.002838 0.371355 0.502352
0.111293 0.370494 0.500199
0.238532 0.368289 0.498047
0.366452 0.361664 0.495894
0.506259 0.361250 0.491842
0.634424 0.355717 0.479562
0.763107 0.349351 0.468424
0.892308 0.342151 0.456564
1.000000 0.335000 0.444562
0.007760 0.500000 0.494902
0.118542 0.500000 0.492571
0.245695 0.500000 0.490027
0.372847 0.500000 0.486555
0.513500 0.492980 0.472460
0.642537 0.483045 0.462856
0.772092 0.476257 0.451900
0.902165 0.469021 0.439592
1.000000 0.462459 0.427244
0.010321 0.625000 0.481799
0.122097 0.625000 0.478226
0.249508 0.625000 0.473533
0.376920 0.625000 0.466210
0.511793 0.625000 0.457856
0.650650 0.621494 0.454418
0.781076 0.611816 0.442556
0.912021 0.603567 0.429342
1.000000 0.597400 0.416516
0.013233 0.750000 0.466020
0.126582 0.750000 0.461352
0.254253 0.750000 0.455216
0.381924 0.750000 0.446443
0.516742 0.750000 0.440156
0.655538 0.750000 0.437485
0.790061 0.746301 0.433212
0.921877 0.737443 0.419091
1.000000 0.731956 0.405788
0.016493 0.875000 0.447564
0.131998 0.875000 0.441862
0.259928 0.875000 0.434553
0.387858 0.875000 0.424755
0.523644 0.875000 0.419900
0.661332 0.875000 0.416970
0.798876 0.875000 0.414040
0.931734 0.870736 0.408841
1.000000 0.866149 0.395060
0.020104 1.000000 0.426431
0.138345 1.000000 0.419717
0.266534 1.000000 0.411364
0.394723 1.000000 0.400670
0.531853 1.000000 0.397088
0.669275 1.000000 0.393899
0.806593 1.000000 0.390710
0.943809 1.000000 0.387521
1.000000 1.000000 0.384332
0.002730 0.000000 0.651155
0.101257 0.000000 0.648743
0.228668 0.000000 0.646332
0.356080 0.000000 0.643920
0.483492 0.000000 0.641508
0.610904 0.000000 0.639096
0.737060 0.000000 0.637940
0.863734 0.000000 0.636266
0.990927 0.000000 0.634073
0.000000 0.118318 0.643042
0.089838 0.106214 0.640630
0.221385 0.105565 0.638219
0.353718 0.105661 0.635807
0.486063 0.105758 0.633395
0.618420 0.105854 0.630983
0.746045 0.100033 0.624304
0.873591 0.092900 0.615819
1.000000 0.085000 0.606126
0.000000 0.241522 0.634929
0.098276 0.235778 0.632517
0.225784 0.231222 0.630105
0.359392 0.230986 0.627694
0.493381 0.231082 0.625282
0.627130 0.231009 0.622587
0.755029 0.224674 0.613113
0.883447 0.217506 0.602802
1.000000 0.210000 0.591957
0.000000 0.367057 0.626816
0.106714 0.365559 0.624404
0.234222 0.362408 0.621992
0.362281 0.356311 0.619581
0.499740 0.356407 0.617169
0.635243 0.355684 0.612772
0.764014 0.349314 0.600596
0.893303 0.342112 0.588362
1.000000 0.335000 0.576410
0.005711 0.496276 0.618703
0.115151 0.495585 0.616291
0.242659 0.494108 0.613879
0.370167 0.490818 0.611468
0.501382 0.481732 0.609056
0.643356 0.480360 0.600257
0.772999 0.473955 0.585112
0.903160 0.466717 0.571299
1.000000 0.460000 0.558454
0.010867 0.625000 0.609975
0.122916 0.625000 0.607298
0.250327 0.625000 0.604391
0.377739 0.625000 0.600910
0.505151 0.625000 0.594489
0.651469 0.615017 0.578566
0.781983 0.603603 0.566612
0.913016 0.595511 0.553307
1.000000 0.589249 0.540433
0.013837 0.750000 0.594529
0.127489 0.750000 0.590682
0.255160 0.750000 0.585985
0.382831 0.750000 0.579742
0.510501 0.750000 0.569083
0.651631 0.750000 0.561578
0.790968 0.744125 0.557268
0.922872 0.732964 0.543056
1.000000 0.726760 0.529705
0.017157 0.875000 0.576407
0.132993 0.875000 0.571479
0.260923 0.875000 0.565407
0.388853 0.875000 0.557544
0.516783 0.875000 0.545750
0.656560 0.875000 0.540975
0.798012 0.875000 0.538045
0.932729 0.869235 0.532806
1.000000 0.863663 0.518977
0.020826 1.000000 0.555607
0.139428 1.000000 0.549639
0.267617 1.000000 0.542390
0.395806 1.000000 0.533296
0.524267 1.000000 0.521005
0.664339 1.000000 0.517816
0.804240 1.000000 0.514627
0.943975 1.000000 0.511438
1.000000 1.000000 0.508249
0.003628 0.000000 0.778058
0.099613 0.000000 0.775387
0.227284 0.000000 0.772716
0.354954 0.000000 0.770046
0.482625 0.000000 0.767375
0.610296 0.000000 0.764704
0.737967 0.000000 0.762033
0.864729 0.000000 0.760271
0.992010 0.000000 0.757990
0.000000 0.116816 0.769073
0.082816 0.099979 0.766402
0.214941 0.099326 0.763732
0.347858 0.099433 0.761061
0.480783 0.099539 0.758390
0.613717 0.099646 0.755719
0.746659 0.099753 0.753048
0.874586 0.092860 0.745093
1.000000 0.085000 0.735708
0.000000 0.239250 0.760089
0.092161 0.229873 0.757418
0.219938 0.224966 0.754747
0.353862 0.224792 0.752076
0.488098 0.224899 0.749405
0.622361 0.225006 0.746735
0.755936 0.224638 0.743355
0.884442 0.217466 0.733104
1.000000 0.210000 0.722483
0.000000 0.363798 0.751104
0.101505 0.359948 0.748433
0.229282 0.356155 0.745762
0.357619 0.350151 0.743091
0.494123 0.350258 0.740421
0.630705 0.350365 0.737750
0.764921 0.349278 0.732746
0.894298 0.342072 0.720146
1.000000 0.335000 0.708258
0.002777 0.491565 0.742119
0.110849 0.490223 0.739448
0.238626 0.487702 0.736778
0.366404 0.483214 0.734107
0.496554 0.475618 0.731436
0.638207 0.475724 0.728765
0.773906 0.473919 0.720749
0.904155 0.466678 0.705405
1.000000 0.460000 0.692284
0.009127 0.621283 0.733134
0.120193 0.620720 0.730464
0.247970 0.619660 0.727793
0.375748 0.617714 0.725122
0.503526 0.612988 0.722451
0.641009 0.601084 0.719781
0.782890 0.598559 0.704468
0.914011 0.591283 0.686788
1.000000 0.585000 0.672814
0.014442 0.750000 0.723046
0.128396 0.750000 0.720031
0.256067 0.750000 0.716786
0.383738 0.750000 0.713101
0.511408 0.750000 0.708156
0.639079 0.750000 0.695754
0.791875 0.736600 0.681325
0.923867 0.723730 0.667022
1.000000 0.717361 0.653622
0.017820 0.875000 0.705257
0.133988 0.875000 0.701114
0.261918 0.875000 0.696286
0.389848 0.875000 0.690375
0.517778 0.875000 0.682080
0.645708 0.875000 0.666638
0.794666 0.875000 0.662050
0.933724 0.866277 0.656771
1.000000 0.859232 0.642894
0.021548 1.000000 0.684792
0.140511 1.000000 0.679577
0.268700 1.000000 0.673438
0.396889 1.000000 0.665956
0.525078 1.000000 0.655944
0.654717 1.000000 0.641733
0.799239 1.000000 0.638544
0.943441 1.000000 0.635355
1.000000 1.000000 0.632166
0.004643 0.000000 0.904785
0.098145 0.000000 0.901855
0.226075 0.000000 0.898925
0.354005 0.000000 0.895995
0.481935 0.000000 0.893065
0.609865 0.000000 0.890135
0.737794 0.000000 0.887206
0.865724 0.000000 0.884276
0.993093 0.000000 0.881907
0.000000 0.115216 0.894929
0.075165 0.092936 0.891999
0.207902 0.092281 0.889069
0.341435 0.092398 0.886139
0.474975 0.092515 0.883209
0.608522 0.092633 0.880279
0.742075 0.092750 0.877349
0.875581 0.092821 0.874365
1.000000 0.085000 0.865290
0.000000 0.236948 0.885072
0.085416 0.223185 0.882142
0.213463 0.217909 0.879212
0.347865 0.217792 0.876283
0.482522 0.217910 0.873353
0.617199 0.218027 0.870423
0.751895 0.218144 0.867493
0.885437 0.217426 0.863400
1.000000 0.210000 0.853008
0.000000 0.360645 0.875216
0.095666 0.353592 0.872286
0.223713 0.349264 0.869356
0.352366 0.343187 0.866426
0.488749 0.343304 0.863496
0.625181 0.343421 0.860566
0.761661 0.343538 0.857637
0.895293 0.342032 0.851917
1.000000 0.335000 0.840105
0.000000 0.486432 0.865360
0.105917 0.484173 0.862430
0.233964 0.480898 0.859500
0.362011 0.475750 0.856570
0.492127 0.468698 0.853640
0.631654 0.468815 0.850710
0.771306 0.468933 0.847780
0.905150 0.466638 0.839481
1.000000 0.460000 0.826115
0.006121 0.616170 0.855503
0.116168 0.614943 0.852573
0.244215 0.612845 0.849643
0.372262 0.609488 0.846714
0.500309 0.603255 0.843784
0.633733 0.594210 0.840854
0.780596 0.594327 0.837924
0.915006 0.591244 0.824979
1.000000 0.585000 0.809949
0.013087 0.746374 0.845647
0.126418 0.745920 0.842717
0.254465 0.745140 0.839787
0.382512 0.743867 0.836857
0.510559 0.741421 0.833927
0.638606 0.734802 0.830997
0.787579 0.719721 0.828067
0.924862 0.715849 0.804460
1.000000 0.710000 0.788345
0.018483 0.875000 0.834117
0.134983 0.875000 0.830766
0.262913 0.875000 0.827192
0.390843 0.875000 0.823249
0.518773 0.875000 0.818493
0.646703 0.875000 0.811291
0.774633 0.875000 0.786756
0.934719 0.857728 0.780736
1.000000 0.849119 0.766811
0.022270 1.000000 0.813985
0.141594 1.000000 0.809530
0.269783 1.000000 0.804508
0.397972 1.000000 0.798650
0.526161 1.000000 0.791214
0.654350 1.000000 0.780216
0.786605 1.000000 0.762461
0.940909 1.000000 0.759272
1.000000 1.000000 0.756083
0.005776 0.000000 0.994224
0.096853 0.000000 0.992098
0.225042 0.000000 0.989972
0.353231 0.000000 0.987846
0.481420 0.000000 0.985720
0.609609 0.000000 0.983594
0.737798 0.000000 0.981468
0.865987 0.000000 0.979342
0.994176 0.000000 0.977216
0.000000 0.113559 0.987072
0.068183 0.086384 0.984946
0.201534 0.085687 0.982820
0.335686 0.085772 0.980694
0.469842 0.085857 0.978568
0.604002 0.085942 0.976442
0.738165 0.086027 0.974316
0.872333 0.086112 0.972190
1.000000 0.085000 0.968696
0.000000 0.234730 0.979920
0.079197 0.216881 0.977794
0.207471 0.211161 0.975668
0.342456 0.211058 0.973542
0.477640 0.211143 0.971416
0.612834 0.211228 0.969290
0.748039 0.211313 0.967164
0.883254 0.211398 0.965038
1.000000 0.210000 0.960934
0.000000 0.357784 0.972768
0.090211 0.347521 0.970642
0.218485 0.342674 0.968516
0.347440 0.336344 0.966390
0.484106 0.336429 0.964264
0.620795 0.336514 0.962138
0.757508 0.336600 0.960012
0.894246 0.336685 0.957886
1.000000 0.335000 0.952929
0.000000 0.482808 0.965616
0.101225 0.478315 0.963490
0.229499 0.474414 0.961364
0.357773 0.468707 0.959238
0.488085 0.461716 0.957112
0.627127 0.461801 0.954986
0.766221 0.461886 0.952860
0.905369 0.461971 0.950734
1.000000 0.460000 0.944497
0.003197 0.611057 0.958464
0.112239 0.609271 0.956338
0.240514 0.606399 0.954212
0.368788 0.602153 0.952086
0.497062 0.595239 0.949960
0.629828 0.587087 0.947834
0.773241 0.587172 0.945708
0.916789 0.587257 0.943582
1.000000 0.585000 0.935211
0.010636 0.741513 0.951312
0.123254 0.740402 0.949186
0.251528 0.738649 0.947060
0.379802 0.736028 0.944934
0.508076 0.731685 0.942808
0.636350 0.723098 0.940682
0.775010 0.712458 0.938556
0.929134 0.712543 0.936430
1.000000 0.710000 0.923793
0.018074 0.872060 0.944160
0.134268 0.871720 0.942034
0.262542 0.871186 0.939908
0.390816 0.870377 0.937782
0.519090 0.869012 0.935656
0.647364 0.866216 0.933530
0.775638 0.857268 0.931404
0.941083 0.837357 0.922553
1.000000 0.835000 0.903841
0.022992 1.000000 0.934319
0.142677 1.000000 0.931695
0.270866 1.000000 0.928853
0.399055 1.000000 0.925683
0.527244 1.000000 0.921896
0.655433 1.000000 0.916709
0.783622 1.000000 0.907073
0.927059 1.000000 0.882126
1.000000 1.000000 0.880000
