luts/original/cinema-warm.cube
TITLE "Cinema Warm"
LUT_3D_SIZE 5
DOMAIN_MIN 0.0 0.0 0.0
DOMAIN_MAX 1.0 1.0 1.0
0.000000 0.000000 0.014000
0.232769 0.000000 0.017231
0.481610 0.000000 0.018390
0.732525 0.000000 0.017475
0.985512 0.000000 0.014488
0.002206 0.250000 0.004471
0.243503 0.250000 0.001110
0.496093 0.248047 0.000000
0.750494 0.250000 0.000000
1.000000 0.250000 0.000000
0.019310 0.500000 0.000000
0.256271 0.500000 0.000000
0.510576 0.500000 0.000000
0.768464 0.500000 0.000000
1.000000 0.500000 0.000000
0.035939 0.750000 0.000000
0.275750 0.750000 0.000000
0.531091 0.750000 0.000000
0.786433 0.750000 0.000000
1.000000 0.750000 0.000000
0.057216 1.000000 0.000000
0.302202 1.000000 0.000000
0.558580 1.000000 0.000000
0.814958 1.000000 0.000000
1.000000 1.000000 0.000000
0.000740 0.000000 0.269390
0.233879 0.000000 0.266121
0.483072 0.000000 0.266928
0.734339 0.000000 0.265661
0.987678 0.000000 0.262322
0.002610 0.249643 0.258394
0.239545 0.247335 0.255125
0.497555 0.236598 0.239240
0.752308 0.224920 0.222475
1.000000 0.210481 0.200866
0.006785 0.500000 0.239245
0.245416 0.500000 0.228767
0.512038 0.499127 0.223981
0.770278 0.487032 0.203786
1.000000 0.474378 0.179410
0.012023 0.750000 0.209030
0.255542 0.750000 0.197311
0.523089 0.750000 0.191970
0.788247 0.747941 0.185098
1.000000 0.737532 0.157954
0.018660 1.000000 0.168101
0.269775 1.000000 0.155632
0.539074 1.000000 0.149254
0.808172 1.000000 0.142876
1.000000 1.000000 0.136498
0.001949 0.000000 0.524076
0.230229 0.000000 0.519771
0.484534 0.000000 0.515466
0.736153 0.000000 0.513847
0.989844 0.000000 0.510156
0.000000 0.243831 0.509593
0.231001 0.236693 0.505288
0.498860 0.236461 0.500983
0.754122 0.224710 0.482863
1.000000 0.210000 0.461431
0.007760 0.500000 0.494902
0.245695 0.500000 0.490027
0.513500 0.492980 0.472460
0.772092 0.476257 0.451900
1.000000 0.462459 0.427244
0.013233 0.750000 0.466020
0.254253 0.750000 0.455216
0.516742 0.750000 0.440156
0.790061 0.746301 0.433212
1.000000 0.731956 0.405788
0.020104 1.000000 0.426431
0.266534 1.000000 0.411364
0.531853 1.000000 0.397088
0.806593 1.000000 0.390710
1.000000 1.000000 0.384332
0.003628 0.000000 0.778058
0.227284 0.000000 0.772716
0.482625 0.000000 0.767375
0.737967 0.000000 0.762033
0.992010 0.000000 0.757990
0.000000 0.239250 0.760089
0.219938 0.224966 0.754747
0.488098 0.224899 0.749405
0.755936 0.224638 0.743355
1.000000 0.210000 0.722483
0.002777 0.491565 0.742119
0.238626 0.487702 0.736778
0.496554 0.475618 0.731436
0.773906 0.473919 0.720749
1.000000 0.460000 0.692284
0.014442 0.750000 0.723046
0.256067 0.750000 0.716786
0.511408 0.750000 0.708156
0.791875 0.736600 0.681325
1.000000 0.717361 0.653622
0.021548 1.000000 0.684792
0.268700 1.000000 0.673438
0.525078 1.000000 0.655944
0.799239 1.000000 0.638544
1.000000 1.000000 0.632166
0.005776 0.000000 0.994224
0.225042 0.000000 0.989972
0.481420 0.000000 0.985720
0.737798 0.000000 0.981468
0.994176 0.000000 0.977216
0.000000 0.234730 0.979920
0.207471 0.211161 0.975668
0.477640 0.211143 0.971416
0.748039 0.211313 0.967164
1.000000 0.210000 0.960934
0.000000 0.482808 0.965616
0.229499 0.474414 0.961364
0.488085 0.461716 0.957112
0.766221 0.461886 0.952860
1.000000 0.460000 0.944497
0.010636 0.741513 0.951312
0.251528 0.738649 0.947060
0.508076 0.731685 0.942808
0.775010 0.712458 0.938556
1.000000 0.710000 0.923793
0.022992 1.000000 0.934319
0.270866 1.000000 0.928853
0.527244 1.000000 0.921896
0.783622 1.000000 0.907073
1.000000 1.000000 0.880000
