luts/original/clean-viral.cube
TITLE "Clean Viral"
LUT_3D_SIZE 9
DOMAIN_MIN 0.0 0.0 0.0
DOMAIN_MAX 1.0 1.0 1.0
0.000000 0.000000 0.000000
0.107896 0.000000 0.000000
0.239254 0.000000 0.000000
0.385544 0.000000 0.000000
0.538236 0.000000 0.000000
0.688799 0.000000 0.000000
0.828703 0.000000 0.000000
0.949418 0.000000 0.000000
1.000000 0.000000 0.000000
0.000000 0.106699 0.000000
0.106194 0.106194 0.000000
0.237281 0.105689 0.000000
0.383420 0.105184 0.000000
0.536080 0.104680 0.000000
0.686732 0.104176 0.000000
0.826846 0.103672 0.000000
0.947890 0.103169 0.000000
1.000000 0.102667 0.000000
0.000000 0.236482 0.000000
0.104496 0.235896 0.000000
0.235310 0.235310 0.000000
0.381296 0.234725 0.000000
0.533924 0.234140 0.000000
0.684664 0.233556 0.000000
0.824985 0.232971 0.000000
0.946357 0.232387 0.000000
1.000000 0.231803 0.000000
0.000000 0.381067 0.000000
0.102803 0.380436 0.000000
0.233343 0.379805 0.000000
0.379175 0.379175 0.000000
0.531768 0.378544 0.000000
0.682594 0.377914 0.000000
0.823120 0.377283 0.000000
0.944819 0.376653 0.000000
1.000000 0.376023 0.000000
0.000000 0.532176 0.000000
0.101115 0.531535 0.000000
0.231378 0.530894 0.000000
0.377054 0.530253 0.000000
0.529612 0.529612 0.000000
0.680521 0.528970 0.000000
0.821252 0.528329 0.000000
0.943275 0.527688 0.000000
1.000000 0.527047 0.000000
0.000000 0.681529 0.000000
0.099432 0.680913 0.000000
0.229417 0.680297 0.000000
0.374935 0.679680 0.000000
0.527455 0.679063 0.000000
0.678447 0.678447 0.000000
0.819380 0.677830 0.000000
0.941726 0.677212 0.000000
1.000000 0.676595 0.000000
0.000000 0.820847 0.000000
0.097753 0.820291 0.000000
0.227459 0.819734 0.000000
0.372817 0.819177 0.000000
0.525297 0.818620 0.000000
0.676370 0.818063 0.000000
0.817505 0.817505 0.000000
0.940171 0.816946 0.000000
1.000000 0.816388 0.000000
0.000000 0.941851 0.000000
0.096079 0.941390 0.000000
0.225503 0.940928 0.000000
0.370700 0.940465 0.000000
0.523140 0.940002 0.000000
0.674292 0.939539 0.000000
0.815625 0.939075 0.000000
0.938611 0.938611 0.000000
1.000000 0.938146 0.000000
0.000000 1.000000 0.000000
0.094410 1.000000 0.000000
0.223551 1.000000 0.000000
0.368585 1.000000 0.000000
0.520982 1.000000 0.000000
0.672211 1.000000 0.000000
0.813742 1.000000 0.000000
0.937046 1.000000 0.000000
1.000000 1.000000 0.000000
0.000000 0.000000 0.108231
0.107724 0.000000 0.107724
0.239055 0.000000 0.107218
0.385330 0.000000 0.106712
0.538018 0.000000 0.106206
0.688590 0.000000 0.105701
0.828515 0.000000 0.105196
0.949264 0.000000 0.104692
1.000000 0.000000 0.104188
0.000000 0.106528 0.106528
0.106022 0.106022 0.106022
0.237082 0.105517 0.105517
0.383205 0.105013 0.105013
0.535863 0.104509 0.104509
0.686524 0.104005 0.104005
0.826658 0.103502 0.103502
0.947736 0.102999 0.102999
1.000000 0.102496 0.102496
0.000000 0.236283 0.104829
0.104325 0.235697 0.104325
0.235112 0.235112 0.103822
0.381082 0.234527 0.103318
0.533707 0.233942 0.102816
0.684455 0.233357 0.102313
0.824797 0.232773 0.101811
0.946202 0.232189 0.101310
1.000000 0.231605 0.100809
0.000000 0.380853 0.103135
0.102633 0.380222 0.102633
0.233144 0.379591 0.102131
0.378960 0.378960 0.101629
0.531550 0.378330 0.101127
0.682384 0.377700 0.100626
0.822932 0.377069 0.100126
0.944663 0.376439 0.099626
1.000000 0.375809 0.099126
0.000000 0.531958 0.101446
0.100945 0.531317 0.100945
0.231180 0.530676 0.100444
0.376840 0.530035 0.099944
0.529394 0.529394 0.099444
0.680312 0.528753 0.098944
0.821063 0.528112 0.098445
0.943119 0.527470 0.097947
1.000000 0.526829 0.097448
0.000000 0.681320 0.099762
0.099262 0.680704 0.099262
0.229219 0.680087 0.098763
0.374721 0.679471 0.098264
0.527237 0.678854 0.097765
0.678237 0.678237 0.097267
0.819191 0.677620 0.096769
0.941569 0.677003 0.096272
1.000000 0.676385 0.095775
0.000000 0.820659 0.098082
0.097584 0.820102 0.097584
0.227261 0.819545 0.097086
0.372603 0.818988 0.096588
0.525080 0.818431 0.096091
0.676160 0.817873 0.095595
0.817315 0.817315 0.095098
0.940014 0.816757 0.094603
1.000000 0.816198 0.094107
0.000000 0.941694 0.096407
0.095910 0.941233 0.095910
0.225306 0.940771 0.095414
0.370487 0.940308 0.094918
0.522922 0.939845 0.094422
0.674082 0.939382 0.093927
0.815435 0.938918 0.093432
0.938453 0.938453 0.092938
1.000000 0.937988 0.092444
0.000000 1.000000 0.094737
0.094242 1.000000 0.094242
0.223354 1.000000 0.093747
0.368372 1.000000 0.093252
0.520764 1.000000 0.092758
0.672001 1.000000 0.092264
0.813552 1.000000 0.091771
0.936887 1.000000 0.091278
1.000000 1.000000 0.090785
0.000000 0.000000 0.240030
0.107552 0.000000 0.239443
0.238856 0.000000 0.238856
0.385115 0.000000 0.238269
0.537801 0.000000 0.237682
0.688382 0.000000 0.237096
0.828328 0.000000 0.236510
0.949110 0.000000 0.235924
1.000000 0.000000 0.235339
0.000000 0.106356 0.238055
0.105851 0.105851 0.237469
0.236883 0.105346 0.236883
0.382991 0.104841 0.236297
0.535645 0.104337 0.235711
0.686315 0.103834 0.235126
0.826470 0.103331 0.234541
0.947581 0.102828 0.233956
1.000000 0.102326 0.233371
0.000000 0.236084 0.236084
0.104154 0.235498 0.235498
0.234913 0.234913 0.234913
0.380868 0.234328 0.234328
0.533489 0.233743 0.233743
0.684246 0.233159 0.233159
0.824609 0.232575 0.232575
0.946047 0.231991 0.231991
1.000000 0.231407 0.231407
0.000000 0.380638 0.234115
0.102462 0.380007 0.233530
0.232946 0.379377 0.232946
0.378746 0.378746 0.232362
0.531333 0.378116 0.231778
0.682175 0.377486 0.231195
0.822744 0.376855 0.230611
0.944508 0.376225 0.230028
1.000000 0.375595 0.229446
0.000000 0.531740 0.232149
0.100775 0.531099 0.231566
0.230982 0.530458 0.230982
0.376626 0.529817 0.230399
0.529176 0.529176 0.229816
0.680102 0.528535 0.229233
0.820875 0.527894 0.228651
0.942963 0.527253 0.228069
1.000000 0.526611 0.227487
0.000000 0.681111 0.230187
0.099092 0.680494 0.229604
0.229021 0.679878 0.229021
0.374507 0.679261 0.228439
0.527019 0.678644 0.227857
0.678027 0.678027 0.227275
0.819002 0.677410 0.226694
0.941412 0.676793 0.226113
1.000000 0.676175 0.225532
0.000000 0.820470 0.228227
0.097415 0.819913 0.227645
0.227064 0.819356 0.227064
0.372389 0.818799 0.226482
0.524862 0.818242 0.225901
0.675951 0.817684 0.225320
0.817126 0.817126 0.224740
0.939856 0.816567 0.224160
1.000000 0.816008 0.223580
0.000000 0.941538 0.226271
0.095742 0.941076 0.225690
0.225109 0.940614 0.225109
0.370273 0.940151 0.224529
0.522704 0.939688 0.223949
0.673872 0.939224 0.223369
0.815245 0.938760 0.222789
0.938295 0.938295 0.222210
1.000000 0.937830 0.221631
0.000000 1.000000 0.224317
0.094074 1.000000 0.223737
0.223158 1.000000 0.223158
0.368159 1.000000 0.222578
0.520546 1.000000 0.221999
0.671791 1.000000 0.221420
0.813362 1.000000 0.220841
0.936729 1.000000 0.220263
1.000000 1.000000 0.219685
0.000000 0.000000 0.386796
0.107380 0.000000 0.386164
0.238656 0.000000 0.385532
0.384901 0.000000 0.384901
0.537583 0.000000 0.384269
0.688173 0.000000 0.383638
0.828141 0.000000 0.383006
0.948956 0.000000 0.382375
1.000000 0.000000 0.381744
0.000000 0.106184 0.384671
0.105679 0.105679 0.384039
0.236684 0.105175 0.383408
0.382777 0.104670 0.382777
0.535427 0.104166 0.382145
0.686106 0.103663 0.381514
0.826283 0.103160 0.380883
0.947427 0.102657 0.380253
1.000000 0.102155 0.379622
0.000000 0.235885 0.382547
0.103983 0.235299 0.381916
0.234714 0.234714 0.381285
0.380654 0.234129 0.380654
0.533271 0.233545 0.380023
0.684037 0.232960 0.379392
0.824421 0.232376 0.378762
0.945892 0.231792 0.378131
1.000000 0.231209 0.377501
0.000000 0.380424 0.380424
0.102292 0.379793 0.379793
0.232748 0.379163 0.379163
0.378532 0.378532 0.378532
0.531115 0.377902 0.377902
0.681966 0.377272 0.377272
0.822555 0.376641 0.376641
0.944352 0.376011 0.376011
1.000000 0.375381 0.375381
0.000000 0.531523 0.378303
0.100605 0.530882 0.377672
0.230784 0.530241 0.377042
0.376412 0.529599 0.376412
0.528958 0.528958 0.375782
0.679893 0.528317 0.375152
0.820686 0.527676 0.374522
0.942806 0.527035 0.373893
1.000000 0.526394 0.373263
0.000000 0.680901 0.376183
0.098923 0.680285 0.375553
0.228824 0.679669 0.374923
0.374293 0.679052 0.374293
0.526801 0.678435 0.373664
0.677818 0.677818 0.373034
0.818813 0.677201 0.372405
0.941255 0.676583 0.371776
1.000000 0.675966 0.371147
0.000000 0.820281 0.374064
0.097246 0.819724 0.373434
0.226866 0.819167 0.372805
0.372176 0.818610 0.372176
0.524644 0.818052 0.371547
0.675741 0.817494 0.370918
0.816936 0.816936 0.370289
0.939699 0.816377 0.369660
1.000000 0.815818 0.369031
0.000000 0.941381 0.371947
0.095573 0.940919 0.371318
0.224912 0.940457 0.370689
0.370060 0.939994 0.370060
0.522486 0.939530 0.369431
0.673662 0.939067 0.368802
0.815055 0.938602 0.368174
0.938138 0.938138 0.367546
1.000000 0.937672 0.366917
0.000000 1.000000 0.369831
0.093905 1.000000 0.369202
0.222961 1.000000 0.368574
0.367945 1.000000 0.367945
0.520329 1.000000 0.367317
0.671581 1.000000 0.366689
0.813171 1.000000 0.366061
0.936571 1.000000 0.365433
1.000000 1.000000 0.364805
0.000000 0.000000 0.539928
0.107208 0.000000 0.539287
0.238457 0.000000 0.538647
0.384686 0.000000 0.538006
0.537365 0.000000 0.537365
0.687965 0.000000 0.536725
0.827953 0.000000 0.536084
0.948802 0.000000 0.535443
1.000000 0.000000 0.534802
0.000000 0.106013 0.537773
0.105508 0.105508 0.537132
0.236485 0.105003 0.536491
0.382562 0.104499 0.535851
0.535210 0.103995 0.535210
0.685897 0.103492 0.534569
0.826095 0.102989 0.533928
0.947272 0.102487 0.533287
1.000000 0.101985 0.532646
0.000000 0.235686 0.535617
0.103812 0.235101 0.534976
0.234516 0.234516 0.534336
0.380439 0.233931 0.533695
0.533054 0.233346 0.533054
0.683828 0.232762 0.532413
0.824233 0.232178 0.531772
0.945737 0.231594 0.531131
1.000000 0.231011 0.530490
0.000000 0.380210 0.533461
0.102121 0.379579 0.532820
0.232549 0.378949 0.532179
0.378318 0.378318 0.531538
0.530897 0.377688 0.530897
0.681757 0.377058 0.530256
0.822367 0.376427 0.529615
0.944196 0.375797 0.528974
1.000000 0.375168 0.528333
0.000000 0.531305 0.531305
0.100435 0.530664 0.530664
0.230586 0.530023 0.530023
0.376198 0.529382 0.529382
0.528741 0.528741 0.528741
0.679684 0.528099 0.528099
0.820497 0.527458 0.527458
0.942650 0.526817 0.526817
1.000000 0.526176 0.526176
0.000000 0.680692 0.529148
0.098753 0.680076 0.528507
0.228626 0.679459 0.527866
0.374079 0.678842 0.527225
0.526584 0.678225 0.526584
0.677608 0.677608 0.525942
0.818623 0.676991 0.525301
0.941099 0.676374 0.524660
1.000000 0.675756 0.524018
0.000000 0.820092 0.526991
0.097076 0.819535 0.526350
0.226669 0.818978 0.525709
0.371962 0.818420 0.525068
0.524426 0.817863 0.524426
0.675531 0.817305 0.523785
0.816746 0.816746 0.523144
0.939542 0.816188 0.522502
1.000000 0.815629 0.521861
0.000000 0.941224 0.524834
0.095405 0.940762 0.524193
0.224715 0.940299 0.523551
0.369846 0.939836 0.522910
0.522269 0.939373 0.522269
0.673452 0.938909 0.521627
0.814865 0.938445 0.520986
0.937980 0.937980 0.520344
1.000000 0.937514 0.519703
0.000000 1.000000 0.522677
0.093737 1.000000 0.522035
0.222764 1.000000 0.521394
0.367732 1.000000 0.520752
0.520111 1.000000 0.520111
0.671371 1.000000 0.519469
0.812981 1.000000 0.518828
0.936412 1.000000 0.518186
1.000000 1.000000 0.517545
0.000000 0.000000 0.690825
0.107036 0.000000 0.690211
0.238258 0.000000 0.689598
0.384472 0.000000 0.688984
0.537148 0.000000 0.688370
0.687756 0.000000 0.687756
0.827766 0.000000 0.687142
0.948647 0.000000 0.686527
1.000000 0.000000 0.685912
0.000000 0.105841 0.688761
0.105336 0.105336 0.688147
0.236286 0.104832 0.687532
0.382348 0.104328 0.686918
0.534992 0.103824 0.686303
0.685689 0.103321 0.685689
0.825907 0.102818 0.685074
0.947117 0.102316 0.684459
1.000000 0.101814 0.683843
0.000000 0.235487 0.686694
0.103641 0.234902 0.686080
0.234317 0.234317 0.685465
0.380225 0.233732 0.684850
0.532836 0.233148 0.684235
0.683619 0.232564 0.683619
0.824044 0.231980 0.683004
0.945581 0.231396 0.682388
1.000000 0.230813 0.681772
0.000000 0.379996 0.684626
0.101951 0.379365 0.684011
0.232351 0.378734 0.683395
0.378104 0.378104 0.682779
0.530680 0.377474 0.682164
0.681548 0.376844 0.681548
0.822178 0.376213 0.680932
0.944040 0.375584 0.680315
1.000000 0.374954 0.679699
0.000000 0.531087 0.682555
0.100265 0.530446 0.681939
0.230388 0.529805 0.681323
0.375984 0.529164 0.680707
0.528523 0.528523 0.680091
0.679474 0.527882 0.679474
0.820308 0.527240 0.678857
0.942494 0.526599 0.678241
1.000000 0.525958 0.677623
0.000000 0.680483 0.680483
0.098584 0.679866 0.679866
0.228428 0.679250 0.679250
0.373866 0.678633 0.678633
0.526366 0.678016 0.678016
0.677399 0.677399 0.677399
0.818434 0.676781 0.676781
0.940942 0.676164 0.676164
1.000000 0.675546 0.675546
0.000000 0.819903 0.678408
0.096907 0.819346 0.677791
0.226471 0.818789 0.677174
0.371748 0.818231 0.676557
0.524208 0.817673 0.675939
0.675321 0.817115 0.675321
0.816557 0.816557 0.674703
0.939384 0.815998 0.674085
1.000000 0.815439 0.673467
0.000000 0.941067 0.676332
0.095236 0.940605 0.675714
0.224518 0.940142 0.675096
0.369633 0.939679 0.674478
0.522051 0.939215 0.673860
0.673242 0.938751 0.673242
0.814675 0.938287 0.672623
0.937822 0.937822 0.672005
1.000000 0.937356 0.671386
0.000000 1.000000 0.674253
0.093569 1.000000 0.673635
0.222567 1.000000 0.673017
0.367518 1.000000 0.672398
0.519893 1.000000 0.671779
0.671160 1.000000 0.671160
0.812791 1.000000 0.670541
0.936254 1.000000 0.669922
1.000000 1.000000 0.669303
0.000000 0.000000 0.830885
0.106865 0.000000 0.830335
0.238059 0.000000 0.829784
0.384257 0.000000 0.829233
0.536930 0.000000 0.828682
0.687547 0.000000 0.828130
0.827578 0.000000 0.827578
0.948493 0.000000 0.827026
1.000000 0.000000 0.826473
0.000000 0.105670 0.829033
0.105165 0.105165 0.828481
0.236087 0.104661 0.827929
0.382134 0.104157 0.827377
0.534775 0.103653 0.826825
0.685480 0.103150 0.826272
0.825719 0.102648 0.825719
0.946962 0.102146 0.825166
1.000000 0.101644 0.824612
0.000000 0.235288 0.827176
0.103470 0.234703 0.826624
0.234118 0.234118 0.826071
0.380011 0.233534 0.825518
0.532618 0.232949 0.824964
0.683410 0.232365 0.824410
0.823856 0.231781 0.823856
0.945426 0.231198 0.823302
1.000000 0.230615 0.822747
0.000000 0.379781 0.825316
0.101780 0.379151 0.824763
0.232153 0.378520 0.824209
0.377890 0.377890 0.823654
0.530462 0.377260 0.823100
0.681338 0.376630 0.822545
0.821989 0.376000 0.821989
0.943884 0.375370 0.821434
1.000000 0.374740 0.820878
0.000000 0.530870 0.823452
0.100095 0.530229 0.822898
0.230190 0.529587 0.822343
0.375770 0.528946 0.821787
0.528305 0.528305 0.821231
0.679265 0.527664 0.820675
0.820119 0.527023 0.820119
0.942337 0.526381 0.819562
1.000000 0.525740 0.819005
0.000000 0.680273 0.821585
0.098414 0.679657 0.821029
0.228230 0.679040 0.820473
0.373652 0.678423 0.819916
0.526148 0.677806 0.819359
0.677189 0.677189 0.818802
0.818245 0.676572 0.818245
0.940785 0.675954 0.817687
1.000000 0.675336 0.817129
0.000000 0.819714 0.819714
0.096739 0.819157 0.819157
0.226274 0.818599 0.818599
0.371535 0.818042 0.818042
0.523991 0.817484 0.817484
0.675111 0.816925 0.816925
0.816367 0.816367 0.816367
0.939227 0.815808 0.815808
1.000000 0.815249 0.815249
0.000000 0.940910 0.817839
0.095068 0.940448 0.817280
0.224321 0.939985 0.816722
0.369419 0.939522 0.816163
0.521833 0.939058 0.815604
0.673032 0.938594 0.815045
0.814485 0.938129 0.814485
0.937664 0.937664 0.813925
1.000000 0.937198 0.813365
0.000000 1.000000 0.815960
0.093401 1.000000 0.815401
0.222371 1.000000 0.814841
0.367305 1.000000 0.814281
0.519675 1.000000 0.813721
0.670950 1.000000 0.813161
0.812600 1.000000 0.812600
0.936095 1.000000 0.812039
1.000000 1.000000 0.811478
0.000000 0.000000 0.951508
0.106693 0.000000 0.951057
0.237859 0.000000 0.950605
0.384043 0.000000 0.950153
0.536713 0.000000 0.949700
0.687339 0.000000 0.949247
0.827391 0.000000 0.948793
0.948339 0.000000 0.948339
1.000000 0.000000 0.947884
0.000000 0.105498 0.949988
0.104994 0.104994 0.949535
0.235888 0.104490 0.949082
0.381919 0.103986 0.948628
0.534557 0.103483 0.948174
0.685271 0.102980 0.947719
0.825531 0.102477 0.947263
0.946808 0.101975 0.946808
1.000000 0.101474 0.946351
0.000000 0.235090 0.948462
0.103299 0.234505 0.948008
0.233920 0.233920 0.947553
0.379797 0.233335 0.947097
0.532401 0.232751 0.946642
0.683201 0.232167 0.946185
0.823668 0.231583 0.945728
0.945271 0.231000 0.945271
1.000000 0.230417 0.944813
0.000000 0.379567 0.946932
0.101610 0.378937 0.946475
0.231954 0.378306 0.946019
0.377676 0.377676 0.945562
0.530244 0.377046 0.945104
0.681129 0.376416 0.944646
0.821801 0.375786 0.944187
0.943728 0.375156 0.943728
1.000000 0.374526 0.943269
0.000000 0.530652 0.945395
0.099925 0.530011 0.944937
0.229992 0.529370 0.944479
0.375556 0.528729 0.944020
0.528087 0.528087 0.943561
0.679055 0.527446 0.943102
0.819930 0.526805 0.942641
0.942181 0.526164 0.942181
1.000000 0.525522 0.941720
0.000000 0.680064 0.943853
0.098245 0.679448 0.943394
0.228033 0.678831 0.942934
0.373438 0.678214 0.942474
0.525930 0.677597 0.942013
0.676979 0.676979 0.941552
0.818055 0.676362 0.941090
0.940628 0.675744 0.940628
1.000000 0.675126 0.940165
0.000000 0.819524 0.942306
0.096570 0.818967 0.941845
0.226077 0.818410 0.941384
0.371321 0.817852 0.940922
0.523773 0.817294 0.940459
0.674901 0.816736 0.939996
0.816177 0.816177 0.939533
0.939069 0.815618 0.939069
1.000000 0.815059 0.938605
0.000000 0.940753 0.940753
0.094899 0.940291 0.940291
0.224124 0.939828 0.939828
0.369206 0.939364 0.939364
0.521615 0.938900 0.938900
0.672822 0.938436 0.938436
0.814295 0.937971 0.937971
0.937505 0.937505 0.937505
1.000000 0.937040 0.937040
0.000000 1.000000 0.939195
0.093233 1.000000 0.938731
0.222174 1.000000 0.938267
0.367092 1.000000 0.937801
0.519457 1.000000 0.937336
0.670740 1.000000 0.936870
0.812410 1.000000 0.936403
0.935936 1.000000 0.935936
1.000000 1.000000 0.935469
0.000000 0.000000 1.000000
0.106521 0.000000 1.000000
0.237660 0.000000 1.000000
0.383828 0.000000 1.000000
0.536495 0.000000 1.000000
0.687130 0.000000 1.000000
0.827203 0.000000 1.000000
0.948185 0.000000 1.000000
1.000000 0.000000 1.000000
0.000000 0.105327 1.000000
0.104823 0.104823 1.000000
0.235689 0.104319 1.000000
0.381705 0.103815 1.000000
0.534339 0.103312 1.000000
0.685062 0.102809 1.000000
0.825343 0.102307 1.000000
0.946653 0.101805 1.000000
1.000000 0.101303 1.000000
0.000000 0.234891 1.000000
0.103129 0.234306 1.000000
0.233721 0.233721 1.000000
0.379583 0.233137 1.000000
0.532183 0.232553 1.000000
0.682992 0.231969 1.000000
0.823480 0.231385 1.000000
0.945115 0.230802 1.000000
1.000000 0.230219 1.000000
0.000000 0.379353 1.000000
0.101440 0.378723 1.000000
0.231756 0.378092 1.000000
0.377462 0.377462 1.000000
0.530027 0.376832 1.000000
0.680920 0.376202 1.000000
0.821612 0.375572 1.000000
0.943572 0.374942 1.000000
1.000000 0.374312 1.000000
0.000000 0.530434 1.000000
0.099755 0.529793 1.000000
0.229794 0.529152 1.000000
0.375342 0.528511 1.000000
0.527870 0.527870 1.000000
0.678846 0.527228 1.000000
0.819741 0.526587 1.000000
0.942024 0.525946 1.000000
1.000000 0.525305 1.000000
0.000000 0.679855 1.000000
0.098076 0.679238 1.000000
0.227835 0.678621 1.000000
0.373224 0.678004 1.000000
0.525712 0.677387 1.000000
0.676770 0.676770 1.000000
0.817866 0.676152 1.000000
0.940471 0.675534 1.000000
1.000000 0.674917 1.000000
0.000000 0.819335 1.000000
0.096401 0.818778 1.000000
0.225879 0.818221 1.000000
0.371108 0.817663 1.000000
0.523555 0.817105 1.000000
0.674692 0.816546 1.000000
0.815987 0.815987 1.000000
0.938912 0.815428 1.000000
1.000000 0.814869 1.000000
0.000000 0.940596 1.000000
0.094731 0.940134 1.000000
0.223927 0.939670 1.000000
0.368992 0.939207 1.000000
0.521397 0.938743 1.000000
0.672612 0.938278 1.000000
0.814105 0.937813 1.000000
0.937347 0.937347 1.000000
1.000000 0.936881 1.000000
0.000000 1.000000 1.000000
0.093066 1.000000 1.000000
0.221977 1.000000 1.000000
0.366878 1.000000 1.000000
0.519239 1.000000 1.000000
0.670530 1.000000 1.000000
0.812219 1.000000 1.000000
0.935778 1.000000 1.000000
1.000000 1.000000 1.000000
