luts/original/clean-bright.cube
TITLE "Clean Bright"
LUT_3D_SIZE 9
DOMAIN_MIN 0.0 0.0 0.0
DOMAIN_MAX 1.0 1.0 1.0
0.015713 0.007770 0.007770
0.144074 0.006070 0.006070
0.272327 0.003050 0.003050
0.400472 0.000000 0.000000
0.528509 0.000000 0.000000
0.656439 0.000000 0.000000
0.784260 0.000000 0.000000
0.911973 0.000000 0.000000
1.000000 0.000000 0.000000
0.015187 0.134772 0.005951
0.143110 0.133889 0.005164
0.271182 0.131121 0.001973
0.399145 0.128883 0.000000
0.527001 0.128245 0.000000
0.654748 0.127834 0.000000
0.782388 0.127539 0.000000
0.909920 0.127311 0.000000
1.000000 0.127220 0.000000
0.013067 0.260467 0.002152
0.141893 0.260127 0.001832
0.270036 0.259128 0.000896
0.397818 0.256926 0.000000
0.525492 0.255765 0.000000
0.653058 0.255013 0.000000
0.780516 0.254470 0.000000
0.907867 0.254048 0.000000
1.000000 0.253863 0.000000
0.012451 0.385800 0.000000
0.140898 0.385405 0.000000
0.269083 0.385011 0.000000
0.396491 0.384129 0.000000
0.523984 0.382560 0.000000
0.651368 0.381537 0.000000
0.778645 0.380793 0.000000
0.905813 0.380212 0.000000
1.000000 0.379932 0.000000
0.013931 0.510769 0.000000
0.141493 0.510320 0.000000
0.268831 0.509872 0.000000
0.395944 0.509423 0.000000
0.522475 0.508630 0.000000
0.649678 0.507405 0.000000
0.776773 0.506508 0.000000
0.903760 0.505801 0.000000
1.000000 0.505431 0.000000
0.015457 0.635375 0.000000
0.142415 0.634872 0.000000
0.269173 0.634370 0.000000
0.395729 0.633867 0.000000
0.522085 0.633365 0.000000
0.647988 0.632619 0.000000
0.774901 0.631616 0.000000
0.901706 0.630818 0.000000
1.000000 0.630364 0.000000
0.017006 0.759618 0.000000
0.143502 0.759061 0.000000
0.269812 0.758505 0.000000
0.395936 0.757948 0.000000
0.521875 0.757392 0.000000
0.647629 0.756836 0.000000
0.773029 0.756116 0.000000
0.899653 0.755261 0.000000
1.000000 0.754736 0.000000
0.018569 0.883497 0.000000
0.144682 0.882887 0.000000
0.270620 0.882276 0.000000
0.396384 0.881666 0.000000
0.521974 0.881056 0.000000
0.647389 0.880445 0.000000
0.772630 0.879835 0.000000
0.897599 0.879130 0.000000
1.000000 0.878549 0.000000
0.020141 1.000000 0.000000
0.145927 1.000000 0.000000
0.271544 1.000000 0.000000
0.396993 1.000000 0.000000
0.522275 1.000000 0.000000
0.647390 1.000000 0.000000
0.772338 1.000000 0.000000
0.897120 1.000000 0.000000
1.000000 1.000000 0.000000
0.016562 0.007298 0.127029
0.143992 0.005993 0.125536
0.272230 0.002959 0.121217
0.400360 0.000000 0.116710
0.528382 0.000000 0.114505
0.656295 0.000000 0.112507
0.784101 0.000000 0.110616
0.911799 0.000000 0.108787
1.000000 0.000000 0.107088
0.014499 0.134690 0.125338
0.143028 0.132245 0.121462
0.271084 0.127967 0.116632
0.399033 0.123377 0.110481
0.526873 0.117564 0.103011
0.654605 0.110461 0.094219
0.782229 0.102050 0.084108
0.909746 0.092326 0.072677
1.000000 0.083628 0.062260
0.012310 0.260370 0.119881
0.139277 0.260030 0.116490
0.269939 0.258612 0.115555
0.397706 0.253470 0.109234
0.525364 0.247699 0.101592
0.652915 0.240820 0.092631
0.780358 0.232713 0.082349
0.907692 0.223335 0.070746
1.000000 0.214912 0.060025
0.008561 0.385687 0.113164
0.135261 0.385293 0.109441
0.266347 0.384898 0.109070
0.396379 0.383494 0.107987
0.523856 0.377780 0.100174
0.651225 0.371133 0.091042
0.778486 0.363335 0.080589
0.905639 0.354305 0.068816
1.000000 0.346153 0.057790
0.003252 0.510641 0.104951
0.129943 0.510192 0.100831
0.261112 0.509744 0.100409
0.392264 0.509295 0.099988
0.522347 0.507806 0.098756
0.649534 0.501399 0.089453
0.776614 0.493914 0.078830
0.903586 0.485236 0.066886
1.000000 0.477352 0.055555
0.000000 0.635231 0.098312
0.123137 0.634729 0.090661
0.254613 0.634227 0.090189
0.386074 0.633724 0.089716
0.517521 0.633222 0.089244
0.647844 0.631618 0.087864
0.774742 0.624451 0.077070
0.901532 0.616128 0.064956
1.000000 0.608508 0.053320
0.000000 0.759459 0.094552
0.114801 0.758902 0.078931
0.246677 0.758346 0.078408
0.378540 0.757790 0.077885
0.510390 0.757233 0.077362
0.642226 0.756677 0.076839
0.772870 0.754946 0.075311
0.899479 0.746981 0.063026
1.000000 0.739622 0.051085
0.000000 0.883323 0.090904
0.104920 0.882713 0.065641
0.237244 0.882102 0.065067
0.369556 0.881492 0.064493
0.501856 0.880882 0.063919
0.634144 0.880271 0.063345
0.766420 0.879661 0.062772
0.897425 0.877795 0.061095
1.000000 0.870694 0.048850
0.000000 1.000000 0.087343
0.093860 1.000000 0.051160
0.226625 1.000000 0.050495
0.359378 1.000000 0.049831
0.492118 1.000000 0.049167
0.624846 1.000000 0.048502
0.757561 1.000000 0.047838
0.890263 1.000000 0.047174
1.000000 1.000000 0.046615
0.015650 0.004720 0.252295
0.144570 0.004400 0.251955
0.272114 0.002850 0.250279
0.400226 0.000000 0.245899
0.528229 0.000000 0.243015
0.656125 0.000000 0.240580
0.783912 0.000000 0.238376
0.911592 0.000000 0.236306
1.000000 0.000000 0.234519
0.013893 0.132522 0.251150
0.140047 0.128323 0.250809
0.270969 0.126773 0.248001
0.398899 0.122230 0.241108
0.526721 0.116367 0.233676
0.654435 0.109184 0.225142
0.782040 0.100681 0.215379
0.909539 0.090857 0.204342
1.000000 0.082035 0.194378
0.012202 0.260254 0.249282
0.136882 0.259914 0.248086
0.269823 0.255135 0.240446
0.397572 0.247766 0.234108
0.525212 0.241450 0.226449
0.652744 0.234042 0.217470
0.780169 0.225384 0.207171
0.907485 0.215436 0.195552
1.000000 0.206389 0.184800
0.008435 0.385553 0.242963
0.133065 0.385159 0.239477
0.261541 0.384764 0.233944
0.396245 0.382596 0.232861
0.523703 0.374367 0.225031
0.651054 0.366461 0.215881
0.778297 0.357737 0.205412
0.905432 0.347912 0.193621
1.000000 0.339051 0.182565
0.003109 0.510489 0.235244
0.127688 0.510040 0.230680
0.255351 0.509592 0.225266
0.389555 0.509143 0.224845
0.522195 0.507206 0.223613
0.649364 0.498819 0.214293
0.776425 0.490039 0.203652
0.903378 0.480341 0.191691
1.000000 0.471655 0.180330
0.000000 0.635061 0.228492
0.120751 0.634558 0.220624
0.248205 0.634056 0.215028
0.381867 0.633554 0.214556
0.515509 0.633051 0.214084
0.647674 0.631116 0.212704
0.774553 0.622288 0.201893
0.901325 0.612725 0.189761
1.000000 0.604201 0.178095
0.000000 0.759270 0.223985
0.112253 0.758713 0.209122
0.239667 0.758157 0.203230
0.373310 0.757601 0.202707
0.506938 0.757044 0.202184
0.640549 0.756488 0.201661
0.772681 0.754485 0.200133
0.899271 0.745062 0.187831
1.000000 0.736690 0.175860
0.000000 0.883116 0.219757
0.102196 0.882505 0.196114
0.229639 0.881895 0.189872
0.363484 0.881285 0.189298
0.497314 0.880674 0.188724
0.631131 0.880064 0.188151
0.764933 0.879453 0.187577
0.897218 0.877352 0.185901
1.000000 0.869122 0.173625
0.000000 1.000000 0.215738
0.090934 1.000000 0.181941
0.218408 1.000000 0.175270
0.352540 1.000000 0.174605
0.486655 1.000000 0.173941
0.620753 1.000000 0.173277
0.754833 1.000000 0.172612
0.888898 1.000000 0.171948
1.000000 1.000000 0.171390
0.013525 0.000889 0.377525
0.142902 0.000518 0.377131
0.272263 0.000148 0.376736
0.400092 0.000000 0.375003
0.528077 0.000000 0.371452
0.655954 0.000000 0.368587
0.783723 0.000000 0.366075
0.911385 0.000000 0.363768
1.000000 0.000000 0.361892
0.011517 0.128852 0.376198
0.137312 0.124271 0.375804
0.269213 0.123900 0.375409
0.398765 0.122104 0.372824
0.526568 0.116224 0.365444
0.654264 0.109024 0.357219
0.781852 0.100503 0.347873
0.909331 0.090662 0.337310
1.000000 0.081809 0.327890
0.010269 0.257561 0.374871
0.134899 0.254688 0.374477
0.262062 0.247653 0.374082
0.397438 0.245857 0.369631
0.525060 0.239806 0.359766
0.652574 0.232435 0.350288
0.779980 0.223743 0.339967
0.907278 0.213732 0.328524
1.000000 0.204574 0.318141
0.008310 0.385419 0.372756
0.132939 0.385025 0.371936
0.257568 0.384630 0.370100
0.396111 0.376923 0.357735
0.523551 0.366014 0.349888
0.650883 0.357909 0.340721
0.778108 0.348881 0.330234
0.905224 0.338655 0.318427
1.000000 0.329236 0.307339
0.002966 0.510336 0.365532
0.127545 0.509888 0.362874
0.252123 0.509439 0.357816
0.382436 0.508991 0.349701
0.522042 0.505928 0.348470
0.649193 0.494163 0.339132
0.776236 0.483942 0.328474
0.903171 0.473277 0.316496
1.000000 0.463807 0.305104
0.000000 0.634890 0.358601
0.120590 0.634388 0.352994
0.245118 0.633885 0.346786
0.373921 0.633383 0.339396
0.511793 0.632880 0.338923
0.647503 0.630329 0.337543
0.774364 0.618936 0.326715
0.901118 0.607842 0.314566
1.000000 0.598296 0.302869
0.000000 0.759081 0.353354
0.112076 0.758525 0.341835
0.236553 0.757968 0.334811
0.364891 0.757412 0.327530
0.501421 0.756855 0.327006
0.637930 0.756299 0.326483
0.772492 0.753861 0.324955
0.899064 0.742350 0.312636
1.000000 0.732702 0.300634
0.000000 0.882909 0.348548
0.102001 0.882298 0.329252
0.226427 0.881688 0.321510
0.354592 0.881077 0.314103
0.490689 0.880467 0.313530
0.626768 0.879857 0.312956
0.762830 0.879246 0.312382
0.897011 0.876800 0.310706
1.000000 0.867028 0.298399
0.000000 1.000000 0.344074
0.090709 1.000000 0.315544
0.215044 1.000000 0.307079
0.343126 1.000000 0.299380
0.479153 1.000000 0.298715
0.615156 1.000000 0.298051
0.751135 1.000000 0.297387
0.887089 1.000000 0.296722
1.000000 1.000000 0.296164
0.014176 0.000000 0.502718
0.143264 0.000000 0.502270
0.272118 0.000000 0.501822
0.400739 0.000000 0.501373
0.527925 0.000000 0.499815
0.655783 0.000000 0.496528
0.783534 0.000000 0.493713
0.911177 0.000000 0.491173
1.000000 0.000000 0.489206
0.007887 0.124026 0.501210
0.133609 0.118966 0.500761
0.265323 0.118544 0.500313
0.397018 0.118123 0.499864
0.526416 0.116081 0.497205
0.654093 0.108863 0.489291
0.781663 0.100325 0.480364
0.909124 0.090467 0.470274
1.000000 0.081584 0.461397
0.006469 0.253085 0.499701
0.131048 0.248881 0.499253
0.257381 0.242126 0.498804
0.392909 0.241704 0.498356
0.524907 0.239663 0.494686
0.652403 0.232274 0.484620
0.779791 0.223566 0.474276
0.907071 0.213537 0.463048
1.000000 0.204349 0.453107
0.005051 0.382095 0.498193
0.129629 0.379939 0.497744
0.254208 0.375752 0.497296
0.382607 0.365286 0.496847
0.523399 0.363245 0.490425
0.650713 0.355686 0.477189
0.777919 0.346806 0.465520
0.905017 0.336607 0.453335
1.000000 0.327114 0.442393
0.002823 0.510184 0.495815
0.127401 0.509735 0.495062
0.251980 0.509287 0.493978
0.376558 0.508839 0.491380
0.521890 0.497608 0.473327
0.649023 0.482709 0.463972
0.776047 0.472754 0.453297
0.902964 0.462082 0.441301
1.000000 0.452231 0.429879
0.000000 0.634720 0.488640
0.120430 0.634217 0.485358
0.244957 0.633715 0.481793
0.369485 0.633212 0.474898
0.501964 0.632710 0.463763
0.647332 0.628607 0.462383
0.774175 0.612856 0.451537
0.900910 0.600142 0.439371
1.000000 0.589624 0.427644
0.000000 0.758892 0.482658
0.111898 0.758336 0.474543
0.236375 0.757779 0.469567
0.360852 0.757223 0.461479
0.490971 0.756666 0.451829
0.633061 0.756110 0.451306
0.772304 0.752862 0.449778
0.898857 0.738129 0.437441
1.000000 0.726890 0.425409
0.000000 0.882701 0.477279
0.101806 0.882091 0.462386
0.226232 0.881480 0.456360
0.350658 0.880870 0.447512
0.480001 0.880260 0.438335
0.619776 0.879649 0.437761
0.759528 0.879039 0.437187
0.896803 0.876041 0.435511
1.000000 0.864030 0.423174
0.000000 1.000000 0.472351
0.090483 1.000000 0.449143
0.214819 1.000000 0.442194
0.339154 1.000000 0.432642
0.468136 1.000000 0.423490
0.606968 1.000000 0.422825
0.745762 1.000000 0.422161
0.884520 1.000000 0.421497
1.000000 1.000000 0.420939
0.015720 0.000000 0.627875
0.144319 0.000000 0.627373
0.272710 0.000000 0.626870
0.400893 0.000000 0.626368
0.528869 0.000000 0.625865
0.655613 0.000000 0.624402
0.783345 0.000000 0.621289
0.910970 0.000000 0.618519
1.000000 0.000000 0.616462
0.003004 0.117982 0.626185
0.128715 0.112407 0.625682
0.260630 0.111935 0.625180
0.392529 0.111462 0.624677
0.524412 0.110990 0.624175
0.653923 0.108703 0.621358
0.781474 0.100148 0.612850
0.908917 0.090272 0.603234
1.000000 0.081358 0.594899
0.001416 0.247428 0.624495
0.125943 0.242278 0.623992
0.252064 0.235346 0.623490
0.386533 0.234874 0.622987
0.520981 0.234401 0.622485
0.652232 0.232114 0.618945
0.779602 0.223388 0.608580
0.906863 0.213342 0.597567
1.000000 0.204123 0.588068
0.000000 0.376899 0.622804
0.124354 0.373328 0.622302
0.248882 0.367586 0.621799
0.375857 0.358285 0.621297
0.515657 0.357813 0.620795
0.650542 0.355525 0.615864
0.777730 0.346629 0.602792
0.904810 0.336412 0.590162
1.000000 0.326888 0.579396
0.000000 0.506507 0.621114
0.122766 0.504323 0.620612
0.247293 0.501437 0.620109
0.371821 0.495714 0.619607
0.501683 0.481224 0.619104
0.648852 0.478936 0.610384
0.775858 0.469869 0.593379
0.902756 0.459482 0.579371
1.000000 0.449653 0.567501
0.000000 0.634549 0.618608
0.120269 0.634046 0.617717
0.244797 0.633544 0.616792
0.369325 0.633042 0.615409
0.493852 0.632539 0.611926
0.647162 0.617192 0.587223
0.773986 0.597852 0.576360
0.900703 0.585984 0.564176
1.000000 0.575514 0.552418
0.000000 0.758703 0.611897
0.111720 0.758147 0.607247
0.236197 0.757590 0.604318
0.360674 0.757034 0.599718
0.485151 0.756477 0.590723
0.620123 0.755921 0.576128
0.772115 0.750636 0.574600
0.898650 0.730448 0.562246
1.000000 0.717501 0.550183
0.000000 0.882494 0.605950
0.101611 0.881884 0.595516
0.226037 0.881273 0.591204
0.350464 0.880663 0.584965
0.474890 0.880052 0.574762
0.606501 0.879442 0.562566
0.753359 0.878832 0.561992
0.896596 0.874805 0.560316
1.000000 0.859269 0.547948
0.000000 1.000000 0.600568
0.090257 1.000000 0.582738
0.214593 1.000000 0.577302
0.338929 1.000000 0.569891
0.463264 1.000000 0.558962
0.593716 1.000000 0.547600
0.737122 1.000000 0.546935
0.880464 1.000000 0.546271
1.000000 1.000000 0.545713
0.017291 0.000000 0.752995
0.145561 0.000000 0.752439
0.273641 0.000000 0.751882
0.401531 0.000000 0.751326
0.529229 0.000000 0.750769
0.656738 0.000000 0.750213
0.783156 0.000000 0.748804
0.910763 0.000000 0.745807
1.000000 0.000000 0.743659
0.000000 0.113370 0.751123
0.122592 0.104595 0.750567
0.254855 0.104072 0.750010
0.387104 0.103549 0.749454
0.519339 0.103026 0.748897
0.651560 0.102503 0.748341
0.781285 0.099970 0.745331
0.908709 0.090077 0.736190
1.000000 0.081132 0.728397
0.000000 0.243860 0.749251
0.119586 0.234586 0.748695
0.245628 0.227313 0.748138
0.379881 0.226790 0.747582
0.514115 0.226267 0.747026
0.648333 0.225744 0.746469
0.779413 0.223211 0.742878
0.906656 0.213147 0.732081
1.000000 0.203897 0.723022
0.000000 0.373690 0.747379
0.117826 0.365819 0.746823
0.242303 0.359105 0.746267
0.368889 0.350030 0.745710
0.506532 0.349507 0.745154
0.644151 0.348984 0.744597
0.777541 0.346451 0.740057
0.904603 0.336217 0.726984
1.000000 0.326662 0.716390
0.000000 0.502861 0.745508
0.116067 0.497003 0.744951
0.240544 0.492469 0.744395
0.365021 0.484967 0.743838
0.492740 0.472748 0.743282
0.637459 0.472225 0.742726
0.775669 0.469692 0.736358
0.902549 0.459287 0.719960
1.000000 0.449427 0.707558
0.000000 0.631373 0.743636
0.114307 0.628140 0.743079
0.238784 0.625773 0.742523
0.363261 0.622055 0.741967
0.487738 0.614574 0.741410
0.619289 0.595465 0.740854
0.773797 0.592932 0.729507
0.900496 0.582357 0.708334
1.000000 0.572192 0.694321
0.000000 0.758514 0.741072
0.111543 0.757958 0.739946
0.236020 0.757401 0.739062
0.360497 0.756845 0.737948
0.484974 0.756288 0.736228
0.609451 0.755732 0.731738
0.771926 0.735674 0.699423
0.898442 0.711443 0.687051
1.000000 0.699485 0.674957
0.000000 0.882287 0.734560
0.101416 0.881676 0.728641
0.225843 0.881066 0.726043
0.350269 0.880455 0.722411
0.474695 0.879845 0.716650
0.599121 0.879235 0.705291
0.736914 0.878624 0.686797
0.896389 0.872012 0.685121
1.000000 0.850273 0.672722
0.000000 1.000000 0.728725
0.090032 1.000000 0.716327
0.214367 1.000000 0.712403
0.338703 1.000000 0.707131
0.463039 1.000000 0.699456
0.587374 1.000000 0.686837
0.720655 1.000000 0.671710
0.872855 1.000000 0.671045
1.000000 1.000000 0.670487
0.018877 0.000000 0.878078
0.146910 0.000000 0.877468
0.274764 0.000000 0.876857
0.402440 0.000000 0.876247
0.529938 0.000000 0.875637
0.657257 0.000000 0.875026
0.784397 0.000000 0.874416
0.910555 0.000000 0.873038
1.000000 0.000000 0.870798
0.000000 0.111375 0.876025
0.115227 0.095530 0.875414
0.247910 0.094956 0.874804
0.380580 0.094383 0.874194
0.513237 0.093809 0.873583
0.645882 0.093235 0.872973
0.778515 0.092661 0.872362
0.908502 0.089883 0.869142
1.000000 0.080907 0.861891
0.000000 0.241464 0.873971
0.111975 0.225719 0.873361
0.237991 0.218026 0.872751
0.372347 0.217452 0.872140
0.506687 0.216879 0.871530
0.641012 0.216305 0.870919
0.775322 0.215731 0.870309
0.906449 0.212952 0.866590
1.000000 0.203672 0.857970
0.000000 0.370939 0.871918
0.110045 0.357223 0.871308
0.234471 0.349707 0.870697
0.360895 0.340522 0.870087
0.497794 0.339948 0.869476
0.634674 0.339375 0.868866
0.771536 0.338801 0.868256
0.904395 0.336022 0.863799
1.000000 0.326437 0.853376
0.000000 0.499799 0.869865
0.108115 0.488684 0.869254
0.232541 0.482980 0.868644
0.356967 0.474507 0.868033
0.484085 0.463018 0.867423
0.625320 0.462444 0.866813
0.766530 0.461871 0.866202
0.902342 0.459092 0.860541
1.000000 0.449202 0.847600
0.000000 0.628044 0.867811
0.106184 0.620102 0.867201
0.230611 0.616200 0.866590
0.355037 0.610508 0.865980
0.479463 0.601025 0.865370
0.608030 0.585514 0.864759
0.758314 0.584940 0.864149
0.900288 0.582162 0.856168
1.000000 0.571967 0.839463
0.000000 0.755674 0.865758
0.104254 0.751477 0.865147
0.228680 0.749367 0.864537
0.353107 0.746443 0.863927
0.477533 0.741793 0.863316
0.601959 0.732332 0.862706
0.735425 0.708010 0.862095
0.898235 0.705232 0.847794
1.000000 0.694732 0.825418
0.000000 0.882079 0.863109
0.101221 0.881469 0.861762
0.225648 0.880859 0.860877
0.350074 0.880248 0.859850
0.474500 0.879638 0.858530
0.598926 0.879027 0.856437
0.723353 0.878417 0.850815
0.896182 0.853054 0.809926
1.000000 0.825918 0.797497
0.000000 1.000000 0.856824
0.089806 1.000000 0.849912
0.214142 1.000000 0.847498
0.338477 1.000000 0.844361
0.462813 1.000000 0.839935
0.587149 1.000000 0.832858
0.711484 1.000000 0.818802
0.852466 1.000000 0.795820
1.000000 1.000000 0.795262
0.020473 0.000000 1.000000
0.148332 0.000000 1.000000
0.276016 0.000000 1.000000
0.403527 0.000000 1.000000
0.530865 0.000000 1.000000
0.658034 0.000000 0.999803
0.785037 0.000000 0.999139
0.911872 0.000000 0.998474
1.000000 0.000000 0.997878
0.000000 0.109476 1.000000
0.106629 0.085225 1.000000
0.239758 0.084587 0.999561
0.372889 0.083963 0.998897
0.506009 0.083338 0.998232
0.639116 0.082714 0.997568
0.772212 0.082089 0.996904
0.905297 0.081465 0.996239
1.000000 0.080681 0.995380
0.000000 0.239261 0.998655
0.103111 0.215641 0.997990
0.229126 0.207486 0.997326
0.363740 0.206862 0.996662
0.498340 0.206237 0.995997
0.632927 0.205613 0.995333
0.767500 0.204988 0.994669
0.902060 0.204364 0.994004
1.000000 0.203446 0.992912
0.000000 0.368468 0.996420
0.101010 0.347467 0.995755
0.225386 0.339215 0.995091
0.351734 0.329761 0.994427
0.488427 0.329137 0.993762
0.625104 0.328512 0.993098
0.761765 0.327888 0.992434
0.898409 0.327263 0.991769
1.000000 0.326211 0.990352
0.000000 0.497092 0.994185
0.098909 0.479253 0.993520
0.223285 0.472582 0.992856
0.347660 0.463345 0.992192
0.474514 0.452036 0.991527
0.614371 0.451411 0.990863
0.754206 0.450787 0.990199
0.894020 0.450162 0.989534
1.000000 0.448976 0.987629
0.000000 0.625135 0.991950
0.096808 0.610999 0.991285
0.221184 0.605902 0.990621
0.345559 0.598912 0.989957
0.469935 0.588484 0.989292
0.597652 0.574310 0.988628
0.742898 0.573686 0.987964
0.888115 0.573061 0.987299
1.000000 0.571741 0.984581
0.000000 0.752596 0.989715
0.094707 0.742704 0.989050
0.219083 0.739175 0.988386
0.343458 0.734422 0.987722
0.467834 0.727446 0.987057
0.592209 0.715759 0.986393
0.721728 0.696585 0.985729
0.878221 0.695960 0.985064
1.000000 0.694506 0.980719
0.000000 0.879474 0.987480
0.092606 0.874370 0.986815
0.216982 0.872401 0.986151
0.341357 0.869874 0.985487
0.465733 0.866334 0.984822
0.590108 0.860650 0.984158
0.714484 0.848989 0.983494
0.850092 0.818859 0.982829
1.000000 0.817271 0.973604
0.000000 1.000000 0.984863
0.089580 1.000000 0.983492
0.213916 1.000000 0.982587
0.338252 1.000000 0.981582
0.462587 1.000000 0.980399
0.586923 1.000000 0.978851
0.711259 1.000000 0.976343
0.835594 1.000000 0.969442
1.000000 1.000000 0.920036
