luts/original/clean-bright.cube
TITLE "Clean Bright"
LUT_3D_SIZE 5
DOMAIN_MIN 0.0 0.0 0.0
DOMAIN_MAX 1.0 1.0 1.0
0.015713 0.007770 0.007770
0.272327 0.003050 0.003050
0.528509 0.000000 0.000000
0.784260 0.000000 0.000000
1.000000 0.000000 0.000000
0.013067 0.260467 0.002152
0.270036 0.259128 0.000896
0.525492 0.255765 0.000000
0.780516 0.254470 0.000000
1.000000 0.253863 0.000000
0.013931 0.510769 0.000000
0.268831 0.509872 0.000000
0.522475 0.508630 0.000000
0.776773 0.506508 0.000000
1.000000 0.505431 0.000000
0.017006 0.759618 0.000000
0.269812 0.758505 0.000000
0.521875 0.757392 0.000000
0.773029 0.756116 0.000000
1.000000 0.754736 0.000000
0.020141 1.000000 0.000000
0.271544 1.000000 0.000000
0.522275 1.000000 0.000000
0.772338 1.000000 0.000000
1.000000 1.000000 0.000000
0.015650 0.004720 0.252295
0.272114 0.002850 0.250279
0.528229 0.000000 0.243015
0.783912 0.000000 0.238376
1.000000 0.000000 0.234519
0.012202 0.260254 0.249282
0.269823 0.255135 0.240446
0.525212 0.241450 0.226449
0.780169 0.225384 0.207171
1.000000 0.206389 0.184800
0.003109 0.510489 0.235244
0.255351 0.509592 0.225266
0.522195 0.507206 0.223613
0.776425 0.490039 0.203652
1.000000 0.471655 0.180330
0.000000 0.759270 0.223985
0.239667 0.758157 0.203230
0.506938 0.757044 0.202184
0.772681 0.754485 0.200133
1.000000 0.736690 0.175860
0.000000 1.000000 0.215738
0.218408 1.000000 0.175270
0.486655 1.000000 0.173941
0.754833 1.000000 0.172612
1.000000 1.000000 0.171390
0.014176 0.000000 0.502718
0.272118 0.000000 0.501822
0.527925 0.000000 0.499815
0.783534 0.000000 0.493713
1.000000 0.000000 0.489206
0.006469 0.253085 0.499701
0.257381 0.242126 0.498804
0.524907 0.239663 0.494686
0.779791 0.223566 0.474276
1.000000 0.204349 0.453107
0.002823 0.510184 0.495815
0.251980 0.509287 0.493978
0.521890 0.497608 0.473327
0.776047 0.472754 0.453297
1.000000 0.452231 0.429879
0.000000 0.758892 0.482658
0.236375 0.757779 0.469567
0.490971 0.756666 0.451829
0.772304 0.752862 0.449778
1.000000 0.726890 0.425409
0.000000 1.000000 0.472351
0.214819 1.000000 0.442194
0.468136 1.000000 0.423490
0.745762 1.000000 0.422161
1.000000 1.000000 0.420939
0.017291 0.000000 0.752995
0.273641 0.000000 0.751882
0.529229 0.000000 0.750769
0.783156 0.000000 0.748804
1.000000 0.000000 0.743659
0.000000 0.243860 0.749251
0.245628 0.227313 0.748138
0.514115 0.226267 0.747026
0.779413 0.223211 0.742878
1.000000 0.203897 0.723022
0.000000 0.502861 0.745508
0.240544 0.492469 0.744395
0.492740 0.472748 0.743282
0.775669 0.469692 0.736358
1.000000 0.449427 0.707558
0.000000 0.758514 0.741072
0.236020 0.757401 0.739062
0.484974 0.756288 0.736228
0.771926 0.735674 0.699423
1.000000 0.699485 0.674957
0.000000 1.000000 0.728725
0.214367 1.000000 0.712403
0.463039 1.000000 0.699456
0.720655 1.000000 0.671710
1.000000 1.000000 0.670487
0.020473 0.000000 1.000000
0.276016 0.000000 1.000000
0.530865 0.000000 1.000000
0.785037 0.000000 0.999139
1.000000 0.000000 0.997878
0.000000 0.239261 0.998655
0.229126 0.207486 0.997326
0.498340 0.206237 0.995997
0.767500 0.204988 0.994669
1.000000 0.203446 0.992912
0.000000 0.497092 0.994185
0.223285 0.472582 0.992856
0.474514 0.452036 0.991527
0.754206 0.450787 0.990199
1.000000 0.448976 0.987629
0.000000 0.752596 0.989715
0.219083 0.739175 0.988386
0.467834 0.727446 0.987057
0.721728 0.696585 0.985729
1.000000 0.694506 0.980719
0.000000 1.000000 0.984863
0.213916 1.000000 0.982587
0.462587 1.000000 0.980399
0.711259 1.000000 0.976343
1.000000 1.000000 0.920036
