luts/original/clean-viral.cube
TITLE "Clean Viral"
LUT_3D_SIZE 5
DOMAIN_MIN 0.0 0.0 0.0
DOMAIN_MAX 1.0 1.0 1.0
0.000000 0.000000 0.000000
0.239254 0.000000 0.000000
0.538236 0.000000 0.000000
0.828703 0.000000 0.000000
1.000000 0.000000 0.000000
0.000000 0.236482 0.000000
0.235310 0.235310 0.000000
0.533924 0.234140 0.000000
0.824985 0.232971 0.000000
1.000000 0.231803 0.000000
0.000000 0.532176 0.000000
0.231378 0.530894 0.000000
0.529612 0.529612 0.000000
0.821252 0.528329 0.000000
1.000000 0.527047 0.000000
0.000000 0.820847 0.000000
0.227459 0.819734 0.000000
0.525297 0.818620 0.000000
0.817505 0.817505 0.000000
1.000000 0.816388 0.000000
0.000000 1.000000 0.000000
0.223551 1.000000 0.000000
0.520982 1.000000 0.000000
0.813742 1.000000 0.000000
1.000000 1.000000 0.000000
0.000000 0.000000 0.240030
0.238856 0.000000 0.238856
0.537801 0.000000 0.237682
0.828328 0.000000 0.236510
1.000000 0.000000 0.235339
0.000000 0.236084 0.236084
0.234913 0.234913 0.234913
0.533489 0.233743 0.233743
0.824609 0.232575 0.232575
1.000000 0.231407 0.231407
0.000000 0.531740 0.232149
0.230982 0.530458 0.230982
0.529176 0.529176 0.229816
0.820875 0.527894 0.228651
1.000000 0.526611 0.227487
0.000000 0.820470 0.228227
0.227064 0.819356 0.227064
0.524862 0.818242 0.225901
0.817126 0.817126 0.224740
1.000000 0.816008 0.223580
0.000000 1.000000 0.224317
0.223158 1.000000 0.223158
0.520546 1.000000 0.221999
0.813362 1.000000 0.220841
1.000000 1.000000 0.219685
0.000000 0.000000 0.539928
0.238457 0.000000 0.538647
0.537365 0.000000 0.537365
0.827953 0.000000 0.536084
1.000000 0.000000 0.534802
0.000000 0.235686 0.535617
0.234516 0.234516 0.534336
0.533054 0.233346 0.533054
0.824233 0.232178 0.531772
1.000000 0.231011 0.530490
0.000000 0.531305 0.531305
0.230586 0.530023 0.530023
0.528741 0.528741 0.528741
0.820497 0.527458 0.527458
1.000000 0.526176 0.526176
0.000000 0.820092 0.526991
0.226669 0.818978 0.525709
0.524426 0.817863 0.524426
0.816746 0.816746 0.523144
1.000000 0.815629 0.521861
0.000000 1.000000 0.522677
0.222764 1.000000 0.521394
0.520111 1.000000 0.520111
0.812981 1.000000 0.518828
1.000000 1.000000 0.517545
0.000000 0.000000 0.830885
0.238059 0.000000 0.829784
0.536930 0.000000 0.828682
0.827578 0.000000 0.827578
1.000000 0.000000 0.826473
0.000000 0.235288 0.827176
0.234118 0.234118 0.826071
0.532618 0.232949 0.824964
0.823856 0.231781 0.823856
1.000000 0.230615 0.822747
0.000000 0.530870 0.823452
0.230190 0.529587 0.822343
0.528305 0.528305 0.821231
0.820119 0.527023 0.820119
1.000000 0.525740 0.819005
0.000000 0.819714 0.819714
0.226274 0.818599 0.818599
0.523991 0.817484 0.817484
0.816367 0.816367 0.816367
1.000000 0.815249 0.815249
0.000000 1.000000 0.815960
0.222371 1.000000 0.814841
0.519675 1.000000 0.813721
0.812600 1.000000 0.812600
1.000000 1.000000 0.811478
0.000000 0.000000 1.000000
0.237660 0.000000 1.000000
0.536495 0.000000 1.000000
0.827203 0.000000 1.000000
1.000000 0.000000 1.000000
0.000000 0.234891 1.000000
0.233721 0.233721 1.000000
0.532183 0.232553 1.000000
0.823480 0.231385 1.000000
1.000000 0.230219 1.000000
0.000000 0.530434 1.000000
0.229794 0.529152 1.000000
0.527870 0.527870 1.000000
0.819741 0.526587 1.000000
1.000000 0.525305 1.000000
0.000000 0.819335 1.000000
0.225879 0.818221 1.000000
0.523555 0.817105 1.000000
0.815987 0.815987 1.000000
1.000000 0.814869 1.000000
0.000000 1.000000 1.000000
0.221977 1.000000 1.000000
0.519239 1.000000 1.000000
0.812219 1.000000 1.000000
1.000000 1.000000 1.000000
