luts/original/clean-bright.cube
TITLE "Clean Bright"
LUT_3D_SIZE 33
DOMAIN_MIN 0.0 0.0 0.0
DOMAIN_MAX 1.0 1.0 1.0
0.015713 0.007770 0.007770
0.047813 0.007469 0.007469
0.079907 0.007085 0.007085
0.111994 0.006619 0.006619
0.144074 0.006070 0.006070
0.176147 0.005439 0.005439
0.208214 0.004725 0.004725
0.240274 0.003929 0.003929
0.272327 0.003050 0.003050
0.304373 0.002089 0.002089
0.336413 0.001045 0.001045
0.368446 0.000000 0.000000
0.400472 0.000000 0.000000
0.432492 0.000000 0.000000
0.464504 0.000000 0.000000
0.496510 0.000000 0.000000
0.528509 0.000000 0.000000
0.560502 0.000000 0.000000
0.592488 0.000000 0.000000
0.624466 0.000000 0.000000
0.656439 0.000000 0.000000
0.688404 0.000000 0.000000
0.720363 0.000000 0.000000
0.752315 0.000000 0.000000
0.784260 0.000000 0.000000
0.816198 0.000000 0.000000
0.848130 0.000000 0.000000
0.880055 0.000000 0.000000
0.911973 0.000000 0.000000
0.943885 0.000000 0.000000
0.975789 0.000000 0.000000
0.999365 0.000000 0.000000
1.000000 0.000000 0.000000
0.015973 0.040262 0.007777
0.047606 0.039546 0.007274
0.079689 0.039075 0.006880
0.111764 0.038585 0.006403
0.143833 0.038034 0.005844
0.175895 0.037411 0.005202
0.207950 0.036711 0.004477
0.239999 0.035933 0.003670
0.272041 0.035074 0.002781
0.304076 0.034134 0.001809
0.336104 0.033112 0.000754
0.368126 0.032359 0.000000
0.400140 0.032299 0.000000
0.432149 0.032248 0.000000
0.464150 0.032204 0.000000
0.496144 0.032164 0.000000
0.528132 0.032129 0.000000
0.560113 0.032098 0.000000
0.592088 0.032069 0.000000
0.624055 0.032044 0.000000
0.656016 0.032020 0.000000
0.687970 0.031998 0.000000
0.719918 0.031978 0.000000
0.751858 0.031959 0.000000
0.783792 0.031942 0.000000
0.815719 0.031925 0.000000
0.847640 0.031910 0.000000
0.879553 0.031895 0.000000
0.911460 0.031881 0.000000
0.943360 0.031868 0.000000
0.975253 0.031856 0.000000
0.999365 0.031849 0.000000
1.000000 0.031859 0.000000
0.015725 0.071788 0.007265
0.047922 0.071723 0.007204
0.079470 0.071056 0.006675
0.111535 0.070544 0.006187
0.143592 0.069992 0.005617
0.175643 0.069378 0.004964
0.207687 0.068693 0.004229
0.239724 0.067932 0.003412
0.271754 0.067093 0.002512
0.303778 0.066175 0.001529
0.335795 0.065176 0.000464
0.367805 0.064663 0.000000
0.399809 0.064546 0.000000
0.431805 0.064446 0.000000
0.463795 0.064359 0.000000
0.495779 0.064282 0.000000
0.527755 0.064213 0.000000
0.559725 0.064152 0.000000
0.591688 0.064096 0.000000
0.623644 0.064045 0.000000
0.655594 0.063999 0.000000
0.687536 0.063956 0.000000
0.719472 0.063917 0.000000
0.751402 0.063880 0.000000
0.783324 0.063845 0.000000
0.815240 0.063813 0.000000
0.847149 0.063783 0.000000
0.879051 0.063754 0.000000
0.910947 0.063727 0.000000
0.942835 0.063701 0.000000
0.974717 0.063677 0.000000
0.999365 0.063662 0.000000
1.000000 0.063682 0.000000
0.015491 0.103291 0.006657
0.047636 0.103223 0.006593
0.079778 0.103154 0.006529
0.111305 0.102495 0.005971
0.143351 0.101944 0.005391
0.175390 0.101340 0.004727
0.207423 0.100670 0.003982
0.239449 0.099928 0.003153
0.271468 0.099109 0.002242
0.303480 0.098212 0.001249
0.335486 0.097236 0.000173
0.367485 0.096911 0.000000
0.399477 0.096741 0.000000
0.431462 0.096594 0.000000
0.463441 0.096466 0.000000
0.495413 0.096353 0.000000
0.527378 0.096252 0.000000
0.559336 0.096162 0.000000
0.591288 0.096080 0.000000
0.623233 0.096005 0.000000
0.655171 0.095937 0.000000
0.687102 0.095874 0.000000
0.719027 0.095816 0.000000
0.750945 0.095762 0.000000
0.782856 0.095711 0.000000
0.814761 0.095664 0.000000
0.846658 0.095619 0.000000
0.878549 0.095577 0.000000
0.910433 0.095537 0.000000
0.942311 0.095499 0.000000
0.974181 0.095463 0.000000
0.999365 0.095440 0.000000
1.000000 0.095469 0.000000
0.015187 0.134772 0.005951
0.047323 0.134700 0.005884
0.079457 0.134628 0.005816
0.111589 0.134557 0.005749
0.143110 0.133889 0.005164
0.175138 0.133296 0.004490
0.207159 0.132642 0.003734
0.239174 0.131918 0.002895
0.271182 0.131121 0.001973
0.303183 0.130246 0.000969
0.335177 0.129366 0.000000
0.367164 0.129105 0.000000
0.399145 0.128883 0.000000
0.431119 0.128691 0.000000
0.463086 0.128524 0.000000
0.495047 0.128377 0.000000
0.527001 0.128245 0.000000
0.558948 0.128127 0.000000
0.590888 0.128021 0.000000
0.622822 0.127923 0.000000
0.654748 0.127834 0.000000
0.686669 0.127752 0.000000
0.718582 0.127676 0.000000
0.750488 0.127605 0.000000
0.782388 0.127539 0.000000
0.814281 0.127477 0.000000
0.846168 0.127418 0.000000
0.878047 0.127363 0.000000
0.909920 0.127311 0.000000
0.941786 0.127261 0.000000
0.973645 0.127214 0.000000
0.999365 0.127182 0.000000
1.000000 0.127220 0.000000
0.014797 0.166230 0.005147
0.046942 0.166155 0.005077
0.079084 0.166080 0.005006
0.111225 0.166005 0.004936
0.143364 0.165929 0.004865
0.174886 0.165247 0.004253
0.206896 0.164610 0.003486
0.238899 0.163905 0.002636
0.270895 0.163128 0.001704
0.302885 0.162276 0.000689
0.334868 0.161563 0.000000
0.366844 0.161244 0.000000
0.398813 0.160972 0.000000
0.430776 0.160739 0.000000
0.462732 0.160534 0.000000
0.494681 0.160354 0.000000
0.526624 0.160193 0.000000
0.558559 0.160049 0.000000
0.590488 0.159918 0.000000
0.622410 0.159799 0.000000
0.654326 0.159690 0.000000
0.686235 0.159589 0.000000
0.718137 0.159496 0.000000
0.750032 0.159409 0.000000
0.781920 0.159328 0.000000
0.813802 0.159252 0.000000
0.845677 0.159181 0.000000
0.877545 0.159113 0.000000
0.909407 0.159049 0.000000
0.941261 0.158988 0.000000
0.973109 0.158930 0.000000
0.999365 0.158890 0.000000
1.000000 0.158935 0.000000
0.014315 0.197665 0.004246
0.046477 0.197586 0.004173
0.078636 0.197508 0.004099
0.110795 0.197430 0.004025
0.142951 0.197351 0.003952
0.175107 0.197273 0.003878
0.206632 0.196572 0.003238
0.238624 0.195887 0.002378
0.270609 0.195132 0.001435
0.302587 0.194303 0.000410
0.334559 0.193701 0.000000
0.366524 0.193327 0.000000
0.398482 0.193009 0.000000
0.430433 0.192735 0.000000
0.462378 0.192496 0.000000
0.494315 0.192285 0.000000
0.526246 0.192096 0.000000
0.558171 0.191927 0.000000
0.590088 0.191773 0.000000
0.621999 0.191634 0.000000
0.653903 0.191505 0.000000
0.685801 0.191387 0.000000
0.717691 0.191278 0.000000
0.749575 0.191175 0.000000
0.781452 0.191080 0.000000
0.813323 0.190991 0.000000
0.845186 0.190906 0.000000
0.877043 0.190827 0.000000
0.908893 0.190751 0.000000
0.940737 0.190679 0.000000
0.972573 0.190611 0.000000
0.999365 0.190561 0.000000
1.000000 0.190613 0.000000
0.013739 0.229077 0.003248
0.045922 0.228996 0.003171
0.078104 0.228914 0.003094
0.110285 0.228832 0.003017
0.142464 0.228750 0.002940
0.174642 0.228669 0.002863
0.206818 0.228587 0.002787
0.238349 0.227865 0.002119
0.270323 0.227132 0.001166
0.302289 0.226325 0.000130
0.334250 0.225781 0.000000
0.366203 0.225356 0.000000
0.398150 0.224994 0.000000
0.430090 0.224682 0.000000
0.462023 0.224409 0.000000
0.493950 0.224168 0.000000
0.525869 0.223953 0.000000
0.557782 0.223760 0.000000
0.589689 0.223585 0.000000
0.621588 0.223426 0.000000
0.653481 0.223280 0.000000
0.685367 0.223145 0.000000
0.717246 0.223019 0.000000
0.749119 0.222903 0.000000
0.780984 0.222794 0.000000
0.812843 0.222691 0.000000
0.844696 0.222595 0.000000
0.876541 0.222504 0.000000
0.908380 0.222417 0.000000
0.940212 0.222335 0.000000
0.972037 0.222257 0.000000
0.999365 0.222198 0.000000
1.000000 0.222256 0.000000
0.013067 0.260467 0.002152
0.045275 0.260382 0.002072
0.077482 0.260297 0.001992
0.109688 0.260212 0.001912
0.141893 0.260127 0.001832
0.174096 0.260042 0.001752
0.206298 0.259956 0.001672
0.238499 0.259871 0.001592
0.270036 0.259128 0.000896
0.301992 0.258370 0.000000
0.333941 0.257803 0.000000
0.365883 0.257329 0.000000
0.397818 0.256926 0.000000
0.429747 0.256578 0.000000
0.461669 0.256274 0.000000
0.493584 0.256005 0.000000
0.525492 0.255765 0.000000
0.557394 0.255550 0.000000
0.589289 0.255355 0.000000
0.621177 0.255176 0.000000
0.653058 0.255013 0.000000
0.684933 0.254862 0.000000
0.716801 0.254722 0.000000
0.748662 0.254592 0.000000
0.780516 0.254470 0.000000
0.812364 0.254355 0.000000
0.844205 0.254247 0.000000
0.876039 0.254145 0.000000
0.907867 0.254048 0.000000
0.939687 0.253956 0.000000
0.971501 0.253868 0.000000
0.999365 0.253799 0.000000
1.000000 0.253863 0.000000
0.012299 0.291834 0.000958
0.044534 0.291746 0.000875
0.076768 0.291657 0.000792
0.109002 0.291569 0.000708
0.141233 0.291480 0.000625
0.173464 0.291392 0.000542
0.205694 0.291303 0.000459
0.237922 0.291215 0.000376
0.270149 0.291126 0.000293
0.301694 0.290388 0.000000
0.333632 0.289767 0.000000
0.365562 0.289248 0.000000
0.397486 0.288806 0.000000
0.429404 0.288424 0.000000
0.461314 0.288090 0.000000
0.493218 0.287795 0.000000
0.525115 0.287532 0.000000
0.557005 0.287295 0.000000
0.588889 0.287081 0.000000
0.620766 0.286885 0.000000
0.652636 0.286705 0.000000
0.684499 0.286539 0.000000
0.716356 0.286385 0.000000
0.748205 0.286242 0.000000
0.780048 0.286107 0.000000
0.811885 0.285981 0.000000
0.843714 0.285862 0.000000
0.875537 0.285749 0.000000
0.907353 0.285643 0.000000
0.939162 0.285541 0.000000
0.970965 0.285444 0.000000
0.999365 0.285365 0.000000
1.000000 0.285433 0.000000
0.011746 0.323179 0.000000
0.044049 0.323087 0.000000
0.076333 0.322995 0.000000
0.108599 0.322903 0.000000
0.140847 0.322811 0.000000
0.173076 0.322719 0.000000
0.205287 0.322628 0.000000
0.237480 0.322536 0.000000
0.269654 0.322444 0.000000
0.301810 0.322352 0.000000
0.333323 0.321673 0.000000
0.365242 0.321111 0.000000
0.397155 0.320633 0.000000
0.429061 0.320219 0.000000
0.460960 0.319858 0.000000
0.492852 0.319539 0.000000
0.524738 0.319254 0.000000
0.556617 0.318997 0.000000
0.588489 0.318764 0.000000
0.620354 0.318552 0.000000
0.652213 0.318357 0.000000
0.684065 0.318176 0.000000
0.715910 0.318009 0.000000
0.747749 0.317853 0.000000
0.779580 0.317707 0.000000
0.811405 0.317570 0.000000
0.843224 0.317440 0.000000
0.875035 0.317318 0.000000
0.906840 0.317201 0.000000
0.938638 0.317091 0.000000
0.970429 0.316985 0.000000
0.999365 0.316897 0.000000
1.000000 0.316968 0.000000
0.012094 0.354501 0.000000
0.044307 0.354405 0.000000
0.076503 0.354310 0.000000
0.108682 0.354215 0.000000
0.140843 0.354120 0.000000
0.172987 0.354024 0.000000
0.205113 0.353929 0.000000
0.237222 0.353834 0.000000
0.269314 0.353739 0.000000
0.301389 0.353643 0.000000
0.333446 0.353548 0.000000
0.364922 0.352919 0.000000
0.396823 0.352407 0.000000
0.428717 0.351965 0.000000
0.460605 0.351578 0.000000
0.492486 0.351235 0.000000
0.524361 0.350930 0.000000
0.556228 0.350654 0.000000
0.588089 0.350405 0.000000
0.619943 0.350177 0.000000
0.651791 0.349967 0.000000
0.683631 0.349774 0.000000
0.715465 0.349594 0.000000
0.747292 0.349426 0.000000
0.779113 0.349269 0.000000
0.810926 0.349121 0.000000
0.842733 0.348982 0.000000
0.874533 0.348850 0.000000
0.906326 0.348724 0.000000
0.938113 0.348605 0.000000
0.969893 0.348491 0.000000
0.999365 0.348393 0.000000
1.000000 0.348468 0.000000
0.012451 0.385800 0.000000
0.044587 0.385701 0.000000
0.076708 0.385602 0.000000
0.108811 0.385504 0.000000
0.140898 0.385405 0.000000
0.172969 0.385306 0.000000
0.205023 0.385208 0.000000
0.237061 0.385109 0.000000
0.269083 0.385011 0.000000
0.301088 0.384912 0.000000
0.333076 0.384813 0.000000
0.365048 0.384715 0.000000
0.396491 0.384129 0.000000
0.428374 0.383660 0.000000
0.460251 0.383249 0.000000
0.492121 0.382885 0.000000
0.523984 0.382560 0.000000
0.555840 0.382268 0.000000
0.587689 0.382002 0.000000
0.619532 0.381760 0.000000
0.651368 0.381537 0.000000
0.683197 0.381331 0.000000
0.715020 0.381139 0.000000
0.746836 0.380960 0.000000
0.778645 0.380793 0.000000
0.810447 0.380635 0.000000
0.842242 0.380486 0.000000
0.874031 0.380345 0.000000
0.905813 0.380212 0.000000
0.937588 0.380084 0.000000
0.969357 0.379962 0.000000
0.999365 0.379854 0.000000
1.000000 0.379932 0.000000
0.012814 0.417076 0.000000
0.044884 0.416974 0.000000
0.076938 0.416872 0.000000
0.108977 0.416770 0.000000
0.141000 0.416668 0.000000
0.173007 0.416566 0.000000
0.204998 0.416464 0.000000
0.236974 0.416362 0.000000
0.268934 0.416260 0.000000
0.300878 0.416158 0.000000
0.332807 0.416056 0.000000
0.364720 0.415954 0.000000
0.396617 0.415852 0.000000
0.428031 0.415304 0.000000
0.459896 0.414871 0.000000
0.491755 0.414488 0.000000
0.523606 0.414146 0.000000
0.555451 0.413837 0.000000
0.587289 0.413557 0.000000
0.619121 0.413301 0.000000
0.650945 0.413065 0.000000
0.682763 0.412847 0.000000
0.714575 0.412645 0.000000
0.746379 0.412456 0.000000
0.778177 0.412279 0.000000
0.809968 0.412112 0.000000
0.841752 0.411954 0.000000
0.873529 0.411805 0.000000
0.905300 0.411663 0.000000
0.937064 0.411527 0.000000
0.968821 0.411398 0.000000
0.999365 0.411280 0.000000
1.000000 0.411360 0.000000
0.013183 0.448330 0.000000
0.045194 0.448224 0.000000
0.077190 0.448119 0.000000
0.109171 0.448013 0.000000
0.141137 0.447908 0.000000
0.173088 0.447803 0.000000
0.205024 0.447697 0.000000
0.236945 0.447592 0.000000
0.268851 0.447487 0.000000
0.300741 0.447381 0.000000
0.332617 0.447276 0.000000
0.364478 0.447171 0.000000
0.396323 0.447065 0.000000
0.428154 0.446960 0.000000
0.459542 0.446445 0.000000
0.491389 0.446044 0.000000
0.523229 0.445686 0.000000
0.555063 0.445362 0.000000
0.586890 0.445069 0.000000
0.618710 0.444800 0.000000
0.650523 0.444553 0.000000
0.682329 0.444324 0.000000
0.714129 0.444112 0.000000
0.745922 0.443913 0.000000
0.777709 0.443727 0.000000
0.809488 0.443551 0.000000
0.841261 0.443385 0.000000
0.873027 0.443228 0.000000
0.904786 0.443078 0.000000
0.936539 0.442935 0.000000
0.968285 0.442799 0.000000
0.999365 0.442672 0.000000
1.000000 0.442752 0.000000
0.013555 0.479560 0.000000
0.045514 0.479452 0.000000
0.077458 0.479343 0.000000
0.109388 0.479234 0.000000
0.141303 0.479126 0.000000
0.173204 0.479017 0.000000
0.205090 0.478908 0.000000
0.236962 0.478799 0.000000
0.268820 0.478691 0.000000
0.300662 0.478582 0.000000
0.332491 0.478473 0.000000
0.364304 0.478364 0.000000
0.396104 0.478256 0.000000
0.427889 0.478147 0.000000
0.459659 0.478038 0.000000
0.491023 0.477554 0.000000
0.522852 0.477180 0.000000
0.554674 0.476844 0.000000
0.586490 0.476537 0.000000
0.618298 0.476257 0.000000
0.650100 0.476000 0.000000
0.681896 0.475761 0.000000
0.713684 0.475539 0.000000
0.745466 0.475331 0.000000
0.777241 0.475136 0.000000
0.809009 0.474953 0.000000
0.840770 0.474779 0.000000
0.872525 0.474615 0.000000
0.904273 0.474458 0.000000
0.936014 0.474308 0.000000
0.967749 0.474165 0.000000
0.999365 0.474028 0.000000
1.000000 0.474109 0.000000
0.013931 0.510769 0.000000
0.045842 0.510657 0.000000
0.077740 0.510545 0.000000
0.109623 0.510432 0.000000
0.141493 0.510320 0.000000
0.173348 0.510208 0.000000
0.205190 0.510096 0.000000
0.237017 0.509984 0.000000
0.268831 0.509872 0.000000
0.300630 0.509760 0.000000
0.332416 0.509648 0.000000
0.364187 0.509535 0.000000
0.395944 0.509423 0.000000
0.427688 0.509311 0.000000
0.459417 0.509199 0.000000
0.491133 0.509087 0.000000
0.522475 0.508630 0.000000
0.554286 0.508281 0.000000
0.586090 0.507963 0.000000
0.617887 0.507673 0.000000
0.649678 0.507405 0.000000
0.681462 0.507157 0.000000
0.713239 0.506927 0.000000
0.745009 0.506711 0.000000
0.776773 0.506508 0.000000
0.808530 0.506317 0.000000
0.840280 0.506136 0.000000
0.872023 0.505965 0.000000
0.903760 0.505801 0.000000
0.935490 0.505646 0.000000
0.967213 0.505496 0.000000
0.998929 0.505353 0.000000
1.000000 0.505431 0.000000
0.014309 0.541954 0.000000
0.046178 0.541839 0.000000
0.078033 0.541723 0.000000
0.109874 0.541608 0.000000
0.141702 0.541492 0.000000
0.173516 0.541377 0.000000
0.205317 0.541261 0.000000
0.237104 0.541146 0.000000
0.268877 0.541030 0.000000
0.300637 0.540915 0.000000
0.332383 0.540799 0.000000
0.364116 0.540684 0.000000
0.395835 0.540568 0.000000
0.427540 0.540453 0.000000
0.459232 0.540338 0.000000
0.490911 0.540222 0.000000
0.522575 0.540107 0.000000
0.553897 0.539674 0.000000
0.585690 0.539346 0.000000
0.617476 0.539047 0.000000
0.649255 0.538770 0.000000
0.681028 0.538514 0.000000
0.712794 0.538275 0.000000
0.744553 0.538052 0.000000
0.776305 0.537842 0.000000
0.808050 0.537644 0.000000
0.839789 0.537457 0.000000
0.871521 0.537279 0.000000
0.903246 0.537109 0.000000
0.934965 0.536947 0.000000
0.966677 0.536792 0.000000
0.998382 0.536643 0.000000
1.000000 0.536717 0.000000
0.014690 0.573117 0.000000
0.046519 0.572998 0.000000
0.078335 0.572879 0.000000
0.110137 0.572761 0.000000
0.141927 0.572642 0.000000
0.173703 0.572523 0.000000
0.205466 0.572404 0.000000
0.237216 0.572285 0.000000
0.268952 0.572166 0.000000
0.300676 0.572047 0.000000
0.332386 0.571929 0.000000
0.364083 0.571810 0.000000
0.395766 0.571691 0.000000
0.427437 0.571572 0.000000
0.459094 0.571453 0.000000
0.490738 0.571334 0.000000
0.522369 0.571215 0.000000
0.553987 0.571097 0.000000
0.585290 0.570687 0.000000
0.617065 0.570378 0.000000
0.648833 0.570094 0.000000
0.680594 0.569830 0.000000
0.712348 0.569585 0.000000
0.744096 0.569354 0.000000
0.775837 0.569138 0.000000
0.807571 0.568934 0.000000
0.839298 0.568740 0.000000
0.871019 0.568557 0.000000
0.902733 0.568381 0.000000
0.934440 0.568214 0.000000
0.966141 0.568053 0.000000
0.997834 0.567899 0.000000
1.000000 0.567968 0.000000
0.015073 0.604257 0.000000
0.046865 0.604135 0.000000
0.078645 0.604013 0.000000
0.110411 0.603891 0.000000
0.142165 0.603768 0.000000
0.173906 0.603646 0.000000
0.205634 0.603524 0.000000
0.237350 0.603402 0.000000
0.269052 0.603279 0.000000
0.300742 0.603157 0.000000
0.332418 0.603035 0.000000
0.364082 0.602913 0.000000
0.395733 0.602790 0.000000
0.427371 0.602668 0.000000
0.458996 0.602546 0.000000
0.490609 0.602424 0.000000
0.522208 0.602302 0.000000
0.553795 0.602179 0.000000
0.585368 0.602057 0.000000
0.616654 0.601668 0.000000
0.648410 0.601377 0.000000
0.680160 0.601107 0.000000
0.711903 0.600854 0.000000
0.743639 0.600618 0.000000
0.775369 0.600396 0.000000
0.807092 0.600186 0.000000
0.838808 0.599987 0.000000
0.870517 0.599798 0.000000
0.902220 0.599618 0.000000
0.933915 0.599445 0.000000
0.965605 0.599280 0.000000
0.997287 0.599120 0.000000
1.000000 0.599184 0.000000
0.015457 0.635375 0.000000
0.047215 0.635249 0.000000
0.078961 0.635124 0.000000
0.110695 0.634998 0.000000
0.142415 0.634872 0.000000
0.174124 0.634747 0.000000
0.205819 0.634621 0.000000
0.237502 0.634495 0.000000
0.269173 0.634370 0.000000
0.300831 0.634244 0.000000
0.332476 0.634119 0.000000
0.364109 0.633993 0.000000
0.395729 0.633867 0.000000
0.427337 0.633742 0.000000
0.458932 0.633616 0.000000
0.490515 0.633491 0.000000
0.522085 0.633365 0.000000
0.553642 0.633239 0.000000
0.585187 0.633114 0.000000
0.616719 0.632988 0.000000
0.647988 0.632619 0.000000
0.679726 0.632343 0.000000
0.711458 0.632085 0.000000
0.743183 0.631843 0.000000
0.774901 0.631616 0.000000
0.806612 0.631401 0.000000
0.838317 0.631197 0.000000
0.870015 0.631003 0.000000
0.901706 0.630818 0.000000
0.933391 0.630641 0.000000
0.965069 0.630471 0.000000
0.996739 0.630307 0.000000
1.000000 0.630364 0.000000
0.015843 0.666470 0.000000
0.047569 0.666341 0.000000
0.079284 0.666212 0.000000
0.110986 0.666083 0.000000
0.142675 0.665954 0.000000
0.174353 0.665825 0.000000
0.206018 0.665696 0.000000
0.237671 0.665567 0.000000
0.269311 0.665438 0.000000
0.300940 0.665309 0.000000
0.332556 0.665180 0.000000
0.364159 0.665051 0.000000
0.395751 0.664922 0.000000
0.427330 0.664793 0.000000
0.458897 0.664664 0.000000
0.490451 0.664535 0.000000
0.521994 0.664406 0.000000
0.553524 0.664277 0.000000
0.585042 0.664148 0.000000
0.616547 0.664019 0.000000
0.648040 0.663890 0.000000
0.679292 0.663539 0.000000
0.711012 0.663276 0.000000
0.742726 0.663030 0.000000
0.774433 0.662798 0.000000
0.806133 0.662579 0.000000
0.837826 0.662370 0.000000
0.869513 0.662172 0.000000
0.901193 0.661982 0.000000
0.932866 0.661801 0.000000
0.964532 0.661627 0.000000
0.996192 0.661459 0.000000
1.000000 0.661510 0.000000
0.016230 0.697542 0.000000
0.047926 0.697409 0.000000
0.079611 0.697277 0.000000
0.111283 0.697145 0.000000
0.142944 0.697012 0.000000
0.174592 0.696880 0.000000
0.206229 0.696747 0.000000
0.237853 0.696615 0.000000
0.269465 0.696483 0.000000
0.301066 0.696350 0.000000
0.332654 0.696218 0.000000
0.364230 0.696086 0.000000
0.395794 0.695953 0.000000
0.427346 0.695821 0.000000
0.458887 0.695689 0.000000
0.490415 0.695556 0.000000
0.521931 0.695424 0.000000
0.553435 0.695292 0.000000
0.584927 0.695159 0.000000
0.616407 0.695027 0.000000
0.647875 0.694894 0.000000
0.679331 0.694762 0.000000
0.710567 0.694428 0.000000
0.742270 0.694178 0.000000
0.773965 0.693942 0.000000
0.805654 0.693719 0.000000
0.837336 0.693506 0.000000
0.869011 0.693304 0.000000
0.900680 0.693111 0.000000
0.932341 0.692926 0.000000
0.963996 0.692748 0.000000
0.995645 0.692576 0.000000
1.000000 0.692620 0.000000
0.016618 0.728591 0.000000
0.048286 0.728455 0.000000
0.079942 0.728319 0.000000
0.111587 0.728184 0.000000
0.143220 0.728048 0.000000
0.174841 0.727912 0.000000
0.206450 0.727777 0.000000
0.238047 0.727641 0.000000
0.269633 0.727505 0.000000
0.301206 0.727369 0.000000
0.332768 0.727234 0.000000
0.364319 0.727098 0.000000
0.395857 0.726962 0.000000
0.427383 0.726826 0.000000
0.458898 0.726691 0.000000
0.490401 0.726555 0.000000
0.521892 0.726419 0.000000
0.553372 0.726284 0.000000
0.584839 0.726148 0.000000
0.616295 0.726012 0.000000
0.647739 0.725876 0.000000
0.679171 0.725741 0.000000
0.710591 0.725605 0.000000
0.741813 0.725287 0.000000
0.773497 0.725048 0.000000
0.805174 0.724821 0.000000
0.836845 0.724606 0.000000
0.868509 0.724400 0.000000
0.900166 0.724204 0.000000
0.931817 0.724015 0.000000
0.963460 0.723834 0.000000
0.995097 0.723659 0.000000
1.000000 0.723696 0.000000
0.017006 0.759618 0.000000
0.048648 0.759479 0.000000
0.080277 0.759339 0.000000
0.111895 0.759200 0.000000
0.143502 0.759061 0.000000
0.175097 0.758922 0.000000
0.206680 0.758783 0.000000
0.238252 0.758644 0.000000
0.269812 0.758505 0.000000
0.301360 0.758366 0.000000
0.332897 0.758227 0.000000
0.364422 0.758087 0.000000
0.395936 0.757948 0.000000
0.427438 0.757809 0.000000
0.458929 0.757670 0.000000
0.490408 0.757531 0.000000
0.521875 0.757392 0.000000
0.553331 0.757253 0.000000
0.584775 0.757114 0.000000
0.616208 0.756975 0.000000
0.647629 0.756836 0.000000
0.679038 0.756696 0.000000
0.710436 0.756557 0.000000
0.741822 0.756418 0.000000
0.773029 0.756116 0.000000
0.804695 0.755887 0.000000
0.836354 0.755668 0.000000
0.868007 0.755460 0.000000
0.899653 0.755261 0.000000
0.931292 0.755069 0.000000
0.962924 0.754885 0.000000
0.994550 0.754708 0.000000
1.000000 0.754736 0.000000
0.017396 0.790622 0.000000
0.049012 0.790479 0.000000
0.080616 0.790337 0.000000
0.112209 0.790194 0.000000
0.143790 0.790052 0.000000
0.175360 0.789909 0.000000
0.206918 0.789767 0.000000
0.238465 0.789624 0.000000
0.270001 0.789482 0.000000
0.301525 0.789339 0.000000
0.333038 0.789197 0.000000
0.364540 0.789054 0.000000
0.396030 0.788912 0.000000
0.427509 0.788769 0.000000
0.458976 0.788627 0.000000
0.490432 0.788484 0.000000
0.521877 0.788342 0.000000
0.553310 0.788199 0.000000
0.584732 0.788057 0.000000
0.616142 0.787915 0.000000
0.647541 0.787772 0.000000
0.678928 0.787630 0.000000
0.710305 0.787487 0.000000
0.741669 0.787345 0.000000
0.773023 0.787202 0.000000
0.804216 0.786915 0.000000
0.835864 0.786694 0.000000
0.867505 0.786484 0.000000
0.899140 0.786282 0.000000
0.930767 0.786088 0.000000
0.962388 0.785901 0.000000
0.994002 0.785721 0.000000
1.000000 0.785742 0.000000
0.017787 0.821603 0.000000
0.049377 0.821457 0.000000
0.080957 0.821311 0.000000
0.112526 0.821165 0.000000
0.144083 0.821019 0.000000
0.175629 0.820874 0.000000
0.207164 0.820728 0.000000
0.238687 0.820582 0.000000
0.270200 0.820436 0.000000
0.301701 0.820290 0.000000
0.333191 0.820144 0.000000
0.364670 0.819998 0.000000
0.396137 0.819853 0.000000
0.427593 0.819707 0.000000
0.459038 0.819561 0.000000
0.490472 0.819415 0.000000
0.521895 0.819269 0.000000
0.553306 0.819123 0.000000
0.584706 0.818977 0.000000
0.616095 0.818832 0.000000
0.647473 0.818686 0.000000
0.678840 0.818540 0.000000
0.710195 0.818394 0.000000
0.741539 0.818248 0.000000
0.772872 0.818102 0.000000
0.804193 0.817957 0.000000
0.835373 0.817683 0.000000
