luts/original/clean-viral.cube
TITLE "Clean Viral"
LUT_3D_SIZE 33
DOMAIN_MIN 0.0 0.0 0.0
DOMAIN_MAX 1.0 1.0 1.0
0.000000 0.000000 0.000000
0.024308 0.000000 0.000000
0.050482 0.000000 0.000000
0.078389 0.000000 0.000000
0.107896 0.000000 0.000000
0.138869 0.000000 0.000000
0.171176 0.000000 0.000000
0.204682 0.000000 0.000000
0.239254 0.000000 0.000000
0.274760 0.000000 0.000000
0.311066 0.000000 0.000000
0.348038 0.000000 0.000000
0.385544 0.000000 0.000000
0.423450 0.000000 0.000000
0.461623 0.000000 0.000000
0.499929 0.000000 0.000000
0.538236 0.000000 0.000000
0.576409 0.000000 0.000000
0.614316 0.000000 0.000000
0.651824 0.000000 0.000000
0.688799 0.000000 0.000000
0.725107 0.000000 0.000000
0.760616 0.000000 0.000000
0.795192 0.000000 0.000000
0.828703 0.000000 0.000000
0.861014 0.000000 0.000000
0.891992 0.000000 0.000000
0.921505 0.000000 0.000000
0.949418 0.000000 0.000000
0.975599 0.000000 0.000000
0.999914 0.000000 0.000000
1.000000 0.000000 0.000000
1.000000 0.000000 0.000000
0.000000 0.024058 0.000000
0.023952 0.023952 0.000000
0.050101 0.023847 0.000000
0.077985 0.023741 0.000000
0.107470 0.023636 0.000000
0.138424 0.023530 0.000000
0.170712 0.023425 0.000000
0.204202 0.023319 0.000000
0.238761 0.023214 0.000000
0.274254 0.023108 0.000000
0.310550 0.023003 0.000000
0.347514 0.022898 0.000000
0.385013 0.022792 0.000000
0.422914 0.022687 0.000000
0.461084 0.022582 0.000000
0.499389 0.022477 0.000000
0.537697 0.022371 0.000000
0.575873 0.022266 0.000000
0.613785 0.022161 0.000000
0.651299 0.022056 0.000000
0.688282 0.021951 0.000000
0.724601 0.021846 0.000000
0.760122 0.021741 0.000000
0.794713 0.021636 0.000000
0.828239 0.021531 0.000000
0.860568 0.021426 0.000000
0.891566 0.021322 0.000000
0.921100 0.021217 0.000000
0.949036 0.021112 0.000000
0.975243 0.021007 0.000000
0.999585 0.020903 0.000000
1.000000 0.020798 0.000000
1.000000 0.020693 0.000000
0.000000 0.049947 0.000000
0.023597 0.049834 0.000000
0.049721 0.049721 0.000000
0.077581 0.049608 0.000000
0.107044 0.049495 0.000000
0.137978 0.049382 0.000000
0.170249 0.049269 0.000000
0.203723 0.049156 0.000000
0.238267 0.049043 0.000000
0.273749 0.048930 0.000000
0.310034 0.048817 0.000000
0.346989 0.048704 0.000000
0.384482 0.048591 0.000000
0.422378 0.048479 0.000000
0.460545 0.048366 0.000000
0.498850 0.048253 0.000000
0.537158 0.048141 0.000000
0.575337 0.048028 0.000000
0.613254 0.047915 0.000000
0.650774 0.047803 0.000000
0.687766 0.047690 0.000000
0.724095 0.047578 0.000000
0.759628 0.047465 0.000000
0.794233 0.047353 0.000000
0.827775 0.047240 0.000000
0.860121 0.047128 0.000000
0.891139 0.047015 0.000000
0.920695 0.046903 0.000000
0.948655 0.046791 0.000000
0.974886 0.046679 0.000000
0.999256 0.046566 0.000000
1.000000 0.046454 0.000000
1.000000 0.046342 0.000000
0.000000 0.077537 0.000000
0.023242 0.077417 0.000000
0.049340 0.077297 0.000000
0.077177 0.077177 0.000000
0.106619 0.077057 0.000000
0.137533 0.076937 0.000000
0.169786 0.076817 0.000000
0.203244 0.076697 0.000000
0.237774 0.076578 0.000000
0.273243 0.076458 0.000000
0.309518 0.076338 0.000000
0.346465 0.076218 0.000000
0.383951 0.076098 0.000000
0.421842 0.075979 0.000000
0.460007 0.075859 0.000000
0.498310 0.075739 0.000000
0.536619 0.075620 0.000000
0.574801 0.075500 0.000000
0.612722 0.075381 0.000000
0.650249 0.075261 0.000000
0.687249 0.075142 0.000000
0.723588 0.075022 0.000000
0.759134 0.074903 0.000000
0.793752 0.074783 0.000000
0.827310 0.074664 0.000000
0.859675 0.074544 0.000000
0.890712 0.074425 0.000000
0.920289 0.074306 0.000000
0.948273 0.074186 0.000000
0.974529 0.074067 0.000000
0.998926 0.073948 0.000000
1.000000 0.073829 0.000000
1.000000 0.073710 0.000000
0.000000 0.106699 0.000000
0.022888 0.106573 0.000000
0.048961 0.106447 0.000000
0.076774 0.106320 0.000000
0.106194 0.106194 0.000000
0.137088 0.106068 0.000000
0.169323 0.105941 0.000000
0.202765 0.105815 0.000000
0.237281 0.105689 0.000000
0.272738 0.105563 0.000000
0.309002 0.105436 0.000000
0.345940 0.105310 0.000000
0.383420 0.105184 0.000000
0.421307 0.105058 0.000000
0.459468 0.104932 0.000000
0.497770 0.104806 0.000000
0.536080 0.104680 0.000000
0.574265 0.104554 0.000000
0.612191 0.104428 0.000000
0.649724 0.104302 0.000000
0.686732 0.104176 0.000000
0.723082 0.104050 0.000000
0.758640 0.103924 0.000000
0.793272 0.103798 0.000000
0.826846 0.103672 0.000000
0.859228 0.103547 0.000000
0.890285 0.103421 0.000000
0.919883 0.103295 0.000000
0.947890 0.103169 0.000000
0.974172 0.103044 0.000000
0.998596 0.102918 0.000000
1.000000 0.102792 0.000000
1.000000 0.102667 0.000000
0.000000 0.137304 0.000000
0.022534 0.137172 0.000000
0.048581 0.137040 0.000000
0.076371 0.136908 0.000000
0.105769 0.136776 0.000000
0.136643 0.136643 0.000000
0.168860 0.136511 0.000000
0.202286 0.136379 0.000000
0.236788 0.136247 0.000000
0.272232 0.136115 0.000000
0.308486 0.135983 0.000000
0.345416 0.135851 0.000000
0.382889 0.135719 0.000000
0.420771 0.135587 0.000000
0.458929 0.135455 0.000000
0.497230 0.135323 0.000000
0.535541 0.135191 0.000000
0.573729 0.135059 0.000000
0.611659 0.134927 0.000000
0.649199 0.134796 0.000000
0.686215 0.134664 0.000000
0.722575 0.134532 0.000000
0.758145 0.134400 0.000000
0.792791 0.134269 0.000000
0.826381 0.134137 0.000000
0.858781 0.134005 0.000000
0.889857 0.133874 0.000000
0.919477 0.133742 0.000000
0.947508 0.133610 0.000000
0.973815 0.133479 0.000000
0.998266 0.133347 0.000000
1.000000 0.133216 0.000000
1.000000 0.133084 0.000000
0.000000 0.169223 0.000000
0.022180 0.169085 0.000000
0.048202 0.168948 0.000000
0.075968 0.168810 0.000000
0.105345 0.168673 0.000000
0.136199 0.168535 0.000000
0.168398 0.168398 0.000000
0.201808 0.168260 0.000000
0.236295 0.168123 0.000000
0.271727 0.167986 0.000000
0.307971 0.167848 0.000000
0.344892 0.167711 0.000000
0.382358 0.167574 0.000000
0.420235 0.167436 0.000000
0.458391 0.167299 0.000000
0.496691 0.167162 0.000000
0.535002 0.167025 0.000000
0.573192 0.166887 0.000000
0.611127 0.166750 0.000000
0.648674 0.166613 0.000000
0.685698 0.166476 0.000000
0.722068 0.166339 0.000000
0.757650 0.166202 0.000000
0.792310 0.166065 0.000000
0.825916 0.165928 0.000000
0.858333 0.165791 0.000000
0.889429 0.165654 0.000000
0.919071 0.165517 0.000000
0.947124 0.165380 0.000000
0.973457 0.165243 0.000000
0.997935 0.165106 0.000000
1.000000 0.164969 0.000000
1.000000 0.164832 0.000000
0.000000 0.202325 0.000000
0.021827 0.202183 0.000000
0.047823 0.202040 0.000000
0.075565 0.201898 0.000000
0.104920 0.201756 0.000000
0.135755 0.201614 0.000000
0.167936 0.201471 0.000000
0.201329 0.201329 0.000000
0.235803 0.201187 0.000000
0.271222 0.201045 0.000000
0.307455 0.200903 0.000000
0.344368 0.200761 0.000000
0.381827 0.200619 0.000000
0.419700 0.200477 0.000000
0.457852 0.200335 0.000000
0.496151 0.200193 0.000000
0.534463 0.200051 0.000000
0.572656 0.199909 0.000000
0.610595 0.199767 0.000000
0.648148 0.199625 0.000000
0.685181 0.199483 0.000000
0.721561 0.199341 0.000000
0.757155 0.199199 0.000000
0.791829 0.199057 0.000000
0.825451 0.198916 0.000000
0.857886 0.198774 0.000000
0.889001 0.198632 0.000000
0.918664 0.198490 0.000000
0.946741 0.198349 0.000000
0.973099 0.198207 0.000000
0.997604 0.198065 0.000000
1.000000 0.197923 0.000000
1.000000 0.197782 0.000000
0.000000 0.236482 0.000000
0.021474 0.236335 0.000000
0.047444 0.236189 0.000000
0.075163 0.236042 0.000000
0.104496 0.235896 0.000000
0.135311 0.235749 0.000000
0.167474 0.235603 0.000000
0.200851 0.235457 0.000000
0.235310 0.235310 0.000000
0.270718 0.235164 0.000000
0.306940 0.235018 0.000000
0.343844 0.234871 0.000000
0.381296 0.234725 0.000000
0.419164 0.234579 0.000000
0.457313 0.234433 0.000000
0.495611 0.234286 0.000000
0.533924 0.234140 0.000000
0.572120 0.233994 0.000000
0.610063 0.233848 0.000000
0.647623 0.233702 0.000000
0.684664 0.233556 0.000000
0.721054 0.233410 0.000000
0.756660 0.233263 0.000000
0.791348 0.233117 0.000000
0.824985 0.232971 0.000000
0.857438 0.232825 0.000000
0.888573 0.232679 0.000000
0.918257 0.232533 0.000000
0.946357 0.232387 0.000000
0.972740 0.232241 0.000000
0.997272 0.232095 0.000000
1.000000 0.231949 0.000000
1.000000 0.231803 0.000000
0.000000 0.271563 0.000000
0.021121 0.271413 0.000000
0.047066 0.271263 0.000000
0.074761 0.271113 0.000000
0.104073 0.270963 0.000000
0.134867 0.270813 0.000000
0.167012 0.270663 0.000000
0.200373 0.270513 0.000000
0.234818 0.270363 0.000000
0.270213 0.270213 0.000000
0.306425 0.270063 0.000000
0.343320 0.269913 0.000000
0.380766 0.269763 0.000000
0.418628 0.269613 0.000000
0.456775 0.269463 0.000000
0.495072 0.269314 0.000000
0.533385 0.269164 0.000000
0.571583 0.269014 0.000000
0.609531 0.268864 0.000000
0.647097 0.268714 0.000000
0.684147 0.268564 0.000000
0.720547 0.268415 0.000000
0.756165 0.268265 0.000000
0.790866 0.268115 0.000000
0.824519 0.267965 0.000000
0.856990 0.267815 0.000000
0.888144 0.267666 0.000000
0.917850 0.267516 0.000000
0.945973 0.267366 0.000000
0.972381 0.267217 0.000000
0.996940 0.267067 0.000000
1.000000 0.266917 0.000000
1.000000 0.266768 0.000000
0.000000 0.307441 0.000000
0.020769 0.307288 0.000000
0.046688 0.307135 0.000000
0.074360 0.306982 0.000000
0.103649 0.306829 0.000000
0.134424 0.306675 0.000000
0.166551 0.306522 0.000000
0.199896 0.306369 0.000000
0.234326 0.306216 0.000000
0.269709 0.306063 0.000000
0.305910 0.305910 0.000000
0.342797 0.305757 0.000000
0.380235 0.305604 0.000000
0.418093 0.305451 0.000000
0.456236 0.305298 0.000000
0.494532 0.305145 0.000000
0.532846 0.304992 0.000000
0.571047 0.304839 0.000000
0.608999 0.304686 0.000000
0.646571 0.304533 0.000000
0.683629 0.304380 0.000000
0.720039 0.304227 0.000000
0.755669 0.304074 0.000000
0.790385 0.303921 0.000000
0.824053 0.303768 0.000000
0.856541 0.303615 0.000000
0.887715 0.303462 0.000000
0.917442 0.303310 0.000000
0.945589 0.303157 0.000000
0.972022 0.303004 0.000000
0.996608 0.302851 0.000000
1.000000 0.302698 0.000000
1.000000 0.302545 0.000000
0.000000 0.343985 0.000000
0.020417 0.343830 0.000000
0.046311 0.343674 0.000000
0.073958 0.343518 0.000000
0.103226 0.343363 0.000000
0.133981 0.343207 0.000000
0.166089 0.343051 0.000000
0.199418 0.342896 0.000000
0.233834 0.342740 0.000000
0.269204 0.342584 0.000000
0.305395 0.342429 0.000000
0.342273 0.342273 0.000000
0.379705 0.342117 0.000000
0.417558 0.341962 0.000000
0.455698 0.341806 0.000000
0.493992 0.341651 0.000000
0.532307 0.341495 0.000000
0.570510 0.341339 0.000000
0.608467 0.341184 0.000000
0.646045 0.341028 0.000000
0.683111 0.340873 0.000000
0.719532 0.340717 0.000000
0.755173 0.340562 0.000000
0.789903 0.340406 0.000000
0.823587 0.340251 0.000000
0.856092 0.340095 0.000000
0.887286 0.339940 0.000000
0.917034 0.339784 0.000000
0.945204 0.339629 0.000000
0.971662 0.339473 0.000000
0.996275 0.339318 0.000000
1.000000 0.339162 0.000000
1.000000 0.339007 0.000000
0.000000 0.381067 0.000000
0.020066 0.380909 0.000000
0.045934 0.380751 0.000000
0.073557 0.380594 0.000000
0.102803 0.380436 0.000000
0.133538 0.380278 0.000000
0.165628 0.380121 0.000000
0.198941 0.379963 0.000000
0.233343 0.379805 0.000000
0.268700 0.379648 0.000000
0.304880 0.379490 0.000000
0.341749 0.379332 0.000000
0.379175 0.379175 0.000000
0.417022 0.379017 0.000000
0.455159 0.378859 0.000000
0.493452 0.378702 0.000000
0.531768 0.378544 0.000000
0.569973 0.378386 0.000000
0.607935 0.378229 0.000000
0.645519 0.378071 0.000000
0.682594 0.377914 0.000000
0.719024 0.377756 0.000000
0.754677 0.377599 0.000000
0.789421 0.377441 0.000000
0.823120 0.377283 0.000000
0.855643 0.377126 0.000000
0.886856 0.376968 0.000000
0.916626 0.376811 0.000000
0.944819 0.376653 0.000000
0.971302 0.376496 0.000000
0.995942 0.376338 0.000000
1.000000 0.376181 0.000000
1.000000 0.376023 0.000000
0.000000 0.418556 0.000000
0.019714 0.418397 0.000000
0.045557 0.418237 0.000000
0.073157 0.418078 0.000000
0.102381 0.417919 0.000000
0.133096 0.417760 0.000000
0.165168 0.417601 0.000000
0.198464 0.417442 0.000000
0.232851 0.417283 0.000000
0.268196 0.417123 0.000000
0.304366 0.416964 0.000000
0.341226 0.416805 0.000000
0.378644 0.416646 0.000000
0.416487 0.416487 0.000000
0.454621 0.416328 0.000000
0.492913 0.416169 0.000000
0.531229 0.416010 0.000000
0.569437 0.415851 0.000000
0.607403 0.415691 0.000000
0.644993 0.415532 0.000000
0.682076 0.415373 0.000000
0.718516 0.415214 0.000000
0.754181 0.415055 0.000000
0.788938 0.414896 0.000000
0.822654 0.414737 0.000000
0.855194 0.414578 0.000000
0.886427 0.414419 0.000000
0.916217 0.414260 0.000000
0.944433 0.414101 0.000000
0.970941 0.413942 0.000000
0.995608 0.413783 0.000000
1.000000 0.413624 0.000000
1.000000 0.413465 0.000000
0.000000 0.456323 0.000000
0.019364 0.456163 0.000000
0.045181 0.456003 0.000000
0.072757 0.455843 0.000000
0.101959 0.455683 0.000000
0.132653 0.455523 0.000000
0.164707 0.455363 0.000000
0.197987 0.455203 0.000000
0.232360 0.455043 0.000000
0.267693 0.454883 0.000000
0.303851 0.454723 0.000000
0.340703 0.454563 0.000000
0.378114 0.454402 0.000000
0.415952 0.454242 0.000000
0.454082 0.454082 0.000000
0.492373 0.453922 0.000000
0.530690 0.453762 0.000000
0.568900 0.453602 0.000000
0.606870 0.453442 0.000000
0.644467 0.453282 0.000000
0.681558 0.453122 0.000000
0.718008 0.452962 0.000000
0.753685 0.452802 0.000000
0.788456 0.452642 0.000000
0.822187 0.452482 0.000000
0.854745 0.452322 0.000000
0.885996 0.452162 0.000000
0.915808 0.452002 0.000000
0.944048 0.451842 0.000000
0.970581 0.451682 0.000000
0.995274 0.451522 0.000000
1.000000 0.451362 0.000000
1.000000 0.451202 0.000000
0.000000 0.494240 0.000000
0.019013 0.494079 0.000000
0.044805 0.493919 0.000000
0.072357 0.493758 0.000000
0.101537 0.493598 0.000000
0.132211 0.493438 0.000000
0.164247 0.493277 0.000000
0.197511 0.493117 0.000000
0.231869 0.492956 0.000000
0.267189 0.492796 0.000000
0.303337 0.492635 0.000000
0.340180 0.492475 0.000000
0.377584 0.492314 0.000000
0.415416 0.492154 0.000000
0.453544 0.491994 0.000000
0.491833 0.491833 0.000000
0.530151 0.491673 0.000000
0.568363 0.491512 0.000000
0.606338 0.491352 0.000000
0.643941 0.491191 0.000000
0.681039 0.491031 0.000000
0.717500 0.490871 0.000000
0.753189 0.490710 0.000000
0.787973 0.490550 0.000000
0.821720 0.490389 0.000000
0.854295 0.490229 0.000000
0.885566 0.490068 0.000000
0.915399 0.489908 0.000000
0.943661 0.489748 0.000000
0.970219 0.489587 0.000000
0.994940 0.489427 0.000000
1.000000 0.489266 0.000000
1.000000 0.489106 0.000000
0.000000 0.532176 0.000000
0.018663 0.532016 0.000000
0.044429 0.531855 0.000000
0.071957 0.531695 0.000000
0.101115 0.531535 0.000000
0.131770 0.531375 0.000000
0.163787 0.531214 0.000000
0.197034 0.531054 0.000000
0.231378 0.530894 0.000000
0.266686 0.530733 0.000000
0.302823 0.530573 0.000000
0.339657 0.530413 0.000000
0.377054 0.530253 0.000000
0.414881 0.530092 0.000000
0.453006 0.529932 0.000000
0.491293 0.529772 0.000000
0.529612 0.529612 0.000000
0.567827 0.529451 0.000000
0.605805 0.529291 0.000000
0.643415 0.529131 0.000000
0.680521 0.528970 0.000000
0.716991 0.528810 0.000000
0.752692 0.528650 0.000000
0.787490 0.528490 0.000000
0.821252 0.528329 0.000000
0.853845 0.528169 0.000000
0.885135 0.528009 0.000000
0.914990 0.527848 0.000000
0.943275 0.527688 0.000000
0.969858 0.527528 0.000000
0.994605 0.527367 0.000000
1.000000 0.527207 0.000000
1.000000 0.527047 0.000000
0.000000 0.570002 0.000000
0.018314 0.569843 0.000000
0.044053 0.569683 0.000000
0.071558 0.569524 0.000000
0.100694 0.569364 0.000000
0.131328 0.569205 0.000000
0.163327 0.569045 0.000000
0.196558 0.568885 0.000000
0.230888 0.568726 0.000000
0.266182 0.568566 0.000000
0.302309 0.568407 0.000000
0.339134 0.568247 0.000000
0.376524 0.568088 0.000000
0.414346 0.567928 0.000000
0.452467 0.567769 0.000000
0.490754 0.567609 0.000000
0.529072 0.567449 0.000000
0.567290 0.567290 0.000000
0.605273 0.567130 0.000000
0.642888 0.566971 0.000000
0.680003 0.566811 0.000000
0.716483 0.566651 0.000000
0.752195 0.566492 0.000000
0.787007 0.566332 0.000000
0.820785 0.566173 0.000000
0.853395 0.566013 0.000000
0.884704 0.565853 0.000000
0.914580 0.565694 0.000000
0.942888 0.565534 0.000000
0.969496 0.565375 0.000000
0.994270 0.565215 0.000000
1.000000 0.565055 0.000000
1.000000 0.564896 0.000000
0.000000 0.607589 0.000000
0.017965 0.607431 0.000000
0.043678 0.607273 0.000000
0.071159 0.607115 0.000000
0.100273 0.606956 0.000000
0.130887 0.606798 0.000000
0.162868 0.606640 0.000000
0.196082 0.606482 0.000000
0.230397 0.606323 0.000000
0.265679 0.606165 0.000000
0.301795 0.606007 0.000000
0.338611 0.605848 0.000000
0.375994 0.605690 0.000000
0.413811 0.605532 0.000000
0.451929 0.605374 0.000000
0.490214 0.605215 0.000000
0.528533 0.605057 0.000000
0.566753 0.604899 0.000000
0.604740 0.604740 0.000000
0.642362 0.604582 0.000000
0.679484 0.604424 0.000000
0.715974 0.604265 0.000000
0.751698 0.604107 0.000000
0.786524 0.603948 0.000000
0.820317 0.603790 0.000000
0.852944 0.603632 0.000000
0.884273 0.603473 0.000000
0.914170 0.603315 0.000000
0.942501 0.603156 0.000000
0.969134 0.602998 0.000000
0.993934 0.602840 0.000000
1.000000 0.602681 0.000000
1.000000 0.602523 0.000000
0.000000 0.644808 0.000000
0.017616 0.644652 0.000000
0.043304 0.644495 0.000000
0.070760 0.644339 0.000000
0.099852 0.644183 0.000000
0.130446 0.644026 0.000000
0.162409 0.643870 0.000000
0.195607 0.643713 0.000000
0.229907 0.643557 0.000000
0.265176 0.643400 0.000000
0.301281 0.643244 0.000000
0.338088 0.643087 0.000000
0.375464 0.642931 0.000000
0.413276 0.642774 0.000000
0.451391 0.642618 0.000000
0.489674 0.642461 0.000000
0.527994 0.642305 0.000000
0.566216 0.642148 0.000000
0.604208 0.641992 0.000000
0.641835 0.641835 0.000000
0.678965 0.641678 0.000000
0.715465 0.641522 0.000000
0.751201 0.641365 0.000000
0.786040 0.641209 0.000000
0.819849 0.641052 0.000000
0.852494 0.640896 0.000000
0.883842 0.640739 0.000000
0.913759 0.640582 0.000000
0.942114 0.640426 0.000000
0.968771 0.640269 0.000000
0.993598 0.640112 0.000000
1.000000 0.639956 0.000000
1.000000 0.639799 0.000000
0.000000 0.681529 0.000000
0.017267 0.681375 0.000000
0.042929 0.681221 0.000000
0.070362 0.681067 0.000000
0.099432 0.680913 0.000000
0.130005 0.680759 0.000000
0.161950 0.680605 0.000000
0.195131 0.680451 0.000000
0.229417 0.680297 0.000000
0.264673 0.680143 0.000000
0.300767 0.679988 0.000000
0.337566 0.679834 0.000000
0.374935 0.679680 0.000000
0.412741 0.679526 0.000000
0.450853 0.679372 0.000000
0.489135 0.679218 0.000000
0.527455 0.679063 0.000000
0.565679 0.678909 0.000000
0.603675 0.678755 0.000000
0.641308 0.678601 0.000000
0.678447 0.678447 0.000000
0.714956 0.678292 0.000000
0.750704 0.678138 0.000000
0.785556 0.677984 0.000000
0.819380 0.677830 0.000000
0.852043 0.677675 0.000000
0.883410 0.677521 0.000000
0.913348 0.677367 0.000000
0.941726 0.677212 0.000000
0.968408 0.677058 0.000000
0.993262 0.676904 0.000000
1.000000 0.676749 0.000000
1.000000 0.676595 0.000000
0.000000 0.717623 0.000000
0.016919 0.717472 0.000000
0.042555 0.717321 0.000000
0.069964 0.717170 0.000000
0.099012 0.717018 0.000000
0.129565 0.716867 0.000000
0.161491 0.716716 0.000000
0.194656 0.716565 0.000000
0.228927 0.716414 0.000000
0.264171 0.716263 0.000000
0.300254 0.716111 0.000000
0.337043 0.715960 0.000000
0.374405 0.715809 0.000000
0.412207 0.715658 0.000000
0.450314 0.715506 0.000000
0.488595 0.715355 0.000000
0.526915 0.715204 0.000000
0.565142 0.715052 0.000000
0.603142 0.714901 0.000000
0.640781 0.714750 0.000000
0.677928 0.714598 0.000000
0.714447 0.714447 0.000000
0.750206 0.714296 0.000000
0.785072 0.714144 0.000000
0.818912 0.713993 0.000000
0.851591 0.713841 0.000000
0.882978 0.713690 0.000000
0.912937 0.713539 0.000000
0.941338 0.713387 0.000000
0.968045 0.713236 0.000000
0.992925 0.713084 0.000000
1.000000 0.712933 0.000000
1.000000 0.712781 0.000000
0.000000 0.752960 0.000000
0.016571 0.752812 0.000000
0.042182 0.752665 0.000000
0.069566 0.752517 0.000000
0.098592 0.752370 0.000000
0.129125 0.752222 0.000000
0.161032 0.752074 0.000000
0.194181 0.751926 0.000000
0.228437 0.751779 0.000000
0.263668 0.751631 0.000000
0.299741 0.751483 0.000000
0.336521 0.751335 0.000000
0.373876 0.751188 0.000000
0.411672 0.751040 0.000000
0.449776 0.750892 0.000000
0.488055 0.750744 0.000000
0.526376 0.750596 0.000000
0.564605 0.750448 0.000000
0.602609 0.750300 0.000000
0.640255 0.750152 0.000000
0.677409 0.750005 0.000000
0.713938 0.749857 0.000000
0.749709 0.749709 0.000000
0.784588 0.749561 0.000000
0.818443 0.749413 0.000000
0.851140 0.749265 0.000000
0.882545 0.749117 0.000000
0.912526 0.748969 0.000000
0.940949 0.748821 0.000000
0.967681 0.748672 0.000000
0.992588 0.748524 0.000000
1.000000 0.748376 0.000000
1.000000 0.748228 0.000000
0.000000 0.787411 0.000000
0.016224 0.787268 0.000000
0.041808 0.787124 0.000000
0.069169 0.786981 0.000000
0.098172 0.786837 0.000000
0.128685 0.786693 0.000000
0.160574 0.786549 0.000000
0.193706 0.786406 0.000000
0.227948 0.786262 0.000000
0.263166 0.786118 0.000000
0.299227 0.785974 0.000000
0.335999 0.785831 0.000000
0.373346 0.785687 0.000000
0.411137 0.785543 0.000000
0.449238 0.785399 0.000000
0.487516 0.785255 0.000000
0.525837 0.785111 0.000000
0.564068 0.784968 0.000000
0.602076 0.784824 0.000000
0.639728 0.784680 0.000000
0.676889 0.784536 0.000000
0.713428 0.784392 0.000000
0.749211 0.784248 0.000000
0.784104 0.784104 0.000000
0.817974 0.783960 0.000000
0.850688 0.783816 0.000000
0.882112 0.783672 0.000000
0.912114 0.783528 0.000000
0.940560 0.783383 0.000000
0.967317 0.783239 0.000000
0.992251 0.783095 0.000000
1.000000 0.782951 0.000000
1.000000 0.782807 0.000000
0.000000 0.820847 0.000000
0.015877 0.820708 0.000000
0.041436 0.820569 0.000000
0.068772 0.820430 0.000000
0.097753 0.820291 0.000000
0.128245 0.820152 0.000000
0.160116 0.820013 0.000000
0.193232 0.819874 0.000000
0.227459 0.819734 0.000000
0.262664 0.819595 0.000000
0.298714 0.819456 0.000000
0.335476 0.819317 0.000000
0.372817 0.819177 0.000000
0.410603 0.819038 0.000000
0.448700 0.818899 0.000000
0.486976 0.818760 0.000000
0.525297 0.818620 0.000000
0.563531 0.818481 0.000000
0.601543 0.818341 0.000000
0.639200 0.818202 0.000000
0.676370 0.818063 0.000000
0.712919 0.817923 0.000000
0.748713 0.817784 0.000000
0.783619 0.817644 0.000000
0.817505 0.817505 0.000000
0.850236 0.817365 0.000000
0.881680 0.817226 0.000000
0.911702 0.817086 0.000000
0.940171 0.816946 0.000000
0.966952 0.816807 0.000000
0.991913 0.816667 0.000000
1.000000 0.816527 0.000000
1.000000 0.816388 0.000000
0.000000 0.853139 0.000000
0.015531 0.853005 0.000000
0.041063 0.852871 0.000000
0.068375 0.852737 0.000000
0.097334 0.852603 0.000000
0.127806 0.852469 0.000000
0.159658 0.852335 0.000000
0.192757 0.852201 0.000000
0.226970 0.852067 0.000000
0.262162 0.851932 0.000000
0.298201 0.851798 0.000000
0.334954 0.851664 0.000000
0.372288 0.851530 0.000000
0.410068 0.851396 0.000000
0.448162 0.851262 0.000000
0.486436 0.851127 0.000000
0.524758 0.850993 0.000000
0.562994 0.850859 0.000000
0.601010 0.850724 0.000000
0.638673 0.850590 0.000000
0.675851 0.850456 0.000000
0.712409 0.850321 0.000000
0.748215 0.850187 0.000000
0.783134 0.850052 0.000000
0.817035 0.849918 0.000000
0.849784 0.849784 0.000000
0.881246 0.849649 0.000000
0.911290 0.849515 0.000000
0.939782 0.849380 0.000000
0.966588 0.849245 0.000000
0.991575 0.849111 0.000000
1.000000 0.848976 0.000000
1.000000 0.848842 0.000000
0.000000 0.884156 0.000000
0.015184 0.884028 0.000000
0.040691 0.883899 0.000000
0.067979 0.883771 0.000000
0.096915 0.883643 0.000000
0.127367 0.883514 0.000000
0.159201 0.883386 0.000000
0.192283 0.883258 0.000000
0.226481 0.883129 0.000000
0.261660 0.883001 0.000000
0.297689 0.882872 0.000000
0.334432 0.882744 0.000000
0.371758 0.882615 0.000000
0.409533 0.882486 0.000000
0.447624 0.882358 0.000000
0.485897 0.882229 0.000000
0.524219 0.882101 0.000000
0.562456 0.881972 0.000000
0.600476 0.881843 0.000000
0.638146 0.881715 0.000000
0.675331 0.881586 0.000000
0.711899 0.881457 0.000000
0.747716 0.881328 0.000000
0.782649 0.881199 0.000000
0.816565 0.881071 0.000000
0.849331 0.880942 0.000000
0.880813 0.880813 0.000000
