luts/original/cocoa-soft.cube
TITLE "Cocoa Soft"
LUT_3D_SIZE 9
DOMAIN_MIN 0.0 0.0 0.0
DOMAIN_MAX 1.0 1.0 1.0
0.022676 0.008222 0.008222
0.152653 0.008772 0.008772
0.282523 0.008810 0.008810
0.412284 0.008335 0.008335
0.541938 0.007349 0.007349
0.671483 0.005851 0.005851
0.800921 0.003840 0.003840
0.930251 0.001318 0.001318
1.000000 0.000000 0.000000
0.026110 0.134726 0.008453
0.151689 0.134048 0.007827
0.281377 0.134062 0.007687
0.410957 0.133593 0.007035
0.540429 0.132620 0.005870
0.669793 0.131139 0.004194
0.799049 0.129149 0.002006
0.928197 0.127247 0.000000
1.000000 0.127220 0.000000
0.028585 0.260413 0.007642
0.154632 0.260072 0.007308
0.280232 0.259295 0.006565
0.409630 0.258834 0.005734
0.538920 0.257877 0.004392
0.668103 0.256416 0.002538
0.797177 0.254445 0.000171
0.926144 0.253933 0.000000
1.000000 0.253863 0.000000
0.030316 0.385736 0.006069
0.156482 0.385342 0.005682
0.282643 0.384947 0.005295
0.408303 0.384060 0.004434
0.537412 0.383121 0.002914
0.666413 0.381679 0.000881
0.795306 0.380604 0.000000
0.924090 0.380058 0.000000
1.000000 0.379932 0.000000
0.031290 0.510697 0.003733
0.157589 0.510249 0.003294
0.283883 0.509800 0.002854
0.410172 0.509352 0.002415
0.535903 0.508350 0.001435
0.664722 0.507122 0.000000
0.793434 0.506287 0.000000
0.922037 0.505621 0.000000
1.000000 0.505431 0.000000
0.031504 0.635294 0.000635
0.157940 0.634792 0.000143
0.284560 0.634290 0.000000
0.411085 0.633787 0.000000
0.537408 0.633285 0.000000
0.663032 0.632314 0.000000
0.791562 0.631378 0.000000
0.919984 0.630624 0.000000
1.000000 0.630364 0.000000
0.034008 0.759529 0.000000
0.160474 0.758972 0.000000
0.286754 0.758416 0.000000
0.412849 0.757859 0.000000
0.538758 0.757303 0.000000
0.664482 0.756747 0.000000
0.789690 0.755877 0.000000
0.917930 0.755066 0.000000
1.000000 0.754736 0.000000
0.037134 0.883400 0.000000
0.163219 0.882789 0.000000
0.289129 0.882179 0.000000
0.414865 0.881568 0.000000
0.540427 0.880958 0.000000
0.665814 0.880348 0.000000
0.791027 0.879737 0.000000
0.915877 0.878946 0.000000
1.000000 0.878549 0.000000
0.040278 1.000000 0.000000
0.166037 1.000000 0.000000
0.291627 1.000000 0.000000
0.417049 1.000000 0.000000
0.542305 1.000000 0.000000
0.667393 1.000000 0.000000
0.792314 1.000000 0.000000
0.917070 1.000000 0.000000
1.000000 1.000000 0.000000
0.027373 0.009678 0.118373
0.152587 0.008707 0.117297
0.282444 0.008733 0.114174
0.412193 0.008246 0.110560
0.541834 0.007247 0.106442
0.671367 0.005737 0.101814
0.800792 0.003714 0.096675
0.930110 0.001179 0.091025
1.000000 0.000000 0.086693
0.025638 0.134660 0.116811
0.151623 0.133568 0.115512
0.281298 0.133232 0.112110
0.410866 0.132572 0.108196
0.540326 0.131433 0.103769
0.669677 0.129794 0.098830
0.798921 0.127648 0.093380
0.928056 0.124993 0.087417
1.000000 0.123188 0.082297
0.028065 0.260334 0.112658
0.154071 0.259994 0.111731
0.280153 0.259035 0.110987
0.409539 0.258217 0.106895
0.538817 0.257020 0.102291
0.667987 0.255358 0.097174
0.797049 0.253206 0.091545
0.926003 0.250554 0.085405
1.000000 0.248728 0.080062
0.029729 0.385645 0.107856
0.155628 0.385251 0.106843
0.282243 0.384856 0.106456
0.408212 0.383842 0.105595
0.537308 0.382590 0.100812
0.666297 0.380907 0.095518
0.795177 0.378750 0.089711
0.923949 0.376102 0.083392
1.000000 0.374256 0.077827
0.030632 0.510593 0.102313
0.156532 0.510145 0.101192
0.283183 0.509697 0.100753
0.409828 0.509248 0.100313
0.535800 0.508143 0.099334
0.664606 0.506442 0.093861
0.793305 0.504281 0.087877
0.921896 0.501638 0.081380
1.000000 0.499769 0.075592
0.030772 0.635178 0.096014
0.156708 0.634676 0.094779
0.283445 0.634173 0.094287
0.410177 0.633671 0.093795
0.536905 0.633169 0.093302
0.662916 0.631962 0.092205
0.791433 0.629799 0.086042
0.919843 0.627162 0.079368
1.000000 0.625269 0.073357
0.030150 0.759400 0.088958
0.156137 0.758844 0.087604
0.282983 0.758287 0.087059
0.409824 0.757731 0.086514
0.536662 0.757174 0.085968
0.663495 0.756618 0.085423
0.789562 0.755304 0.084208
0.917789 0.752673 0.077355
1.000000 0.750755 0.071122
0.028765 0.883259 0.081141
0.154811 0.882648 0.079667
0.281778 0.882038 0.079069
0.408741 0.881427 0.078471
0.535700 0.880817 0.077873
0.662655 0.880207 0.077274
0.789606 0.879596 0.076676
0.915736 0.878172 0.075343
1.000000 0.876228 0.068887
0.026754 1.000000 0.072698
0.152850 1.000000 0.071090
0.279933 1.000000 0.070425
0.407012 1.000000 0.069761
0.534087 1.000000 0.069096
0.661157 1.000000 0.068432
0.788224 1.000000 0.067768
0.915287 1.000000 0.067103
1.000000 1.000000 0.066652
0.031064 0.010107 0.242009
0.157155 0.009773 0.241669
0.282328 0.008619 0.240443
0.412059 0.008115 0.236993
0.541682 0.007098 0.233047
0.671197 0.005570 0.228597
0.800604 0.003529 0.223637
0.929902 0.000976 0.218168
1.000000 0.000000 0.214134
0.029484 0.135174 0.240864
0.155267 0.133650 0.240523
0.281183 0.132497 0.238638
0.410732 0.131814 0.234579
0.540173 0.130620 0.230167
0.669506 0.128913 0.225291
0.798732 0.126695 0.219925
0.927849 0.123964 0.214058
1.000000 0.122071 0.209052
0.027952 0.260218 0.239191
0.152618 0.259878 0.238079
0.280037 0.257956 0.235874
0.409405 0.256517 0.231764
0.538665 0.255053 0.227141
0.667816 0.253163 0.222007
0.796860 0.250791 0.216360
0.925796 0.247921 0.210202
1.000000 0.245868 0.204836
0.029598 0.385511 0.234464
0.154211 0.385117 0.232709
0.281078 0.384722 0.231325
0.408078 0.383330 0.230463
0.518578 0.378205 0.237831
0.645563 0.377163 0.235175
0.794988 0.376856 0.214526
0.923742 0.373930 0.208189
1.000000 0.371846 0.202601
0.030482 0.510441 0.229054
0.155043 0.509993 0.226976
0.281518 0.509544 0.225603
0.409064 0.509096 0.225164
0.535647 0.507743 0.224184
0.644718 0.502736 0.234347
0.793116 0.502904 0.212691
0.921689 0.499925 0.206177
1.000000 0.497805 0.200366
0.030604 0.635008 0.222910
0.155112 0.634505 0.220555
0.281477 0.634003 0.219120
0.408881 0.633500 0.218627
0.536279 0.632998 0.218135
0.662746 0.631598 0.217038
0.791244 0.628936 0.210857
0.919635 0.625904 0.204165
1.000000 0.623747 0.198131
0.029964 0.759211 0.216016
0.154419 0.758655 0.213399
0.280759 0.758098 0.211874
0.408155 0.757542 0.211329
0.535546 0.756985 0.210783
0.662931 0.756429 0.210238
0.789373 0.754952 0.209023
0.917582 0.751870 0.202152
1.000000 0.749670 0.195896
0.028562 0.883051 0.208368
0.152964 0.882441 0.205492
0.279316 0.881831 0.203866
0.406762 0.881220 0.203268
0.534204 0.880610 0.202669
0.661640 0.879999 0.202071
0.789073 0.879389 0.201473
0.915529 0.877820 0.200140
1.000000 0.875575 0.193661
0.026528 1.000000 0.200094
0.150864 1.000000 0.196949
0.277238 1.000000 0.195200
0.404755 1.000000 0.194535
0.532266 1.000000 0.193871
0.659772 1.000000 0.193206
0.787273 1.000000 0.192542
0.914768 1.000000 0.191878
1.000000 1.000000 0.191426
0.034352 0.010093 0.365608
0.160554 0.009707 0.365214
0.286749 0.009320 0.364820
0.411925 0.007983 0.363424
0.541530 0.006949 0.359652
0.671026 0.005402 0.355378
0.800415 0.003344 0.350598
0.929695 0.000773 0.345310
1.000000 0.000000 0.341516
0.032543 0.135014 0.364281
0.157962 0.133406 0.363887
0.285088 0.133020 0.363493
0.410598 0.131683 0.361673
0.540021 0.130470 0.357291
0.669336 0.128746 0.352517
0.798543 0.126509 0.347283
0.927642 0.123761 0.341565
1.000000 0.121845 0.336740
0.031242 0.260491 0.362954
0.155856 0.259208 0.362560
0.282444 0.256719 0.362165
0.409271 0.255382 0.359280
0.538512 0.253992 0.354196
0.667646 0.252090 0.348950
0.796671 0.249675 0.343299
0.925588 0.246748 0.337183
1.000000 0.244610 0.331922
0.029467 0.385377 0.361071
0.154080 0.384983 0.360347
0.278694 0.384588 0.358653
0.407944 0.381638 0.355332
0.537004 0.378975 0.350514
0.665955 0.376678 0.345183
0.794799 0.374024 0.339341
0.923535 0.370912 0.332986
1.000000 0.368601 0.327375
0.030333 0.510289 0.355794
0.154894 0.509840 0.354419
0.279454 0.509392 0.351941
0.407374 0.508943 0.350015
0.535495 0.507039 0.349035
0.644633 0.501948 0.359263
0.771464 0.500437 0.356253
0.898241 0.498781 0.352987
1.000000 0.495180 0.325140
0.030437 0.634837 0.349803
0.154945 0.634335 0.348007
0.279452 0.633832 0.345246
0.406614 0.633330 0.343460
0.535261 0.632827 0.342968
0.662575 0.631088 0.341870
0.770528 0.626351 0.355336
0.897214 0.624597 0.351981
1.000000 0.621732 0.322905
0.029779 0.759022 0.343074
0.154234 0.758466 0.340934
0.278689 0.757909 0.337933
0.405593 0.757353 0.336143
0.533871 0.756796 0.335598
0.662142 0.756240 0.335053
0.789184 0.754510 0.333838
0.896187 0.750405 0.350975
1.000000 0.748259 0.320670
0.028359 0.882844 0.335595
0.152761 0.882234 0.333145
0.277163 0.881623 0.329910
0.403964 0.881013 0.328064
0.532111 0.880402 0.327466
0.660252 0.879792 0.326868
0.788388 0.879182 0.326270
0.915321 0.877407 0.324937
1.000000 0.874760 0.318435
0.026303 1.000000 0.327489
0.150638 1.000000 0.324738
0.274974 1.000000 0.321251
0.401731 1.000000 0.319310
0.529845 1.000000 0.318645
0.657950 1.000000 0.317981
0.786049 1.000000 0.317316
0.914139 1.000000 0.316652
1.000000 1.000000 0.316200
0.037206 0.009638 0.489171
0.163538 0.009198 0.488723
0.289866 0.008759 0.488274
0.416189 0.008319 0.487826
0.541377 0.006800 0.486255
0.670855 0.005235 0.482159
0.800226 0.003159 0.477558
0.929488 0.000570 0.472451
1.000000 0.000000 0.468840
0.035159 0.134475 0.487662
0.160495 0.132720 0.487214
0.287474 0.132280 0.486766
0.414447 0.131841 0.486317
0.539869 0.130321 0.484414
0.669165 0.128579 0.479741
0.798354 0.126324 0.474640
0.927434 0.123558 0.469070
1.000000 0.121620 0.464425
0.033681 0.259917 0.486154
0.158241 0.258104 0.485705
0.284031 0.255802 0.485257
0.412427 0.255362 0.484808
0.538360 0.253843 0.482286
0.667475 0.251922 0.476886
0.796482 0.249490 0.471237
0.925381 0.246545 0.465191
1.000000 0.244385 0.460094
0.032202 0.385341 0.484645
0.156763 0.384343 0.484197
0.281323 0.382536 0.483748
0.408903 0.378884 0.483300
0.536851 0.377364 0.479221
0.665785 0.375266 0.473026
0.794610 0.372655 0.466911
0.923328 0.369533 0.460466
1.000000 0.367150 0.454924
0.030184 0.510137 0.482532
0.154744 0.509688 0.481859
0.279305 0.509240 0.480919
0.403865 0.508791 0.478532
0.535343 0.504614 0.473886
0.664095 0.500607 0.468360
0.792738 0.497447 0.462321
0.921274 0.494015 0.455771
1.000000 0.491424 0.449915
0.030270 0.634666 0.476696
0.154778 0.634164 0.475457
0.279285 0.633662 0.473670
0.403793 0.633159 0.470353
0.532958 0.632657 0.467800
0.662404 0.630164 0.466703
0.770433 0.625338 0.480243
0.897110 0.623330 0.476879
1.000000 0.618879 0.447680
0.029594 0.758833 0.470130
0.154049 0.758277 0.468467
0.278503 0.757720 0.466203
0.402958 0.757164 0.462665
0.530915 0.756608 0.460413
0.660834 0.756051 0.459868
0.788995 0.753877 0.458652
0.896084 0.749641 0.475873
1.000000 0.746295 0.445445
0.028156 0.882637 0.462820
0.152558 0.882026 0.460796
0.276960 0.881416 0.458169
0.401361 0.880806 0.454446
0.528883 0.880195 0.452263
0.658152 0.879585 0.451665
0.787415 0.878974 0.451067
0.915114 0.876880 0.449734
1.000000 0.873672 0.443210
0.026077 1.000000 0.454883
0.150413 1.000000 0.452525
0.274748 1.000000 0.449569
0.399084 1.000000 0.445633
0.526401 1.000000 0.443420
0.655387 1.000000 0.442755
0.784361 1.000000 0.442091
0.913323 1.000000 0.441426
1.000000 1.000000 0.440975
0.039619 0.008740 0.612697
0.166092 0.008247 0.612194
0.292559 0.007755 0.611692
0.419023 0.007263 0.611190
0.545482 0.006770 0.610687
0.670685 0.005068 0.608938
0.800037 0.002973 0.604517
0.929281 0.000367 0.599590
1.000000 0.000000 0.596105
0.037333 0.133514 0.611007
0.162638 0.131591 0.610504
0.289632 0.131099 0.610002
0.416620 0.130606 0.609499
0.543604 0.130114 0.608997
0.668995 0.128412 0.606964
0.798165 0.126139 0.601995
0.927227 0.123354 0.596575
1.000000 0.121394 0.592109
0.035677 0.258949 0.609316
0.160185 0.256782 0.608814
0.285781 0.254442 0.608312
0.413687 0.253950 0.607809
0.541584 0.253457 0.607307
0.667304 0.251755 0.604819
0.796293 0.249305 0.599172
0.925174 0.246342 0.593197
1.000000 0.244159 0.588264
0.034021 0.384368 0.607626
0.158528 0.382826 0.607124
0.283036 0.380404 0.606621
0.409272 0.377293 0.606119
0.539174 0.376801 0.605617
0.665614 0.375099 0.602282
0.794421 0.372470 0.595777
0.923120 0.369330 0.589207
1.000000 0.366924 0.583775
0.032364 0.509771 0.605936
0.156872 0.508850 0.605434
0.281379 0.507573 0.604931
0.405887 0.505158 0.604429
0.534645 0.500145 0.603926
0.663924 0.498442 0.598463
0.792549 0.495636 0.591067
0.921067 0.492317 0.584049
1.000000 0.489689 0.578156
0.030103 0.634496 0.603586
0.154610 0.633993 0.602906
0.279118 0.633491 0.602092
0.403626 0.632989 0.600908
0.528133 0.632486 0.597717
0.662234 0.626885 0.591536
0.790678 0.621412 0.585302
0.919014 0.617361 0.578555
1.000000 0.614417 0.572454
0.029409 0.758644 0.597185
0.153864 0.758088 0.595999
0.278318 0.757531 0.594471
0.402773 0.756975 0.592219
0.527228 0.756419 0.587947
0.657830 0.755862 0.584682
0.788806 0.752703 0.583467
0.895980 0.748376 0.600771
1.000000 0.743272 0.570219
0.027953 0.882429 0.590044
0.152355 0.881819 0.588446
0.276756 0.881209 0.586427
0.401158 0.880598 0.583641
0.525560 0.879988 0.579233
0.654421 0.879377 0.576462
0.785782 0.878767 0.575864
0.914907 0.876111 0.574530
1.000000 0.872061 0.567984
0.025851 1.000000 0.582275
0.150187 1.000000 0.580310
0.274523 1.000000 0.577886
0.398858 1.000000 0.574709
0.523194 1.000000 0.570164
0.651409 1.000000 0.567530
0.781789 1.000000 0.566865
0.912151 1.000000 0.566201
1.000000 1.000000 0.565749
0.041592 0.007400 0.736186
0.168207 0.006855 0.735630
0.294819 0.006309 0.735073
0.421426 0.005764 0.734517
0.548029 0.005219 0.733961
0.674629 0.004673 0.733404
0.799848 0.002788 0.731475
0.929073 0.000164 0.726729
1.000000 0.000000 0.723311
0.039066 0.132120 0.734314
0.164357 0.130020 0.733758
0.291423 0.129475 0.733202
0.418485 0.128930 0.732645
0.545542 0.128384 0.732089
0.672594 0.127839 0.731532
0.797976 0.125954 0.729349
0.927020 0.123151 0.724078
1.000000 0.121168 0.719792
0.037231 0.257559 0.732442
0.161686 0.255089 0.731886
0.287201 0.252641 0.731330
0.414964 0.252095 0.730773
0.542720 0.251550 0.730217
0.670471 0.251005 0.729660
0.796104 0.249119 0.727106
0.924966 0.246139 0.721202
1.000000 0.243933 0.716432
0.035397 0.382984 0.730571
0.159852 0.381038 0.730014
0.284306 0.378266 0.729458
0.410211 0.375261 0.728901
0.539190 0.374716 0.728345
0.668161 0.374170 0.727789
0.794232 0.372285 0.724640
0.922913 0.369127 0.717946
1.000000 0.366698 0.712623
0.033562 0.508395 0.728699
0.158017 0.506970 0.728142
0.282472 0.505029 0.727586
0.406927 0.501914 0.727030
0.533684 0.497881 0.726473
0.665328 0.497336 0.725917
0.792360 0.495451 0.721661
0.920860 0.492114 0.713964
1.000000 0.489463 0.708026
0.031728 0.633792 0.726827
0.156183 0.632885 0.726271
0.280637 0.631770 0.725714
0.405092 0.630181 0.725158
0.529547 0.627074 0.724601
0.659669 0.620502 0.724045
0.790489 0.618616 0.717005
0.918806 0.615102 0.708321
1.000000 0.612228 0.701851
0.029224 0.758455 0.724238
0.153678 0.757899 0.723529
0.278133 0.757342 0.722737
0.402588 0.756786 0.721770
0.527043 0.756230 0.720313
0.651497 0.755673 0.716208
0.788617 0.748449 0.708282
0.916753 0.741390 0.701340
1.000000 0.737800 0.694993
0.027750 0.882222 0.717266
0.152151 0.881612 0.716095
0.276553 0.881001 0.714683
0.400955 0.880391 0.712835
0.525357 0.879781 0.710064
0.649759 0.879170 0.704722
0.781990 0.878560 0.700660
0.914699 0.874657 0.699327
1.000000 0.869247 0.692758
0.025626 1.000000 0.709666
0.149961 1.000000 0.708093
0.274297 1.000000 0.706200
0.398633 1.000000 0.703781
0.522968 1.000000 0.700408
0.647304 1.000000 0.695009
0.777188 1.000000 0.691640
0.910161 1.000000 0.690975
1.000000 1.000000 0.690523
0.043123 0.005618 0.859639
0.169884 0.005020 0.859028
0.296640 0.004421 0.858418
0.423393 0.003823 0.857808
0.550143 0.003225 0.857197
0.676888 0.002627 0.856587
0.803630 0.002029 0.855976
0.928866 0.000000 0.853869
1.000000 0.000000 0.850460
0.040355 0.130287 0.857585
0.165643 0.128007 0.856975
0.292809 0.127409 0.856364
0.419971 0.126811 0.855754
0.547128 0.126213 0.855144
0.674282 0.125615 0.854533
0.801431 0.125016 0.853923
0.926813 0.122948 0.851579
1.000000 0.120943 0.847473
0.038343 0.255737 0.855532
0.162745 0.252984 0.854922
0.288218 0.250397 0.854311
0.415963 0.249799 0.853701
0.543703 0.249200 0.853090
0.671439 0.248602 0.852480
0.799168 0.248004 0.851870
0.924759 0.245936 0.849205
1.000000 0.243708 0.844598
0.036331 0.381174 0.853478
0.160733 0.378883 0.852868
0.285134 0.375821 0.852258
0.410894 0.372786 0.851647
0.539533 0.372188 0.851037
0.668166 0.371590 0.850426
0.796793 0.370992 0.849816
0.922706 0.368923 0.846682
1.000000 0.366473 0.841468
0.034318 0.506599 0.851425
0.158720 0.504767 0.850815
0.283122 0.502376 0.850204
0.407524 0.498925 0.849594
0.533783 0.495176 0.848984
0.663984 0.494578 0.848373
0.794176 0.493979 0.847763
0.920652 0.491911 0.843877
1.000000 0.489238 0.837890
0.032306 0.632010 0.849372
0.156708 0.630636 0.848761
0.281110 0.628913 0.848151
0.405512 0.626526 0.847540
0.529913 0.622634 0.846930
0.657268 0.617565 0.846320
0.790890 0.616967 0.845709
0.918599 0.614899 0.840423
1.000000 0.612003 0.833416
0.030294 0.757408 0.847318
0.154696 0.756490 0.846708
0.279097 0.755430 0.846097
0.403499 0.754103 0.845487
0.527901 0.752168 0.844877
0.652303 0.748285 0.844266
0.783976 0.739955 0.843656
0.916546 0.737886 0.834847
1.000000 0.734768 0.826700
0.027546 0.882015 0.844488
0.151948 0.881404 0.843741
0.276350 0.880794 0.842937
0.400752 0.880184 0.842027
0.525154 0.879573 0.840893
0.649556 0.878963 0.839135
0.773957 0.878353 0.834005
0.914492 0.869308 0.824124
1.000000 0.862457 0.817533
0.025400 1.000000 0.837056
0.149736 1.000000 0.835875
0.274071 1.000000 0.834512
0.398407 1.000000 0.832850
0.522743 1.000000 0.830646
0.647078 1.000000 0.827291
0.771414 1.000000 0.820729
0.905491 1.000000 0.815750
1.000000 1.000000 0.815298
0.044213 0.003394 0.983055
0.171119 0.002742 0.982390
0.298023 0.002091 0.981726
0.424922 0.001440 0.981061
0.551819 0.000789 0.980397
0.678711 0.000138 0.979733
0.805692 0.000000 0.979068
0.932541 0.000000 0.978404
1.000000 0.000000 0.977549
0.041203 0.128016 0.980820
0.166491 0.125552 0.980155
0.293772 0.124901 0.979491
0.421049 0.124250 0.978826
0.548322 0.123599 0.978162
0.675591 0.122948 0.977498
0.802856 0.122297 0.976833
0.930117 0.121646 0.976169
1.000000 0.120717 0.975152
0.039013 0.253480 0.978585
0.163362 0.250453 0.977920
0.288812 0.247711 0.977256
0.416599 0.247060 0.976591
0.544381 0.246409 0.975927
0.672158 0.245757 0.975263
0.799931 0.245106 0.974598
0.927699 0.244455 0.973934
1.000000 0.243482 0.972762
0.036823 0.378933 0.976350
0.161172 0.376326 0.975685
0.285520 0.372994 0.975021
0.411202 0.369869 0.974356
0.539711 0.369218 0.973692
0.668214 0.368567 0.973028
0.796712 0.367916 0.972363
0.925204 0.367265 0.971699
1.000000 0.366247 0.970310
0.034632 0.504373 0.974115
0.158981 0.502185 0.973450
0.283330 0.499428 0.972786
0.407679 0.495711 0.972121
0.533717 0.492028 0.971457
0.663341 0.491377 0.970793
0.792958 0.490726 0.970128
0.922567 0.490075 0.969464
1.000000 0.489012 0.967750
0.032442 0.629802 0.971880
0.156791 0.628030 0.971215
0.281140 0.625845 0.970551
0.405489 0.622963 0.969886
0.529838 0.618761 0.969222
0.656500 0.614187 0.968558
0.788070 0.613535 0.967893
0.919630 0.612884 0.967229
1.000000 0.611777 0.964973
0.030252 0.755218 0.969645
0.154601 0.753861 0.968980
0.278950 0.752246 0.968316
0.403298 0.750194 0.967651
0.527647 0.747317 0.966987
0.651996 0.742565 0.966323
0.780024 0.736345 0.965658
0.915858 0.735694 0.964994
1.000000 0.734542 0.961653
0.028061 0.880622 0.967410
0.152410 0.879678 0.966745
0.276759 0.878630 0.966081
0.401108 0.877405 0.965416
0.525457 0.875847 0.964752
0.649806 0.873532 0.964088
0.774155 0.868789 0.963423
0.907565 0.858504 0.962759
1.000000 0.857307 0.956163
0.025175 1.000000 0.964445
0.149510 1.000000 0.963656
0.273846 1.000000 0.962822
0.398181 1.000000 0.961916
0.522517 1.000000 0.960878
0.646853 1.000000 0.959563
0.771188 1.000000 0.957471
0.895524 1.000000 0.951178
1.000000 1.000000 0.940072
