luts/original/cocoa-soft.cube
TITLE "Cocoa Soft"
LUT_3D_SIZE 5
DOMAIN_MIN 0.0 0.0 0.0
DOMAIN_MAX 1.0 1.0 1.0
0.022676 0.008222 0.008222
0.282523 0.008810 0.008810
0.541938 0.007349 0.007349
0.800921 0.003840 0.003840
1.000000 0.000000 0.000000
0.028585 0.260413 0.007642
0.280232 0.259295 0.006565
0.538920 0.257877 0.004392
0.797177 0.254445 0.000171
1.000000 0.253863 0.000000
0.031290 0.510697 0.003733
0.283883 0.509800 0.002854
0.535903 0.508350 0.001435
0.793434 0.506287 0.000000
1.000000 0.505431 0.000000
0.034008 0.759529 0.000000
0.286754 0.758416 0.000000
0.538758 0.757303 0.000000
0.789690 0.755877 0.000000
1.000000 0.754736 0.000000
0.040278 1.000000 0.000000
0.291627 1.000000 0.000000
0.542305 1.000000 0.000000
0.792314 1.000000 0.000000
1.000000 1.000000 0.000000
0.031064 0.010107 0.242009
0.282328 0.008619 0.240443
0.541682 0.007098 0.233047
0.800604 0.003529 0.223637
1.000000 0.000000 0.214134
0.027952 0.260218 0.239191
0.280037 0.257956 0.235874
0.538665 0.255053 0.227141
0.796860 0.250791 0.216360
1.000000 0.245868 0.204836
0.030482 0.510441 0.229054
0.281518 0.509544 0.225603
0.535647 0.507743 0.224184
0.793116 0.502904 0.212691
1.000000 0.497805 0.200366
0.029964 0.759211 0.216016
0.280759 0.758098 0.211874
0.535546 0.756985 0.210783
0.789373 0.754952 0.209023
1.000000 0.749670 0.195896
0.026528 1.000000 0.200094
0.277238 1.000000 0.195200
0.532266 1.000000 0.193871
0.787273 1.000000 0.192542
1.000000 1.000000 0.191426
0.037206 0.009638 0.489171
0.289866 0.008759 0.488274
0.541377 0.006800 0.486255
0.800226 0.003159 0.477558
1.000000 0.000000 0.468840
0.033681 0.259917 0.486154
0.284031 0.255802 0.485257
0.538360 0.253843 0.482286
0.796482 0.249490 0.471237
1.000000 0.244385 0.460094
0.030184 0.510137 0.482532
0.279305 0.509240 0.480919
0.535343 0.504614 0.473886
0.792738 0.497447 0.462321
1.000000 0.491424 0.449915
0.029594 0.758833 0.470130
0.278503 0.757720 0.466203
0.530915 0.756608 0.460413
0.788995 0.753877 0.458652
1.000000 0.746295 0.445445
0.026077 1.000000 0.454883
0.274748 1.000000 0.449569
0.526401 1.000000 0.443420
0.784361 1.000000 0.442091
1.000000 1.000000 0.440975
0.041592 0.007400 0.736186
0.294819 0.006309 0.735073
0.548029 0.005219 0.733961
0.799848 0.002788 0.731475
1.000000 0.000000 0.723311
0.037231 0.257559 0.732442
0.287201 0.252641 0.731330
0.542720 0.251550 0.730217
0.796104 0.249119 0.727106
1.000000 0.243933 0.716432
0.033562 0.508395 0.728699
0.282472 0.505029 0.727586
0.533684 0.497881 0.726473
0.792360 0.495451 0.721661
1.000000 0.489463 0.708026
0.029224 0.758455 0.724238
0.278133 0.757342 0.722737
0.527043 0.756230 0.720313
0.788617 0.748449 0.708282
1.000000 0.737800 0.694993
0.025626 1.000000 0.709666
0.274297 1.000000 0.706200
0.522968 1.000000 0.700408
0.777188 1.000000 0.691640
1.000000 1.000000 0.690523
0.044213 0.003394 0.983055
0.298023 0.002091 0.981726
0.551819 0.000789 0.980397
0.805692 0.000000 0.979068
1.000000 0.000000 0.977549
0.039013 0.253480 0.978585
0.288812 0.247711 0.977256
0.544381 0.246409 0.975927
0.799931 0.245106 0.974598
1.000000 0.243482 0.972762
0.034632 0.504373 0.974115
0.283330 0.499428 0.972786
0.533717 0.492028 0.971457
0.792958 0.490726 0.970128
1.000000 0.489012 0.967750
0.030252 0.755218 0.969645
0.278950 0.752246 0.968316
0.527647 0.747317 0.966987
0.780024 0.736345 0.965658
1.000000 0.734542 0.961653
0.025175 1.000000 0.964445
0.273846 1.000000 0.962822
0.522517 1.000000 0.960878
0.771188 1.000000 0.957471
1.000000 1.000000 0.940072
