luts/original/cocoa-soft.cube
TITLE "Cocoa Soft"
LUT_3D_SIZE 33
DOMAIN_MIN 0.0 0.0 0.0
DOMAIN_MAX 1.0 1.0 1.0
0.022676 0.008222 0.008222
0.055180 0.008408 0.008408
0.087678 0.008561 0.008561
0.120169 0.008682 0.008682
0.152653 0.008772 0.008772
0.185131 0.008829 0.008829
0.217601 0.008855 0.008855
0.250065 0.008848 0.008848
0.282523 0.008810 0.008810
0.314973 0.008739 0.008739
0.347417 0.008636 0.008636
0.379854 0.008502 0.008502
0.412284 0.008335 0.008335
0.444708 0.008137 0.008137
0.477124 0.007906 0.007906
0.509534 0.007644 0.007644
0.541938 0.007349 0.007349
0.574334 0.007022 0.007022
0.606724 0.006664 0.006664
0.639107 0.006273 0.006273
0.671483 0.005851 0.005851
0.703853 0.005396 0.005396
0.736216 0.004909 0.004909
0.768572 0.004391 0.004391
0.800921 0.003840 0.003840
0.833264 0.003257 0.003257
0.865599 0.002643 0.002643
0.897928 0.001996 0.001996
0.930251 0.001318 0.001318
0.962566 0.000607 0.000607
0.994875 0.000000 0.000000
0.999365 0.000000 0.000000
1.000000 0.000000 0.000000
0.023785 0.040118 0.008496
0.054973 0.039764 0.008205
0.087460 0.039898 0.008347
0.119939 0.040010 0.008457
0.152412 0.040094 0.008536
0.184878 0.040148 0.008582
0.217338 0.040171 0.008596
0.249790 0.040164 0.008579
0.282236 0.040125 0.008529
0.314675 0.040054 0.008447
0.347108 0.039951 0.008334
0.379533 0.039817 0.008188
0.411952 0.039651 0.008010
0.444365 0.039453 0.007800
0.476770 0.039223 0.007559
0.509169 0.038962 0.007285
0.541561 0.038668 0.006979
0.573946 0.038342 0.006642
0.606324 0.037985 0.006272
0.638696 0.037595 0.005870
0.671061 0.037174 0.005436
0.703419 0.036720 0.004971
0.735770 0.036235 0.004473
0.768115 0.035718 0.003943
0.800453 0.035168 0.003381
0.832784 0.034587 0.002788
0.865109 0.033974 0.002162
0.897426 0.033328 0.001504
0.929737 0.032651 0.000814
0.962041 0.031942 0.000093
0.994339 0.031840 0.000000
0.999365 0.031847 0.000000
1.000000 0.031859 0.000000
0.024629 0.071746 0.008573
0.056056 0.071590 0.008441
0.087241 0.071233 0.008133
0.119710 0.071335 0.008232
0.152171 0.071414 0.008300
0.184626 0.071465 0.008335
0.217074 0.071487 0.008338
0.249515 0.071478 0.008309
0.281950 0.071438 0.008248
0.314378 0.071368 0.008156
0.346799 0.071265 0.008031
0.379213 0.071131 0.007874
0.411621 0.070966 0.007685
0.444021 0.070769 0.007464
0.476415 0.070540 0.007211
0.508803 0.070279 0.006927
0.541183 0.069986 0.006610
0.573557 0.069662 0.006261
0.605924 0.069305 0.005880
0.638285 0.068917 0.005467
0.670638 0.068497 0.005022
0.702985 0.068044 0.004545
0.735325 0.067560 0.004037
0.767658 0.067044 0.003496
0.799985 0.066496 0.002923
0.832305 0.065916 0.002318
0.864618 0.065304 0.001681
0.896924 0.064660 0.001012
0.929224 0.063984 0.000311
0.961517 0.063669 0.000000
0.993803 0.063646 0.000000
0.999365 0.063658 0.000000
1.000000 0.063682 0.000000
0.025384 0.103247 0.008537
0.056886 0.103179 0.008470
0.088298 0.103023 0.008331
0.119480 0.102658 0.008007
0.151930 0.102732 0.008063
0.184374 0.102780 0.008088
0.216810 0.102800 0.008080
0.249240 0.102791 0.008040
0.281663 0.102751 0.007968
0.314080 0.102680 0.007864
0.346490 0.102578 0.007728
0.378893 0.102445 0.007560
0.411289 0.102280 0.007360
0.443678 0.102083 0.007128
0.476061 0.101855 0.006864
0.508437 0.101595 0.006568
0.540806 0.101304 0.006240
0.573169 0.100980 0.005880
0.605524 0.100625 0.005488
0.637873 0.100238 0.005064
0.670216 0.099818 0.004608
0.702551 0.099367 0.004120
0.734880 0.098884 0.003600
0.767202 0.098369 0.003048
0.799517 0.097823 0.002464
0.831826 0.097244 0.001848
0.864127 0.096633 0.001200
0.896422 0.095990 0.000520
0.928711 0.095488 0.000000
0.960992 0.095452 0.000000
0.993267 0.095418 0.000000
0.999365 0.095434 0.000000
1.000000 0.095469 0.000000
0.026110 0.134726 0.008453
0.057607 0.134654 0.008383
0.089104 0.134582 0.008313
0.120511 0.134423 0.008167
0.151689 0.134048 0.007827
0.184121 0.134094 0.007840
0.216547 0.134113 0.007821
0.248965 0.134102 0.007770
0.281377 0.134062 0.007687
0.313782 0.133991 0.007572
0.346181 0.133890 0.007425
0.378572 0.133757 0.007246
0.410957 0.133593 0.007035
0.443335 0.133397 0.006792
0.475707 0.133170 0.006517
0.508071 0.132911 0.006210
0.540429 0.132620 0.005870
0.572780 0.132298 0.005499
0.605125 0.131943 0.005096
0.637462 0.131557 0.004661
0.669793 0.131139 0.004194
0.702117 0.130690 0.003695
0.734435 0.130208 0.003164
0.766745 0.129694 0.002601
0.799049 0.129149 0.002006
0.831346 0.128571 0.001379
0.863637 0.127962 0.000719
0.895920 0.127320 0.000028
0.928197 0.127247 0.000000
0.960467 0.127200 0.000000
0.992731 0.127155 0.000000
0.999365 0.127175 0.000000
1.000000 0.127220 0.000000
0.026796 0.166182 0.008322
0.058294 0.166107 0.008248
0.089791 0.166032 0.008175
0.121288 0.165956 0.008101
0.152694 0.165792 0.007949
0.183869 0.165406 0.007593
0.216283 0.165424 0.007563
0.248690 0.165413 0.007501
0.281091 0.165372 0.007406
0.313485 0.165302 0.007280
0.345872 0.165200 0.007122
0.378252 0.165068 0.006932
0.410625 0.164905 0.006710
0.442992 0.164710 0.006455
0.475352 0.164483 0.006169
0.507705 0.164225 0.005851
0.540052 0.163936 0.005501
0.572392 0.163614 0.005119
0.604725 0.163261 0.004704
0.637051 0.162876 0.004258
0.669371 0.162460 0.003780
0.701683 0.162011 0.003270
0.733989 0.161531 0.002728
0.766289 0.161018 0.002153
0.798581 0.160474 0.001547
0.830867 0.159898 0.000909
0.863146 0.159290 0.000239
0.895418 0.159031 0.000000
0.927684 0.158971 0.000000
0.959943 0.158914 0.000000
0.992195 0.158859 0.000000
0.999365 0.158880 0.000000
1.000000 0.158935 0.000000
0.027438 0.197615 0.008143
0.058940 0.197536 0.008066
0.090440 0.197458 0.007989
0.121941 0.197379 0.007912
0.153440 0.197301 0.007836
0.184848 0.197131 0.007676
0.216019 0.196733 0.007304
0.248415 0.196721 0.007231
0.280804 0.196681 0.007126
0.313187 0.196611 0.006989
0.345562 0.196510 0.006819
0.377931 0.196378 0.006618
0.410294 0.196215 0.006385
0.442649 0.196021 0.006119
0.474998 0.195796 0.005822
0.507340 0.195539 0.005493
0.539675 0.195251 0.005131
0.572003 0.194930 0.004738
0.604325 0.194578 0.004313
0.636640 0.194195 0.003855
0.668948 0.193779 0.003366
0.701249 0.193332 0.002845
0.733544 0.192853 0.002291
0.765832 0.192341 0.001706
0.798113 0.191798 0.001088
0.830388 0.191224 0.000439
0.862655 0.190806 0.000000
0.894916 0.190731 0.000000
0.927171 0.190660 0.000000
0.959418 0.190592 0.000000
0.991659 0.190528 0.000000
0.999365 0.190550 0.000000
1.000000 0.190613 0.000000
0.028035 0.229025 0.007916
0.059541 0.228943 0.007836
0.091047 0.228861 0.007756
0.122553 0.228780 0.007676
0.154057 0.228698 0.007596
0.185562 0.228616 0.007516
0.216972 0.228441 0.007349
0.248140 0.228029 0.006962
0.280518 0.227988 0.006845
0.312889 0.227918 0.006697
0.345253 0.227818 0.006516
0.377611 0.227687 0.006304
0.409962 0.227525 0.006059
0.442306 0.227332 0.005783
0.474643 0.227108 0.005475
0.506974 0.226852 0.005134
0.539298 0.226564 0.004762
0.571615 0.226245 0.004357
0.603925 0.225895 0.003921
0.636229 0.225512 0.003452
0.668525 0.225098 0.002952
0.700815 0.224652 0.002419
0.733099 0.224174 0.001855
0.765375 0.223664 0.001258
0.797645 0.223122 0.000630
0.829908 0.222571 0.000000
0.862165 0.222481 0.000000
0.894414 0.222395 0.000000
0.926657 0.222314 0.000000
0.958893 0.222236 0.000000
0.991123 0.222162 0.000000
0.999365 0.222185 0.000000
1.000000 0.222256 0.000000
0.028585 0.260413 0.007642
0.060098 0.260328 0.007558
0.091610 0.260242 0.007475
0.123121 0.260157 0.007392
0.154632 0.260072 0.007308
0.186143 0.259987 0.007225
0.217653 0.259902 0.007141
0.249067 0.259720 0.006968
0.280232 0.259295 0.006565
0.312591 0.259225 0.006405
0.344944 0.259125 0.006213
0.377291 0.258995 0.005990
0.409630 0.258834 0.005734
0.441963 0.258642 0.005447
0.474289 0.258419 0.005127
0.506608 0.258164 0.004776
0.538920 0.257877 0.004392
0.571226 0.257559 0.003976
0.603525 0.257210 0.003529
0.635817 0.256829 0.003049
0.668103 0.256416 0.002538
0.700382 0.255971 0.001994
0.732654 0.255494 0.001418
0.764919 0.254986 0.000811
0.797177 0.254445 0.000171
0.829429 0.254221 0.000000
0.861674 0.254120 0.000000
0.893912 0.254024 0.000000
0.926144 0.253933 0.000000
0.958369 0.253846 0.000000
0.990587 0.253763 0.000000
0.999365 0.253784 0.000000
1.000000 0.253863 0.000000
0.029089 0.291778 0.007320
0.060608 0.291689 0.007233
0.092127 0.291601 0.007147
0.123645 0.291512 0.007060
0.155163 0.291424 0.006973
0.186681 0.291335 0.006886
0.218198 0.291247 0.006800
0.249715 0.291158 0.006713
0.281132 0.290971 0.006533
0.312294 0.290531 0.006113
0.344635 0.290432 0.005911
0.376970 0.290302 0.005676
0.409298 0.290142 0.005409
0.441620 0.289951 0.005110
0.473934 0.289728 0.004780
0.506242 0.289475 0.004417
0.538543 0.289190 0.004022
0.570838 0.288873 0.003596
0.603125 0.288524 0.003137
0.635406 0.288144 0.002646
0.667680 0.287733 0.002124
0.699948 0.287289 0.001569
0.732208 0.286814 0.000982
0.764462 0.286307 0.000363
0.796709 0.285953 0.000000
0.828950 0.285835 0.000000
0.861183 0.285723 0.000000
0.893410 0.285617 0.000000
0.925631 0.285517 0.000000
0.957844 0.285421 0.000000
0.990051 0.285329 0.000000
0.999365 0.285348 0.000000
1.000000 0.285433 0.000000
0.029545 0.323120 0.006951
0.061072 0.323028 0.006860
0.092598 0.322936 0.006770
0.124124 0.322844 0.006680
0.155649 0.322752 0.006590
0.187174 0.322661 0.006500
0.218699 0.322569 0.006410
0.250223 0.322477 0.006320
0.281747 0.322385 0.006230
0.313168 0.322191 0.006043
0.344326 0.321737 0.005608
0.376650 0.321608 0.005362
0.408967 0.321449 0.005084
0.441277 0.321259 0.004774
0.473580 0.321037 0.004432
0.505876 0.320785 0.004059
0.538166 0.320501 0.003653
0.570449 0.320185 0.003215
0.602725 0.319838 0.002745
0.634995 0.319459 0.002243
0.667258 0.319049 0.001709
0.699514 0.318607 0.001144
0.731763 0.318133 0.000546
0.764006 0.317676 0.000000
0.796241 0.317540 0.000000
0.828470 0.317412 0.000000
0.860693 0.317290 0.000000
0.892908 0.317175 0.000000
0.925117 0.317065 0.000000
0.957319 0.316961 0.000000
0.989515 0.316860 0.000000
0.999365 0.316878 0.000000
1.000000 0.316968 0.000000
0.029954 0.354440 0.006533
0.061489 0.354344 0.006440
0.093022 0.354249 0.006347
0.124556 0.354154 0.006253
0.156089 0.354059 0.006160
0.187622 0.353963 0.006067
0.219154 0.353868 0.005973
0.250686 0.353773 0.005880
0.282218 0.353678 0.005787
0.313749 0.353582 0.005693
0.345175 0.353382 0.005500
0.376329 0.352913 0.005048
0.408635 0.352755 0.004759
0.440933 0.352566 0.004438
0.473225 0.352345 0.004085
0.505511 0.352094 0.003700
0.537789 0.351811 0.003283
0.570061 0.351497 0.002834
0.602326 0.351151 0.002353
0.634584 0.350774 0.001840
0.666835 0.350364 0.001295
0.699080 0.349923 0.000718
0.731318 0.349451 0.000109
0.763549 0.349237 0.000000
0.795774 0.349091 0.000000
0.827991 0.348952 0.000000
0.860202 0.348821 0.000000
0.892406 0.348697 0.000000
0.924604 0.348579 0.000000
0.956795 0.348466 0.000000
0.988978 0.348358 0.000000
0.999365 0.348372 0.000000
1.000000 0.348468 0.000000
0.030316 0.385736 0.006069
0.061858 0.385638 0.005972
0.093400 0.385539 0.005875
0.124941 0.385441 0.005779
0.156482 0.385342 0.005682
0.188023 0.385243 0.005585
0.219563 0.385145 0.005489
0.251103 0.385046 0.005392
0.282643 0.384947 0.005295
0.314182 0.384849 0.005199
0.345721 0.384750 0.005102
0.377152 0.384543 0.004902
0.408303 0.384060 0.004434
0.440590 0.383872 0.004102
0.472871 0.383653 0.003738
0.505145 0.383402 0.003342
0.537412 0.383121 0.002914
0.569672 0.382808 0.002454
0.601926 0.382463 0.001961
0.634173 0.382087 0.001437
0.666413 0.381679 0.000881
0.698646 0.381239 0.000293
0.730873 0.380927 0.000000
0.763092 0.380760 0.000000
0.795306 0.380604 0.000000
0.827512 0.380456 0.000000
0.859711 0.380317 0.000000
0.891904 0.380184 0.000000
0.924090 0.380058 0.000000
0.956270 0.379937 0.000000
0.988442 0.379821 0.000000
0.999365 0.379831 0.000000
1.000000 0.379932 0.000000
0.030631 0.417011 0.005556
0.062181 0.416909 0.005456
0.093731 0.416807 0.005356
0.125280 0.416705 0.005256
0.156829 0.416603 0.005156
0.188378 0.416501 0.005056
0.219927 0.416399 0.004956
0.251475 0.416297 0.004856
0.283023 0.416195 0.004757
0.314570 0.416093 0.004657
0.346117 0.415991 0.004557
0.377664 0.415889 0.004457
0.409099 0.415675 0.004249
0.440247 0.415177 0.003766
0.472516 0.414959 0.003390
0.504779 0.414710 0.002983
0.537035 0.414429 0.002544
0.569284 0.414118 0.002073
0.601526 0.413774 0.001570
0.633761 0.413399 0.001034
0.665990 0.412993 0.000467
0.698212 0.412610 0.000000
0.730427 0.412422 0.000000
0.762636 0.412246 0.000000
0.794838 0.412080 0.000000
0.827033 0.411924 0.000000
0.859221 0.411776 0.000000
0.891402 0.411635 0.000000
0.923577 0.411501 0.000000
0.955745 0.411373 0.000000
0.987906 0.411250 0.000000
0.999365 0.411256 0.000000
1.000000 0.411360 0.000000
0.030898 0.448262 0.004996
0.062457 0.448157 0.004893
0.094014 0.448051 0.004790
0.125572 0.447946 0.004686
0.157129 0.447841 0.004583
0.188687 0.447735 0.004480
0.220243 0.447630 0.004377
0.251800 0.447525 0.004273
0.283356 0.447419 0.004170
0.314912 0.447314 0.004067
0.346467 0.447208 0.003964
0.378023 0.447103 0.003860
0.409577 0.446998 0.003757
0.441017 0.446778 0.003543
0.472162 0.446264 0.003043
0.504413 0.446016 0.002625
0.536658 0.445737 0.002174
0.568895 0.445427 0.001692
0.601126 0.445085 0.001178
0.633350 0.444711 0.000631
0.665568 0.444306 0.000053
0.697778 0.444076 0.000000
0.729982 0.443879 0.000000
0.762179 0.443694 0.000000
0.794370 0.443520 0.000000
0.826553 0.443355 0.000000
0.858730 0.443199 0.000000
0.890900 0.443051 0.000000
0.923064 0.442910 0.000000
0.955220 0.442774 0.000000
0.987370 0.442645 0.000000
0.999365 0.442645 0.000000
1.000000 0.442752 0.000000
0.031118 0.479491 0.004388
0.062685 0.479382 0.004282
0.094251 0.479273 0.004175
0.125817 0.479165 0.004069
0.157383 0.479056 0.003962
0.188948 0.478947 0.003856
0.220513 0.478838 0.003749
0.252078 0.478730 0.003642
0.283643 0.478621 0.003536
0.315207 0.478512 0.003429
0.346771 0.478404 0.003323
0.378335 0.478295 0.003216
0.409898 0.478186 0.003110
0.441461 0.478077 0.003003
0.472906 0.477851 0.002782
0.504047 0.477322 0.002266
0.536280 0.477044 0.001805
0.568507 0.476735 0.001311
0.600726 0.476394 0.000786
0.632939 0.476022 0.000228
0.665145 0.475725 0.000000
0.697344 0.475504 0.000000
0.729537 0.475298 0.000000
0.761723 0.475104 0.000000
0.793902 0.474922 0.000000
0.826074 0.474750 0.000000
0.858240 0.474586 0.000000
0.890398 0.474431 0.000000
0.922550 0.474283 0.000000
0.954696 0.474141 0.000000
0.986834 0.474005 0.000000
0.999365 0.474000 0.000000
1.000000 0.474109 0.000000
0.031290 0.510697 0.003733
0.062865 0.510585 0.003623
0.094440 0.510473 0.003513
0.126015 0.510361 0.003403
0.157589 0.510249 0.003294
0.189163 0.510136 0.003184
0.220736 0.510024 0.003074
0.252310 0.509912 0.002964
0.283883 0.509800 0.002854
0.315456 0.509688 0.002744
0.347028 0.509576 0.002634
0.378600 0.509464 0.002524
0.410172 0.509352 0.002415
0.441744 0.509239 0.002305
0.473315 0.509127 0.002195
0.504765 0.508894 0.001967
0.535903 0.508350 0.001435
0.568118 0.508042 0.000931
0.600326 0.507703 0.000394
0.632528 0.507369 0.000000
0.664722 0.507122 0.000000
0.696910 0.506893 0.000000
0.729092 0.506678 0.000000
0.761266 0.506477 0.000000
0.793434 0.506287 0.000000
0.825595 0.506108 0.000000
0.857749 0.505938 0.000000
0.889896 0.505776 0.000000
0.922037 0.505621 0.000000
0.954171 0.505473 0.000000
0.986298 0.505332 0.000000
0.999365 0.505321 0.000000
1.000000 0.505431 0.000000
0.031415 0.541880 0.003030
0.062998 0.541765 0.002917
0.094582 0.541649 0.002804
0.126165 0.541534 0.002691
0.157748 0.541418 0.002577
0.189330 0.541303 0.002464
0.220912 0.541187 0.002351
0.252494 0.541072 0.002238
0.284076 0.540956 0.002125
0.315657 0.540841 0.002011
0.347239 0.540726 0.001898
0.378819 0.540610 0.001785
0.410400 0.540495 0.001672
0.441980 0.540379 0.001559
0.473560 0.540264 0.001446
0.505140 0.540148 0.001332
0.536595 0.539908 0.001098
0.567730 0.539349 0.000550
0.599926 0.539011 0.000002
0.632117 0.538735 0.000000
0.664300 0.538480 0.000000
0.696476 0.538242 0.000000
0.728646 0.538020 0.000000
0.760809 0.537812 0.000000
0.792966 0.537615 0.000000
0.825115 0.537430 0.000000
0.857258 0.537253 0.000000
0.889394 0.537085 0.000000
0.921524 0.536925 0.000000
0.953646 0.536771 0.000000
0.985762 0.536623 0.000000
0.999365 0.536606 0.000000
1.000000 0.536717 0.000000
0.031492 0.573041 0.002279
0.063084 0.572922 0.002163
0.094676 0.572803 0.002047
0.126268 0.572685 0.001930
0.157859 0.572566 0.001814
0.189450 0.572447 0.001697
0.221041 0.572328 0.001581
0.252632 0.572209 0.001464
0.284222 0.572090 0.001348
0.315812 0.571971 0.001231
0.347402 0.571853 0.001115
0.378992 0.571734 0.000998
0.410581 0.571615 0.000882
0.442170 0.571496 0.000765
0.473759 0.571377 0.000649
0.505347 0.571258 0.000532
0.536935 0.571139 0.000416
0.568395 0.570893 0.000174
0.599527 0.570344 0.000000
0.631705 0.570060 0.000000
0.663877 0.569798 0.000000
0.696043 0.569553 0.000000
0.728201 0.569324 0.000000
0.760353 0.569109 0.000000
0.792498 0.568907 0.000000
0.824636 0.568715 0.000000
0.856768 0.568532 0.000000
0.888892 0.568359 0.000000
0.921010 0.568193 0.000000
0.953122 0.568034 0.000000
0.985226 0.567881 0.000000
0.999365 0.567857 0.000000
1.000000 0.567968 0.000000
0.031522 0.604179 0.001481
0.063122 0.604057 0.001361
0.094723 0.603935 0.001242
0.126323 0.603812 0.001122
0.157923 0.603690 0.001002
0.189523 0.603568 0.000882
0.221123 0.603446 0.000763
0.252722 0.603323 0.000643
0.284321 0.603201 0.000523
0.315920 0.603079 0.000403
0.347519 0.602957 0.000283
0.379117 0.602835 0.000164
0.410715 0.602712 0.000044
0.442331 0.602590 0.000000
0.473948 0.602468 0.000000
0.505553 0.602346 0.000000
0.537144 0.602223 0.000000
0.568722 0.602101 0.000000
0.600166 0.601859 0.000000
0.631294 0.601345 0.000000
0.663455 0.601076 0.000000
0.695609 0.600825 0.000000
0.727756 0.600590 0.000000
0.759896 0.600369 0.000000
0.792030 0.600161 0.000000
0.824157 0.599963 0.000000
0.856277 0.599776 0.000000
0.888390 0.599597 0.000000
0.920497 0.599426 0.000000
0.952597 0.599262 0.000000
0.984690 0.599104 0.000000
0.999365 0.599073 0.000000
1.000000 0.599184 0.000000
0.031504 0.635294 0.000635
0.063113 0.635169 0.000512
0.094722 0.635043 0.000389
0.126331 0.634918 0.000266
0.157940 0.634792 0.000143
0.189549 0.634666 0.000020
0.221223 0.634541 0.000000
0.252898 0.634415 0.000000
0.284560 0.634290 0.000000
0.316210 0.634164 0.000000
0.347848 0.634038 0.000000
0.379472 0.633913 0.000000
0.411085 0.633787 0.000000
0.442684 0.633661 0.000000
0.474271 0.633536 0.000000
0.505846 0.633410 0.000000
0.537408 0.633285 0.000000
0.568957 0.633159 0.000000
0.600494 0.633033 0.000000
0.631908 0.632799 0.000000
0.663032 0.632314 0.000000
0.695175 0.632058 0.000000
0.727311 0.631817 0.000000
0.759440 0.631591 0.000000
0.791562 0.631378 0.000000
0.823677 0.631176 0.000000
0.855786 0.630983 0.000000
0.887888 0.630800 0.000000
0.919984 0.630624 0.000000
0.952072 0.630456 0.000000
0.984154 0.630293 0.000000
0.999365 0.630255 0.000000
1.000000 0.630364 0.000000
0.031680 0.666387 0.000000
0.063399 0.666258 0.000000
0.095106 0.666129 0.000000
0.126800 0.666000 0.000000
0.158482 0.665871 0.000000
0.190151 0.665742 0.000000
0.221808 0.665613 0.000000
0.253453 0.665484 0.000000
0.285086 0.665355 0.000000
0.316707 0.665226 0.000000
0.348315 0.665097 0.000000
0.379911 0.664968 0.000000
0.411494 0.664839 0.000000
0.443065 0.664710 0.000000
0.474624 0.664581 0.000000
0.506171 0.664452 0.000000
0.537706 0.664323 0.000000
0.569228 0.664194 0.000000
0.600738 0.664065 0.000000
0.632235 0.663936 0.000000
0.663620 0.663708 0.000000
0.694741 0.663252 0.000000
0.726865 0.663007 0.000000
0.758983 0.662776 0.000000
0.791094 0.662558 0.000000
0.823198 0.662352 0.000000
0.855296 0.662155 0.000000
0.887386 0.661967 0.000000
0.919470 0.661787 0.000000
0.951548 0.661614 0.000000
0.983618 0.661448 0.000000
0.999365 0.661403 0.000000
1.000000 0.661510 0.000000
0.032454 0.697457 0.000000
0.064143 0.697325 0.000000
0.095820 0.697192 0.000000
0.127485 0.697060 0.000000
0.159138 0.696927 0.000000
0.190778 0.696795 0.000000
0.222407 0.696663 0.000000
0.254024 0.696530 0.000000
0.285628 0.696398 0.000000
0.317221 0.696266 0.000000
0.348802 0.696133 0.000000
0.380370 0.696001 0.000000
0.411927 0.695869 0.000000
0.443471 0.695736 0.000000
0.475004 0.695604 0.000000
0.506524 0.695472 0.000000
0.538032 0.695339 0.000000
0.569529 0.695207 0.000000
0.601013 0.695074 0.000000
0.632485 0.694942 0.000000
0.663946 0.694810 0.000000
0.695302 0.694587 0.000000
0.726420 0.694158 0.000000
0.758526 0.693923 0.000000
0.790626 0.693701 0.000000
0.822719 0.693491 0.000000
0.854805 0.693290 0.000000
0.886884 0.693099 0.000000
0.918957 0.692915 0.000000
0.951023 0.692739 0.000000
0.983082 0.692569 0.000000
0.999365 0.692516 0.000000
1.000000 0.692620 0.000000
0.033230 0.728504 0.000000
0.064891 0.728368 0.000000
0.096540 0.728233 0.000000
0.128177 0.728097 0.000000
0.159802 0.727961 0.000000
0.191415 0.727825 0.000000
0.223017 0.727690 0.000000
0.254607 0.727554 0.000000
0.286185 0.727418 0.000000
0.317751 0.727283 0.000000
0.349306 0.727147 0.000000
0.380848 0.727011 0.000000
0.412379 0.726875 0.000000
0.443898 0.726740 0.000000
0.475405 0.726604 0.000000
0.506901 0.726468 0.000000
0.538384 0.726332 0.000000
0.569856 0.726197 0.000000
0.601316 0.726061 0.000000
0.632764 0.725925 0.000000
0.664201 0.725789 0.000000
0.695625 0.725654 0.000000
0.726956 0.725437 0.000000
0.758070 0.725033 0.000000
0.790158 0.724808 0.000000
0.822240 0.724594 0.000000
0.854314 0.724390 0.000000
0.886382 0.724195 0.000000
0.918444 0.724008 0.000000
0.950498 0.723828 0.000000
0.982546 0.723655 0.000000
0.999365 0.723595 0.000000
1.000000 0.723696 0.000000
0.034008 0.759529 0.000000
0.065642 0.759389 0.000000
0.097264 0.759250 0.000000
0.128875 0.759111 0.000000
0.160474 0.758972 0.000000
0.192061 0.758833 0.000000
0.223637 0.758694 0.000000
0.255201 0.758555 0.000000
0.286754 0.758416 0.000000
0.318295 0.758277 0.000000
0.349825 0.758138 0.000000
0.381343 0.757998 0.000000
0.412849 0.757859 0.000000
0.444344 0.757720 0.000000
0.475827 0.757581 0.000000
0.507298 0.757442 0.000000
0.538758 0.757303 0.000000
0.570206 0.757164 0.000000
0.601643 0.757025 0.000000
0.633068 0.756886 0.000000
0.664482 0.756747 0.000000
0.695884 0.756607 0.000000
0.727274 0.756468 0.000000
0.758579 0.756256 0.000000
0.789690 0.755877 0.000000
0.821760 0.755660 0.000000
0.853824 0.755453 0.000000
0.885880 0.755256 0.000000
0.917930 0.755066 0.000000
0.949973 0.754883 0.000000
0.982010 0.754707 0.000000
0.999365 0.754640 0.000000
1.000000 0.754736 0.000000
0.034788 0.790530 0.000000
0.066396 0.790388 0.000000
0.097993 0.790245 0.000000
0.129578 0.790103 0.000000
0.161152 0.789960 0.000000
0.192715 0.789818 0.000000
0.224266 0.789676 0.000000
0.255806 0.789533 0.000000
0.287334 0.789391 0.000000
0.318851 0.789248 0.000000
0.350357 0.789106 0.000000
0.381851 0.788963 0.000000
0.413334 0.788821 0.000000
0.444805 0.788678 0.000000
0.476266 0.788536 0.000000
0.507714 0.788393 0.000000
0.539151 0.788251 0.000000
0.570577 0.788108 0.000000
0.601992 0.787966 0.000000
0.633395 0.787823 0.000000
0.664786 0.787681 0.000000
0.696167 0.787538 0.000000
0.727536 0.787396 0.000000
0.758893 0.787253 0.000000
0.790173 0.787046 0.000000
0.821281 0.786690 0.000000
0.853333 0.786481 0.000000
0.885378 0.786281 0.000000
0.917417 0.786089 0.000000
0.949449 0.785903 0.000000
0.981474 0.785725 0.000000
0.999365 0.785650 0.000000
1.000000 0.785742 0.000000
0.035569 0.821509 0.000000
0.067152 0.821364 0.000000
0.098725 0.821218 0.000000
0.130286 0.821072 0.000000
0.161836 0.820926 0.000000
0.193375 0.820780 0.000000
0.224903 0.820634 0.000000
0.256419 0.820489 0.000000
0.287924 0.820343 0.000000
0.319418 0.820197 0.000000
0.350901 0.820051 0.000000
0.382372 0.819905 0.000000
0.413833 0.819759 0.000000
0.445282 0.819613 0.000000
0.476720 0.819468 0.000000
0.508146 0.819322 0.000000
0.539562 0.819176 0.000000
0.570966 0.819030 0.000000
0.602359 0.818884 0.000000
0.633741 0.818738 0.000000
0.665111 0.818592 0.000000
0.696471 0.818447 0.000000
0.727819 0.818301 0.000000
0.759156 0.818155 0.000000
0.790482 0.818009 0.000000
0.821738 0.817806 0.000000
0.852842 0.817473 0.000000
