luts/original/concrete-drift.cube
TITLE "Concrete Drift"
LUT_3D_SIZE 33
DOMAIN_MIN 0.0 0.0 0.0
DOMAIN_MAX 1.0 1.0 1.0
0.000000 0.000000 0.010526
0.019678 0.000000 0.011137
0.043834 0.000000 0.011764
0.073281 0.000000 0.013084
0.103561 0.000210 0.015390
0.133845 0.001956 0.017851
0.164132 0.003859 0.020469
0.194423 0.005918 0.023243
0.224719 0.008134 0.026174
0.255018 0.010505 0.029260
0.285321 0.013033 0.032503
0.315628 0.015717 0.035902
0.345938 0.018557 0.039457
0.376253 0.021554 0.043169
0.406572 0.024706 0.047036
0.436894 0.028015 0.051060
0.467221 0.031481 0.055241
0.497551 0.035102 0.059577
0.527885 0.038880 0.064070
0.558223 0.042814 0.068719
0.588565 0.046904 0.073524
0.618911 0.051150 0.078485
0.649261 0.055553 0.083603
0.679615 0.060112 0.088877
0.709972 0.064827 0.094307
0.740334 0.069699 0.099894
0.770699 0.074726 0.105636
0.801068 0.079910 0.111535
0.831442 0.085250 0.117590
0.861819 0.090747 0.123802
0.892200 0.096399 0.130169
0.922585 0.102208 0.136693
0.952973 0.108173 0.143373
0.000000 0.028036 0.011209
0.019678 0.028036 0.011209
0.044972 0.028409 0.011847
0.073374 0.029962 0.014119
0.103658 0.031557 0.016841
0.133947 0.033308 0.019472
0.164239 0.035216 0.022212
0.194535 0.037279 0.025091
0.224834 0.039499 0.028117
0.255138 0.041876 0.031295
0.285446 0.044408 0.034627
0.315757 0.047097 0.038113
0.346073 0.049941 0.041754
0.376392 0.052943 0.045550
0.406715 0.056100 0.049502
0.437042 0.059413 0.053610
0.467373 0.062883 0.057873
0.497708 0.066509 0.062292
0.528047 0.070292 0.066868
0.558390 0.074230 0.071599
0.588736 0.078325 0.076486
0.619087 0.082576 0.081530
0.649441 0.086983 0.086729
0.679800 0.091547 0.092085
0.710162 0.096267 0.097597
0.740528 0.101143 0.103265
0.770898 0.106175 0.109089
0.801272 0.111364 0.115069
0.831649 0.116708 0.121206
0.862031 0.122209 0.127499
0.892417 0.127866 0.133948
0.922806 0.133680 0.140553
0.953200 0.139650 0.147314
0.000000 0.058787 0.012966
0.019043 0.058787 0.012966
0.046110 0.058806 0.013579
0.074649 0.058638 0.015657
0.103740 0.060689 0.017638
0.134035 0.062788 0.020209
0.164332 0.064811 0.022934
0.194633 0.066916 0.025815
0.224937 0.069143 0.028852
0.255245 0.071508 0.032045
0.285557 0.074019 0.035395
0.315873 0.076679 0.038900
0.346193 0.079491 0.042562
0.376516 0.082456 0.046379
0.406844 0.085574 0.050354
0.437175 0.088847 0.054484
0.467510 0.092274 0.058770
0.497850 0.095857 0.063213
0.528193 0.099595 0.067812
0.558540 0.103488 0.072568
0.588890 0.107537 0.077479
0.619245 0.111742 0.082547
0.649604 0.116103 0.087771
0.679966 0.120619 0.093151
0.710332 0.125291 0.098687
0.740703 0.130119 0.104380
0.771077 0.135104 0.110229
0.801455 0.140244 0.116234
0.831837 0.145540 0.122396
0.862223 0.150993 0.128713
0.892613 0.156601 0.135187
0.923006 0.162366 0.141817
0.953404 0.168286 0.148604
0.000813 0.089940 0.015278
0.019221 0.089940 0.015278
0.046896 0.089960 0.016135
0.076989 0.089986 0.017296
0.104612 0.089822 0.018174
0.134117 0.091538 0.020291
0.164420 0.093721 0.023022
0.194726 0.095881 0.025908
0.225035 0.098116 0.028950
0.255347 0.100465 0.032147
0.285664 0.102944 0.035501
0.315984 0.105563 0.039010
0.346307 0.108327 0.042676
0.376635 0.111239 0.046498
0.406967 0.114302 0.050476
0.437302 0.117516 0.054611
0.467641 0.120883 0.058901
0.497985 0.124404 0.063348
0.528332 0.128078 0.067951
0.558683 0.131907 0.072711
0.589038 0.135890 0.077626
0.619396 0.140029 0.082698
0.649759 0.144323 0.087926
0.680125 0.148772 0.093310
0.710496 0.153376 0.098851
0.740870 0.158137 0.104548
0.771248 0.163052 0.110400
0.801630 0.168124 0.116410
0.832016 0.173351 0.122575
0.862406 0.178734 0.128897
0.892800 0.184273 0.135375
0.923198 0.189968 0.142009
0.953599 0.195819 0.148799
0.002571 0.121102 0.017751
0.020345 0.121102 0.017751
0.047842 0.121124 0.018738
0.078073 0.121151 0.019870
0.106969 0.121175 0.019893
0.134904 0.121019 0.020855
0.164508 0.122631 0.023110
0.194819 0.124846 0.026001
0.225132 0.127090 0.029047
0.255449 0.129422 0.032249
0.285770 0.131869 0.035607
0.316094 0.134447 0.039121
0.346422 0.137163 0.042791
0.376754 0.140023 0.046617
0.407090 0.143030 0.050599
0.437429 0.146185 0.054738
0.467773 0.149492 0.059033
0.498120 0.152950 0.063483
0.528471 0.156561 0.068091
0.558826 0.160325 0.072854
0.589185 0.164244 0.077774
0.619548 0.168316 0.082849
0.649914 0.172543 0.088081
0.680285 0.176925 0.093470
0.710659 0.181462 0.099014
0.741037 0.186154 0.104715
0.771420 0.191001 0.110572
0.801806 0.196004 0.116585
0.832196 0.201162 0.122755
0.862590 0.206476 0.129080
0.892988 0.211945 0.135562
0.923389 0.217570 0.142200
0.953795 0.223351 0.148995
0.004491 0.152275 0.020386
0.021630 0.152275 0.020386
0.048951 0.152297 0.021468
0.079228 0.152326 0.022605
0.108228 0.152351 0.022630
0.137227 0.152376 0.022655
0.165269 0.152228 0.023701
0.194912 0.153811 0.026094
0.225230 0.156063 0.029145
0.255551 0.158379 0.032351
0.285876 0.160795 0.035713
0.316205 0.163331 0.039231
0.346537 0.166000 0.042905
0.376873 0.168807 0.046736
0.407212 0.171757 0.050722
0.437556 0.174855 0.054865
0.467904 0.178101 0.059164
0.498255 0.181497 0.063619
0.528610 0.185044 0.068230
0.558969 0.188744 0.072997
0.589332 0.192597 0.077921
0.619699 0.196603 0.083001
0.650070 0.200763 0.088237
0.680444 0.205078 0.093629
0.710823 0.209547 0.099178
0.741205 0.214171 0.104882
0.771591 0.218950 0.110743
0.801981 0.223883 0.116761
0.832375 0.228973 0.122934
0.862773 0.234217 0.129264
0.893175 0.239617 0.135750
0.923581 0.245173 0.142392
0.953990 0.250884 0.149190
0.006573 0.183456 0.023183
0.023077 0.183456 0.023183
0.050222 0.183480 0.024346
0.080512 0.183510 0.025502
0.109539 0.183536 0.025528
0.138566 0.183563 0.025555
0.167594 0.183589 0.025582
0.195668 0.183449 0.026711
0.225327 0.185037 0.029242
0.255653 0.187335 0.032453
0.285982 0.189720 0.035819
0.316315 0.192215 0.039342
0.346651 0.194836 0.043020
0.376991 0.197591 0.046854
0.407335 0.200485 0.050845
0.437683 0.203524 0.054992
0.468035 0.206709 0.059295
0.498390 0.210043 0.063754
0.528749 0.213527 0.068369
0.559112 0.217163 0.073140
0.589479 0.220950 0.078068
0.619850 0.224890 0.083152
0.650225 0.228984 0.088392
0.680603 0.233231 0.093788
0.710986 0.237632 0.099341
0.741372 0.242188 0.105050
0.771763 0.246898 0.110915
0.802157 0.251763 0.116936
0.832555 0.256783 0.123114
0.862957 0.261959 0.129447
0.893363 0.267289 0.135937
0.923772 0.272775 0.142583
0.954186 0.278416 0.149386
0.008817 0.214647 0.026142
0.024687 0.214647 0.026142
0.051654 0.214672 0.027377
0.081942 0.214703 0.028561
0.110961 0.214731 0.028589
0.139980 0.214759 0.028617
0.168999 0.214787 0.028644
0.198019 0.214815 0.028672
0.226090 0.214682 0.029885
0.255755 0.216292 0.032555
0.286088 0.218645 0.035926
0.316425 0.221099 0.039452
0.346766 0.223672 0.043135
0.377110 0.226374 0.046973
0.407458 0.229213 0.050968
0.437810 0.232193 0.055119
0.468166 0.235318 0.059426
0.498525 0.238590 0.063889
0.528888 0.242010 0.068508
0.559256 0.245581 0.073284
0.589627 0.249303 0.078215
0.620001 0.253177 0.083303
0.650380 0.257204 0.088547
0.680763 0.261384 0.093948
0.711149 0.265717 0.099504
0.741540 0.270205 0.105217
0.771934 0.274847 0.111086
0.802332 0.279643 0.117111
0.832734 0.284594 0.123293
0.863140 0.289700 0.129631
0.893550 0.294961 0.136125
0.923964 0.300377 0.142775
0.954381 0.305949 0.149581
0.011223 0.245848 0.029263
0.026458 0.245848 0.029263
0.053249 0.245874 0.030566
0.083525 0.245906 0.031781
0.112516 0.245936 0.031811
0.141507 0.245965 0.031840
0.170498 0.245994 0.031869
0.199490 0.246023 0.031898
0.228481 0.246052 0.031927
0.256530 0.245926 0.033223
0.286195 0.247570 0.036032
0.316536 0.249983 0.039563
0.346881 0.252508 0.043249
0.377229 0.255158 0.047092
0.407581 0.257941 0.051091
0.437937 0.260862 0.055246
0.468297 0.263927 0.059557
0.498660 0.267136 0.064024
0.529028 0.270493 0.068647
0.559399 0.274000 0.073427
0.589774 0.277656 0.078363
0.620153 0.281464 0.083455
0.650536 0.285424 0.088703
0.680922 0.289537 0.094107
0.711313 0.293803 0.099668
0.741707 0.298222 0.105385
0.772105 0.302795 0.111258
0.802508 0.307523 0.117287
0.832914 0.312405 0.123472
0.863324 0.317442 0.129814
0.893737 0.322633 0.136312
0.924155 0.327980 0.142966
0.954577 0.333481 0.149777
0.013791 0.277058 0.032546
0.028390 0.277058 0.032546
0.055005 0.277085 0.033914
0.085264 0.277119 0.035164
0.114215 0.277149 0.035194
0.143166 0.277180 0.035225
0.172117 0.277210 0.035255
0.201068 0.277241 0.035286
0.230020 0.277271 0.035316
0.258971 0.277302 0.035347
0.286985 0.277183 0.036726
0.316646 0.278867 0.039673
0.346995 0.281344 0.043364
0.377348 0.283942 0.047211
0.407704 0.286669 0.051214
0.438064 0.289532 0.055373
0.468428 0.292535 0.059688
0.498795 0.295683 0.064159
0.529167 0.298977 0.068786
0.559542 0.302418 0.073570
0.589921 0.306010 0.078510
0.620304 0.309751 0.083606
0.650691 0.313644 0.088858
0.681082 0.317690 0.094266
0.711476 0.321888 0.099831
0.741875 0.326239 0.105552
0.772277 0.330744 0.111429
0.802683 0.335403 0.117462
0.833093 0.340216 0.123652
0.863507 0.345183 0.129998
0.893925 0.350305 0.136500
0.924347 0.355582 0.143158
0.954772 0.361014 0.149972
0.016520 0.308278 0.035990
0.030485 0.308278 0.035990
0.056923 0.308306 0.037421
0.087162 0.308341 0.038708
0.116065 0.308373 0.038740
0.144968 0.308404 0.038772
0.173871 0.308436 0.038803
0.202774 0.308468 0.038835
0.231677 0.308499 0.038867
0.260580 0.308531 0.038898
0.289483 0.308563 0.038930
0.317454 0.308451 0.040393
0.347110 0.310180 0.043479
0.377466 0.312725 0.047330
0.407827 0.315396 0.051336
0.438191 0.318201 0.055500
0.468559 0.321144 0.059819
0.498930 0.324229 0.064294
0.529306 0.327460 0.068926
0.559685 0.330837 0.073713
0.590068 0.334363 0.078657
0.620455 0.338038 0.083757
0.650846 0.341865 0.089013
0.681241 0.345843 0.094426
0.711639 0.349973 0.099994
0.742042 0.354256 0.105719
0.772448 0.358693 0.111600
0.802858 0.363283 0.117638
0.833273 0.368027 0.123831
0.863691 0.372925 0.130181
0.894112 0.377977 0.136687
0.924538 0.383184 0.143349
0.954968 0.388546 0.150168
0.019412 0.339507 0.039597
0.032742 0.339507 0.039597
0.059003 0.339536 0.041089
0.089219 0.339573 0.042414
0.118068 0.339606 0.042447
0.146917 0.339638 0.042480
0.175767 0.339671 0.042513
0.204616 0.339704 0.042546
0.233465 0.339737 0.042579
0.262315 0.339770 0.042612
0.291164 0.339803 0.042645
0.320013 0.339836 0.042678
0.347937 0.339731 0.044224
0.377585 0.341509 0.047448
0.407950 0.344124 0.051459
0.438318 0.346870 0.055627
0.468690 0.349753 0.059950
0.499065 0.352776 0.064429
0.529445 0.355943 0.069065
0.559828 0.359255 0.073856
0.590216 0.362716 0.078804
0.620607 0.366325 0.083908
0.651001 0.370085 0.089169
0.681400 0.373996 0.094585
0.711803 0.378058 0.100158
0.742209 0.382273 0.105887
0.772620 0.386641 0.111772
0.803034 0.391163 0.117813
0.833452 0.395837 0.124011
0.863874 0.400666 0.130365
0.894300 0.405649 0.136875
0.924730 0.410787 0.143541
0.955163 0.416079 0.150363
0.022465 0.370746 0.043365
0.035160 0.370746 0.043365
0.061244 0.370776 0.044918
0.091436 0.370814 0.046282
0.120228 0.370848 0.046317
0.149019 0.370882 0.046351
0.177811 0.370916 0.046385
0.206603 0.370950 0.046419
0.235394 0.370984 0.046453
0.264186 0.371019 0.046487
0.292978 0.371053 0.046521
0.321770 0.371087 0.046556
0.350561 0.371121 0.046590
0.378433 0.371024 0.048219
0.408073 0.372852 0.051582
0.438445 0.375540 0.055753
0.468821 0.378362 0.060081
0.499201 0.381323 0.064564
0.529584 0.384426 0.069204
0.559972 0.387674 0.074000
0.590363 0.391069 0.078952
0.620758 0.394612 0.084060
0.651157 0.398305 0.089324
0.681560 0.402149 0.094744
0.711966 0.406144 0.100321
0.742377 0.410291 0.106054
0.772791 0.414590 0.111943
0.803209 0.419042 0.117989
0.833632 0.423648 0.124190
0.864058 0.428408 0.130548
0.894487 0.433321 0.137062
0.924921 0.438389 0.143732
0.955359 0.443611 0.150559
0.025680 0.401994 0.047295
0.037740 0.401994 0.047295
0.063648 0.402025 0.048908
0.093813 0.402064 0.050312
0.122545 0.402100 0.050348
0.151276 0.402135 0.050383
0.180007 0.402170 0.050418
0.208738 0.402206 0.050454
0.237469 0.402241 0.050489
0.266200 0.402277 0.050525
0.294931 0.402312 0.050560
0.323663 0.402347 0.050595
0.352394 0.402383 0.050631
0.381125 0.402418 0.050666
0.408942 0.402328 0.052379
0.438572 0.404209 0.055880
0.468952 0.406970 0.060212
0.499336 0.409869 0.064699
0.529723 0.412909 0.069343
0.560115 0.416093 0.074143
0.590510 0.419422 0.079099
0.620909 0.422899 0.084211
0.651312 0.426526 0.089479
0.681719 0.430302 0.094904
0.712130 0.434229 0.100485
0.742544 0.438308 0.106222
0.772963 0.442539 0.112115
0.803385 0.446922 0.118164
0.833811 0.451459 0.124370
0.864241 0.456149 0.130732
0.894675 0.460993 0.137250
0.925113 0.465991 0.143924
0.955554 0.471144 0.150754
0.029057 0.433252 0.051387
0.040483 0.433252 0.051387
0.066213 0.433284 0.053059
0.096352 0.433324 0.054504
0.125020 0.433361 0.054541
0.153689 0.433398 0.054577
0.182357 0.433434 0.054614
0.211025 0.433471 0.054650
0.239693 0.433507 0.054687
0.268362 0.433544 0.054724
0.297030 0.433580 0.054760
0.325698 0.433617 0.054797
0.354367 0.433654 0.054833
0.383035 0.433690 0.054870
0.411703 0.433727 0.054906
0.439463 0.433644 0.056702
0.469083 0.435579 0.060343
0.499471 0.438416 0.064834
0.529862 0.441392 0.069482
0.560258 0.444511 0.074286
0.590657 0.447775 0.079246
0.621060 0.451186 0.084362
0.651467 0.454746 0.089635
0.681878 0.458455 0.095063
0.712293 0.462314 0.100648
0.742712 0.466325 0.106389
0.773134 0.470487 0.112286
0.803560 0.474802 0.118340
0.833990 0.479270 0.124549
0.864425 0.483891 0.130915
0.894862 0.488665 0.137437
0.925304 0.493594 0.144115
0.955750 0.498676 0.150950
0.032596 0.464519 0.055641
0.043387 0.464519 0.055641
0.068941 0.464552 0.057372
0.099052 0.464594 0.058858
0.127655 0.464632 0.058896
0.156259 0.464670 0.058933
0.184863 0.464707 0.058971
0.213466 0.464745 0.059009
0.242070 0.464783 0.059047
0.270674 0.464821 0.059084
0.299277 0.464859 0.059122
0.327881 0.464896 0.059160
0.356485 0.464934 0.059198
0.385088 0.464972 0.059236
0.413692 0.465010 0.059273
0.442296 0.465048 0.059311
0.469996 0.464972 0.061190
0.499606 0.466962 0.064970
0.530002 0.469875 0.069621
0.560401 0.472930 0.074429
0.590805 0.476129 0.079393
0.621212 0.479474 0.084514
0.651623 0.482966 0.089790
0.682038 0.486608 0.095223
0.712456 0.490399 0.100811
0.742879 0.494342 0.106556
0.773305 0.498436 0.112458
0.803736 0.502682 0.118515
0.834170 0.507081 0.124729
0.864608 0.511632 0.131099
0.895050 0.516337 0.137625
0.925496 0.521196 0.144307
0.955945 0.526209 0.151145
0.036296 0.495796 0.060056
0.046453 0.495796 0.060056
0.071830 0.495830 0.061846
0.101913 0.495873 0.063373
0.130450 0.495912 0.063412
0.158988 0.495951 0.063451
0.187526 0.495990 0.063490
0.216063 0.496029 0.063529
0.244601 0.496068 0.063568
0.273138 0.496107 0.063607
0.301676 0.496146 0.063646
0.330214 0.496185 0.063685
0.358751 0.496224 0.063724
0.387289 0.496263 0.063763
0.415827 0.496302 0.063802
0.444364 0.496341 0.063841
0.472902 0.496380 0.063880
0.500542 0.496311 0.065843
0.530141 0.498358 0.069760
0.560544 0.501348 0.074572
0.590952 0.504482 0.079541
0.621363 0.507761 0.084665
0.651778 0.511186 0.089945
0.682197 0.514761 0.095382
0.712620 0.518485 0.100975
0.743046 0.522359 0.106724
0.773477 0.526385 0.112629
0.803911 0.530562 0.118690
0.834349 0.534891 0.124908
0.864791 0.539374 0.131282
0.895237 0.544009 0.137812
0.925687 0.548798 0.144498
0.956141 0.553741 0.151341
0.040159 0.527083 0.064634
0.049680 0.527083 0.064634
0.074881 0.527117 0.066481
0.104935 0.527162 0.068051
0.133405 0.527202 0.068091
0.161876 0.527242 0.068131
0.190346 0.527282 0.068171
0.218817 0.527323 0.068211
0.247287 0.527363 0.068252
0.275758 0.527403 0.068292
0.304228 0.527443 0.068332
0.332699 0.527483 0.068372
0.361169 0.527524 0.068412
0.389640 0.527564 0.068453
0.418110 0.527604 0.068493
0.446580 0.527644 0.068533
0.475051 0.527684 0.068573
0.503521 0.527725 0.068613
0.531101 0.527663 0.070659
0.560688 0.529767 0.074716
0.591099 0.532835 0.079688
0.621514 0.536048 0.084816
0.651933 0.539407 0.090101
0.682356 0.542914 0.095541
0.712783 0.546570 0.101138
0.743214 0.550376 0.106891
0.773648 0.554333 0.112800
0.804087 0.558442 0.118866
0.834529 0.562702 0.125088
0.864975 0.567115 0.131465
0.895425 0.571681 0.138000
0.925879 0.576401 0.144690
0.956336 0.581273 0.151536
0.044183 0.558378 0.069373
0.053070 0.558378 0.069373
0.078094 0.558414 0.071278
0.108119 0.558460 0.072890
0.136521 0.558501 0.072931
0.164923 0.558543 0.072973
0.193326 0.558584 0.073014
0.221728 0.558626 0.073055
0.250130 0.558667 0.073097
0.278533 0.558708 0.073138
0.306935 0.558750 0.073180
0.335337 0.558791 0.073221
0.363740 0.558833 0.073262
0.392142 0.558874 0.073304
0.420545 0.558915 0.073345
0.448947 0.558957 0.073387
0.477349 0.558998 0.073428
0.505752 0.559040 0.073469
0.534154 0.559081 0.073511
0.561671 0.559027 0.075640
0.591246 0.561188 0.079835
0.621666 0.564335 0.084967
0.652089 0.567627 0.090256
0.682516 0.571067 0.095701
0.712946 0.574655 0.101301
0.743381 0.578393 0.107059
0.773820 0.582282 0.112972
0.804262 0.586322 0.119041
0.834708 0.590513 0.125267
0.865158 0.594857 0.131649
0.895612 0.599353 0.138187
0.926070 0.604003 0.144881
0.956532 0.608806 0.151732
0.048369 0.589684 0.074274
0.056621 0.589684 0.074274
0.081468 0.589720 0.076237
0.111464 0.589768 0.077891
0.139797 0.589810 0.077933
0.168131 0.589853 0.077976
0.196464 0.589895 0.078019
0.224798 0.589938 0.078061
0.253131 0.589981 0.078104
0.281465 0.590023 0.078146
0.309798 0.590066 0.078189
0.338132 0.590109 0.078232
0.366465 0.590151 0.078274
0.394799 0.590194 0.078317
0.423132 0.590236 0.078359
0.451466 0.590279 0.078402
0.479799 0.590322 0.078445
0.508133 0.590364 0.078487
0.536466 0.590407 0.078530
0.564799 0.590449 0.078572
0.592253 0.590402 0.080785
0.621817 0.592622 0.085119
0.652244 0.595847 0.090411
0.682675 0.599220 0.095860
0.713110 0.602740 0.101465
0.743549 0.606410 0.107226
0.773991 0.610230 0.113143
0.804437 0.614201 0.119217
0.834888 0.618324 0.125446
0.865342 0.622598 0.131832
0.895800 0.627025 0.138375
0.926262 0.631605 0.145073
0.956728 0.636338 0.151928
0.052717 0.620999 0.079337
0.060335 0.620999 0.079337
0.085005 0.621036 0.081358
0.114971 0.621085 0.083054
0.143234 0.621129 0.083097
0.171498 0.621172 0.083141
0.199762 0.621216 0.083185
0.228026 0.621260 0.083229
0.256290 0.621304 0.083273
0.284554 0.621348 0.083316
0.312818 0.621392 0.083360
0.341082 0.621435 0.083404
0.369346 0.621479 0.083448
0.397610 0.621523 0.083492
0.425874 0.621567 0.083535
0.454138 0.621611 0.083579
0.482402 0.621654 0.083623
0.510666 0.621698 0.083667
0.538930 0.621742 0.083711
0.567194 0.621786 0.083754
0.595458 0.621830 0.083798
0.622848 0.621789 0.086094
0.652399 0.624068 0.090567
0.682834 0.627373 0.096019
0.713273 0.630826 0.101628
0.743716 0.634427 0.107393
0.774163 0.638179 0.113315
0.804613 0.642081 0.119392
0.835067 0.646135 0.125626
0.865525 0.650340 0.132016
0.895987 0.654697 0.138562
0.926453 0.659208 0.145264
0.956923 0.663871 0.152123
0.057227 0.652323 0.084562
0.064210 0.652323 0.084562
0.088703 0.652362 0.086640
0.118639 0.652412 0.088378
0.146833 0.652457 0.088423
0.175027 0.652502 0.088468
0.203221 0.652547 0.088513
0.231414 0.652592 0.088558
0.259608 0.652637 0.088603
0.287802 0.652682 0.088648
0.315996 0.652727 0.088693
0.344190 0.652772 0.088738
0.372384 0.652817 0.088783
0.400578 0.652862 0.088828
0.428771 0.652907 0.088873
0.456965 0.652952 0.088918
0.485159 0.652997 0.088963
0.513353 0.653042 0.089008
0.541547 0.653087 0.089053
0.569741 0.653132 0.089098
0.597935 0.653177 0.089143
0.626129 0.653222 0.089188
0.653455 0.653189 0.091567
0.682994 0.655526 0.096179
0.713437 0.658911 0.101792
0.743883 0.662445 0.107561
0.774334 0.666128 0.113486
0.804788 0.669961 0.119568
0.835247 0.673945 0.125805
0.865709 0.678081 0.132199
0.896175 0.682369 0.138750
0.926645 0.686810 0.145456
0.957119 0.691403 0.152319
0.061899 0.683657 0.089949
0.068247 0.683657 0.089949
0.092564 0.683697 0.092084
0.122469 0.683748 0.093865
0.150592 0.683794 0.093911
0.178716 0.683840 0.093957
0.206839 0.683886 0.094004
0.234962 0.683933 0.094050
0.263085 0.683979 0.094096
0.291209 0.684025 0.094142
0.319332 0.684071 0.094188
0.347455 0.684117 0.094235
0.375579 0.684164 0.094281
0.403702 0.684210 0.094327
0.431825 0.684256 0.094373
0.459949 0.684302 0.094419
0.488072 0.684348 0.094466
0.516195 0.684395 0.094512
0.544319 0.684441 0.094558
0.572442 0.684487 0.094604
0.600565 0.684533 0.094650
0.628689 0.684579 0.094697
0.656812 0.684626 0.094743
0.684073 0.684600 0.097205
0.713600 0.686996 0.101955
0.744051 0.690462 0.107728
0.774505 0.694076 0.113658
0.804964 0.697841 0.119743
0.835426 0.701756 0.125985
0.865892 0.705823 0.132383
0.896362 0.710041 0.138937
0.926836 0.714412 0.145647
0.957314 0.718936 0.152514
0.066733 0.715000 0.095498
0.072446 0.715000 0.095498
0.096586 0.715041 0.097689
0.126461 0.715094 0.099513
0.154513 0.715141 0.099561
0.182565 0.715188 0.099608
0.210618 0.715236 0.099656
0.238670 0.715283 0.099703
0.266722 0.715331 0.099750
0.294775 0.715378 0.099798
0.322827 0.715425 0.099845
0.350879 0.715473 0.099893
0.378932 0.715520 0.099940
0.406984 0.715567 0.099987
0.435036 0.715615 0.100035
0.463089 0.715662 0.100082
0.491141 0.715710 0.100130
0.519194 0.715757 0.100177
0.547246 0.715804 0.100224
0.575298 0.715852 0.100272
0.603351 0.715899 0.100319
0.631403 0.715947 0.100367
0.659455 0.715994 0.100414
0.687508 0.716041 0.100461
0.714704 0.716023 0.103007
0.744218 0.718479 0.107896
0.774677 0.722025 0.113829
0.805139 0.725721 0.119919
0.835606 0.729567 0.126164
0.866076 0.733564 0.132566
0.896550 0.737713 0.139125
0.927028 0.742015 0.145839
0.957510 0.746468 0.152710
0.071728 0.746353 0.101208
0.076806 0.746353 0.101208
0.100770 0.746395 0.103457
0.130614 0.746449 0.105324
0.158595 0.746497 0.105372
0.186576 0.746546 0.105421
0.214557 0.746595 0.105470
0.242538 0.746643 0.105518
0.270519 0.746692 0.105567
0.298500 0.746740 0.105615
0.326481 0.746789 0.105664
0.354462 0.746837 0.105713
0.382443 0.746886 0.105761
0.410424 0.746935 0.105810
0.438405 0.746983 0.105858
0.466386 0.747032 0.105907
0.494367 0.747080 0.105955
0.522348 0.747129 0.106004
0.550330 0.747178 0.106053
0.578310 0.747226 0.106101
0.606292 0.747275 0.106150
0.634273 0.747323 0.106198
0.662254 0.747372 0.106247
0.690235 0.747421 0.106296
0.718216 0.747469 0.106344
0.745346 0.747458 0.108973
0.774848 0.749974 0.114000
0.805315 0.753601 0.120094
0.835785 0.757378 0.126344
0.866259 0.761306 0.132750
0.896737 0.765385 0.139312
0.927219 0.769617 0.146030
0.957705 0.774001 0.152905
0.076886 0.777716 0.107081
0.081329 0.777716 0.107081
0.105116 0.777758 0.109386
0.134929 0.777814 0.111296
0.162839 0.777863 0.111346
0.190748 0.777913 0.111396
0.218657 0.777963 0.111445
0.246567 0.778013 0.111495
0.274476 0.778062 0.111545
0.302386 0.778112 0.111595
0.330295 0.778162 0.111644
0.358204 0.778212 0.111694
0.386114 0.778262 0.111744
0.414023 0.778311 0.111794
0.441933 0.778361 0.111844
0.469842 0.778411 0.111893
0.497751 0.778461 0.111943
0.525661 0.778511 0.111993
0.553570 0.778560 0.112043
0.581480 0.778610 0.112093
0.609389 0.778660 0.112142
0.637298 0.778710 0.112192
0.665208 0.778759 0.112242
0.693117 0.778809 0.112292
0.721027 0.778859 0.112341
0.748936 0.778909 0.112391
0.776001 0.778904 0.115104
0.805490 0.781480 0.120269
0.835965 0.785189 0.126523
0.866443 0.789047 0.132933
0.896925 0.793057 0.139500
0.927411 0.797219 0.146222
0.957901 0.801533 0.153101
0.082205 0.809088 0.113115
0.086013 0.809088 0.113115
0.109624 0.809131 0.115477
0.139406 0.809188 0.117430
0.167244 0.809239 0.117481
0.195081 0.809290 0.117532
0.222919 0.809341 0.117583
0.250756 0.809392 0.117634
0.278594 0.809443 0.117685
0.306431 0.809494 0.117736
0.334269 0.809545 0.117787
0.362106 0.809596 0.117838
0.389944 0.809647 0.117889
0.417781 0.809698 0.117940
0.445619 0.809749 0.117991
0.473456 0.809800 0.118042
0.501294 0.809851 0.118093
0.529131 0.809902 0.118144
0.556969 0.809952 0.118195
0.584806 0.810003 0.118246
0.612644 0.810054 0.118297
0.640481 0.810105 0.118348
0.668319 0.810156 0.118399
0.696156 0.810207 0.118450
0.723994 0.810258 0.118501
0.751831 0.810309 0.118552
0.779669 0.810360 0.118602
