luts/original/concrete-drift.cube
TITLE "Concrete Drift"
LUT_3D_SIZE 5
DOMAIN_MIN 0.0 0.0 0.0
DOMAIN_MAX 1.0 1.0 1.0
0.000000 0.000000 0.010526
0.224719 0.008134 0.026174
0.467221 0.031481 0.055241
0.709972 0.064827 0.094307
0.952973 0.108173 0.143373
0.011223 0.245848 0.029263
0.228481 0.246052 0.031927
0.468297 0.263927 0.059557
0.711313 0.293803 0.099668
0.954577 0.333481 0.149777
0.036296 0.495796 0.060056
0.244601 0.496068 0.063568
0.472902 0.496380 0.063880
0.712620 0.518485 0.100975
0.956141 0.553741 0.151341
0.071728 0.746353 0.101208
0.270519 0.746692 0.105567
0.494367 0.747080 0.105955
0.718216 0.747469 0.106344
0.957705 0.774001 0.152905
0.117519 0.997519 0.152719
0.306674 0.997924 0.157924
0.525889 0.998389 0.158389
0.745104 0.998854 0.158854
0.964319 0.999319 0.159319
0.012983 0.012983 0.265648
0.229769 0.013184 0.265849
0.467328 0.031588 0.285098
0.710105 0.064960 0.319315
0.953132 0.108332 0.363532
0.013789 0.248414 0.266454
0.243564 0.255147 0.266729
0.468547 0.282807 0.302709
0.711619 0.316474 0.343770
0.954941 0.360141 0.393651
0.036404 0.495904 0.289914
0.259714 0.496214 0.302541
0.477225 0.496511 0.314011
0.712866 0.532044 0.351221
0.956475 0.575568 0.401675
0.071861 0.746486 0.326216
0.288748 0.746873 0.344582
0.511286 0.747267 0.356142
0.720680 0.747625 0.356500
0.957956 0.784063 0.403156
0.117678 0.997678 0.372878
0.328141 0.998141 0.395989
0.549888 0.998620 0.408620
0.758076 0.999062 0.409062
0.966264 0.999503 0.409503
0.037659 0.037659 0.520919
0.243914 0.037924 0.521184
0.473980 0.038240 0.521500
0.710238 0.065093 0.544323
0.953291 0.108491 0.583691
0.038721 0.268471 0.521981
0.262129 0.283828 0.522389
0.480785 0.289459 0.522719
0.711743 0.316598 0.555113
0.955092 0.360292 0.603238
0.039783 0.499283 0.523043
0.263099 0.501661 0.523359
0.513577 0.518707 0.523836
0.713263 0.568118 0.588026
0.956907 0.612107 0.642089
0.071994 0.746619 0.551224
0.288874 0.746999 0.559812
0.539338 0.747463 0.585544
0.728650 0.747793 0.606668
0.958290 0.805890 0.653490
0.117837 0.997837 0.593037
0.328294 0.998294 0.608167
0.578849 0.998849 0.641071
0.784951 0.999299 0.659299
0.970126 0.999692 0.659692
0.072234 0.072234 0.776339
0.267958 0.072563 0.776668
0.493225 0.072955 0.777060
0.718492 0.073347 0.777452
0.953450 0.108650 0.803850
0.073552 0.298427 0.777657
0.290567 0.318591 0.778172
0.510109 0.324485 0.778590
0.723719 0.324852 0.778957
0.955243 0.360443 0.812826
0.074870 0.524620 0.778975
0.291819 0.535622 0.779424
0.542479 0.566356 0.780084
0.735378 0.576371 0.780476
0.957042 0.612242 0.829616
0.076188 0.750813 0.780293
0.293072 0.752652 0.780677
0.543547 0.757275 0.781152
0.781741 0.781741 0.781741
0.958867 0.864067 0.882124
0.117996 0.997996 0.813196
0.328447 0.998447 0.820346
0.578989 0.998989 0.835656
0.829550 0.999550 0.876446
0.982756 0.999899 0.909899
0.111835 0.111835 0.991835
0.297028 0.112228 0.992228
0.517496 0.112696 0.992696
0.737964 0.113164 0.993164
0.958431 0.113631 0.993631
0.113409 0.333409 0.993409
0.324026 0.357950 0.994026
0.540930 0.364530 0.994530
0.751376 0.364976 0.994976
0.961823 0.365423 0.995423
0.114982 0.554982 0.994982
0.325543 0.571492 0.995543
0.576326 0.607437 0.996326
0.776414 0.616814 0.996814
0.966818 0.617218 0.997218
0.116556 0.776556 0.996556
0.327059 0.785034 0.997059
0.577716 0.803272 0.997716
0.828590 0.852039 0.998590
0.978226 0.869026 0.999026
0.118129 0.998129 0.998129
0.328576 0.998576 0.998576
0.579107 0.999107 0.999107
0.829639 0.999639 0.999639
1.000000 1.000000 1.000000
