luts/original/concrete-drift.cube
TITLE "Concrete Drift"
LUT_3D_SIZE 9
DOMAIN_MIN 0.0 0.0 0.0
DOMAIN_MAX 1.0 1.0 1.0
0.000000 0.000000 0.010526
0.103561 0.000210 0.015390
0.224719 0.008134 0.026174
0.345938 0.018557 0.039457
0.467221 0.031481 0.055241
0.588565 0.046904 0.073524
0.709972 0.064827 0.094307
0.831442 0.085250 0.117590
0.952973 0.108173 0.143373
0.002571 0.121102 0.017751
0.106969 0.121175 0.019893
0.225132 0.127090 0.029047
0.346422 0.137163 0.042791
0.467773 0.149492 0.059033
0.589185 0.164244 0.077774
0.710659 0.181462 0.099014
0.832196 0.201162 0.122755
0.953795 0.223351 0.148995
0.011223 0.245848 0.029263
0.112516 0.245936 0.031811
0.228481 0.246052 0.031927
0.346881 0.252508 0.043249
0.468297 0.263927 0.059557
0.589774 0.277656 0.078363
0.711313 0.293803 0.099668
0.832914 0.312405 0.123472
0.954577 0.333481 0.149777
0.022465 0.370746 0.043365
0.120228 0.370848 0.046317
0.235394 0.370984 0.046453
0.350561 0.371121 0.046590
0.468821 0.378362 0.060081
0.590363 0.391069 0.078952
0.711966 0.406144 0.100321
0.833632 0.423648 0.124190
0.955359 0.443611 0.150559
0.036296 0.495796 0.060056
0.130450 0.495912 0.063412
0.244601 0.496068 0.063568
0.358751 0.496224 0.063724
0.472902 0.496380 0.063880
0.590952 0.504482 0.079541
0.712620 0.518485 0.100975
0.834349 0.534891 0.124908
0.956141 0.553741 0.151341
0.052717 0.620999 0.079337
0.143234 0.621129 0.083097
0.256290 0.621304 0.083273
0.369346 0.621479 0.083448
0.482402 0.621654 0.083623
0.595458 0.621830 0.083798
0.713273 0.630826 0.101628
0.835067 0.646135 0.125626
0.956923 0.663871 0.152123
0.071728 0.746353 0.101208
0.158595 0.746497 0.105372
0.270519 0.746692 0.105567
0.382443 0.746886 0.105761
0.494367 0.747080 0.105955
0.606292 0.747275 0.106150
0.718216 0.747469 0.106344
0.835785 0.757378 0.126344
0.957705 0.774001 0.152905
0.093329 0.871860 0.125669
0.176538 0.872018 0.130237
0.287310 0.872232 0.130450
0.398082 0.872445 0.130664
0.508854 0.872659 0.130877
0.619626 0.872872 0.131091
0.730398 0.873086 0.131304
0.841170 0.873299 0.131518
0.958487 0.884131 0.153687
0.117519 0.997519 0.152719
0.197066 0.997691 0.157691
0.306674 0.997924 0.157924
0.416281 0.998156 0.158156
0.525889 0.998389 0.158389
0.635496 0.998622 0.158622
0.745104 0.998854 0.158854
0.854712 0.999087 0.159087
0.964319 0.999319 0.159319
0.004357 0.004357 0.138068
0.107777 0.004425 0.138137
0.224759 0.008174 0.143527
0.345986 0.018604 0.155598
0.467274 0.031534 0.170169
0.588625 0.046964 0.187240
0.710039 0.064894 0.206811
0.831515 0.085323 0.228882
0.953053 0.108253 0.253453
0.004696 0.123227 0.138407
0.112540 0.125520 0.138501
0.225220 0.133635 0.148058
0.346522 0.144140 0.163344
0.467884 0.157144 0.179695
0.589309 0.172648 0.198281
0.710796 0.190651 0.219272
0.832345 0.211154 0.242718
0.953957 0.234157 0.268639
0.011264 0.245889 0.146616
0.115858 0.245983 0.149404
0.232843 0.246108 0.156983
0.346970 0.257655 0.168339
0.468414 0.271938 0.184674
0.589912 0.287506 0.203500
0.711469 0.305195 0.224824
0.833087 0.325217 0.248646
0.954767 0.347650 0.274967
0.022512 0.370793 0.159506
0.123872 0.370904 0.164002
0.243298 0.371055 0.171523
0.352518 0.371179 0.171647
0.468905 0.381640 0.185165
0.590475 0.397269 0.204063
0.712100 0.414461 0.225455
0.833786 0.433740 0.249344
0.955532 0.455301 0.275732
0.036350 0.495850 0.174985
0.134476 0.495976 0.180669
0.254209 0.496149 0.188649
0.364244 0.496297 0.188797
0.474280 0.496444 0.188944
0.591038 0.507032 0.204626
0.712732 0.523727 0.226087
0.834484 0.542263 0.250043
0.956296 0.562953 0.276496
0.052778 0.621059 0.193054
0.147669 0.621200 0.199766
0.267316 0.621395 0.208364
0.377071 0.621564 0.208532
0.486827 0.621732 0.208701
0.596582 0.621900 0.208869
0.713364 0.632992 0.226719
0.835183 0.650787 0.250741
0.957060 0.670604 0.277260
0.071795 0.746420 0.213712
0.163452 0.746577 0.221384
0.282870 0.746793 0.230668
0.391953 0.746982 0.230857
0.501035 0.747170 0.231045
0.610118 0.747358 0.231233
0.719200 0.747547 0.231422
0.835881 0.759310 0.251440
0.957825 0.778255 0.278025
0.093402 0.871933 0.236961
0.181824 0.872105 0.245555
0.300948 0.872343 0.255562
0.409172 0.872551 0.255770
0.517396 0.872760 0.255978
0.625620 0.872968 0.256186
0.733844 0.873176 0.256394
0.842069 0.873384 0.256602
0.958589 0.885906 0.278789
0.117599 0.997599 0.262799
0.202786 0.997786 0.272294
0.321579 0.998046 0.283046
0.428842 0.998273 0.283273
0.536106 0.998501 0.283501
0.643369 0.998728 0.283728
0.750632 0.998956 0.283956
0.857896 0.999183 0.284183
0.965159 0.999411 0.284411
0.012983 0.012983 0.265648
0.112337 0.013064 0.265729
0.229769 0.013184 0.265849
0.346033 0.018651 0.271739
0.467328 0.031588 0.285098
0.588685 0.047024 0.300957
0.710105 0.064960 0.319315
0.831588 0.085396 0.340174
0.953132 0.108332 0.363532
0.013386 0.130698 0.266051
0.118009 0.135029 0.266174
0.233963 0.138650 0.266315
0.346565 0.144184 0.274180
0.467935 0.157195 0.290843
0.589367 0.172706 0.308913
0.710861 0.190716 0.329090
0.832417 0.211225 0.351581
0.954035 0.234235 0.376471
0.013789 0.248414 0.266454
0.118389 0.249534 0.266554
0.243564 0.255147 0.266729
0.347101 0.269720 0.282238
0.468547 0.282807 0.302709
0.590052 0.298391 0.322302
0.711619 0.316474 0.343770
0.833249 0.337058 0.367513
0.954941 0.360141 0.393651
0.022559 0.370840 0.275647
0.123918 0.370949 0.277530
0.249080 0.371111 0.283625
0.360072 0.371248 0.296717
0.469022 0.389652 0.310282
0.590623 0.408665 0.329212
0.712269 0.427683 0.350624
0.833972 0.448423 0.374531
0.955735 0.471320 0.400935
0.036404 0.495904 0.289914
0.134528 0.496028 0.293522
0.259714 0.496214 0.302541
0.376204 0.496383 0.313883
0.477225 0.496511 0.314011
0.591138 0.511685 0.329727
0.712866 0.532044 0.351221
0.834642 0.552979 0.375201
0.956475 0.575568 0.401675
0.052838 0.621119 0.306770
0.147728 0.621259 0.311696
0.272936 0.621468 0.322503
0.390510 0.621660 0.333629
0.494502 0.621816 0.333785
0.598495 0.621972 0.333941
0.713463 0.636404 0.351818
0.835313 0.657535 0.375872
0.957215 0.679815 0.402415
0.071861 0.746486 0.326216
0.163517 0.746642 0.332281
0.288748 0.746873 0.344582
0.406590 0.747088 0.355963
0.511286 0.747267 0.356142
0.615983 0.747446 0.356321
0.720680 0.747625 0.356500
0.835983 0.762091 0.376542
0.957956 0.784063 0.403156
0.093475 0.872006 0.348252
0.181896 0.872177 0.355363
0.307150 0.872431 0.369044
0.424966 0.872668 0.380886
0.529553 0.872868 0.381087
0.634140 0.873068 0.381287
0.738728 0.873269 0.381487
0.843315 0.873469 0.381688
0.958696 0.888311 0.403896
0.117678 0.997678 0.372878
0.202864 0.997864 0.380979
0.328141 0.998141 0.395989
0.445794 0.998399 0.408399
0.549888 0.998620 0.408620
0.653982 0.998841 0.408841
0.758076 0.999062 0.409062
0.862170 0.999283 0.409283
0.966264 0.999503 0.409503
0.024083 0.024083 0.393265
0.119372 0.024178 0.393359
0.235604 0.024317 0.393498
0.351837 0.024456 0.393637
0.467381 0.031641 0.400027
0.588745 0.047084 0.414673
0.710172 0.065027 0.431819
0.831661 0.085469 0.451466
0.953212 0.108412 0.473612
0.024551 0.140644 0.393732
0.125946 0.146112 0.393877
0.242444 0.149861 0.394042
0.354830 0.149992 0.394173
0.467986 0.157246 0.401991
0.589425 0.172763 0.419544
0.710925 0.190780 0.438908
0.832488 0.211297 0.460445
0.954113 0.234313 0.484303
0.025018 0.257205 0.394199
0.126397 0.260362 0.394328
0.251619 0.269599 0.394550
0.361553 0.275536 0.394717
0.468592 0.282852 0.405576
0.590106 0.298445 0.427547
0.711681 0.316536 0.449441
0.833318 0.337126 0.472911
0.955016 0.360216 0.498445
0.025485 0.373766 0.394666
0.126847 0.374613 0.394779
0.252021 0.376972 0.394952
0.377243 0.386209 0.395174
0.469203 0.408463 0.417929
0.590794 0.424132 0.444270
0.712442 0.442297 0.467277
0.834152 0.462961 0.491706
0.955924 0.486124 0.518247
0.036457 0.495957 0.404842
0.134580 0.496080 0.406375
0.259762 0.496262 0.410133
0.384948 0.496448 0.419312
0.488655 0.496596 0.439096
0.591287 0.523082 0.454876
0.713050 0.547345 0.476405
0.834846 0.570024 0.500405
0.956695 0.593928 0.526895
0.052898 0.621179 0.420486
0.147786 0.621318 0.423625
0.272992 0.621523 0.430475
0.398202 0.621733 0.443056
0.511235 0.621920 0.458889
0.602603 0.622049 0.459018
0.713582 0.642642 0.476937
0.835471 0.668251 0.501030
0.957400 0.693211 0.527600
0.071928 0.746553 0.438720
0.163582 0.746707 0.443178
0.288811 0.746936 0.452197
0.414044 0.747169 0.466514
0.529130 0.747380 0.481255
0.626168 0.747543 0.481418
0.723206 0.747706 0.481581
0.836097 0.766478 0.501655
0.958105 0.792494 0.528305
0.093548 0.872079 0.459544
0.181968 0.872249 0.465171
0.307220 0.872501 0.475981
0.432475 0.872756 0.491683
0.548272 0.872990 0.506209
0.647246 0.873179 0.506398
0.746220 0.873367 0.506586
0.845194 0.873556 0.506775
0.958810 0.891777 0.529010
0.117757 0.997757 0.482957
0.202943 0.997943 0.489664
0.328217 0.998217 0.502078
0.453495 0.998495 0.519059
0.569521 0.998752 0.533752
0.669091 0.998963 0.533963
0.768661 0.999174 0.534174
0.868232 0.999385 0.534385
0.967802 0.999597 0.534597
0.037659 0.037659 0.520919
0.128881 0.037766 0.521026
0.243914 0.037924 0.521184
0.358947 0.038082 0.521342
0.473980 0.038240 0.521500
0.588806 0.047144 0.528389
0.710238 0.065093 0.544323
0.831734 0.085542 0.562757
0.953291 0.108491 0.583691
0.038190 0.153065 0.521450
0.136357 0.159512 0.521617
0.252586 0.163545 0.521805
0.364563 0.163696 0.521956
0.476539 0.163847 0.522107
0.589482 0.172821 0.530176
0.710990 0.190845 0.548725
0.832559 0.211368 0.569309
0.954191 0.234391 0.592135
0.038721 0.268471 0.521981
0.136874 0.273013 0.522134
0.262129 0.283828 0.522389
0.374499 0.289319 0.522579
0.480785 0.289459 0.522719
0.590160 0.298499 0.532791
0.711743 0.316598 0.555113
0.833386 0.337195 0.578309
0.955092 0.360292 0.603238
0.039252 0.383877 0.522512
0.137392 0.386514 0.522652
0.262614 0.392744 0.522874
0.387889 0.406354 0.523149
0.490549 0.415082 0.523342
0.590839 0.424178 0.537715
0.712498 0.442353 0.565708
0.834217 0.463026 0.591754
0.955996 0.486196 0.618704
0.039783 0.499283 0.523043
0.137909 0.500015 0.523169
0.263099 0.501661 0.523359
0.388302 0.505096 0.523562
0.513577 0.518707 0.523836
0.591527 0.549866 0.555133
0.713263 0.568118 0.588026
0.835054 0.588863 0.614621
0.956907 0.612107 0.642089
0.052958 0.621239 0.534203
0.147845 0.621376 0.535554
0.273048 0.621579 0.538446
0.398253 0.621784 0.543658
0.523463 0.621994 0.556463
0.618592 0.622151 0.584120
0.713766 0.657943 0.602121
0.835694 0.687977 0.626252
0.957641 0.714527 0.652841
0.071994 0.746619 0.551224
0.163648 0.746773 0.554075
0.288874 0.746999 0.559812
0.414103 0.747228 0.568870
0.539338 0.747463 0.585544
0.648389 0.747666 0.606541
0.728650 0.747793 0.606668
0.836236 0.774511 0.626795
0.958290 0.805890 0.653490
0.093621 0.872152 0.570836
0.182040 0.872321 0.574979
0.307289 0.872571 0.582918
0.432542 0.872823 0.594419
0.557799 0.873080 0.612702
0.670070 0.873310 0.631529
0.759242 0.873478 0.631696
0.848414 0.873645 0.631864
0.958939 0.897253 0.654139
0.117837 0.997837 0.593037
0.203021 0.998021 0.598349
0.328294 0.998294 0.608167
0.453569 0.998569 0.621577
0.578849 0.998849 0.641071
0.692363 0.999102 0.659102
0.784951 0.999299 0.659299
0.877539 0.999495 0.659495
0.970126 0.999692 0.659692
0.053709 0.053709 0.648611
0.140866 0.053830 0.648731
0.254699 0.054006 0.648908
0.368532 0.054183 0.649085
0.482365 0.054360 0.649261
0.596198 0.054537 0.649438
0.710305 0.065160 0.656827
0.831807 0.085615 0.674049
0.953371 0.108571 0.693771
0.054304 0.167960 0.649205
0.149242 0.175330 0.649393
0.264953 0.179703 0.649604
0.376155 0.179874 0.649775
0.487357 0.180045 0.649947
0.598558 0.180217 0.650118
0.711054 0.190909 0.658543
0.832630 0.211439 0.678173
0.954268 0.234468 0.699968
0.054899 0.282212 0.649800
0.149825 0.287907 0.649977
0.275111 0.300056 0.650262
0.387963 0.305574 0.650475
0.494948 0.305736 0.650637
0.601933 0.305898 0.650800
0.711804 0.316659 0.660784
0.833455 0.337264 0.683707
0.955168 0.360368 0.708032
0.055494 0.396463 0.650395
0.150408 0.400484 0.650560
0.275669 0.409034 0.650820
0.400974 0.423909 0.651125
0.508501 0.431439 0.651341
0.607634 0.431585 0.651486
0.712555 0.442410 0.664140
0.834282 0.463090 0.691803
0.956069 0.486269 0.719161
0.056089 0.510714 0.650990
0.150991 0.513061 0.651143
0.276226 0.518012 0.651377
0.401486 0.526562 0.651638
0.526819 0.545294 0.651970
0.620949 0.557288 0.652189
0.713308 0.568163 0.670598
0.835112 0.588921 0.705329
0.956974 0.612174 0.735853
0.056684 0.624965 0.651585
0.151575 0.625638 0.651726
0.276784 0.626990 0.651935
0.401999 0.629215 0.652150
0.527232 0.633909 0.652383
0.652564 0.652640 0.652716
0.714071 0.693759 0.693759
0.835954 0.714762 0.733977
0.957888 0.738088 0.764333
0.072061 0.746686 0.663728
0.163713 0.746838 0.664972
0.288937 0.747062 0.667427
0.414162 0.747287 0.671226
0.539390 0.747515 0.678107
0.664624 0.747749 0.695079
0.747906 0.747906 0.727594
0.836458 0.794238 0.752017
0.958555 0.830562 0.778755
0.093694 0.872225 0.682127
0.182112 0.872393 0.684786
0.307359 0.872640 0.689854
0.432608 0.872890 0.697155
0.557861 0.873142 0.708708
0.683120 0.873401 0.730008
0.787668 0.873621 0.756840
0.855368 0.873743 0.756962
0.959100 0.907293 0.779300
0.117916 0.997916 0.703116
0.203100 0.998100 0.707034
0.328370 0.998370 0.714257
0.453643 0.998643 0.724094
0.578919 0.998919 0.738363
0.704201 0.999201 0.761068
0.813330 0.999449 0.784449
0.893724 0.999620 0.784620
0.974119 0.999790 0.784790
0.072234 0.072234 0.776339
0.155325 0.072368 0.776473
0.267958 0.072563 0.776668
0.380592 0.072759 0.776864
0.493225 0.072955 0.777060
0.605858 0.073151 0.777256
0.718492 0.073347 0.777452
0.831879 0.085688 0.785341
0.953450 0.108650 0.803850
0.072893 0.185331 0.776998
0.164602 0.193597 0.777207
0.279687 0.198335 0.777440
0.389954 0.198526 0.777631
0.500221 0.198717 0.777822
0.610488 0.198908 0.778013
0.720755 0.199099 0.778204
0.832702 0.211510 0.787036
0.954346 0.234546 0.807800
0.073552 0.298427 0.777657
0.165250 0.305168 0.777855
0.290567 0.318591 0.778172
0.403304 0.324302 0.778407
0.510109 0.324485 0.778590
0.616914 0.324669 0.778774
0.723719 0.324852 0.778957
0.833524 0.337333 0.789105
0.955243 0.360443 0.812826
0.074211 0.411523 0.778316
0.165898 0.416739 0.778503
0.291193 0.427106 0.778798
0.416527 0.443047 0.779132
0.525503 0.450265 0.779370
0.626761 0.450437 0.779542
0.728018 0.450608 0.779713
0.834347 0.463155 0.791852
0.956141 0.486341 0.819618
0.074870 0.524620 0.778975
0.166546 0.528310 0.779151
0.291819 0.535622 0.779424
0.417120 0.546828 0.779725
0.542479 0.566356 0.780084
0.644450 0.576221 0.780326
0.735378 0.576371 0.780476
0.835170 0.588979 0.796036
0.957042 0.612242 0.829616
0.075529 0.637716 0.779634
0.167194 0.639881 0.779799
0.292446 0.644137 0.780051
0.417713 0.650609 0.780317
0.543013 0.661816 0.780618
0.668409 0.686417 0.781014
0.752755 0.702155 0.781260
0.835997 0.714806 0.804224
0.957947 0.738147 0.846407
0.076188 0.750813 0.780293
0.167842 0.751452 0.780447
0.293072 0.752652 0.780677
0.418305 0.754390 0.780910
0.543547 0.757275 0.781152
0.668811 0.763408 0.781416
0.781741 0.781741 0.781741
0.836734 0.826578 0.826578
0.958867 0.864067 0.882124
0.093767 0.872298 0.793419
0.182183 0.872465 0.794594
0.307429 0.872710 0.796791
0.432675 0.872956 0.799891
0.557923 0.873204 0.804713
0.683173 0.873454 0.813480
0.808433 0.873714 0.835160
0.873852 0.873852 0.863695
0.959364 0.931964 0.904564
0.117996 0.997996 0.813196
0.203178 0.998178 0.815719
0.328447 0.998447 0.820346
0.453717 0.998717 0.826612
0.578989 0.998989 0.835656
0.704265 0.999265 0.849988
0.829550 0.999550 0.876446
0.929070 0.999785 0.909785
0.982756 0.999899 0.909899
0.093234 0.093234 0.904105
0.172259 0.093380 0.904252
0.283693 0.093595 0.904466
0.395126 0.093810 0.904681
0.506560 0.094025 0.904896
0.617993 0.094240 0.905111
0.729427 0.094455 0.905326
0.840861 0.094669 0.905541
0.953529 0.108729 0.913929
0.093957 0.205176 0.904828
0.182437 0.214325 0.905058
0.296839 0.219443 0.905314
0.406087 0.219653 0.905524
0.515335 0.219863 0.905734
0.624584 0.220073 0.905945
0.733832 0.220284 0.906155
0.843081 0.220494 0.906365
0.954424 0.234624 0.915632
0.094680 0.317117 0.905551
0.183149 0.324845 0.905771
0.308496 0.339523 0.906117
0.420860 0.345504 0.906375
0.527101 0.345708 0.906579
0.633343 0.345912 0.906783
0.739585 0.346115 0.906987
0.845826 0.346319 0.907190
0.955319 0.360519 0.917620
0.095403 0.429059 0.906274
0.183862 0.435365 0.906483
0.309190 0.447330 0.906811
0.434553 0.464346 0.907174
0.543934 0.471563 0.907434
0.645777 0.471758 0.907629
0.747620 0.471952 0.907823
0.849463 0.472147 0.908018
0.956214 0.486414 0.920075
0.096125 0.541000 0.906997
0.184575 0.545886 0.907196
0.309883 0.555137 0.907504
0.435219 0.568270 0.907840
0.560605 0.588486 0.908226
0.665206 0.597618 0.908490
0.760001 0.597798 0.908669
0.854795 0.597977 0.908849
0.957110 0.612310 0.923379
0.096848 0.652942 0.907719
0.185288 0.656406 0.907909
0.310576 0.662944 0.908198
0.435885 0.672195 0.908506
0.561228 0.686395 0.908849
0.686646 0.711168 0.909267
0.782347 0.723665 0.909536
0.864017 0.723817 0.909688
0.958007 0.738207 0.928481
0.097571 0.764883 0.908442
0.186000 0.766926 0.908622
0.311270 0.770751 0.908891
0.436550 0.776120 0.909172
0.561851 0.784305 0.909472
0.687194 0.798505 0.909815
0.812658 0.829725 0.910280
0.885965 0.849683 0.910554
0.958907 0.864107 0.938593
0.098294 0.876825 0.909165
0.186713 0.877446 0.909334
0.311963 0.878558 0.909585
0.437216 0.880045 0.909838
0.562474 0.882214 0.910095
0.687742 0.885841 0.910364
0.813040 0.893595 0.910661
0.910969 0.910969 0.910969
0.959600 0.959600 0.959600
0.118075 0.998075 0.923275
0.203257 0.998257 0.924404
0.328524 0.998524 0.926435
0.453791 0.998791 0.929129
0.579059 0.999059 0.932948
0.704329 0.999329 0.938908
0.829603 0.999603 0.949775
0.954888 0.999888 0.976706
1.000000 1.000000 1.000000
0.111835 0.111835 0.991835
0.186794 0.111994 0.991994
0.297028 0.112228 0.992228
0.407262 0.112462 0.992462
0.517496 0.112696 0.992696
0.627730 0.112930 0.992930
0.737964 0.113164 0.993164
0.848198 0.113398 0.993398
0.958431 0.113631 0.993631
0.112622 0.222622 0.992622
0.197873 0.232627 0.992873
0.311494 0.238151 0.993151
0.419580 0.238380 0.993380
0.527667 0.238610 0.993610
0.635753 0.238839 0.993839
0.743840 0.239068 0.994068
0.851926 0.239298 0.994298
0.960013 0.239527 0.994527
0.113409 0.333409 0.993409
0.198649 0.342010 0.993649
0.324026 0.357950 0.994026
0.435707 0.364307 0.994307
0.540930 0.364530 0.994530
0.646153 0.364753 0.994753
0.751376 0.364976 0.994976
0.856600 0.365200 0.995200
0.961823 0.365423 0.995423
0.114196 0.444196 0.994196
0.199426 0.451393 0.994426
0.324785 0.464721 0.994785
0.450178 0.482960 0.995178
0.559141 0.490461 0.995461
0.660355 0.490675 0.995675
0.761570 0.490890 0.995890
0.862785 0.491105 0.996105
0.964000 0.491320 0.996320
0.114982 0.554982 0.994982
0.200203 0.560777 0.995203
0.325543 0.571492 0.995543
0.450911 0.586136 0.995911
0.576326 0.607437 0.996326
0.681212 0.616612 0.996612
0.776414 0.616814 0.996814
0.871616 0.617016 0.997016
0.966818 0.617218 0.997218
0.115769 0.665769 0.995769
0.200980 0.670160 0.995980
0.326301 0.678263 0.996301
0.451643 0.689312 0.996643
0.577021 0.705354 0.997021
0.702466 0.730900 0.997466
0.800557 0.742757 0.997757
0.885738 0.742938 0.997938
0.970918 0.743118 0.998118
0.116556 0.776556 0.996556
0.201756 0.779543 0.996756
0.327059 0.785034 0.997059
0.452376 0.792489 0.997376
0.577716 0.803272 0.997716
0.703102 0.820391 0.998102
0.828590 0.852039 0.998590
0.913088 0.868888 0.998888
0.978226 0.869026 0.999026
0.117342 0.887342 0.997342
0.202533 0.888927 0.997533
0.327817 0.891805 0.997817
0.453109 0.895665 0.998109
0.578412 0.901190 0.998412
0.703737 0.909882 0.998737
0.829114 0.925839 0.999115
0.954661 0.965570 0.999660
0.998361 0.994961 0.999961
0.118129 0.998129 0.998129
0.203310 0.998310 0.998310
0.328576 0.998576 0.998576
0.453841 0.998841 0.998841
0.579107 0.999107 0.999107
0.704373 0.999373 0.999373
0.829639 0.999639 0.999639
0.954904 0.999904 0.999904
1.000000 1.000000 1.000000
