luts/original/cool-minimal.cube
TITLE "Cool Minimal"
LUT_3D_SIZE 33
DOMAIN_MIN 0.0 0.0 0.0
DOMAIN_MAX 1.0 1.0 1.0
0.004466 0.004466 0.010486
0.027978 0.004717 0.011087
0.058535 0.006172 0.012891
0.089538 0.008249 0.015317
0.120536 0.010500 0.017918
0.151530 0.012925 0.020692
0.182520 0.015523 0.023639
0.213506 0.018295 0.026761
0.244488 0.021241 0.030056
0.275466 0.024360 0.033524
0.306440 0.027653 0.037166
0.337409 0.031119 0.040982
0.368375 0.034759 0.044972
0.399336 0.038573 0.049135
0.430293 0.042560 0.053471
0.461247 0.046721 0.057982
0.492196 0.051056 0.062666
0.523141 0.055564 0.067523
0.554081 0.060246 0.072554
0.585018 0.065101 0.077759
0.615951 0.070130 0.083138
0.646880 0.075333 0.088690
0.677804 0.080710 0.094416
0.708725 0.086260 0.100315
0.739641 0.091983 0.106388
0.770553 0.097881 0.112635
0.801461 0.103952 0.119055
0.832365 0.110196 0.125649
0.863265 0.116614 0.132417
0.894161 0.123206 0.139358
0.925053 0.129972 0.146473
0.955940 0.136911 0.153762
0.986824 0.144024 0.161224
0.005231 0.034861 0.011601
0.029066 0.034852 0.011920
0.058456 0.036180 0.013905
0.089451 0.038525 0.016382
0.120445 0.040820 0.019034
0.151434 0.043246 0.021860
0.182420 0.045829 0.024860
0.213401 0.048578 0.028034
0.244379 0.051497 0.031381
0.275352 0.054587 0.034902
0.306322 0.057849 0.038597
0.337287 0.061284 0.042465
0.368248 0.064891 0.046507
0.399205 0.068672 0.050723
0.430158 0.072625 0.055112
0.461107 0.076752 0.059675
0.492051 0.081052 0.064411
0.522992 0.085526 0.069321
0.553928 0.090172 0.074405
0.584861 0.094993 0.079663
0.615789 0.099987 0.085094
0.646714 0.105154 0.090698
0.677634 0.110495 0.096477
0.708550 0.116010 0.102429
0.739462 0.121698 0.108554
0.770370 0.127560 0.114853
0.801273 0.133595 0.121326
0.832173 0.139804 0.127973
0.863069 0.146186 0.134793
0.893960 0.152742 0.141787
0.924847 0.159472 0.148954
0.955731 0.166375 0.156295
0.986610 0.173452 0.163810
0.007135 0.066217 0.013854
0.030563 0.066207 0.014354
0.059981 0.066185 0.014915
0.089377 0.067234 0.016308
0.120365 0.069660 0.018954
0.151350 0.072096 0.021776
0.182331 0.074646 0.024772
0.213308 0.077341 0.027941
0.244282 0.080195 0.031284
0.275251 0.083212 0.034801
0.306216 0.086397 0.038492
0.337178 0.089751 0.042356
0.368135 0.093275 0.046394
0.399088 0.096971 0.050606
0.430037 0.100839 0.054991
0.460982 0.104879 0.059550
0.491922 0.109092 0.064283
0.522859 0.113477 0.069189
0.553792 0.118035 0.074269
0.584720 0.122766 0.079522
0.615645 0.127671 0.084949
0.646565 0.132748 0.090550
0.677481 0.137999 0.096324
0.708393 0.143423 0.102272
0.739301 0.149020 0.108394
0.770205 0.154791 0.114689
0.801105 0.160736 0.121158
0.832001 0.166853 0.127801
0.862893 0.173144 0.134617
0.893780 0.179609 0.141607
0.924664 0.186247 0.148770
0.955543 0.193059 0.156107
0.986418 0.200044 0.163618
0.009207 0.097563 0.016275
0.032228 0.097553 0.016843
0.061808 0.097529 0.017391
0.090750 0.097506 0.017369
0.120285 0.098499 0.018875
0.151266 0.100946 0.021692
0.182242 0.103463 0.024683
0.213216 0.106104 0.027848
0.244185 0.108892 0.031187
0.275150 0.111837 0.034700
0.306111 0.114944 0.038387
0.337069 0.118218 0.042247
0.368022 0.121660 0.046281
0.398971 0.125271 0.050489
0.429916 0.129053 0.054870
0.460857 0.133006 0.059425
0.491794 0.137131 0.064154
0.522726 0.141428 0.069056
0.553655 0.145898 0.074132
0.584580 0.150540 0.079381
0.615500 0.155354 0.084805
0.646417 0.160342 0.090401
0.677329 0.165502 0.096172
0.708237 0.170836 0.102116
0.739141 0.176343 0.108234
0.770041 0.182023 0.114525
0.800937 0.187876 0.120990
0.831829 0.193903 0.127629
0.862717 0.200103 0.134441
0.893600 0.206476 0.141427
0.924480 0.213023 0.148587
0.955355 0.219743 0.155920
0.986227 0.226637 0.163427
0.011447 0.128900 0.018864
0.034061 0.128889 0.019481
0.063668 0.128864 0.020036
0.092648 0.128840 0.020012
0.121628 0.128816 0.019988
0.151181 0.129796 0.021607
0.182154 0.132280 0.024594
0.213123 0.134867 0.027755
0.244088 0.137589 0.031090
0.275049 0.140461 0.034599
0.306006 0.143492 0.038282
0.336960 0.146685 0.042138
0.367909 0.150044 0.046168
0.398854 0.153571 0.050372
0.429795 0.157267 0.054749
0.460732 0.161134 0.059300
0.491665 0.165171 0.064025
0.522594 0.169380 0.068923
0.553518 0.173760 0.073995
0.584439 0.178313 0.079241
0.615356 0.183038 0.084660
0.646268 0.187936 0.090253
0.677176 0.193006 0.096019
0.708081 0.198249 0.101960
0.738981 0.203665 0.108073
0.769877 0.209255 0.114361
0.800769 0.215017 0.120822
0.831657 0.220952 0.127457
0.862541 0.227061 0.134265
0.893421 0.233343 0.141247
0.924296 0.239798 0.148403
0.955168 0.246427 0.155732
0.986035 0.253229 0.163235
0.013855 0.160227 0.021622
0.036063 0.160216 0.022279
0.065654 0.160189 0.022848
0.094614 0.160164 0.022823
0.123573 0.160139 0.022798
0.152532 0.160113 0.022773
0.182065 0.161097 0.024506
0.213030 0.163630 0.027662
0.243991 0.166286 0.030993
0.274948 0.169086 0.034498
0.305901 0.172039 0.038177
0.336851 0.175152 0.042029
0.367796 0.178428 0.046055
0.398737 0.181871 0.050255
0.429674 0.185481 0.054628
0.460607 0.189261 0.059175
0.491536 0.193211 0.063896
0.522461 0.197331 0.068790
0.553382 0.201623 0.073858
0.584298 0.206086 0.079100
0.615211 0.210722 0.084515
0.646120 0.215530 0.090104
0.677024 0.220510 0.095867
0.707924 0.225662 0.101803
0.738821 0.230988 0.107913
0.769713 0.236486 0.114197
0.800601 0.242158 0.120654
0.831485 0.248002 0.127285
0.862365 0.254019 0.134089
0.893241 0.260210 0.141067
0.924112 0.266574 0.148219
0.954980 0.273111 0.155545
0.985844 0.279821 0.163044
0.016432 0.191545 0.024548
0.038232 0.191533 0.025242
0.067790 0.191505 0.025829
0.096703 0.191478 0.025803
0.125615 0.191452 0.025776
0.154528 0.191425 0.025750
0.183441 0.191399 0.025723
0.212937 0.192393 0.027570
0.243894 0.194984 0.030896
0.274847 0.197711 0.034397
0.305796 0.200586 0.038072
0.336742 0.203619 0.041920
0.367683 0.206812 0.045942
0.398620 0.210171 0.050138
0.429553 0.213695 0.054507
0.460482 0.217388 0.059050
0.491407 0.221250 0.063767
0.522328 0.225283 0.068658
0.553245 0.229486 0.073722
0.584158 0.233860 0.078960
0.615067 0.238406 0.084371
0.645971 0.243123 0.089956
0.676872 0.248013 0.095715
0.707768 0.253076 0.101647
0.738661 0.258310 0.107753
0.769549 0.263718 0.114033
0.800433 0.269298 0.120486
0.831313 0.275051 0.127113
0.862189 0.280978 0.133913
0.893061 0.287077 0.140888
0.923929 0.293349 0.148035
0.954792 0.299795 0.155357
0.985652 0.306413 0.162852
0.019176 0.222853 0.027642
0.040570 0.222841 0.028372
0.070084 0.222811 0.028978
0.098936 0.222783 0.028950
0.127789 0.222756 0.028923
0.156641 0.222728 0.028895
0.185493 0.222700 0.028867
0.214346 0.222673 0.028840
0.243797 0.223681 0.030799
0.274746 0.226335 0.034296
0.305691 0.229134 0.037967
0.336632 0.232086 0.041811
0.367570 0.235197 0.045829
0.398503 0.238470 0.050021
0.429432 0.241909 0.054386
0.460357 0.245515 0.058926
0.491278 0.249290 0.063638
0.522195 0.253234 0.068525
0.553108 0.257348 0.073585
0.584017 0.261633 0.078819
0.614922 0.266089 0.084226
0.645823 0.270717 0.089807
0.676719 0.275517 0.095562
0.707612 0.280489 0.101491
0.738500 0.285633 0.107593
0.769385 0.290950 0.113868
0.800265 0.296439 0.120318
0.831141 0.302101 0.126941
0.862013 0.307936 0.133737
0.892881 0.313944 0.140708
0.923745 0.320125 0.147852
0.954605 0.326479 0.155169
0.985460 0.333006 0.162660
0.022089 0.254151 0.030904
0.043076 0.254138 0.031668
0.072540 0.254108 0.032295
0.101324 0.254079 0.032266
0.130108 0.254050 0.032237
0.158892 0.254021 0.032208
0.187676 0.253992 0.032180
0.216460 0.253963 0.032151
0.245244 0.253934 0.032122
0.274645 0.254960 0.034195
0.305586 0.257681 0.037862
0.336523 0.260553 0.041702
0.367457 0.263581 0.045716
0.398386 0.266770 0.049904
0.429311 0.270123 0.054265
0.460232 0.273643 0.058801
0.491150 0.277330 0.063510
0.522063 0.281185 0.068392
0.552972 0.285211 0.073448
0.583877 0.289406 0.078678
0.614777 0.293773 0.084082
0.645674 0.298311 0.089659
0.676567 0.303020 0.095410
0.707456 0.307902 0.101334
0.738340 0.312955 0.107433
0.769220 0.318181 0.113704
0.800097 0.323580 0.120150
0.830969 0.329151 0.126769
0.861837 0.334894 0.133562
0.892701 0.340811 0.140528
0.923561 0.346900 0.147668
0.954417 0.353163 0.154982
0.985269 0.359598 0.162469
0.025169 0.285440 0.034334
0.045750 0.285427 0.035133
0.075161 0.285395 0.035780
0.103871 0.285365 0.035750
0.132582 0.285334 0.035720
0.161292 0.285304 0.035690
0.190003 0.285274 0.035660
0.218713 0.285244 0.035630
0.247424 0.285214 0.035600
0.276134 0.285184 0.035570
0.305481 0.286229 0.037757
0.336414 0.289020 0.041593
0.367344 0.291965 0.045603
0.398269 0.295070 0.049787
0.429190 0.298337 0.054145
0.460108 0.301770 0.058676
0.491021 0.305369 0.063381
0.521930 0.309137 0.068259
0.552835 0.313073 0.073312
0.583736 0.317180 0.078538
0.614633 0.321457 0.083937
0.645526 0.325905 0.089511
0.676414 0.330524 0.095257
0.707299 0.335315 0.101178
0.738180 0.340278 0.107272
0.769056 0.345413 0.113540
0.799929 0.350720 0.119982
0.830797 0.356200 0.126597
0.861661 0.361852 0.133386
0.892521 0.367678 0.140348
0.923377 0.373676 0.147484
0.954229 0.379846 0.154794
0.985077 0.386190 0.162277
0.028418 0.316719 0.037932
0.048592 0.316705 0.038764
0.077947 0.316672 0.039434
0.106581 0.316641 0.039403
0.135214 0.316610 0.039371
0.163847 0.316578 0.039340
0.192481 0.316547 0.039309
0.221114 0.316516 0.039278
0.249747 0.316485 0.039246
0.278381 0.316453 0.039215
0.307014 0.316422 0.039184
0.336305 0.317487 0.041484
0.367231 0.320349 0.045490
0.398152 0.323370 0.049670
0.429069 0.326551 0.054024
0.459983 0.329897 0.058551
0.490892 0.333409 0.063252
0.521797 0.337088 0.068127
0.552698 0.340936 0.073175
0.583595 0.344953 0.078397
0.614488 0.349141 0.083793
0.645377 0.353499 0.089362
0.676262 0.358028 0.095105
0.707143 0.362728 0.101022
0.738020 0.367600 0.107112
0.768892 0.372645 0.113376
0.799761 0.377861 0.119814
0.830625 0.383250 0.126425
0.861485 0.388811 0.133210
0.892342 0.394545 0.140168
0.923194 0.400451 0.147300
0.954042 0.406530 0.154606
0.984886 0.412783 0.162086
0.031836 0.347989 0.041699
0.051602 0.347975 0.042564
0.080900 0.347940 0.043255
0.109454 0.347908 0.043223
0.138008 0.347875 0.043191
0.166561 0.347843 0.043158
0.195115 0.347810 0.043126
0.223669 0.347778 0.043093
0.252223 0.347745 0.043061
0.280777 0.347713 0.043028
0.309330 0.347680 0.042996
0.337884 0.347648 0.042963
0.367118 0.348734 0.045377
0.398035 0.351669 0.049553
0.428948 0.354765 0.053903
0.459858 0.358024 0.058426
0.490763 0.361449 0.063123
0.521664 0.365040 0.067994
0.552562 0.368799 0.073038
0.583455 0.372727 0.078256
0.614344 0.376824 0.083648
0.645229 0.381092 0.089214
0.676110 0.385531 0.094953
0.706987 0.390141 0.100865
0.737859 0.394923 0.106952
0.768728 0.399876 0.113212
0.799593 0.405002 0.119646
0.830453 0.410299 0.126253
0.861309 0.415769 0.133034
0.892162 0.421412 0.139988
0.923010 0.427227 0.147117
0.953854 0.433214 0.154419
0.984694 0.439375 0.161894
0.035421 0.379249 0.045633
0.054781 0.379234 0.046531
0.084019 0.379198 0.047245
0.112492 0.379165 0.047212
0.140964 0.379131 0.047178
0.169437 0.379097 0.047144
0.197909 0.379064 0.047111
0.226381 0.379030 0.047077
0.254854 0.378997 0.047043
0.283326 0.378963 0.047010
0.311799 0.378929 0.046976
0.340271 0.378896 0.046943
0.368743 0.378862 0.046909
0.397918 0.379969 0.049436
0.428827 0.382979 0.053782
0.459733 0.386152 0.058301
0.490634 0.389488 0.062994
0.521532 0.392991 0.067861
0.552425 0.396661 0.072902
0.583314 0.400500 0.078116
0.614199 0.404508 0.083504
0.645080 0.408686 0.089065
0.675957 0.413035 0.094800
0.706830 0.417554 0.100709
0.737699 0.422245 0.106792
0.768564 0.427108 0.113048
0.799424 0.432142 0.119477
0.830281 0.437349 0.126081
0.861134 0.442727 0.132858
0.891982 0.448278 0.139809
0.922826 0.454002 0.146933
0.953667 0.459898 0.154231
0.984503 0.465967 0.161703
0.039174 0.410499 0.049736
0.058128 0.410484 0.050666
0.087306 0.410447 0.051403
0.115696 0.410412 0.051368
0.144085 0.410377 0.051333
0.172475 0.410343 0.051299
0.200864 0.410308 0.051264
0.229254 0.410273 0.051229
0.257644 0.410238 0.051194
0.286033 0.410203 0.051160
0.314423 0.410169 0.051125
0.342812 0.410134 0.051090
0.371202 0.410099 0.051055
0.399591 0.410064 0.051020
0.428707 0.411193 0.053661
0.459608 0.414279 0.058176
0.490505 0.417528 0.062865
0.521399 0.420942 0.067728
0.552288 0.424524 0.072765
0.583173 0.428273 0.077975
0.614055 0.432192 0.083359
0.644932 0.436280 0.088917
0.675805 0.440538 0.094648
0.706674 0.444968 0.100553
0.737539 0.449568 0.106631
0.768400 0.454340 0.112884
0.799256 0.459283 0.119309
0.830109 0.464398 0.125909
0.860958 0.469686 0.132682
0.891802 0.475145 0.139629
0.922643 0.480778 0.146749
0.953479 0.486582 0.154043
0.984311 0.492559 0.161511
0.043096 0.441740 0.054007
0.061642 0.441724 0.054970
0.090760 0.441686 0.055729
0.119066 0.441650 0.055693
0.147371 0.441614 0.055657
0.175677 0.441578 0.055621
0.203983 0.441542 0.055585
0.232289 0.441506 0.055549
0.260594 0.441470 0.055513
0.288900 0.441434 0.055477
0.317206 0.441398 0.055441
0.345511 0.441362 0.055405
0.373817 0.441326 0.055369
0.402123 0.441290 0.055333
0.430428 0.441255 0.055298
0.459483 0.442406 0.058051
0.490377 0.445567 0.062737
0.521266 0.448894 0.067596
0.552152 0.452386 0.072628
0.583033 0.456047 0.077835
0.613910 0.459875 0.083215
0.644783 0.463874 0.088768
0.675653 0.468042 0.094495
0.706518 0.472381 0.100396
0.737379 0.476890 0.106471
0.768236 0.481571 0.112719
0.799088 0.486424 0.119141
0.829937 0.491448 0.125737
0.860782 0.496644 0.132506
0.891622 0.502012 0.139449
0.922459 0.507553 0.146566
0.953291 0.513266 0.153856
0.984120 0.519152 0.161320
0.047185 0.472972 0.058446
0.065325 0.472955 0.059441
0.094382 0.472916 0.060223
0.122603 0.472879 0.060186
0.150823 0.472841 0.060149
0.179044 0.472804 0.060112
0.207265 0.472767 0.060075
0.235486 0.472730 0.060038
0.263707 0.472693 0.060000
0.291928 0.472656 0.059963
0.320149 0.472619 0.059926
0.348370 0.472581 0.059889
0.376591 0.472544 0.059852
0.404812 0.472507 0.059815
0.433033 0.472470 0.059778
0.461254 0.472433 0.059741
0.490248 0.473607 0.062608
0.521133 0.476845 0.067463
0.552015 0.480249 0.072492
0.582892 0.483820 0.077694
0.613766 0.487559 0.083070
0.644635 0.491468 0.088620
0.675500 0.495546 0.094343
0.706361 0.499794 0.100240
0.737218 0.504213 0.106311
0.768071 0.508803 0.112555
0.798920 0.513564 0.118973
0.829765 0.518497 0.125565
0.860606 0.523602 0.132330
0.891443 0.528879 0.139269
0.922275 0.534328 0.146382
0.953104 0.539950 0.153668
0.983928 0.545744 0.161128
0.051443 0.504193 0.063053
0.069176 0.504176 0.064080
0.098171 0.504136 0.064886
0.126306 0.504097 0.064847
0.154442 0.504059 0.064809
0.182577 0.504021 0.064771
0.210713 0.503982 0.064732
0.238848 0.503944 0.064694
0.266984 0.503906 0.064656
0.295119 0.503867 0.064617
0.323255 0.503829 0.064579
0.351390 0.503791 0.064541
0.379526 0.503753 0.064503
0.407661 0.503714 0.064464
0.435797 0.503676 0.064426
0.463933 0.503638 0.064388
0.492068 0.503599 0.064349
0.521001 0.504797 0.067330
0.551878 0.508112 0.072355
0.582752 0.511593 0.077553
0.613621 0.515243 0.082925
0.644486 0.519061 0.088471
0.675348 0.523049 0.094191
0.706205 0.527207 0.100084
0.737058 0.531535 0.106151
0.767907 0.536034 0.112391
0.798752 0.540705 0.118805
0.829593 0.545547 0.125393
0.860430 0.550561 0.132154
0.891263 0.555746 0.139089
0.922091 0.561104 0.146198
0.952916 0.566634 0.153480
0.983736 0.572336 0.160936
0.055869 0.535405 0.067829
0.073196 0.535388 0.068888
0.102128 0.535346 0.069716
0.130177 0.535307 0.069677
0.158227 0.535267 0.069637
0.186276 0.535228 0.069598
0.214326 0.535188 0.069558
0.242375 0.535149 0.069519
0.270425 0.535109 0.069479
0.298474 0.535070 0.069440
0.326524 0.535030 0.069400
0.354573 0.534991 0.069361
0.382623 0.534951 0.069321
0.410673 0.534912 0.069282
0.438722 0.534872 0.069242
0.466772 0.534833 0.069203
0.494821 0.534793 0.069163
0.522871 0.534754 0.069124
0.551741 0.535974 0.072218
0.582611 0.539367 0.077413
0.613477 0.542927 0.082781
0.644338 0.546655 0.088323
0.675195 0.550553 0.094038
0.706049 0.554620 0.099928
0.736898 0.558858 0.105990
0.767743 0.563266 0.112227
0.798584 0.567846 0.118637
0.829421 0.572596 0.125221
0.860254 0.577519 0.131978
0.891083 0.582613 0.138910
0.921908 0.587879 0.146014
0.952728 0.593318 0.153293
0.983545 0.598929 0.160745
0.060463 0.566608 0.072772
0.077383 0.566590 0.073863
0.106252 0.566547 0.074715
0.134215 0.566506 0.074674
0.162179 0.566465 0.074633
0.190142 0.566425 0.074593
0.218105 0.566384 0.074552
0.246068 0.566344 0.074512
0.274031 0.566303 0.074471
0.301994 0.566262 0.074430
0.329957 0.566222 0.074390
0.357920 0.566181 0.074349
0.385883 0.566140 0.074308
0.413846 0.566100 0.074268
0.441809 0.566059 0.074227
0.469772 0.566018 0.074186
0.497735 0.565978 0.074146
0.525699 0.565937 0.074105
0.553662 0.565897 0.074064
0.582470 0.567140 0.077272
0.613332 0.570610 0.082636
0.644189 0.574249 0.088174
0.675043 0.578056 0.093886
0.705892 0.582033 0.099771
0.736738 0.586180 0.105830
0.767579 0.590498 0.112063
0.798416 0.594986 0.118469
0.829249 0.599646 0.125049
0.860078 0.604477 0.131803
0.890903 0.609480 0.138730
0.921724 0.614655 0.145831
0.952541 0.620002 0.153105
0.983353 0.625521 0.160553
0.065226 0.597801 0.077884
0.081738 0.597782 0.079007
0.110545 0.597738 0.079882
0.138421 0.597696 0.079840
0.166297 0.597654 0.079798
0.194174 0.597613 0.079756
0.222050 0.597571 0.079714
0.249926 0.597529 0.079672
0.277802 0.597487 0.079631
0.305679 0.597445 0.079589
0.333555 0.597403 0.079547
0.361431 0.597362 0.079505
0.389307 0.597320 0.079463
0.417184 0.597278 0.079422
0.445060 0.597236 0.079380
0.472936 0.597194 0.079338
0.500812 0.597153 0.079296
0.528688 0.597111 0.079254
0.556565 0.597069 0.079213
0.584441 0.597027 0.079171
0.613187 0.598294 0.082492
0.644041 0.601843 0.088026
0.674891 0.605560 0.093734
0.705736 0.609446 0.099615
0.736577 0.613503 0.105670
0.767415 0.617729 0.111899
0.798248 0.622127 0.118301
0.829077 0.626695 0.124877
0.859902 0.631435 0.131627
0.890723 0.636347 0.138550
0.921540 0.641430 0.145647
0.952353 0.646686 0.152917
0.983162 0.652113 0.160362
0.070156 0.628984 0.083164
0.086262 0.628965 0.084319
0.115006 0.628920 0.085216
0.142795 0.628877 0.085173
0.170584 0.628834 0.085131
0.198373 0.628791 0.085088
0.226162 0.628748 0.085045
0.253951 0.628705 0.085002
0.281740 0.628662 0.084959
0.309529 0.628619 0.084916
0.337318 0.628576 0.084873
0.365107 0.628533 0.084830
0.392896 0.628490 0.084787
0.420685 0.628447 0.084744
0.448474 0.628404 0.084701
0.476263 0.628361 0.084658
0.504052 0.628318 0.084615
0.531841 0.628275 0.084572
0.559630 0.628232 0.084529
0.587419 0.628189 0.084486
0.615209 0.628146 0.084443
0.643893 0.629437 0.087877
0.674738 0.633063 0.093581
0.705580 0.636860 0.099459
0.736417 0.640825 0.105510
0.767251 0.644961 0.111734
0.798080 0.649268 0.118133
0.828905 0.653745 0.124705
0.859726 0.658394 0.131451
0.890543 0.663214 0.138370
0.921356 0.668206 0.145463
0.952165 0.673370 0.152730
0.982970 0.678706 0.160170
0.075255 0.660158 0.088612
0.090954 0.660139 0.089799
0.119634 0.660092 0.090720
0.147336 0.660047 0.090675
0.175037 0.660003 0.090631
0.202739 0.659959 0.090587
0.230440 0.659915 0.090543
0.258142 0.659871 0.090499
0.285844 0.659827 0.090455
0.313545 0.659783 0.090411
0.341247 0.659738 0.090366
0.368948 0.659694 0.090322
0.396650 0.659650 0.090278
0.424352 0.659606 0.090234
0.452053 0.659562 0.090190
0.479755 0.659518 0.090146
0.507456 0.659474 0.090102
0.535158 0.659429 0.090057
0.562860 0.659385 0.090013
0.590561 0.659341 0.089969
0.618263 0.659297 0.089925
0.645964 0.659253 0.089881
0.674586 0.660567 0.093429
0.705423 0.664273 0.099302
0.736257 0.668148 0.105349
0.767086 0.672193 0.111570
0.797912 0.676408 0.117965
0.828733 0.680795 0.124533
0.859550 0.685352 0.131275
0.890364 0.690081 0.138190
0.921173 0.694981 0.145279
0.951978 0.700054 0.152542
0.982779 0.705298 0.159979
0.080521 0.691322 0.094228
0.095814 0.691302 0.095447
0.124430 0.691254 0.096391
0.152044 0.691209 0.096345
0.179658 0.691163 0.096300
0.207272 0.691118 0.096255
0.234886 0.691073 0.096210
0.262500 0.691028 0.096164
0.290114 0.690982 0.096119
0.317728 0.690937 0.096074
0.345342 0.690892 0.096028
0.372956 0.690846 0.095983
0.400569 0.690801 0.095938
0.428183 0.690756 0.095892
0.455797 0.690710 0.095847
0.483411 0.690665 0.095802
0.511025 0.690620 0.095756
0.538639 0.690574 0.095711
0.566253 0.690529 0.095666
0.593867 0.690484 0.095621
0.621481 0.690439 0.095575
0.649095 0.690393 0.095530
0.676709 0.690348 0.095485
0.705267 0.691686 0.099146
0.736097 0.695470 0.105189
0.766922 0.699424 0.111406
0.797744 0.703549 0.117797
0.828561 0.707844 0.124361
0.859375 0.712310 0.131099
0.890184 0.716948 0.138010
0.920989 0.721757 0.145096
0.951790 0.726737 0.152355
0.982587 0.731890 0.159787
0.085956 0.722477 0.100012
0.100842 0.722456 0.101263
0.129395 0.722407 0.102230
0.156921 0.722360 0.102184
0.184447 0.722314 0.102137
0.211973 0.722268 0.102091
0.239499 0.722221 0.102044
0.267025 0.722175 0.101998
0.294551 0.722128 0.101951
0.322077 0.722082 0.101905
0.349603 0.722035 0.101858
0.377129 0.721989 0.101812
0.404655 0.721942 0.101765
0.432181 0.721896 0.101719
0.459707 0.721849 0.101672
0.487233 0.721803 0.101626
0.514759 0.721756 0.101580
0.542285 0.721710 0.101533
0.569811 0.721663 0.101487
0.597337 0.721617 0.101440
0.624863 0.721570 0.101394
0.652389 0.721524 0.101347
0.679915 0.721477 0.101301
0.707441 0.721431 0.101254
0.735936 0.722793 0.105029
0.766758 0.726656 0.111242
0.797576 0.730690 0.117629
0.828389 0.734894 0.124189
0.859199 0.739269 0.130923
0.890004 0.743815 0.137831
0.920805 0.748532 0.144912
0.951602 0.753421 0.152167
0.982395 0.758482 0.159595
0.091559 0.753622 0.105964
0.106038 0.753601 0.107247
0.134527 0.753550 0.108238
0.161965 0.753503 0.108190
0.189403 0.753455 0.108142
0.216841 0.753407 0.108095
0.244279 0.753360 0.108047
0.271717 0.753312 0.108000
0.299155 0.753264 0.107952
0.326593 0.753217 0.107904
0.354031 0.753169 0.107857
0.381469 0.753121 0.107809
0.408906 0.753074 0.107761
0.436344 0.753026 0.107714
0.463782 0.752979 0.107666
0.491220 0.752931 0.107618
0.518658 0.752883 0.107571
0.546096 0.752836 0.107523
0.573534 0.752788 0.107475
0.600972 0.752740 0.107428
0.628410 0.752693 0.107380
0.655848 0.752645 0.107333
0.683286 0.752597 0.107285
0.710724 0.752550 0.107237
0.738161 0.752502 0.107190
0.766594 0.753888 0.111078
0.797408 0.757830 0.117461
0.828217 0.761943 0.124017
0.859023 0.766227 0.130747
0.889824 0.770682 0.137651
0.920622 0.775308 0.144728
0.951415 0.780105 0.151979
0.982204 0.785075 0.159404
0.097330 0.784757 0.112085
0.111403 0.784736 0.113399
0.139828 0.784684 0.114413
0.167177 0.784635 0.114365
0.194527 0.784586 0.114316
0.221877 0.784537 0.114267
0.249226 0.784489 0.114218
0.276576 0.784440 0.114169
0.303926 0.784391 0.114121
0.331275 0.784342 0.114072
0.358625 0.784293 0.114023
0.385975 0.784245 0.113974
0.413324 0.784196 0.113925
0.440674 0.784147 0.113877
0.468024 0.784098 0.113828
0.495373 0.784049 0.113779
0.522723 0.784001 0.113730
0.550073 0.783952 0.113681
0.577422 0.783903 0.113633
0.604772 0.783854 0.113584
0.632122 0.783805 0.113535
0.659472 0.783757 0.113486
0.686821 0.783708 0.113437
0.714171 0.783659 0.113389
0.741520 0.783610 0.113340
0.768870 0.783561 0.113291
0.797240 0.784971 0.117293
0.828045 0.788993 0.123845
0.858847 0.793185 0.130571
0.889644 0.797548 0.137471
0.920438 0.802083 0.144544
0.951227 0.806789 0.151792
0.982012 0.811667 0.159212
0.103270 0.815883 0.118374
0.116935 0.815861 0.119720
0.145296 0.815808 0.120757
0.172558 0.815758 0.120707
0.199819 0.815708 0.120657
0.227080 0.815658 0.120607
0.254341 0.815608 0.120557
0.281603 0.815558 0.120507
0.308864 0.815508 0.120457
0.336125 0.815458 0.120407
0.363387 0.815408 0.120357
0.390648 0.815358 0.120308
0.417909 0.815308 0.120258
0.445170 0.815258 0.120208
0.472432 0.815208 0.120158
0.499693 0.815158 0.120108
0.526954 0.815108 0.120058
0.554216 0.815058 0.120008
0.581477 0.815009 0.119958
0.608738 0.814959 0.119908
0.635999 0.814909 0.119858
0.663261 0.814859 0.119808
0.690522 0.814809 0.119758
0.717783 0.814759 0.119708
0.745045 0.814709 0.119658
0.772306 0.814659 0.119608
0.799567 0.814609 0.119558
