luts/original/cool-minimal.cube
TITLE "Cool Minimal"
LUT_3D_SIZE 5
DOMAIN_MIN 0.0 0.0 0.0
DOMAIN_MAX 1.0 1.0 1.0
0.004466 0.004466 0.010486
0.244488 0.021241 0.030056
0.492196 0.051056 0.062666
0.739641 0.091983 0.106388
0.986824 0.144024 0.161224
0.022089 0.254151 0.030904
0.245244 0.253934 0.032122
0.491150 0.277330 0.063510
0.738340 0.312955 0.107433
0.985269 0.359598 0.162469
0.051443 0.504193 0.063053
0.266984 0.503906 0.064656
0.492068 0.503599 0.064349
0.737058 0.531535 0.106151
0.983736 0.572336 0.160936
0.091559 0.753622 0.105964
0.299155 0.753264 0.107952
0.518658 0.752883 0.107571
0.738161 0.752502 0.107190
0.982204 0.785075 0.159404
0.142437 1.000000 0.159637
0.342010 1.000000 0.162010
0.555840 1.000000 0.161554
0.769670 1.000000 0.161098
0.983500 1.000000 0.160643
0.024218 0.024218 0.265095
0.247250 0.024002 0.264880
0.492091 0.050951 0.288936
0.739511 0.091853 0.326946
0.986669 0.143869 0.376069
0.023430 0.255492 0.264307
0.262870 0.263434 0.263998
0.490868 0.299728 0.309284
0.737993 0.340336 0.353519
0.984856 0.392056 0.408297
0.051338 0.504088 0.289323
0.287495 0.503745 0.307495
0.494082 0.503473 0.314223
0.736799 0.546345 0.355892
0.983383 0.596138 0.410583
0.091429 0.753492 0.326522
0.324252 0.753064 0.350987
0.535411 0.752696 0.357384
0.739262 0.752348 0.357036
0.981941 0.796386 0.409141
0.142282 1.000000 0.374482
0.371771 1.000000 0.404498
0.581046 1.000000 0.411319
0.782671 1.000000 0.410890
0.984296 1.000000 0.410460
0.055181 0.055181 0.519541
0.269662 0.054897 0.519257
0.495728 0.054588 0.518948
0.739381 0.091723 0.547503
0.986513 0.143713 0.590913
0.054143 0.280518 0.518503
0.290168 0.300279 0.518028
0.498014 0.303374 0.517734
0.737874 0.340217 0.558821
0.984709 0.391909 0.611164
0.053105 0.505855 0.517465
0.289264 0.507013 0.517124
0.516740 0.516740 0.516740
0.736347 0.588690 0.597997
0.982889 0.640089 0.654372
0.091299 0.753362 0.547079
0.324131 0.752944 0.558589
0.573660 0.752473 0.594132
0.743085 0.752189 0.606876
0.981587 0.820187 0.658787
0.142126 1.000000 0.589326
0.371623 1.000000 0.608896
0.621061 1.000000 0.650292
0.809402 1.000000 0.660652
0.986109 1.000000 0.660276
0.097354 0.097354 0.773822
0.303285 0.097002 0.773470
0.523589 0.096619 0.773087
0.743894 0.096236 0.772704
0.986358 0.143558 0.805758
0.096066 0.316754 0.772534
0.328721 0.342127 0.771939
0.538404 0.345087 0.771555
0.744646 0.344734 0.771202
0.984563 0.391763 0.814031
0.094779 0.536154 0.771246
0.327523 0.549131 0.770740
0.576799 0.587323 0.770017
0.749566 0.593223 0.769691
0.982760 0.639960 0.832785
0.093491 0.755553 0.769958
0.326324 0.756135 0.769542
0.575858 0.758552 0.769076
0.768676 0.768676 0.768676
0.980925 0.888125 0.896194
0.141971 1.000000 0.804171
0.371475 1.000000 0.813293
0.620929 1.000000 0.832852
0.870356 1.000000 0.889616
0.992256 1.000000 0.910082
0.147979 0.147979 1.000000
0.345359 0.147559 1.000000
0.559901 0.147101 1.000000
0.774444 0.146644 1.000000
0.988987 0.146187 1.000000
0.146441 0.361441 1.000000
0.375728 0.392092 1.000000
0.582329 0.395262 1.000000
0.785230 0.394830 1.000000
0.988131 0.394397 1.000000
0.144904 0.574904 1.000000
0.374265 0.595174 1.000000
0.623421 0.638036 1.000000
0.808588 0.642988 1.000000
0.988205 0.642605 1.000000
0.143366 0.788366 1.000000
0.372802 0.798257 1.000000
0.622114 0.819422 1.000000
0.871137 0.880767 1.000000
0.992005 0.890805 1.000000
0.141828 1.000000 1.000000
0.371339 1.000000 1.000000
0.620808 1.000000 1.000000
0.870276 1.000000 1.000000
1.000000 1.000000 1.000000
