luts/original/cool-minimal.cube
TITLE "Cool Minimal"
LUT_3D_SIZE 9
DOMAIN_MIN 0.0 0.0 0.0
DOMAIN_MAX 1.0 1.0 1.0
0.004466 0.004466 0.010486
0.120536 0.010500 0.017918
0.244488 0.021241 0.030056
0.368375 0.034759 0.044972
0.492196 0.051056 0.062666
0.615951 0.070130 0.083138
0.739641 0.091983 0.106388
0.863265 0.116614 0.132417
0.986824 0.144024 0.161224
0.011447 0.128900 0.018864
0.121628 0.128816 0.019988
0.244088 0.137589 0.031090
0.367909 0.150044 0.046168
0.491665 0.165171 0.064025
0.615356 0.183038 0.084660
0.738981 0.203665 0.108073
0.862541 0.227061 0.134265
0.986035 0.253229 0.163235
0.022089 0.254151 0.030904
0.130108 0.254050 0.032237
0.245244 0.253934 0.032122
0.367457 0.263581 0.045716
0.491150 0.277330 0.063510
0.614777 0.293773 0.084082
0.738340 0.312955 0.107433
0.861837 0.334894 0.133562
0.985269 0.359598 0.162469
0.035421 0.379249 0.045633
0.140964 0.379131 0.047178
0.254854 0.378997 0.047043
0.368743 0.378862 0.046909
0.490634 0.389488 0.062994
0.614199 0.404508 0.083504
0.737699 0.422245 0.106792
0.861134 0.442727 0.132858
0.984503 0.465967 0.161703
0.051443 0.504193 0.063053
0.154442 0.504059 0.064809
0.266984 0.503906 0.064656
0.379526 0.503753 0.064503
0.492068 0.503599 0.064349
0.613621 0.515243 0.082925
0.737058 0.531535 0.106151
0.860430 0.550561 0.132154
0.983736 0.572336 0.160936
0.070156 0.628984 0.083164
0.170584 0.628834 0.085131
0.281740 0.628662 0.084959
0.392896 0.628490 0.084787
0.504052 0.628318 0.084615
0.615209 0.628146 0.084443
0.736417 0.640825 0.105510
0.859726 0.658394 0.131451
0.982970 0.678706 0.160170
0.091559 0.753622 0.105964
0.189403 0.753455 0.108142
0.299155 0.753264 0.107952
0.408906 0.753074 0.107761
0.518658 0.752883 0.107571
0.628410 0.752693 0.107380
0.738161 0.752502 0.107190
0.859023 0.766227 0.130747
0.982204 0.785075 0.159404
0.115653 0.878106 0.131455
0.210906 0.877923 0.133845
0.319242 0.877714 0.133636
0.427579 0.877505 0.133426
0.535916 0.877295 0.133217
0.644252 0.877086 0.133008
0.752589 0.876877 0.132799
0.860925 0.876668 0.132590
0.981438 0.891444 0.158638
0.142437 1.000000 0.159637
0.235095 1.000000 0.162237
0.342010 1.000000 0.162010
0.448925 1.000000 0.161782
0.555840 1.000000 0.161554
0.662755 1.000000 0.161326
0.769670 1.000000 0.161098
0.876585 1.000000 0.160871
0.983500 1.000000 0.160643
0.012941 0.012941 0.137811
0.122893 0.012858 0.137728
0.244448 0.021201 0.146047
0.368329 0.034713 0.159535
0.492143 0.051003 0.175801
0.615892 0.070072 0.194845
0.739576 0.091918 0.216667
0.863194 0.116543 0.241268
0.986746 0.143946 0.268646
0.012609 0.130062 0.137480
0.128865 0.133113 0.137361
0.243985 0.145737 0.152844
0.367791 0.159175 0.168484
0.491532 0.175392 0.186336
0.615207 0.194386 0.206843
0.738817 0.216159 0.230080
0.862361 0.240711 0.256073
0.985840 0.268040 0.284830
0.022049 0.254111 0.146895
0.136681 0.253993 0.152232
0.247051 0.253884 0.157072
0.367364 0.268993 0.170623
0.491028 0.285671 0.188388
0.614634 0.304192 0.208938
0.738176 0.325156 0.232269
0.861654 0.348740 0.258378
0.985067 0.375014 0.287267
0.035375 0.379203 0.160197
0.148362 0.379065 0.167494
0.261705 0.378928 0.171975
0.369642 0.378807 0.171853
0.490546 0.393263 0.187906
0.614082 0.411234 0.208386
0.737558 0.431249 0.231651
0.860971 0.453695 0.257695
0.984320 0.478728 0.286520
0.051391 0.504141 0.176188
0.162734 0.503984 0.184949
0.276262 0.503825 0.189575
0.384480 0.503681 0.189431
0.492699 0.503537 0.189287
0.613530 0.518277 0.207835
0.736940 0.537342 0.231033
0.860288 0.558650 0.257013
0.983573 0.582442 0.285773
0.070097 0.628926 0.194871
0.179796 0.628749 0.204956
0.292899 0.628570 0.209866
0.400502 0.628405 0.209702
0.508105 0.628241 0.209538
0.615709 0.628077 0.209373
0.736322 0.643435 0.230415
0.859605 0.663606 0.256330
0.982826 0.686156 0.285026
0.091494 0.753557 0.216243
0.199549 0.753362 0.227596
0.311994 0.753161 0.232849
0.418641 0.752977 0.232665
0.525288 0.752793 0.232481
0.631935 0.752609 0.232297
0.738583 0.752425 0.232113
0.858922 0.768561 0.255647
0.982078 0.789870 0.284278
0.115582 0.878035 0.240306
0.221992 0.877820 0.252896
0.333667 0.877600 0.258522
0.439192 0.877397 0.258319
0.544717 0.877194 0.258115
0.650242 0.876990 0.257912
0.755767 0.876787 0.257709
0.861292 0.876584 0.257506
0.981331 0.893584 0.283531
0.142359 1.000000 0.267059
0.247126 1.000000 0.280869
0.357967 1.000000 0.286885
0.462277 1.000000 0.286663
0.566587 1.000000 0.286441
0.670897 1.000000 0.286218
0.775207 1.000000 0.285996
0.879517 1.000000 0.285774
0.983827 1.000000 0.285552
0.024218 0.024218 0.265095
0.131336 0.024119 0.264997
0.247250 0.024002 0.264880
0.368282 0.034667 0.274098
0.492091 0.050951 0.288936
0.615834 0.070013 0.306552
0.739511 0.091853 0.326946
0.863123 0.116472 0.350118
0.986669 0.143869 0.376069
0.023824 0.139855 0.264701
0.138412 0.146314 0.264540
0.249261 0.148539 0.264416
0.367749 0.159133 0.277405
0.491482 0.175342 0.295315
0.615151 0.194330 0.315105
0.738754 0.216097 0.337333
0.862292 0.240641 0.362172
0.985764 0.267964 0.389696
0.023430 0.255492 0.264307
0.138059 0.256285 0.264186
0.262870 0.263434 0.263998
0.367209 0.283593 0.289847
0.490868 0.299728 0.309284
0.614463 0.318643 0.330159
0.737993 0.340336 0.353519
0.861457 0.364807 0.379546
0.984856 0.392056 0.408297
0.035329 0.379157 0.274760
0.148319 0.379022 0.278019
0.273153 0.378856 0.288304
0.372809 0.378746 0.296793
0.490424 0.401604 0.312784
0.613928 0.423031 0.333233
0.737382 0.445187 0.356474
0.860775 0.469385 0.382499
0.984104 0.496014 0.411304
0.051338 0.504088 0.289323
0.162684 0.503934 0.294946
0.287495 0.503745 0.307495
0.394886 0.503598 0.314348
0.494082 0.503473 0.314223
0.613423 0.523625 0.332728
0.736799 0.546345 0.355892
0.860121 0.570233 0.381846
0.983383 0.596138 0.410583
0.070039 0.628867 0.306577
0.179739 0.628693 0.313993
0.304528 0.628481 0.328077
0.413512 0.628309 0.334606
0.515061 0.628158 0.334455
0.616609 0.628006 0.334303
0.736217 0.647504 0.355309
0.859468 0.671081 0.381192
0.982662 0.696262 0.409862
0.091429 0.753492 0.326522
0.199486 0.753298 0.335490
0.324252 0.753064 0.350987
0.433485 0.752870 0.357557
0.535411 0.752696 0.357384
0.637337 0.752522 0.357210
0.739262 0.752348 0.357036
0.858815 0.771929 0.380539
0.981941 0.796386 0.409141
0.115510 0.877963 0.349157
0.221923 0.877751 0.359555
0.346666 0.877494 0.376436
0.455638 0.877279 0.383200
0.557190 0.877084 0.383006
0.658742 0.876889 0.382811
0.760293 0.876694 0.382616
0.861845 0.876500 0.382422
0.981219 0.896510 0.408419
0.142282 1.000000 0.374482
0.247050 1.000000 0.386240
0.371771 1.000000 0.404498
0.480233 1.000000 0.411534
0.581046 1.000000 0.411319
0.681858 1.000000 0.411105
0.782671 1.000000 0.410890
0.883483 1.000000 0.410675
0.984296 1.000000 0.410460
0.038298 0.038298 0.392339
0.142581 0.038184 0.392225
0.257054 0.038048 0.392089
0.371528 0.037913 0.391953
0.492038 0.050898 0.402071
0.615775 0.069954 0.418259
0.739446 0.091788 0.437225
0.863051 0.116401 0.458969
0.986591 0.143791 0.483491
0.037841 0.152451 0.391882
0.150776 0.160386 0.391691
0.262860 0.162504 0.391545
0.372533 0.162378 0.391419
0.491433 0.175293 0.404294
0.615095 0.194274 0.423368
0.738691 0.216034 0.444585
0.862222 0.240572 0.468271
0.985688 0.267888 0.494562
0.037385 0.266604 0.391426
0.150346 0.270804 0.391262
0.275099 0.282994 0.391015
0.376187 0.286839 0.390879
0.490825 0.299685 0.409589
0.614411 0.318591 0.432553
0.737934 0.340276 0.456170
0.861391 0.364740 0.481758
0.984783 0.391983 0.509731
0.036928 0.380757 0.390969
0.149917 0.381222 0.390832
0.274747 0.382767 0.390662
0.390467 0.390467 0.390467
0.490207 0.424067 0.428927
0.613721 0.442900 0.452455
0.737170 0.464512 0.476440
0.860554 0.488903 0.502696
0.983872 0.516072 0.531537
0.051286 0.504036 0.402459
0.162633 0.503883 0.404944
0.287450 0.503700 0.410575
0.412259 0.503509 0.426225
0.498902 0.503402 0.439152
0.613269 0.535422 0.457574
0.736609 0.562124 0.480702
0.859909 0.588155 0.506633
0.983151 0.615726 0.535351
0.069980 0.628808 0.418284
0.179683 0.628636 0.423029
0.304475 0.628428 0.432084
0.429261 0.628214 0.449708
0.529650 0.628058 0.459355
0.618563 0.627934 0.459231
0.736089 0.654667 0.480182
0.859301 0.682663 0.506025
0.982467 0.710725 0.534667
0.091364 0.753427 0.436801
0.199422 0.753235 0.443385
0.324191 0.753004 0.454788
0.448955 0.752768 0.473550
0.552716 0.752583 0.482271
0.646595 0.752427 0.482114
0.740474 0.752270 0.481957
0.858693 0.777171 0.505418
0.981782 0.805724 0.533982
0.115439 0.877892 0.458007
0.221853 0.877681 0.466215
0.346599 0.877427 0.479558
0.471340 0.877168 0.499433
0.576202 0.876960 0.507882
0.671711 0.876778 0.507700
0.767220 0.876597 0.507518
0.862729 0.876415 0.507337
0.981098 0.900724 0.533298
0.142204 1.000000 0.481904
0.246974 1.000000 0.491610
0.371697 1.000000 0.506697
0.496416 1.000000 0.527733
0.601516 1.000000 0.536185
0.697386 1.000000 0.535981
0.793256 1.000000 0.535777
0.889126 1.000000 0.535573
0.984996 1.000000 0.535368
0.055181 0.055181 0.519541
0.156629 0.055051 0.519411
0.269662 0.054897 0.519257
0.382695 0.054743 0.519103
0.495728 0.054588 0.518948
0.615716 0.069896 0.529966
0.739381 0.091723 0.547503
0.862980 0.116329 0.567819
0.986513 0.143713 0.590913
0.054662 0.167849 0.519022
0.165943 0.177075 0.518803
0.277712 0.179275 0.518635
0.387015 0.179129 0.518489
0.496318 0.178982 0.518342
0.615038 0.194218 0.531631
0.738628 0.215971 0.551838
0.862153 0.240503 0.574371
0.985613 0.267813 0.599428
0.054143 0.280518 0.518503
0.165446 0.286776 0.518306
0.290168 0.300279 0.518028
0.395895 0.303505 0.517865
0.498014 0.303374 0.517734
0.614359 0.318539 0.534946
0.737874 0.340217 0.558821
0.861324 0.364674 0.583969
0.984709 0.391909 0.611164
0.053624 0.393186 0.517984
0.164948 0.396478 0.517808
0.289716 0.403646 0.517576
0.414403 0.421947 0.517263
0.503673 0.427757 0.517117
0.613677 0.442857 0.542600
0.737116 0.464458 0.571248
0.860492 0.488841 0.598994
0.983802 0.516003 0.628120
0.053105 0.505855 0.517465
0.164451 0.506179 0.517311
0.289264 0.507013 0.517124
0.414066 0.509383 0.516926
0.516740 0.516740 0.516740
0.612981 0.567160 0.570085
0.736347 0.588690 0.597997
0.859651 0.613000 0.625179
0.982889 0.640089 0.654372
0.069921 0.628749 0.529991
0.179626 0.628579 0.532066
0.304422 0.628375 0.536090
0.429215 0.628168 0.544027
0.553998 0.627951 0.565994
0.625330 0.627851 0.584148
0.735899 0.670446 0.604992
0.859071 0.702951 0.630796
0.982215 0.733097 0.659415
0.091299 0.753362 0.547079
0.199359 0.753172 0.551279
0.324131 0.752944 0.558589
0.448900 0.752712 0.570666
0.573660 0.752473 0.594132
0.665999 0.752310 0.606997
0.743085 0.752189 0.606876
0.858543 0.786388 0.630268
0.981587 0.820187 0.658787
0.115368 0.877821 0.566858
0.221783 0.877611 0.572875
0.346532 0.877360 0.582679
0.471277 0.877105 0.597315
0.596015 0.876843 0.621368
0.693872 0.876648 0.632570
0.779083 0.876488 0.632410
0.864294 0.876328 0.632250
0.980960 0.907277 0.658160
0.142126 1.000000 0.589326
0.246897 1.000000 0.596981
0.371623 1.000000 0.608896
0.496345 1.000000 0.625531
0.621061 1.000000 0.650292
0.721049 1.000000 0.660840
0.809402 1.000000 0.660652
0.897756 1.000000 0.660464
0.986109 1.000000 0.660276
0.074866 0.074866 0.646702
0.173479 0.074721 0.646557
0.285072 0.074548 0.646384
0.396665 0.074375 0.646211
0.508257 0.074202 0.646038
0.619850 0.074030 0.645865
0.739316 0.091658 0.657782
0.862909 0.116258 0.676670
0.986436 0.143636 0.698336
0.074285 0.186050 0.646120
0.183914 0.196510 0.645875
0.294935 0.198850 0.645685
0.403354 0.198683 0.645519
0.511772 0.198517 0.645353
0.620190 0.198351 0.645187
0.738566 0.215908 0.659091
0.862084 0.240433 0.680470
0.985537 0.267737 0.704293
0.073703 0.297234 0.645539
0.183351 0.305139 0.645312
0.308043 0.319877 0.645003
0.414704 0.322982 0.644817
0.517938 0.322827 0.644662
0.621173 0.322672 0.644507
0.737815 0.340157 0.661472
0.861258 0.364607 0.686181
0.984636 0.391836 0.712598
0.073122 0.408419 0.644957
0.182788 0.413769 0.644749
0.307514 0.423779 0.644474
0.432176 0.442591 0.644136
0.530441 0.447123 0.643958
0.623691 0.446989 0.643824
0.737062 0.464405 0.666056
0.860429 0.488779 0.695293
0.983733 0.515933 0.724703
0.072540 0.519603 0.644376
0.182225 0.522398 0.644186
0.306985 0.527681 0.643945
0.431710 0.537691 0.643671
0.556324 0.563172 0.643285
0.631718 0.571294 0.643130
0.736305 0.588648 0.676437
0.859596 0.612945 0.711401
0.982824 0.640024 0.743579
0.071959 0.630787 0.643795
0.181662 0.631027 0.643623
0.306456 0.631582 0.643416
0.431245 0.632790 0.643205
0.556018 0.636131 0.642979
0.642810 0.642810 0.642810
0.735529 0.712872 0.713319
0.858749 0.737098 0.745910
0.981906 0.764106 0.776377
0.091234 0.753297 0.657358
0.199296 0.753108 0.659174
0.324071 0.752883 0.662390
0.448844 0.752657 0.667782
0.573614 0.752426 0.678374
0.698370 0.752182 0.707611
0.752094 0.752094 0.731781
0.858314 0.806676 0.755038
0.981314 0.845511 0.783514
0.115296 0.877750 0.675708
0.221713 0.877541 0.679534
0.346464 0.877293 0.685801
0.471213 0.877041 0.695197
0.595958 0.876786 0.710695
0.720692 0.876520 0.740768
0.803931 0.876352 0.757274
0.867650 0.876238 0.757160
0.980786 0.918789 0.782986
0.142049 1.000000 0.696749
0.246821 1.000000 0.702352
0.371549 1.000000 0.711095
0.496274 1.000000 0.723329
0.620995 1.000000 0.741572
0.745708 1.000000 0.771530
0.836982 1.000000 0.785503
0.912525 1.000000 0.785342
0.988068 1.000000 0.785181
0.097354 0.097354 0.773822
0.193132 0.097193 0.773661
0.303285 0.097002 0.773470
0.413437 0.096811 0.773278
0.523589 0.096619 0.773087
0.633742 0.096428 0.772895
0.743894 0.096236 0.772704
0.862837 0.116187 0.785520
0.986358 0.143558 0.805758
0.096710 0.207054 0.773178
0.204688 0.218723 0.772905
0.314780 0.221227 0.772695
0.422098 0.221042 0.772509
0.529416 0.220857 0.772324
0.636734 0.220671 0.772139
0.744052 0.220486 0.771953
0.862015 0.240364 0.786570
0.985461 0.267661 0.809159
0.096066 0.316754 0.772534
0.204061 0.326125 0.772278
0.328721 0.342127 0.771939
0.435283 0.345263 0.771731
0.538404 0.345087 0.771555
0.641525 0.344911 0.771378
0.744646 0.344734 0.771202
0.861191 0.364541 0.788392
0.984563 0.391763 0.814031
0.095423 0.426454 0.771890
0.203433 0.433527 0.771651
0.328122 0.445629 0.771339
0.452757 0.465156 0.770975
0.553555 0.469304 0.770772
0.649823 0.469143 0.770610
0.746091 0.468981 0.770448
0.860367 0.488716 0.791592
0.983663 0.515863 0.821286
0.094779 0.536154 0.771246
0.202806 0.540929 0.771023
0.327523 0.549131 0.770740
0.452203 0.562408 0.770420
0.576799 0.587323 0.770017
0.666497 0.593357 0.769824
0.749566 0.593223 0.769691
0.859541 0.612890 0.797623
0.982760 0.639960 0.832785
0.094135 0.645854 0.770602
0.202179 0.648332 0.770396
0.326923 0.652633 0.770141
0.451649 0.659661 0.769866
0.576329 0.672938 0.769546
0.700862 0.706668 0.769079
0.760323 0.717450 0.768917
0.858709 0.737058 0.811102
0.981851 0.764051 0.853011
0.093491 0.755553 0.769958
0.201551 0.755734 0.769769
0.326324 0.756135 0.769542
0.451094 0.756913 0.769312
0.575858 0.758552 0.769076
0.700602 0.763013 0.768820
0.768676 0.768676 0.768676
0.857957 0.847801 0.847801
0.980925 0.888125 0.896194
0.115225 0.877678 0.784559
0.221644 0.877472 0.786194
0.346397 0.877225 0.788922
0.471150 0.876978 0.793079
0.595901 0.876729 0.800021
0.720646 0.876475 0.813618
0.845375 0.876203 0.851078
0.876148 0.876148 0.865992
0.980513 0.944113 0.907713
0.141971 1.000000 0.804171
0.246745 1.000000 0.807723
0.371475 1.000000 0.813293
0.496204 1.000000 0.821126
0.620929 1.000000 0.832852
0.745649 1.000000 0.852168
0.870356 1.000000 0.889616
0.943446 1.000000 0.910186
0.992256 1.000000 0.910082
0.122645 0.122645 0.900901
0.215588 0.122469 0.900724
0.324300 0.122259 0.900514
0.433012 0.122049 0.900304
0.541724 0.121839 0.900094
0.650436 0.121629 0.899884
0.759148 0.121419 0.899674
0.867859 0.121209 0.899464
0.986281 0.143480 0.913180
0.121939 0.230861 0.900194
0.228264 0.243725 0.899895
0.337335 0.246408 0.899664
0.443442 0.246203 0.899459
0.549550 0.245999 0.899255
0.655657 0.245795 0.899050
0.761764 0.245590 0.898846
0.867872 0.245386 0.898641
0.985385 0.267585 0.914025
0.121232 0.339076 0.899488
0.227573 0.349819 0.899204
0.352203 0.367116 0.898834
0.458233 0.370349 0.898604
0.560727 0.370152 0.898408
0.663220 0.369955 0.898211
0.765713 0.369759 0.898014
0.868207 0.369562 0.897818
0.984490 0.391690 0.915465
0.120526 0.447292 0.898782
0.226882 0.455913 0.898513
0.351536 0.469810 0.898167
0.476143 0.490254 0.897774
0.577673 0.494293 0.897548
0.674814 0.494108 0.897363
0.771956 0.493922 0.897178
0.869098 0.493737 0.896993
0.983593 0.515793 0.917869
0.119820 0.555507 0.898075
0.226191 0.562007 0.897822
0.350870 0.572505 0.897500
0.475512 0.587976 0.897143
0.600087 0.612914 0.896717
0.694267 0.618243 0.896499
0.782670 0.618076 0.896332
0.871073 0.617910 0.896165
0.982696 0.639896 0.921991
0.119113 0.663723 0.897369
0.225500 0.668100 0.897131
0.350203 0.675199 0.896834
0.474882 0.685697 0.896512
0.599513 0.702666 0.896144
0.724038 0.734474 0.895669
0.804064 0.742208 0.895463
0.875637 0.742077 0.895332
0.981795 0.763995 0.929646
0.118407 0.771938 0.896663
0.224809 0.774194 0.896440
0.349537 0.777893 0.896167
0.474251 0.783418 0.895881
0.598940 0.792418 0.895571
0.723572 0.809387 0.895203
0.848016 0.852437 0.894646
0.889487 0.866224 0.894480
0.980888 0.888088 0.946593
0.117701 0.880154 0.895956
0.224118 0.880288 0.895749
0.348870 0.880588 0.895501
0.473620 0.881139 0.895251
0.598367 0.882170 0.894997
0.723105 0.884300 0.894736
0.847818 0.890028 0.894449
0.894340 0.894340 0.894340
0.980200 0.980200 0.980200
0.141894 1.000000 0.911594
0.246669 1.000000 0.913094
0.371401 1.000000 0.915492
0.496133 1.000000 0.918924
0.620863 1.000000 0.924133
0.745591 1.000000 0.932806
0.870313 1.000000 0.949757
0.995013 1.000000 0.996393
1.000000 1.000000 1.000000
0.147979 0.147979 1.000000
0.238087 0.147787 1.000000
0.345359 0.147559 1.000000
0.452630 0.147330 1.000000
0.559901 0.147101 1.000000
0.667173 0.146873 1.000000
0.774444 0.146644 1.000000
0.881716 0.146416 1.000000
0.988987 0.146187 1.000000
0.147210 0.254710 1.000000
0.251884 0.268756 1.000000
0.359832 0.271632 1.000000
0.464609 0.271409 1.000000
0.569385 0.271185 1.000000
0.674162 0.270962 1.000000
0.778939 0.270739 1.000000
0.883716 0.270516 1.000000
0.988492 0.270292 1.000000
0.146441 0.361441 1.000000
0.251130 0.373448 1.000000
0.375728 0.392092 1.000000
0.480878 0.395478 1.000000
0.582329 0.395262 1.000000
0.683779 0.395046 1.000000
0.785230 0.394830 1.000000
0.886680 0.394613 1.000000
0.988131 0.394397 1.000000
0.145673 0.468173 1.000000
0.250376 0.478141 1.000000
0.374997 0.493633 1.000000
0.499573 0.515232 1.000000
0.600807 0.519327 1.000000
0.697600 0.519120 1.000000
0.794394 0.518914 1.000000
0.891188 0.518708 1.000000
0.987982 0.518502 1.000000
0.144904 0.574904 1.000000
0.249622 0.582834 1.000000
0.374265 0.595174 1.000000
0.498873 0.612401 1.000000
0.623421 0.638036 1.000000
0.718779 0.643179 1.000000
0.808588 0.642988 1.000000
0.898397 0.642797 1.000000
0.988205 0.642605 1.000000
0.144135 0.681635 1.000000
0.248868 0.687527 1.000000
0.373534 0.696716 1.000000
0.498174 0.709569 1.000000
0.622768 0.728729 1.000000
0.747274 0.760185 1.000000
0.832840 0.767040 1.000000
0.911007 0.766874 1.000000
0.989174 0.766707 1.000000
0.143366 0.788366 1.000000
0.248113 0.792220 1.000000
0.372802 0.798257 1.000000
0.497474 0.806737 1.000000
0.622114 0.819422 1.000000
0.746696 0.840304 1.000000
0.871137 0.880767 1.000000
0.937122 0.890922 1.000000
0.992005 0.890805 1.000000
0.142597 0.895097 1.000000
0.247359 0.896912 1.000000
0.372071 0.899798 1.000000
0.496774 0.903905 1.000000
0.621461 0.910115 1.000000
0.746119 0.920423 1.000000
0.870707 0.940522 1.000000
0.995041 0.995731 1.000000
1.000000 1.000000 1.000000
0.141828 1.000000 1.000000
0.246605 1.000000 1.000000
0.371339 1.000000 1.000000
0.496074 1.000000 1.000000
0.620808 1.000000 1.000000
0.745542 1.000000 1.000000
0.870276 1.000000 1.000000
0.995011 1.000000 1.000000
1.000000 1.000000 1.000000
