luts/original/cover-art-warm.cube
TITLE "Cover Art Warm"
LUT_3D_SIZE 5
DOMAIN_MIN 0.0 0.0 0.0
DOMAIN_MAX 1.0 1.0 1.0
0.027911 0.004678 0.004678
0.290324 0.000000 0.000000
0.552393 0.000000 0.000000
0.814116 0.000000 0.000000
1.000000 0.000000 0.000000
0.032739 0.258287 0.000000
0.288492 0.256243 0.000000
0.549979 0.254232 0.000000
0.811121 0.253355 0.000000
1.000000 0.253080 0.000000
0.041520 0.508500 0.000000
0.295325 0.507783 0.000000
0.547565 0.506308 0.000000
0.808126 0.504862 0.000000
1.000000 0.504335 0.000000
0.050854 0.757552 0.000000
0.303003 0.756661 0.000000
0.554559 0.755771 0.000000
0.805131 0.754519 0.000000
1.000000 0.753784 0.000000
0.060328 1.000000 0.000000
0.311363 1.000000 0.000000
0.561863 1.000000 0.000000
0.811828 1.000000 0.000000
1.000000 1.000000 0.000000
0.034852 0.001390 0.229229
0.290184 0.000000 0.225032
0.552208 0.000000 0.213472
0.813886 0.000000 0.202949
1.000000 0.000000 0.192986
0.027994 0.258146 0.223953
0.288351 0.250942 0.213533
0.549794 0.233335 0.187810
0.810891 0.210854 0.155270
1.000000 0.187912 0.121898
0.021150 0.508315 0.198324
0.281177 0.507597 0.189490
0.547380 0.501887 0.185590
0.807896 0.480205 0.152514
1.000000 0.459257 0.118322
0.006736 0.757322 0.165814
0.266795 0.756432 0.155417
0.538592 0.755541 0.154598
0.804901 0.749363 0.149759
1.000000 0.730380 0.114746
0.000000 1.000000 0.139062
0.246016 1.000000 0.114104
0.519721 1.000000 0.113041
0.793362 1.000000 0.111978
1.000000 1.000000 0.111170
0.042259 0.000000 0.472399
0.299082 0.000000 0.471681
0.551964 0.000000 0.468507
0.813583 0.000000 0.456993
1.000000 0.000000 0.446752
0.026386 0.248186 0.469985
0.283476 0.235226 0.469268
0.549550 0.228086 0.456564
0.810589 0.205241 0.423685
1.000000 0.181537 0.392120
0.020926 0.508071 0.463801
0.270265 0.507354 0.458142
0.547136 0.491251 0.435365
0.807594 0.461382 0.402236
1.000000 0.436656 0.367961
0.006458 0.757020 0.433941
0.255639 0.756129 0.420130
0.524434 0.755239 0.404320
0.804599 0.745492 0.399481
1.000000 0.719020 0.364385
0.000000 1.000000 0.406333
0.233743 1.000000 0.378897
0.499905 1.000000 0.362680
0.784627 1.000000 0.361617
1.000000 1.000000 0.360809
0.051615 0.000000 0.715452
0.306904 0.000000 0.714562
0.561548 0.000000 0.713671
0.813281 0.000000 0.710851
1.000000 0.000000 0.700331
0.015710 0.229709 0.712457
0.271324 0.214641 0.711567
0.547259 0.213822 0.710676
0.810286 0.204963 0.697985
1.000000 0.181176 0.668819
0.012955 0.495535 0.709462
0.262136 0.485354 0.708572
0.526116 0.461067 0.707682
0.807291 0.452208 0.685566
1.000000 0.427600 0.648469
0.006180 0.756717 0.702051
0.255361 0.755827 0.698661
0.504542 0.754937 0.688694
0.804296 0.726750 0.649203
1.000000 0.689711 0.614024
0.000000 1.000000 0.673397
0.233382 1.000000 0.657656
0.482319 1.000000 0.636080
0.762349 1.000000 0.611256
1.000000 1.000000 0.610448
0.061174 0.000000 0.958387
0.315713 0.000000 0.957325
0.569688 0.000000 0.956262
0.823097 0.000000 0.955199
1.000000 0.000000 0.953725
0.000000 0.206152 0.954812
0.254083 0.187449 0.953749
0.530712 0.186471 0.952686
0.807279 0.185493 0.951623
1.000000 0.180815 0.945491
0.000000 0.475618 0.951236
0.244159 0.457084 0.950173
0.503535 0.433181 0.949109
0.795638 0.432203 0.948047
1.000000 0.427239 0.938673
0.000000 0.743051 0.947659
0.240869 0.733758 0.946597
0.489891 0.717712 0.945534
0.762773 0.678913 0.944471
1.000000 0.673663 0.925367
0.000000 1.000000 0.940255
0.233021 1.000000 0.936385
0.481958 1.000000 0.931357
0.730895 1.000000 0.915890
1.000000 1.000000 0.860087
