luts/original/cover-art-warm.cube
TITLE "Cover Art Warm"
LUT_3D_SIZE 33
DOMAIN_MIN 0.0 0.0 0.0
DOMAIN_MAX 1.0 1.0 1.0
0.027911 0.004678 0.004678
0.060731 0.003978 0.003978
0.093547 0.003172 0.003172
0.126356 0.002260 0.002260
0.159161 0.001240 0.001240
0.191960 0.000115 0.000115
0.224753 0.000000 0.000000
0.257542 0.000000 0.000000
0.290324 0.000000 0.000000
0.323102 0.000000 0.000000
0.355874 0.000000 0.000000
0.388641 0.000000 0.000000
0.421402 0.000000 0.000000
0.454158 0.000000 0.000000
0.486908 0.000000 0.000000
0.519653 0.000000 0.000000
0.552393 0.000000 0.000000
0.585127 0.000000 0.000000
0.617856 0.000000 0.000000
0.650579 0.000000 0.000000
0.683297 0.000000 0.000000
0.716010 0.000000 0.000000
0.748717 0.000000 0.000000
0.781419 0.000000 0.000000
0.814116 0.000000 0.000000
0.846807 0.000000 0.000000
0.879492 0.000000 0.000000
0.912173 0.000000 0.000000
0.944847 0.000000 0.000000
0.977517 0.000000 0.000000
0.997461 0.000000 0.000000
0.999365 0.000000 0.000000
1.000000 0.000000 0.000000
0.029365 0.037271 0.004797
0.060566 0.036196 0.003826
0.093372 0.035390 0.003012
0.126173 0.034494 0.002091
0.158968 0.033501 0.001063
0.191758 0.032466 0.000000
0.224542 0.032352 0.000000
0.257322 0.032263 0.000000
0.290095 0.032192 0.000000
0.322864 0.032133 0.000000
0.355627 0.032084 0.000000
0.388384 0.032042 0.000000
0.421136 0.032005 0.000000
0.453883 0.031973 0.000000
0.486625 0.031945 0.000000
0.519360 0.031920 0.000000
0.552091 0.031897 0.000000
0.584816 0.031876 0.000000
0.617536 0.031857 0.000000
0.650250 0.031840 0.000000
0.682959 0.031824 0.000000
0.715663 0.031809 0.000000
0.748361 0.031796 0.000000
0.781054 0.031783 0.000000
0.813741 0.031770 0.000000
0.846423 0.031759 0.000000
0.879100 0.031748 0.000000
0.911771 0.031738 0.000000
0.944437 0.031728 0.000000
0.977097 0.031719 0.000000
0.997461 0.031716 0.000000
0.999365 0.031726 0.000000
1.000000 0.031736 0.000000
0.030699 0.069864 0.004821
0.061999 0.068729 0.003875
0.093197 0.067600 0.002851
0.125989 0.066723 0.001922
0.158775 0.065755 0.000886
0.191556 0.064874 0.000000
0.224332 0.064651 0.000000
0.257102 0.064478 0.000000
0.289866 0.064338 0.000000
0.322626 0.064223 0.000000
0.355379 0.064126 0.000000
0.388128 0.064044 0.000000
0.420871 0.063972 0.000000
0.453609 0.063910 0.000000
0.486341 0.063854 0.000000
0.519068 0.063805 0.000000
0.551789 0.063760 0.000000
0.584505 0.063720 0.000000
0.617216 0.063683 0.000000
0.649921 0.063649 0.000000
0.682621 0.063617 0.000000
0.715316 0.063588 0.000000
0.748005 0.063561 0.000000
0.780689 0.063536 0.000000
0.813367 0.063512 0.000000
0.846040 0.063490 0.000000
0.878707 0.063468 0.000000
0.911369 0.063448 0.000000
0.944026 0.063429 0.000000
0.976677 0.063411 0.000000
0.997461 0.063405 0.000000
0.999365 0.063423 0.000000
1.000000 0.063442 0.000000
0.030892 0.101313 0.003876
0.063316 0.101258 0.003826
0.094610 0.100119 0.002830
0.125805 0.098946 0.001753
0.158582 0.098005 0.000708
0.191354 0.097223 0.000000
0.224121 0.096897 0.000000
0.256882 0.096643 0.000000
0.289637 0.096438 0.000000
0.322387 0.096269 0.000000
0.355132 0.096127 0.000000
0.387872 0.096006 0.000000
0.420606 0.095901 0.000000
0.453334 0.095809 0.000000
0.486057 0.095728 0.000000
0.518775 0.095655 0.000000
0.551488 0.095589 0.000000
0.584195 0.095530 0.000000
0.616896 0.095476 0.000000
0.649592 0.095426 0.000000
0.682283 0.095380 0.000000
0.714969 0.095337 0.000000
0.747649 0.095297 0.000000
0.780323 0.095260 0.000000
0.812992 0.095225 0.000000
0.845656 0.095192 0.000000
0.878315 0.095161 0.000000
0.910968 0.095131 0.000000
0.943615 0.095103 0.000000
0.976258 0.095076 0.000000
0.997461 0.095066 0.000000
0.999365 0.095093 0.000000
1.000000 0.095120 0.000000
0.031054 0.132744 0.002812
0.063481 0.132687 0.002759
0.095906 0.132629 0.002706
0.127197 0.131467 0.001662
0.158390 0.130250 0.000531
0.191152 0.129514 0.000000
0.223910 0.129089 0.000000
0.256662 0.128758 0.000000
0.289408 0.128491 0.000000
0.322149 0.128271 0.000000
0.354885 0.128086 0.000000
0.387615 0.127928 0.000000
0.420340 0.127792 0.000000
0.453060 0.127672 0.000000
0.485774 0.127566 0.000000
0.518483 0.127471 0.000000
0.551186 0.127385 0.000000
0.583884 0.127308 0.000000
0.616576 0.127237 0.000000
0.649263 0.127172 0.000000
0.681945 0.127111 0.000000
0.714621 0.127055 0.000000
0.747292 0.127003 0.000000
0.779958 0.126955 0.000000
0.812618 0.126909 0.000000
0.845273 0.126865 0.000000
0.877922 0.126824 0.000000
0.910566 0.126786 0.000000
0.943205 0.126749 0.000000
0.975838 0.126713 0.000000
0.997461 0.126699 0.000000
0.999365 0.126734 0.000000
1.000000 0.126770 0.000000
0.031134 0.164157 0.001630
0.063581 0.164097 0.001575
0.096027 0.164037 0.001519
0.128470 0.163977 0.001464
0.159761 0.162783 0.000370
0.190951 0.161746 0.000000
0.223699 0.161229 0.000000
0.256442 0.160824 0.000000
0.289179 0.160498 0.000000
0.321911 0.160230 0.000000
0.354638 0.160004 0.000000
0.387359 0.159811 0.000000
0.420075 0.159644 0.000000
0.452785 0.159498 0.000000
0.485490 0.159368 0.000000
0.518190 0.159252 0.000000
0.550884 0.159147 0.000000
0.583573 0.159052 0.000000
0.616256 0.158966 0.000000
0.648934 0.158886 0.000000
0.681607 0.158812 0.000000
0.714274 0.158744 0.000000
0.746936 0.158680 0.000000
0.779593 0.158620 0.000000
0.812244 0.158564 0.000000
0.844889 0.158511 0.000000
0.877530 0.158460 0.000000
0.910165 0.158413 0.000000
0.942794 0.158367 0.000000
0.975418 0.158324 0.000000
0.997461 0.158305 0.000000
0.999365 0.158347 0.000000
1.000000 0.158390 0.000000
0.031113 0.195552 0.000329
0.063590 0.195489 0.000272
0.096065 0.195426 0.000214
0.128539 0.195363 0.000156
0.161011 0.195301 0.000099
0.192301 0.194209 0.000000
0.223488 0.193315 0.000000
0.256222 0.192841 0.000000
0.288950 0.192460 0.000000
0.321673 0.192145 0.000000
0.354390 0.191881 0.000000
0.387103 0.191655 0.000000
0.419809 0.191459 0.000000
0.452511 0.191287 0.000000
0.485207 0.191135 0.000000
0.517897 0.190999 0.000000
0.550582 0.190876 0.000000
0.583262 0.190764 0.000000
0.615937 0.190662 0.000000
0.648606 0.190569 0.000000
0.681269 0.190482 0.000000
0.713927 0.190401 0.000000
0.746580 0.190326 0.000000
0.779227 0.190256 0.000000
0.811869 0.190190 0.000000
0.844506 0.190127 0.000000
0.877137 0.190068 0.000000
0.909763 0.190012 0.000000
0.942383 0.189958 0.000000
0.974998 0.189907 0.000000
0.997461 0.189883 0.000000
0.999365 0.189932 0.000000
1.000000 0.189982 0.000000
0.031774 0.226928 0.000000
0.064165 0.226863 0.000000
0.096538 0.226797 0.000000
0.128891 0.226732 0.000000
0.161226 0.226667 0.000000
0.193543 0.226601 0.000000
0.224817 0.225631 0.000000
0.256002 0.224809 0.000000
0.288721 0.224375 0.000000
0.321435 0.224017 0.000000
0.354143 0.223716 0.000000
0.386846 0.223458 0.000000
0.419544 0.223235 0.000000
0.452236 0.223039 0.000000
0.484923 0.222866 0.000000
0.517605 0.222711 0.000000
0.550281 0.222571 0.000000
0.582951 0.222443 0.000000
0.615617 0.222327 0.000000
0.648277 0.222220 0.000000
0.680931 0.222121 0.000000
0.713580 0.222029 0.000000
0.746224 0.221943 0.000000
0.778862 0.221863 0.000000
0.811495 0.221787 0.000000
0.844123 0.221715 0.000000
0.876745 0.221648 0.000000
0.909361 0.221583 0.000000
0.941973 0.221522 0.000000
0.974579 0.221463 0.000000
0.997461 0.221434 0.000000
0.999365 0.221489 0.000000
1.000000 0.221546 0.000000
0.032739 0.258287 0.000000
0.065000 0.258218 0.000000
0.097244 0.258150 0.000000
0.129471 0.258082 0.000000
0.161680 0.258014 0.000000
0.193873 0.257946 0.000000
0.226049 0.257878 0.000000
0.257310 0.257004 0.000000
0.288492 0.256243 0.000000
0.321197 0.255845 0.000000
0.353896 0.255509 0.000000
0.386590 0.255222 0.000000
0.419279 0.254973 0.000000
0.451962 0.254755 0.000000
0.484640 0.254561 0.000000
0.517312 0.254388 0.000000
0.549979 0.254232 0.000000
0.582641 0.254090 0.000000
0.615297 0.253960 0.000000
0.647948 0.253840 0.000000
0.680593 0.253729 0.000000
0.713233 0.253626 0.000000
0.745868 0.253530 0.000000
0.778497 0.253440 0.000000
0.811121 0.253355 0.000000
0.843739 0.253275 0.000000
0.876352 0.253199 0.000000
0.908960 0.253127 0.000000
0.941562 0.253058 0.000000
0.974159 0.252992 0.000000
0.997461 0.252958 0.000000
0.999365 0.253018 0.000000
1.000000 0.253080 0.000000
0.033756 0.289627 0.000000
0.065914 0.289556 0.000000
0.098056 0.289485 0.000000
0.130182 0.289414 0.000000
0.162293 0.289344 0.000000
0.194387 0.289273 0.000000
0.226467 0.289202 0.000000
0.258530 0.289131 0.000000
0.289779 0.288336 0.000000
0.320958 0.287629 0.000000
0.353649 0.287261 0.000000
0.386334 0.286946 0.000000
0.419013 0.286673 0.000000
0.451687 0.286434 0.000000
0.484356 0.286221 0.000000
0.517019 0.286031 0.000000
0.549677 0.285859 0.000000
0.582330 0.285703 0.000000
0.614977 0.285560 0.000000
0.647619 0.285428 0.000000
0.680255 0.285307 0.000000
0.712886 0.285193 0.000000
0.745511 0.285087 0.000000
0.778132 0.284988 0.000000
0.810746 0.284895 0.000000
0.843356 0.284806 0.000000
0.875960 0.284722 0.000000
0.908558 0.284643 0.000000
0.941151 0.284567 0.000000
0.973739 0.284494 0.000000
0.997461 0.284454 0.000000
0.999365 0.284519 0.000000
1.000000 0.284587 0.000000
0.034810 0.320949 0.000000
0.066883 0.320875 0.000000
0.098942 0.320802 0.000000
0.130986 0.320728 0.000000
0.163015 0.320655 0.000000
0.195030 0.320581 0.000000
0.227030 0.320508 0.000000
0.259015 0.320434 0.000000
0.290986 0.320361 0.000000
0.322225 0.319631 0.000000
0.353401 0.318971 0.000000
0.386077 0.318631 0.000000
0.418748 0.318335 0.000000
0.451413 0.318076 0.000000
0.484072 0.317845 0.000000
0.516727 0.317639 0.000000
0.549375 0.317453 0.000000
0.582019 0.317283 0.000000
0.614657 0.317128 0.000000
0.647290 0.316985 0.000000
0.679917 0.316853 0.000000
0.712539 0.316730 0.000000
0.745155 0.316615 0.000000
0.777766 0.316507 0.000000
0.810372 0.316405 0.000000
0.842972 0.316309 0.000000
0.875567 0.316218 0.000000
0.908157 0.316131 0.000000
0.940741 0.316048 0.000000
0.973319 0.315969 0.000000
0.997461 0.315923 0.000000
0.999365 0.315992 0.000000
1.000000 0.316065 0.000000
0.035890 0.352253 0.000000
0.067893 0.352177 0.000000
0.099882 0.352100 0.000000
0.131857 0.352024 0.000000
0.163818 0.351948 0.000000
0.195766 0.351872 0.000000
0.227699 0.351796 0.000000
0.259619 0.351719 0.000000
0.291525 0.351643 0.000000
0.323417 0.351567 0.000000
0.354647 0.350893 0.000000
0.385821 0.350276 0.000000
0.418482 0.349959 0.000000
0.451138 0.349681 0.000000
0.483789 0.349434 0.000000
0.516434 0.349213 0.000000
0.549074 0.349013 0.000000
0.581708 0.348831 0.000000
0.614337 0.348664 0.000000
0.646961 0.348511 0.000000
0.679579 0.348369 0.000000
0.712192 0.348236 0.000000
0.744799 0.348113 0.000000
0.777401 0.347996 0.000000
0.809998 0.347887 0.000000
0.842589 0.347783 0.000000
0.875175 0.347685 0.000000
0.907755 0.347591 0.000000
0.940330 0.347502 0.000000
0.972899 0.347416 0.000000
0.997461 0.347365 0.000000
0.999365 0.347437 0.000000
1.000000 0.347514 0.000000
0.036991 0.383539 0.000000
0.068934 0.383460 0.000000
0.100863 0.383381 0.000000
0.132779 0.383302 0.000000
0.164682 0.383223 0.000000
0.196571 0.383144 0.000000
0.228448 0.383065 0.000000
0.260312 0.382986 0.000000
0.292162 0.382907 0.000000
0.323999 0.382829 0.000000
0.355823 0.382750 0.000000
0.387046 0.382125 0.000000
0.418217 0.381545 0.000000
0.450864 0.381249 0.000000
0.483505 0.380987 0.000000
0.516141 0.380752 0.000000
0.548772 0.380539 0.000000
0.581397 0.380346 0.000000
0.614017 0.380168 0.000000
0.646632 0.380005 0.000000
0.679241 0.379854 0.000000
0.711845 0.379712 0.000000
0.744443 0.379580 0.000000
0.777036 0.379456 0.000000
0.809623 0.379339 0.000000
0.842205 0.379229 0.000000
0.874782 0.379124 0.000000
0.907353 0.379024 0.000000
0.939919 0.378928 0.000000
0.972480 0.378837 0.000000
0.997461 0.378779 0.000000
0.999365 0.378855 0.000000
1.000000 0.378935 0.000000
0.038107 0.414806 0.000000
0.069997 0.414725 0.000000
0.101875 0.414643 0.000000
0.133739 0.414561 0.000000
0.165592 0.414480 0.000000
0.197431 0.414398 0.000000
0.229258 0.414317 0.000000
0.261073 0.414235 0.000000
0.292875 0.414154 0.000000
0.324664 0.414072 0.000000
0.356441 0.413990 0.000000
0.388205 0.413909 0.000000
0.419421 0.413326 0.000000
0.450589 0.412781 0.000000
0.483222 0.412504 0.000000
0.515849 0.412256 0.000000
0.548470 0.412032 0.000000
0.581087 0.411828 0.000000
0.613697 0.411640 0.000000
0.646303 0.411468 0.000000
0.678903 0.411308 0.000000
0.711497 0.411158 0.000000
0.744087 0.411019 0.000000
0.776670 0.410887 0.000000
0.809249 0.410763 0.000000
0.841822 0.410646 0.000000
0.874389 0.410535 0.000000
0.906952 0.410428 0.000000
0.939509 0.410327 0.000000
0.972060 0.410230 0.000000
0.997461 0.410166 0.000000
0.999365 0.410245 0.000000
1.000000 0.410327 0.000000
0.039236 0.446056 0.000000
0.071079 0.445971 0.000000
0.102911 0.445887 0.000000
0.134730 0.445803 0.000000
0.166538 0.445719 0.000000
0.198333 0.445634 0.000000
0.230116 0.445550 0.000000
0.261888 0.445466 0.000000
0.293647 0.445381 0.000000
0.325394 0.445297 0.000000
0.357129 0.445213 0.000000
0.388853 0.445129 0.000000
0.420564 0.445044 0.000000
0.451772 0.444500 0.000000
0.482938 0.443986 0.000000
0.515556 0.443726 0.000000
0.548169 0.443491 0.000000
0.580776 0.443277 0.000000
0.613377 0.443080 0.000000
0.645974 0.442899 0.000000
0.678565 0.442731 0.000000
0.711150 0.442574 0.000000
0.743730 0.442427 0.000000
0.776305 0.442289 0.000000
0.808874 0.442158 0.000000
0.841438 0.442035 0.000000
0.873997 0.441917 0.000000
0.906550 0.441805 0.000000
0.939098 0.441699 0.000000
0.971640 0.441596 0.000000
0.997461 0.441526 0.000000
0.999365 0.441607 0.000000
1.000000 0.441692 0.000000
0.040374 0.477287 0.000000
0.072176 0.477200 0.000000
0.103967 0.477113 0.000000
0.135746 0.477026 0.000000
0.167513 0.476939 0.000000
0.199269 0.476852 0.000000
0.231013 0.476765 0.000000
0.262746 0.476678 0.000000
0.294467 0.476591 0.000000
0.326176 0.476504 0.000000
0.357874 0.476417 0.000000
0.389560 0.476330 0.000000
0.421235 0.476243 0.000000
0.452898 0.476156 0.000000
0.484100 0.475646 0.000000
0.515263 0.475161 0.000000
0.547867 0.474916 0.000000
0.580465 0.474693 0.000000
0.613058 0.474488 0.000000
0.645645 0.474299 0.000000
0.678227 0.474123 0.000000
0.710803 0.473959 0.000000
0.743374 0.473805 0.000000
0.775940 0.473661 0.000000
0.808500 0.473524 0.000000
0.841055 0.473395 0.000000
0.873604 0.473272 0.000000
0.906148 0.473155 0.000000
0.938687 0.473043 0.000000
0.971220 0.472935 0.000000
0.997461 0.472859 0.000000
0.999365 0.472941 0.000000
1.000000 0.473028 0.000000
0.041520 0.508500 0.000000
0.073285 0.508411 0.000000
0.105039 0.508321 0.000000
0.136781 0.508231 0.000000
0.168512 0.508141 0.000000
0.200232 0.508052 0.000000
0.231941 0.507962 0.000000
0.263639 0.507872 0.000000
0.295325 0.507783 0.000000
0.327000 0.507693 0.000000
0.358664 0.507603 0.000000
0.390317 0.507514 0.000000
0.421959 0.507424 0.000000
0.453589 0.507334 0.000000
0.485208 0.507245 0.000000
0.516405 0.506766 0.000000
0.547565 0.506308 0.000000
0.580154 0.506076 0.000000
0.612738 0.505864 0.000000
0.645316 0.505667 0.000000
0.677889 0.505484 0.000000
0.710456 0.505314 0.000000
0.743018 0.505154 0.000000
0.775575 0.505004 0.000000
0.808126 0.504862 0.000000
0.840672 0.504727 0.000000
0.873212 0.504598 0.000000
0.905747 0.504476 0.000000
0.938276 0.504359 0.000000
0.970801 0.504247 0.000000
0.997461 0.504164 0.000000
0.999365 0.504247 0.000000
1.000000 0.504335 0.000000
0.042673 0.539695 0.000000
0.074403 0.539603 0.000000
0.106123 0.539510 0.000000
0.137833 0.539418 0.000000
0.169531 0.539326 0.000000
0.201218 0.539233 0.000000
0.232895 0.539141 0.000000
0.264561 0.539048 0.000000
0.296215 0.538956 0.000000
0.327859 0.538864 0.000000
0.359493 0.538771 0.000000
0.391115 0.538679 0.000000
0.422726 0.538586 0.000000
0.454327 0.538494 0.000000
0.485916 0.538402 0.000000
0.517495 0.538309 0.000000
0.548686 0.537859 0.000000
0.579843 0.537427 0.000000
0.612418 0.537207 0.000000
0.644987 0.537004 0.000000
0.677551 0.536815 0.000000
0.710109 0.536639 0.000000
0.742662 0.536473 0.000000
0.775209 0.536317 0.000000
0.807751 0.536170 0.000000
0.840288 0.536030 0.000000
0.872819 0.535897 0.000000
0.905345 0.535770 0.000000
0.937866 0.535648 0.000000
0.970381 0.535531 0.000000
0.997461 0.535443 0.000000
0.999365 0.535526 0.000000
1.000000 0.535615 0.000000
0.043831 0.570872 0.000000
0.075530 0.570777 0.000000
0.107219 0.570682 0.000000
0.138898 0.570587 0.000000
0.170566 0.570492 0.000000
0.202223 0.570397 0.000000
0.233870 0.570301 0.000000
0.265506 0.570206 0.000000
0.297132 0.570111 0.000000
0.328747 0.570016 0.000000
0.360352 0.569921 0.000000
0.391946 0.569826 0.000000
0.423529 0.569731 0.000000
0.455102 0.569636 0.000000
0.486665 0.569541 0.000000
0.518216 0.569446 0.000000
0.549758 0.569351 0.000000
0.580943 0.568927 0.000000
0.612098 0.568518 0.000000
0.644658 0.568309 0.000000
0.677213 0.568115 0.000000
0.709762 0.567933 0.000000
0.742306 0.567762 0.000000
0.774844 0.567602 0.000000
0.807377 0.567449 0.000000
0.839905 0.567305 0.000000
0.872427 0.567167 0.000000
0.904944 0.567036 0.000000
0.937455 0.566910 0.000000
0.969961 0.566789 0.000000
0.997461 0.566694 0.000000
0.999365 0.566777 0.000000
1.000000 0.566866 0.000000
0.044993 0.602031 0.000000
0.076664 0.601933 0.000000
0.108324 0.601835 0.000000
0.139975 0.601737 0.000000
0.171614 0.601640 0.000000
0.203244 0.601542 0.000000
0.234863 0.601444 0.000000
0.266472 0.601346 0.000000
0.298071 0.601248 0.000000
0.329660 0.601151 0.000000
0.361238 0.601053 0.000000
0.392806 0.600955 0.000000
0.424363 0.600857 0.000000
0.455911 0.600759 0.000000
0.487448 0.600662 0.000000
0.518974 0.600564 0.000000
0.550491 0.600466 0.000000
0.581997 0.600368 0.000000
0.613177 0.599969 0.000000
0.644329 0.599583 0.000000
0.676875 0.599384 0.000000
0.709415 0.599197 0.000000
0.741949 0.599022 0.000000
0.774479 0.598856 0.000000
0.807003 0.598700 0.000000
0.839521 0.598551 0.000000
0.872034 0.598409 0.000000
0.904542 0.598274 0.000000
0.937044 0.598144 0.000000
0.969541 0.598019 0.000000
0.997461 0.597919 0.000000
0.999365 0.598001 0.000000
1.000000 0.598089 0.000000
0.046159 0.633171 0.000000
0.077803 0.633071 0.000000
0.109437 0.632970 0.000000
0.141061 0.632870 0.000000
0.172675 0.632769 0.000000
0.204278 0.632669 0.000000
0.235872 0.632568 0.000000
0.267456 0.632468 0.000000
0.299029 0.632367 0.000000
0.330593 0.632267 0.000000
0.362146 0.632166 0.000000
0.393690 0.632066 0.000000
0.425223 0.631965 0.000000
0.456746 0.631865 0.000000
0.488259 0.631764 0.000000
0.519763 0.631664 0.000000
0.551256 0.631563 0.000000
0.582739 0.631463 0.000000
0.614212 0.631362 0.000000
0.645387 0.630987 0.000000
0.676536 0.630622 0.000000
0.709068 0.630431 0.000000
0.741593 0.630251 0.000000
0.774113 0.630082 0.000000
0.806628 0.629922 0.000000
0.839138 0.629769 0.000000
0.871642 0.629623 0.000000
0.904141 0.629484 0.000000
0.936634 0.629351 0.000000
0.969122 0.629222 0.000000
0.997461 0.629117 0.000000
0.999365 0.629197 0.000000
1.000000 0.629284 0.000000
0.047329 0.664294 0.000000
0.078948 0.664190 0.000000
0.110557 0.664087 0.000000
0.142156 0.663984 0.000000
0.173745 0.663881 0.000000
0.205324 0.663778 0.000000
0.236894 0.663674 0.000000
0.268454 0.663571 0.000000
0.300003 0.663468 0.000000
0.331543 0.663365 0.000000
0.363074 0.663262 0.000000
0.394594 0.663158 0.000000
0.426105 0.663055 0.000000
0.457605 0.662952 0.000000
0.489096 0.662849 0.000000
0.520577 0.662746 0.000000
0.552049 0.662643 0.000000
0.583510 0.662539 0.000000
0.614962 0.662436 0.000000
0.646404 0.662333 0.000000
0.677574 0.661979 0.000000
0.708720 0.661634 0.000000
0.741237 0.661451 0.000000
0.773748 0.661278 0.000000
0.806254 0.661114 0.000000
0.838754 0.660958 0.000000
0.871249 0.660809 0.000000
0.903739 0.660667 0.000000
0.936223 0.660530 0.000000
0.968702 0.660398 0.000000
0.997461 0.660287 0.000000
0.999365 0.660366 0.000000
1.000000 0.660451 0.000000
0.048502 0.695398 0.000000
0.080097 0.695292 0.000000
0.111682 0.695186 0.000000
0.143258 0.695080 0.000000
0.174824 0.694974 0.000000
0.206380 0.694868 0.000000
0.237927 0.694762 0.000000
0.269464 0.694657 0.000000
0.300992 0.694551 0.000000
0.332510 0.694445 0.000000
0.364018 0.694339 0.000000
0.395517 0.694233 0.000000
0.427006 0.694127 0.000000
0.458485 0.694021 0.000000
0.489955 0.693915 0.000000
0.521415 0.693809 0.000000
0.552866 0.693704 0.000000
0.584307 0.693598 0.000000
0.615738 0.693492 0.000000
0.647159 0.693386 0.000000
0.678572 0.693280 0.000000
0.709737 0.692946 0.000000
0.740881 0.692621 0.000000
0.773383 0.692445 0.000000
0.805880 0.692278 0.000000
0.838371 0.692119 0.000000
0.870857 0.691967 0.000000
0.903337 0.691822 0.000000
0.935812 0.691682 0.000000
0.968282 0.691547 0.000000
0.997461 0.691431 0.000000
0.999365 0.691507 0.000000
1.000000 0.691590 0.000000
0.049677 0.726484 0.000000
0.081249 0.726375 0.000000
0.112812 0.726267 0.000000
0.144366 0.726158 0.000000
0.175910 0.726049 0.000000
0.207445 0.725941 0.000000
0.238970 0.725832 0.000000
0.270486 0.725724 0.000000
0.301992 0.725615 0.000000
0.333489 0.725506 0.000000
0.364977 0.725398 0.000000
0.396455 0.725289 0.000000
0.427923 0.725181 0.000000
0.459382 0.725072 0.000000
0.490832 0.724964 0.000000
0.522272 0.724855 0.000000
0.553703 0.724746 0.000000
0.585125 0.724638 0.000000
0.616537 0.724529 0.000000
0.647939 0.724421 0.000000
0.679332 0.724312 0.000000
0.710716 0.724204 0.000000
0.741876 0.723889 0.000000
0.773018 0.723583 0.000000
0.805505 0.723413 0.000000
0.837987 0.723251 0.000000
0.870464 0.723097 0.000000
0.902936 0.722949 0.000000
0.935402 0.722806 0.000000
0.967862 0.722669 0.000000
0.997461 0.722548 0.000000
0.999365 0.722621 0.000000
1.000000 0.722701 0.000000
0.050854 0.757552 0.000000
0.082405 0.757440 0.000000
0.113947 0.757329 0.000000
0.145480 0.757218 0.000000
0.177003 0.757106 0.000000
0.208517 0.756995 0.000000
0.240022 0.756884 0.000000
0.271517 0.756773 0.000000
0.303003 0.756661 0.000000
0.334480 0.756550 0.000000
0.365948 0.756439 0.000000
0.397406 0.756328 0.000000
0.428855 0.756216 0.000000
0.460295 0.756105 0.000000
0.491726 0.755994 0.000000
0.523147 0.755882 0.000000
0.554559 0.755771 0.000000
0.585962 0.755660 0.000000
0.617355 0.755549 0.000000
0.648739 0.755437 0.000000
0.680114 0.755326 0.000000
0.711480 0.755215 0.000000
0.742836 0.755103 0.000000
0.773992 0.754808 0.000000
0.805131 0.754519 0.000000
0.837604 0.754355 0.000000
0.870072 0.754198 0.000000
0.902534 0.754048 0.000000
0.934991 0.753903 0.000000
0.967443 0.753764 0.000000
0.997461 0.753638 0.000000
0.999365 0.753707 0.000000
1.000000 0.753784 0.000000
0.052033 0.788601 0.000000
0.083564 0.788487 0.000000
0.115086 0.788373 0.000000
0.146598 0.788259 0.000000
0.178102 0.788145 0.000000
0.209596 0.788031 0.000000
0.241081 0.787917 0.000000
0.272557 0.787803 0.000000
0.304024 0.787690 0.000000
0.335482 0.787576 0.000000
0.366930 0.787462 0.000000
0.398370 0.787348 0.000000
0.429800 0.787234 0.000000
0.461222 0.787120 0.000000
0.492634 0.787006 0.000000
0.524037 0.786892 0.000000
0.555431 0.786778 0.000000
0.586816 0.786664 0.000000
0.618192 0.786550 0.000000
0.649558 0.786436 0.000000
0.680916 0.786322 0.000000
0.712264 0.786208 0.000000
0.743603 0.786094 0.000000
0.774933 0.785980 0.000000
0.806085 0.785702 0.000000
0.837221 0.785431 0.000000
0.869679 0.785272 0.000000
0.902133 0.785120 0.000000
0.934580 0.784973 0.000000
0.967023 0.784831 0.000000
0.997461 0.784701 0.000000
0.999365 0.784766 0.000000
1.000000 0.784839 0.000000
0.053214 0.819633 0.000000
0.084725 0.819516 0.000000
0.116228 0.819400 0.000000
0.147721 0.819283 0.000000
0.179205 0.819166 0.000000
0.210681 0.819049 0.000000
0.242147 0.818933 0.000000
0.273604 0.818816 0.000000
0.305053 0.818699 0.000000
0.336492 0.818583 0.000000
0.367923 0.818466 0.000000
0.399344 0.818349 0.000000
0.430757 0.818233 0.000000
0.462160 0.818116 0.000000
0.493555 0.817999 0.000000
0.524940 0.817883 0.000000
0.556317 0.817766 0.000000
0.587685 0.817649 0.000000
0.619043 0.817533 0.000000
0.650393 0.817416 0.000000
0.681734 0.817299 0.000000
0.713065 0.817183 0.000000
0.744388 0.817066 0.000000
0.775702 0.816949 0.000000
0.807007 0.816833 0.000000
0.838153 0.816572 0.000000
0.869287 0.816317 0.000000
