luts/original/cover-art-warm.cube
TITLE "Cover Art Warm"
LUT_3D_SIZE 9
DOMAIN_MIN 0.0 0.0 0.0
DOMAIN_MAX 1.0 1.0 1.0
0.027911 0.004678 0.004678
0.159161 0.001240 0.001240
0.290324 0.000000 0.000000
0.421402 0.000000 0.000000
0.552393 0.000000 0.000000
0.683297 0.000000 0.000000
0.814116 0.000000 0.000000
0.944847 0.000000 0.000000
1.000000 0.000000 0.000000
0.031054 0.132744 0.002812
0.158390 0.130250 0.000531
0.289408 0.128491 0.000000
0.420340 0.127792 0.000000
0.551186 0.127385 0.000000
0.681945 0.127111 0.000000
0.812618 0.126909 0.000000
0.943205 0.126749 0.000000
1.000000 0.126770 0.000000
0.032739 0.258287 0.000000
0.161680 0.258014 0.000000
0.288492 0.256243 0.000000
0.419279 0.254973 0.000000
0.549979 0.254232 0.000000
0.680593 0.253729 0.000000
0.811121 0.253355 0.000000
0.941562 0.253058 0.000000
1.000000 0.253080 0.000000
0.036991 0.383539 0.000000
0.164682 0.383223 0.000000
0.292162 0.382907 0.000000
0.418217 0.381545 0.000000
0.548772 0.380539 0.000000
0.679241 0.379854 0.000000
0.809623 0.379339 0.000000
0.939919 0.378928 0.000000
1.000000 0.378935 0.000000
0.041520 0.508500 0.000000
0.168512 0.508141 0.000000
0.295325 0.507783 0.000000
0.421959 0.507424 0.000000
0.547565 0.506308 0.000000
0.677889 0.505484 0.000000
0.808126 0.504862 0.000000
0.938276 0.504359 0.000000
1.000000 0.504335 0.000000
0.046159 0.633171 0.000000
0.172675 0.632769 0.000000
0.299029 0.632367 0.000000
0.425223 0.631965 0.000000
0.551256 0.631563 0.000000
0.676536 0.630622 0.000000
0.806628 0.629922 0.000000
0.936634 0.629351 0.000000
1.000000 0.629284 0.000000
0.050854 0.757552 0.000000
0.177003 0.757106 0.000000
0.303003 0.756661 0.000000
0.428855 0.756216 0.000000
0.554559 0.755771 0.000000
0.680114 0.755326 0.000000
0.805131 0.754519 0.000000
0.934991 0.753903 0.000000
1.000000 0.753784 0.000000
0.055580 0.881642 0.000000
0.181426 0.881153 0.000000
0.307132 0.880665 0.000000
0.432698 0.880177 0.000000
0.558125 0.879688 0.000000
0.683413 0.879200 0.000000
0.808561 0.878712 0.000000
0.933348 0.878016 0.000000
1.000000 0.877837 0.000000
0.060328 1.000000 0.000000
0.185913 1.000000 0.000000
0.311363 1.000000 0.000000
0.436680 1.000000 0.000000
0.561863 1.000000 0.000000
0.686912 1.000000 0.000000
0.811828 1.000000 0.000000
0.936611 1.000000 0.000000
1.000000 1.000000 0.000000
0.034125 0.005554 0.107600
0.159120 0.001203 0.102802
0.290276 0.000000 0.096247
0.421346 0.000000 0.090977
0.552329 0.000000 0.085873
0.683226 0.000000 0.080844
0.814037 0.000000 0.075856
0.944761 0.000000 0.070892
1.000000 0.000000 0.066034
0.028650 0.132703 0.102279
0.158349 0.128984 0.099619
0.289360 0.123493 0.089461
0.420284 0.116700 0.077599
0.551122 0.108301 0.064033
0.681874 0.098236 0.048762
0.812540 0.086486 0.031786
0.943118 0.073043 0.013106
1.000000 0.065137 0.000000
0.028079 0.258238 0.091866
0.159891 0.257966 0.091329
0.288444 0.254430 0.088618
0.419223 0.247923 0.076622
0.549916 0.240006 0.062922
0.680522 0.230501 0.047518
0.811042 0.219350 0.030409
0.941476 0.206527 0.011595
1.000000 0.200450 0.000000
0.025617 0.383483 0.079660
0.157475 0.383167 0.079076
0.289610 0.382852 0.078786
0.418161 0.379088 0.075646
0.548709 0.371661 0.061812
0.679170 0.362722 0.046274
0.809545 0.352173 0.029031
0.939833 0.340020 0.010156
1.000000 0.335240 0.000000
0.021262 0.508437 0.065576
0.153558 0.508078 0.064932
0.286156 0.507719 0.064602
0.418738 0.507361 0.064272
0.547502 0.503268 0.060702
0.677818 0.494899 0.045030
0.808047 0.484955 0.027653
0.938190 0.474173 0.010156
1.000000 0.469510 0.000000
0.015015 0.633100 0.049605
0.147880 0.632698 0.048895
0.281073 0.632296 0.048525
0.414253 0.631894 0.048155
0.547418 0.631492 0.047786
0.676465 0.627033 0.043786
0.806550 0.617698 0.026276
0.936548 0.607855 0.010156
1.000000 0.603262 0.000000
0.006875 0.757473 0.031744
0.140367 0.757028 0.030966
0.274217 0.756583 0.030556
0.408054 0.756138 0.030147
0.541878 0.755692 0.029737
0.675689 0.755247 0.029328
0.805052 0.750401 0.024898
0.934905 0.741065 0.010156
1.000000 0.736501 0.000000
0.000000 0.881555 0.015128
0.130994 0.881067 0.011144
0.265532 0.880579 0.010695
0.400059 0.880090 0.010246
0.534713 0.879602 0.010156
0.669266 0.879114 0.010156
0.803667 0.878625 0.010156
0.933262 0.873802 0.010156
1.000000 0.869228 0.000000
0.000000 1.000000 0.005350
0.129007 1.000000 0.000000
0.263238 1.000000 0.000000
0.397317 1.000000 0.000000
0.531242 1.000000 0.000000
0.665015 1.000000 0.000000
0.798635 1.000000 0.000000
0.932103 1.000000 0.000000
1.000000 1.000000 0.000000
0.034852 0.001390 0.229229
0.165231 0.001140 0.228956
0.290184 0.000000 0.225032
0.421239 0.000000 0.219011
0.552208 0.000000 0.213472
0.683090 0.000000 0.208152
0.813886 0.000000 0.202949
0.944595 0.000000 0.197815
1.000000 0.000000 0.192986
0.031297 0.129805 0.228312
0.163887 0.125297 0.228040
0.289268 0.120126 0.219081
0.420177 0.113126 0.206993
0.551001 0.104421 0.193565
0.681738 0.094011 0.178552
0.812388 0.081897 0.161889
0.942953 0.068079 0.143551
1.000000 0.058686 0.129723
0.027994 0.258146 0.223953
0.152744 0.257874 0.217081
0.288351 0.250942 0.213533
0.419116 0.242375 0.201524
0.549794 0.233335 0.187810
0.680385 0.222888 0.172392
0.810891 0.210854 0.155270
0.941310 0.197174 0.136443
1.000000 0.187912 0.121898
0.025518 0.383376 0.211896
0.150228 0.383060 0.204464
0.286893 0.382745 0.203688
0.418054 0.377223 0.200547
0.548587 0.367643 0.186700
0.679033 0.357271 0.171148
0.809393 0.345554 0.153892
0.939667 0.332311 0.134931
1.000000 0.323612 0.120110
0.021150 0.508315 0.198324
0.145820 0.507956 0.190258
0.281177 0.507597 0.189490
0.416956 0.507239 0.189160
0.547380 0.501887 0.185590
0.677681 0.491599 0.169904
0.807896 0.480205 0.152514
0.938024 0.467404 0.133420
1.000000 0.459257 0.118322
0.014889 0.632964 0.182986
0.139519 0.632562 0.174206
0.274739 0.632160 0.173400
0.410381 0.631758 0.173030
0.546005 0.631356 0.172660
0.676329 0.625873 0.168660
0.806399 0.614808 0.151137
0.936382 0.602453 0.131909
1.000000 0.594846 0.116534
0.006736 0.757322 0.165814
0.131327 0.756877 0.156276
0.266795 0.756432 0.155417
0.402701 0.755986 0.155008
0.538592 0.755541 0.154598
0.674466 0.755096 0.154189
0.804901 0.749363 0.149759
0.934739 0.737457 0.130397
1.000000 0.730380 0.114746
0.000000 0.881389 0.149562
0.121242 0.880901 0.136461
0.257135 0.880413 0.135542
0.393486 0.879925 0.135093
0.529824 0.879436 0.134644
0.666147 0.878948 0.134195
0.802456 0.878460 0.133745
0.933096 0.872417 0.128886
1.000000 0.865860 0.112958
0.000000 1.000000 0.139062
0.109635 1.000000 0.115129
0.246016 1.000000 0.114104
0.382877 1.000000 0.113572
0.519721 1.000000 0.113041
0.656550 1.000000 0.112509
0.793362 1.000000 0.111978
0.930158 1.000000 0.111446
1.000000 1.000000 0.111170
0.037807 0.000000 0.350828
0.167166 0.000000 0.350513
0.296275 0.000000 0.350197
0.421132 0.000000 0.346983
0.552086 0.000000 0.341017
0.682953 0.000000 0.335409
0.813735 0.000000 0.329994
0.944430 0.000000 0.324694
1.000000 0.000000 0.319892
0.030223 0.123624 0.349767
0.159912 0.119308 0.349451
0.294971 0.119017 0.349136
0.420070 0.113027 0.340529
0.550879 0.104309 0.327379
0.681601 0.093886 0.312876
0.812237 0.081758 0.296827
0.942787 0.067926 0.279159
1.000000 0.058505 0.266149
0.029246 0.255326 0.348705
0.153956 0.251173 0.348390
0.293120 0.243041 0.348074
0.419008 0.237050 0.333921
0.549672 0.228198 0.319193
0.680249 0.217642 0.303577
0.810740 0.205381 0.286527
0.941144 0.191415 0.267895
1.000000 0.181717 0.253761
0.025420 0.383269 0.344125
0.150129 0.382953 0.341502
0.274839 0.382637 0.330006
0.417947 0.371698 0.325449
0.548465 0.359650 0.311588
0.678897 0.348229 0.296023
0.809242 0.335668 0.278753
0.939501 0.321627 0.259779
1.000000 0.312039 0.244929
0.021038 0.508193 0.331065
0.145708 0.507834 0.326109
0.270378 0.507476 0.315104
0.412930 0.507117 0.314048
0.547258 0.499220 0.310477
0.677545 0.486162 0.294779
0.807745 0.473132 0.277375
0.937859 0.459083 0.258267
1.000000 0.450007 0.243141
0.014764 0.632827 0.316362
0.139394 0.632425 0.309991
0.264024 0.632023 0.298883
0.403496 0.631621 0.297904
0.543562 0.631219 0.297534
0.676192 0.624022 0.293535
0.806247 0.610535 0.275998
0.936216 0.596486 0.256756
1.000000 0.587896 0.241353
0.006597 0.757171 0.299880
0.131188 0.756726 0.292373
0.255778 0.756280 0.280855
0.394359 0.755835 0.279868
0.533504 0.755390 0.279459
0.672627 0.754945 0.279049
0.804750 0.747878 0.274620
0.934573 0.733836 0.255245
1.000000 0.725709 0.239565
0.000000 0.881224 0.283945
0.121089 0.880735 0.273042
0.245640 0.880247 0.260963
0.384053 0.879759 0.259940
0.523027 0.879270 0.259491
0.661984 0.878782 0.259042
0.800923 0.878294 0.258593
0.932930 0.871133 0.253733
1.000000 0.863445 0.237777
0.000000 1.000000 0.272723
0.109455 1.000000 0.252285
0.233923 1.000000 0.239506
0.372476 1.000000 0.238392
0.511593 1.000000 0.237860
0.650688 1.000000 0.237329
0.789759 1.000000 0.236797
0.928808 1.000000 0.236266
1.000000 1.000000 0.235989
0.042259 0.000000 0.472399
0.170773 0.000000 0.472040
0.299082 0.000000 0.471681
0.427188 0.000000 0.471323
0.551964 0.000000 0.468507
0.682817 0.000000 0.462617
0.813583 0.000000 0.456993
0.944264 0.000000 0.451528
1.000000 0.000000 0.446752
0.027497 0.116221 0.471192
0.156865 0.111667 0.470833
0.291306 0.111337 0.470475
0.425725 0.111006 0.470116
0.550757 0.104196 0.461189
0.681465 0.093760 0.447195
0.812086 0.081619 0.431761
0.942621 0.067774 0.414763
1.000000 0.058325 0.402570
0.026386 0.248186 0.469985
0.151056 0.241819 0.469626
0.283476 0.235226 0.469268
0.424264 0.234896 0.468909
0.549550 0.228086 0.456564
0.680112 0.217516 0.440583
0.810589 0.205241 0.423685
0.940978 0.191262 0.405440
1.000000 0.181537 0.392120
0.025276 0.380087 0.468778
0.149946 0.377681 0.468419
0.274616 0.371338 0.468061
0.421824 0.358786 0.467702
0.548343 0.351976 0.447321
0.678760 0.341272 0.429727
0.809091 0.328864 0.411829
0.939335 0.314751 0.392688
1.000000 0.304749 0.378200
0.020926 0.508071 0.463801
0.145596 0.507713 0.461952
0.270265 0.507354 0.458142
0.394935 0.506995 0.441055
0.547136 0.491251 0.435365
0.677408 0.475315 0.419653
0.807594 0.461382 0.402236
0.937693 0.446643 0.383115
1.000000 0.436656 0.367961
0.014638 0.632691 0.449733
0.139268 0.632289 0.445770
0.263898 0.631887 0.438981
0.388529 0.631485 0.423787
0.538001 0.631083 0.422409
0.676056 0.620420 0.418409
0.806096 0.603477 0.400858
0.936050 0.587590 0.381604
1.000000 0.577896 0.366173
0.006458 0.757020 0.433941
0.131048 0.756574 0.428465
0.255639 0.756129 0.420130
0.380229 0.755684 0.405534
0.524434 0.755239 0.404320
0.669427 0.754794 0.403910
0.804599 0.745492 0.399481
0.934407 0.728470 0.380092
1.000000 0.719020 0.364385
0.000000 0.881058 0.418277
0.120936 0.880569 0.409619
0.245487 0.880081 0.400128
0.370038 0.879593 0.385523
0.512421 0.879105 0.384339
0.655524 0.878616 0.383889
0.798606 0.878128 0.383440
0.932765 0.869284 0.378581
1.000000 0.860029 0.362597
0.000000 1.000000 0.406333
0.109274 1.000000 0.389437
0.233743 1.000000 0.378897
0.358211 1.000000 0.363923
0.499905 1.000000 0.362680
0.642283 1.000000 0.362148
0.784627 1.000000 0.361617
0.926937 1.000000 0.361085
1.000000 1.000000 0.360809
0.046895 0.000000 0.593940
0.174931 0.000000 0.593538
0.302788 0.000000 0.593136
0.430468 0.000000 0.592734
0.557970 0.000000 0.592332
0.682680 0.000000 0.589775
0.813432 0.000000 0.583945
0.944098 0.000000 0.578318
1.000000 0.000000 0.573565
0.023118 0.107277 0.592588
0.152547 0.102374 0.592186
0.287160 0.102004 0.591784
0.421755 0.101634 0.591382
0.556331 0.101264 0.590980
0.681328 0.093634 0.581510
0.811935 0.081480 0.566690
0.942455 0.067621 0.550363
1.000000 0.058144 0.538986
0.021874 0.239710 0.591236
0.146505 0.232130 0.590834
0.277810 0.225760 0.590432
0.416329 0.225390 0.590030
0.554823 0.225020 0.589628
0.679976 0.217390 0.577582
0.810437 0.205102 0.560838
0.940812 0.191110 0.542980
1.000000 0.181356 0.530473
0.020630 0.372089 0.589884
0.145261 0.367371 0.589482
0.269891 0.358422 0.589080
0.405544 0.349146 0.588678
0.553108 0.348776 0.588276
0.678624 0.341146 0.571576
0.808940 0.328725 0.552482
0.939170 0.314599 0.533036
1.000000 0.304568 0.519266
0.019386 0.504415 0.588531
0.144017 0.502541 0.588129
0.268647 0.499224 0.587727
0.393277 0.490301 0.587326
0.549999 0.472532 0.586924
0.677272 0.464902 0.559282
0.807442 0.452347 0.538597
0.937527 0.438087 0.518320
1.000000 0.427780 0.503345
0.014512 0.632554 0.583100
0.139143 0.632152 0.581543
0.263773 0.631750 0.579070
0.388403 0.631348 0.573872
0.513033 0.630946 0.550228
0.675919 0.609601 0.543283
0.805945 0.589372 0.525719
0.935884 0.572795 0.506451
1.000000 0.562181 0.490992
0.006319 0.756868 0.567998
0.130909 0.756423 0.564551
0.255500 0.755978 0.559399
0.380090 0.755533 0.550511
0.504681 0.755088 0.530514
0.662107 0.754643 0.528771
0.804448 0.740825 0.524342
0.934241 0.719591 0.504940
1.000000 0.708559 0.489204
0.000000 0.880892 0.552558
0.120784 0.880404 0.546190
0.245335 0.879915 0.539288
0.369885 0.879427 0.528741
0.494436 0.878939 0.510212
0.643989 0.878450 0.508737
0.794553 0.877962 0.508288
0.932599 0.866297 0.503428
1.000000 0.854746 0.487416
0.000000 1.000000 0.539890
0.109094 1.000000 0.526582
0.233562 1.000000 0.518281
0.358031 1.000000 0.506537
0.482499 1.000000 0.488413
0.629137 1.000000 0.486968
0.776643 1.000000 0.486436
0.924092 1.000000 0.485905
1.000000 1.000000 0.485628
0.051615 0.000000 0.715452
0.179341 0.000000 0.715007
0.306904 0.000000 0.714562
0.434307 0.000000 0.714117
0.561548 0.000000 0.713671
0.688629 0.000000 0.713226
0.813281 0.000000 0.710851
0.943932 0.000000 0.705064
1.000000 0.000000 0.700331
0.017088 0.096725 0.713954
0.146705 0.091429 0.713509
0.281755 0.091019 0.713064
0.416790 0.090610 0.712619
0.551808 0.090200 0.712174
0.686811 0.089790 0.711729
0.811784 0.081341 0.701615
0.942289 0.067469 0.685959
1.000000 0.057964 0.675398
0.015710 0.229709 0.712457
0.140301 0.221128 0.712012
0.271324 0.214641 0.711567
0.409302 0.214232 0.711122
0.547259 0.213822 0.710676
0.685196 0.213413 0.710231
0.810286 0.204963 0.697985
0.940647 0.190957 0.680516
1.000000 0.181176 0.668819
0.014333 0.362646 0.710960
0.138923 0.356391 0.710514
0.263514 0.346313 0.710069
0.397060 0.337854 0.709624
0.540289 0.337445 0.709179
0.683489 0.337035 0.708734
0.808789 0.328586 0.693129
0.939004 0.314446 0.673377
1.000000 0.304388 0.660322
0.012955 0.495535 0.709462
0.137546 0.491595 0.709017
0.262136 0.485354 0.708572
0.386727 0.473431 0.708127
0.526116 0.461067 0.707682
0.681504 0.460658 0.707236
0.807291 0.452208 0.685566
0.937361 0.437935 0.663079
1.000000 0.427600 0.648469
0.011577 0.628377 0.707965
0.136168 0.626739 0.707520
0.260758 0.624316 0.707074
0.385349 0.619955 0.706629
0.509939 0.608062 0.706184
0.677646 0.584280 0.705739
0.805794 0.575830 0.669804
0.935718 0.561423 0.645802
1.000000 0.550812 0.629897
0.006180 0.756717 0.702051
0.130770 0.756272 0.700633
0.255361 0.755827 0.698661
0.379951 0.755382 0.695478
0.504542 0.754937 0.688694
0.629132 0.754492 0.657525
0.804296 0.726750 0.649203
0.934076 0.701819 0.629787
1.000000 0.689711 0.614024
0.000000 0.880726 0.686788
0.120631 0.880238 0.682757
0.245182 0.879749 0.678442
0.369733 0.879261 0.671952
0.494284 0.878773 0.660700
0.618834 0.878285 0.635284
0.785246 0.877796 0.633135
0.932433 0.860433 0.628276
1.000000 0.845324 0.612236
0.000000 1.000000 0.673397
0.108913 1.000000 0.663723
0.233382 1.000000 0.657656
0.357850 1.000000 0.649139
0.482319 1.000000 0.636080
0.606787 1.000000 0.613064
0.762349 1.000000 0.611256
0.919098 1.000000 0.610724
1.000000 1.000000 0.610448
0.056381 0.000000 0.836934
0.183887 0.000000 0.836446
0.311242 0.000000 0.835958
0.438448 0.000000 0.835469
0.565505 0.000000 0.834981
0.692411 0.000000 0.834493
0.819168 0.000000 0.834004
0.943766 0.000000 0.831765
1.000000 0.000000 0.827051
0.009406 0.084544 0.835292
0.139269 0.078832 0.834803
0.274878 0.078382 0.834315
0.410472 0.077933 0.833827
0.546052 0.077484 0.833338
0.681619 0.077035 0.832850
0.817170 0.076585 0.832362
0.942123 0.067316 0.821550
1.000000 0.057783 0.811804
0.007895 0.218122 0.833649
0.132445 0.208610 0.833161
0.263466 0.201871 0.832672
0.401483 0.201422 0.832184
0.539483 0.200972 0.831696
0.677466 0.200523 0.831207
0.815431 0.200074 0.830719
0.940481 0.190805 0.818047
1.000000 0.180995 0.807158
0.006383 0.351656 0.832006
0.130934 0.344156 0.831518
0.255485 0.333185 0.831030
0.388320 0.324910 0.830541
0.530115 0.324461 0.830053
0.671887 0.324012 0.829565
0.813637 0.323563 0.829076
0.938838 0.314293 0.813712
1.000000 0.304207 0.801369
0.004872 0.485146 0.830363
0.129423 0.479649 0.829875
0.253973 0.471672 0.829387
0.378524 0.458769 0.828899
0.514615 0.447950 0.828410
0.663185 0.447501 0.827922
0.811723 0.447051 0.827434
0.937195 0.437782 0.807831
1.000000 0.427419 0.793578
0.003361 0.618593 0.828721
0.127911 0.615090 0.828232
0.252462 0.610095 0.827744
0.377013 0.602134 0.827256
0.501564 0.586848 0.826768
0.645193 0.570989 0.826279
0.809452 0.570540 0.825791
0.935553 0.561271 0.798532
1.000000 0.550631 0.781782
0.001849 0.751996 0.827078
0.126400 0.750479 0.826590
0.250951 0.748452 0.826101
0.375502 0.745413 0.825613
0.500052 0.739873 0.825125
0.624603 0.724620 0.824636
0.804764 0.694029 0.824148
0.933910 0.684759 0.778887
1.000000 0.673843 0.759968
0.000000 0.880560 0.820968
0.120479 0.880072 0.819319
0.245029 0.879584 0.817590
0.369580 0.879095 0.815156
0.494131 0.878607 0.811177
0.618682 0.878119 0.802606
0.743232 0.877630 0.762946
0.932267 0.842695 0.753123
1.000000 0.823293 0.737055
0.000000 1.000000 0.806852
0.108733 1.000000 0.800858
0.233201 1.000000 0.797025
0.357670 1.000000 0.791730
0.482138 1.000000 0.783728
0.606607 1.000000 0.769792
0.731075 1.000000 0.738192
0.907588 1.000000 0.735544
1.000000 1.000000 0.735267
0.061174 0.000000 0.958387
0.188514 0.000000 0.957856
0.315713 0.000000 0.957325
0.442771 0.000000 0.956793
0.569688 0.000000 0.956262
0.696463 0.000000 0.955730
0.823097 0.000000 0.955199
0.949589 0.000000 0.954667
1.000000 0.000000 0.953725
0.000072 0.070724 0.956600
0.130213 0.064583 0.956068
0.266446 0.064094 0.955537
0.402665 0.063605 0.955005
0.538871 0.063116 0.954473
0.675064 0.062627 0.953942
0.811244 0.062138 0.953411
0.947411 0.061649 0.952879
1.000000 0.057603 0.948206
0.000000 0.206152 0.954812
0.122938 0.194510 0.954280
0.254083 0.187449 0.953749
0.392405 0.186960 0.953217
0.530712 0.186471 0.952686
0.669003 0.185982 0.952154
0.807279 0.185493 0.951623
0.945540 0.185004 0.951091
1.000000 0.180815 0.945491
0.000000 0.341139 0.953023
0.121293 0.330469 0.952492
0.245804 0.318661 0.951961
0.378398 0.310315 0.951429
0.519734 0.309826 0.950898
0.661052 0.309337 0.950366
0.802351 0.308848 0.949835
0.943631 0.308359 0.949303
1.000000 0.304027 0.942406
0.000000 0.475618 0.951236
0.119648 0.466380 0.950704
0.244159 0.457084 0.950173
0.368670 0.443448 0.949641
0.503535 0.433181 0.949109
0.649598 0.432692 0.948578
0.795638 0.432203 0.948047
0.941654 0.431714 0.947515
1.000000 0.427239 0.938673
0.000000 0.609588 0.949448
0.118003 0.602244 0.948916
0.242514 0.595449 0.948385
0.367025 0.585554 0.947853
0.491536 0.569499 0.947322
0.630474 0.556047 0.946790
0.785017 0.555558 0.946259
0.939526 0.555069 0.945727
1.000000 0.550451 0.933642
0.000000 0.743051 0.947659
0.116358 0.738060 0.947128
0.240869 0.733758 0.946597
0.365380 0.727589 0.946065
0.489891 0.717712 0.945534
0.614402 0.698672 0.945002
0.762773 0.678913 0.944471
0.936952 0.678424 0.943939
1.000000 0.673663 0.925367
0.000000 0.876006 0.945872
0.114713 0.873829 0.945340
0.239224 0.872010 0.944809
0.363735 0.869554 0.944277
0.488246 0.865831 0.943745
0.612757 0.858980 0.943214
0.737268 0.839975 0.942683
0.931353 0.801779 0.942151
1.000000 0.796875 0.904108
0.000000 1.000000 0.940255
0.108552 1.000000 0.937987
0.233021 1.000000 0.936385
0.357489 1.000000 0.934310
0.481958 1.000000 0.931357
0.606426 1.000000 0.926482
0.730895 1.000000 0.915890
0.855363 1.000000 0.866551
1.000000 1.000000 0.860087
