luts/original/creamy-indoor.cube
TITLE "Creamy Indoor"
LUT_3D_SIZE 9
DOMAIN_MIN 0.0 0.0 0.0
DOMAIN_MAX 1.0 1.0 1.0
0.024411 0.010899 0.010899
0.154734 0.014156 0.014156
0.284927 0.017688 0.017688
0.414991 0.021494 0.021494
0.544925 0.025574 0.025574
0.674730 0.029928 0.029928
0.804405 0.034556 0.034556
0.933951 0.039458 0.039458
1.000000 0.043622 0.043622
0.029813 0.136671 0.012982
0.153577 0.136727 0.012977
0.283553 0.139892 0.016286
0.413398 0.143297 0.019870
0.543115 0.146965 0.023727
0.672702 0.150903 0.027859
0.802159 0.155112 0.032265
0.931487 0.159594 0.036945
1.000000 0.163387 0.040940
0.035358 0.262495 0.015308
0.158540 0.262087 0.014891
0.282178 0.262120 0.014884
0.411806 0.265119 0.018245
0.541305 0.268373 0.021881
0.670673 0.271893 0.025790
0.799913 0.275682 0.029974
0.929023 0.279743 0.034431
1.000000 0.283165 0.038258
0.040842 0.387884 0.017595
0.163793 0.387410 0.017112
0.286750 0.386937 0.016629
0.410214 0.386961 0.016621
0.539494 0.389798 0.020034
0.668645 0.392898 0.023721
0.797667 0.396267 0.027682
0.926559 0.399906 0.031918
1.000000 0.402957 0.035576
0.046283 0.512836 0.019843
0.168986 0.512298 0.019294
0.291694 0.511760 0.018745
0.414408 0.511222 0.018196
0.537684 0.511240 0.018187
0.666617 0.513919 0.021652
0.795420 0.516865 0.025391
0.924094 0.520082 0.029404
1.000000 0.522763 0.032894
0.051683 0.637353 0.022053
0.174131 0.636750 0.021438
0.296584 0.636147 0.020823
0.419042 0.635544 0.020209
0.541504 0.634942 0.019594
0.664589 0.634955 0.019584
0.793174 0.637478 0.023100
0.921630 0.640272 0.026891
1.000000 0.642583 0.030212
0.057043 0.761434 0.024225
0.179233 0.760767 0.023544
0.301428 0.760099 0.022863
0.423627 0.759431 0.022182
0.545830 0.758763 0.021501
0.668038 0.758096 0.020820
0.790928 0.758106 0.020809
0.919166 0.760475 0.024378
1.000000 0.762416 0.027530
0.062365 0.885080 0.026359
0.184295 0.884347 0.025612
0.306229 0.883615 0.024865
0.428167 0.882882 0.024118
0.550110 0.882150 0.023371
0.672057 0.881417 0.022624
0.794008 0.880685 0.021876
0.916702 0.880692 0.021864
1.000000 0.882263 0.024848
0.067482 1.000000 0.028289
0.189167 1.000000 0.027492
0.310855 1.000000 0.026694
0.432548 1.000000 0.025897
0.554245 1.000000 0.025100
0.675945 1.000000 0.024303
0.797650 1.000000 0.023505
0.919358 1.000000 0.022708
1.000000 1.000000 0.022166
0.030521 0.013736 0.120498
0.154654 0.014075 0.120965
0.284833 0.017592 0.121137
0.414882 0.021382 0.121557
0.544801 0.025447 0.122243
0.674591 0.029786 0.123201
0.804251 0.034398 0.124430
0.933782 0.039285 0.125933
1.000000 0.043438 0.126697
0.030151 0.136591 0.119958
0.153498 0.137072 0.120646
0.283458 0.140559 0.120690
0.413289 0.144125 0.121008
0.542991 0.147931 0.121600
0.672562 0.151999 0.122467
0.802005 0.156336 0.123607
0.931318 0.160943 0.125022
1.000000 0.164861 0.125756
0.035711 0.262401 0.119109
0.158936 0.261992 0.119295
0.282084 0.262209 0.119288
0.411697 0.265540 0.119384
0.541180 0.269007 0.119754
0.670534 0.272700 0.120398
0.799759 0.276643 0.121316
0.928853 0.280848 0.122509
1.000000 0.284395 0.123074
0.041233 0.387774 0.118101
0.164454 0.387301 0.118250
0.286952 0.386828 0.117767
0.410104 0.386979 0.117760
0.539370 0.390103 0.117907
0.668506 0.393418 0.118329
0.797512 0.396967 0.119025
0.926389 0.400769 0.119995
1.000000 0.403945 0.120392
0.046716 0.512712 0.117031
0.169819 0.512174 0.117167
0.292169 0.511636 0.116619
0.414526 0.511098 0.116070
0.537560 0.511219 0.116061
0.666478 0.514153 0.116260
0.795266 0.517306 0.116734
0.923925 0.520704 0.117482
1.000000 0.523511 0.117710
0.052161 0.637214 0.115915
0.175112 0.636611 0.116046
0.297259 0.636008 0.115431
0.419412 0.635405 0.114816
0.541571 0.634802 0.114202
0.664449 0.634906 0.114192
0.793020 0.637662 0.114443
0.921461 0.640654 0.114969
1.000000 0.643094 0.115028
0.057568 0.761280 0.114758
0.180350 0.760612 0.114887
0.302272 0.759945 0.114206
0.424199 0.759277 0.113525
0.546131 0.758609 0.112844
0.668068 0.757942 0.112163
0.790774 0.758033 0.112152
0.918997 0.760618 0.112455
1.000000 0.762693 0.112346
0.062937 0.884910 0.113560
0.185543 0.884178 0.113690
0.307226 0.883445 0.112942
0.428915 0.882713 0.112195
0.550608 0.881980 0.111448
0.672305 0.881248 0.110701
0.794007 0.880516 0.109954
0.916533 0.880598 0.109942
1.000000 0.882308 0.109664
0.068105 1.000000 0.112159
0.190545 1.000000 0.112308
0.311997 1.000000 0.111510
0.433455 1.000000 0.110713
0.554917 1.000000 0.109916
0.676384 1.000000 0.109119
0.797855 1.000000 0.108321
0.919332 1.000000 0.107524
1.000000 1.000000 0.106982
0.037497 0.017464 0.244511
0.160626 0.017047 0.244103
0.284694 0.017450 0.244592
0.414721 0.021218 0.244813
0.544618 0.025261 0.245289
0.674386 0.029577 0.246030
0.804024 0.034167 0.247041
0.933533 0.039032 0.248323
1.000000 0.043167 0.248868
0.036562 0.139849 0.243137
0.160008 0.140645 0.242728
0.283319 0.141048 0.243885
0.413128 0.144594 0.244315
0.542808 0.148414 0.244856
0.672358 0.152508 0.245621
0.801778 0.156876 0.246638
0.931069 0.161518 0.247918
1.000000 0.165485 0.248496
0.035570 0.262262 0.242297
0.160153 0.261853 0.242671
0.281945 0.263046 0.244146
0.411536 0.266958 0.244220
0.540998 0.270650 0.244567
0.670329 0.274528 0.245189
0.799532 0.278650 0.246085
0.928605 0.283032 0.247255
1.000000 0.286767 0.247803
0.041069 0.387614 0.241181
0.165586 0.387140 0.242080
0.287831 0.386667 0.242603
0.409944 0.387199 0.242596
0.539187 0.390954 0.242721
0.668301 0.394628 0.243120
0.797286 0.398451 0.243794
0.926141 0.402489 0.244742
1.000000 0.405862 0.245121
0.046530 0.512529 0.239943
0.170981 0.511991 0.241042
0.293507 0.511453 0.241432
0.414957 0.510915 0.240883
0.537377 0.511286 0.240874
0.666273 0.514750 0.241052
0.795040 0.518271 0.241503
0.923677 0.521964 0.242228
1.000000 0.524980 0.242439
0.051953 0.637009 0.238636
0.176338 0.636406 0.239891
0.298859 0.635803 0.240223
0.420337 0.635201 0.239608
0.541823 0.634598 0.238993
0.664245 0.634895 0.238983
0.792793 0.638111 0.239212
0.921212 0.641456 0.239715
1.000000 0.644119 0.239757
0.057337 0.761053 0.237276
0.181656 0.760386 0.238674
0.304085 0.759718 0.238975
0.425456 0.759050 0.238294
0.546833 0.758383 0.237613
0.668217 0.757715 0.236932
0.790547 0.757969 0.236921
0.918748 0.760966 0.237201
1.000000 0.763281 0.237075
0.062683 0.884662 0.235870
0.186936 0.883929 0.237405
0.309235 0.883197 0.237689
0.430439 0.882464 0.236942
0.551649 0.881732 0.236194
0.672864 0.880999 0.235447
0.794085 0.880267 0.234700
0.916284 0.880493 0.234688
1.000000 0.882464 0.234393
0.067834 1.000000 0.234263
0.192037 1.000000 0.235950
0.314198 1.000000 0.236240
0.435216 1.000000 0.235442
0.556241 1.000000 0.234645
0.677272 1.000000 0.233848
0.798310 1.000000 0.233051
0.919354 1.000000 0.232253
1.000000 1.000000 0.231711
0.044787 0.021553 0.368480
0.167696 0.021070 0.368007
0.290612 0.020587 0.367533
0.414560 0.021054 0.368071
0.544435 0.025074 0.368335
0.674181 0.029368 0.368860
0.803797 0.033936 0.369653
0.933284 0.038778 0.370715
1.000000 0.042896 0.371039
0.043679 0.143692 0.366888
0.167380 0.144446 0.366414
0.289356 0.143963 0.365941
0.412968 0.144430 0.366906
0.542625 0.148228 0.367381
0.672153 0.152299 0.368006
0.801551 0.156645 0.368852
0.930820 0.161265 0.369944
1.000000 0.165214 0.370301
0.042054 0.265272 0.365295
0.166572 0.265697 0.364822
0.289093 0.267339 0.364349
0.411375 0.267806 0.366387
0.540815 0.271381 0.367163
0.670125 0.275230 0.367859
0.799305 0.279354 0.368721
0.928356 0.283751 0.369810
1.000000 0.287532 0.370211
0.040905 0.387453 0.364264
0.165422 0.386980 0.364123
0.289939 0.386506 0.364960
0.409783 0.388607 0.367432
0.539004 0.393065 0.367534
0.668096 0.396911 0.367911
0.797059 0.400875 0.368563
0.925892 0.405059 0.369488
1.000000 0.408620 0.369850
0.046344 0.512347 0.362856
0.170795 0.511808 0.363249
0.295246 0.511270 0.364751
0.416320 0.510732 0.365697
0.537194 0.511656 0.365688
0.666068 0.515955 0.365843
0.794813 0.519891 0.366272
0.923428 0.523875 0.366974
1.000000 0.527113 0.367168
0.051744 0.636805 0.361358
0.176129 0.636202 0.362052
0.300514 0.635599 0.363715
0.422236 0.634996 0.364399
0.542469 0.634393 0.363784
0.664040 0.635030 0.363774
0.792567 0.638931 0.363980
0.920964 0.642712 0.364461
1.000000 0.645638 0.364486
0.057106 0.760827 0.359796
0.181425 0.760159 0.360715
0.305744 0.759491 0.362496
0.427607 0.758824 0.363062
0.548095 0.758156 0.362381
0.668592 0.757488 0.361700
0.790320 0.757996 0.361689
0.918500 0.761571 0.361948
1.000000 0.764194 0.361804
0.062429 0.884413 0.358182
0.186682 0.883680 0.359291
0.310935 0.882948 0.361186
0.432785 0.882215 0.361688
0.553288 0.881483 0.360941
0.673798 0.880750 0.360194
0.794315 0.880018 0.359446
0.916036 0.880451 0.359434
1.000000 0.882780 0.359122
0.067563 1.000000 0.356369
0.191766 1.000000 0.357661
0.315969 1.000000 0.359690
0.437747 1.000000 0.360172
0.558168 1.000000 0.359374
0.678599 1.000000 0.358577
0.799038 1.000000 0.357780
0.919487 1.000000 0.356983
1.000000 1.000000 0.356440
0.052430 0.026003 0.492405
0.175092 0.025454 0.491867
0.297759 0.024906 0.491329
0.420433 0.024357 0.490791
0.544253 0.024888 0.491384
0.673976 0.029159 0.491693
0.803571 0.033705 0.492266
0.933035 0.038524 0.493108
1.000000 0.042626 0.493213
0.051157 0.147829 0.490595
0.174826 0.148608 0.490057
0.296838 0.148059 0.489519
0.418858 0.147510 0.488980
0.542442 0.148041 0.489907
0.671948 0.152090 0.490393
0.801325 0.156414 0.491068
0.930571 0.161011 0.491972
1.000000 0.164944 0.492108
0.049310 0.269047 0.488785
0.173761 0.269884 0.488246
0.296974 0.271212 0.487708
0.417562 0.270664 0.487170
0.540632 0.271195 0.488718
0.669920 0.275021 0.489533
0.799078 0.279122 0.490355
0.928107 0.283497 0.491335
1.000000 0.287262 0.491530
0.047464 0.390288 0.486974
0.171915 0.390303 0.486436
0.296366 0.391132 0.485898
0.417778 0.393817 0.485360
0.538822 0.394348 0.488471
0.667892 0.397953 0.489680
0.796832 0.401831 0.490566
0.925643 0.405984 0.491544
1.000000 0.409580 0.491795
0.046157 0.512164 0.485772
0.170608 0.511626 0.485459
0.295059 0.511088 0.485416
0.419510 0.510549 0.486825
0.537011 0.513756 0.490501
0.665863 0.518880 0.490634
0.794586 0.522909 0.491040
0.923179 0.526973 0.491721
1.000000 0.530383 0.491898
0.051535 0.636600 0.484081
0.175920 0.635997 0.484217
0.300305 0.635394 0.484902
0.424690 0.634791 0.487122
0.544403 0.634188 0.488575
0.663835 0.635581 0.488565
0.792340 0.640544 0.488749
0.920715 0.644795 0.489207
1.000000 0.647998 0.489216
0.056874 0.760600 0.482318
0.181193 0.759932 0.482758
0.305512 0.759264 0.483801
0.429831 0.758597 0.486121
0.550641 0.757929 0.487150
0.669486 0.757261 0.486469
0.790094 0.758214 0.486458
0.918251 0.762645 0.486694
1.000000 0.765661 0.486534
0.062175 0.884164 0.480496
0.186428 0.883432 0.481178
0.310681 0.882699 0.482464
0.434934 0.881967 0.484848
0.556064 0.881234 0.485687
0.675443 0.880502 0.484940
0.794832 0.879769 0.484193
0.915787 0.880522 0.484181
1.000000 0.883371 0.483852
0.067293 1.000000 0.478476
0.191495 1.000000 0.479374
0.315698 1.000000 0.480871
0.439901 1.000000 0.483349
0.561118 1.000000 0.484104
0.680667 1.000000 0.483306
0.800230 1.000000 0.482509
0.919806 1.000000 0.481712
1.000000 1.000000 0.481170
0.060431 0.030815 0.616286
0.182836 0.030200 0.615683
0.305247 0.029585 0.615080
0.427663 0.028970 0.614478
0.550085 0.028355 0.613875
0.673772 0.028950 0.614526
0.803344 0.033473 0.614881
0.932787 0.038270 0.615502
1.000000 0.042355 0.615387
0.058996 0.152305 0.614258
0.182579 0.153131 0.613655
0.304461 0.152516 0.613052
0.426350 0.151901 0.612449
0.548245 0.151286 0.611846
0.671743 0.151881 0.612782
0.801098 0.156182 0.613285
0.930323 0.160757 0.614001
1.000000 0.164673 0.613917
0.056928 0.273133 0.612230
0.181313 0.274204 0.611627
0.304602 0.275448 0.611024
0.425570 0.274833 0.610421
0.546547 0.274218 0.609818
0.669715 0.274813 0.611210
0.798852 0.278891 0.611992
0.927858 0.283244 0.612862
1.000000 0.286991 0.612850
0.054859 0.393980 0.610202
0.179244 0.394421 0.609599
0.303629 0.395747 0.608996
0.426276 0.397764 0.608393
0.545242 0.397149 0.607790
0.667687 0.397744 0.610030
0.796605 0.401600 0.611271
0.925394 0.405730 0.612336
1.000000 0.409309 0.612431
0.052790 0.514845 0.608173
0.177175 0.514663 0.607570
0.301560 0.514837 0.606967
0.425945 0.516155 0.606364
0.546062 0.520080 0.605762
0.665659 0.520675 0.610136
0.794359 0.524309 0.611867
0.922930 0.528217 0.612978
1.000000 0.531627 0.613146
0.051326 0.636395 0.606807
0.175711 0.635792 0.606383
0.300096 0.635189 0.606092
0.424481 0.634586 0.606173
0.548866 0.633983 0.608266
0.663630 0.638493 0.613356
0.792113 0.644402 0.613518
0.920466 0.648645 0.613954
1.000000 0.651975 0.613945
0.056643 0.760373 0.604841
0.180962 0.759705 0.604803
0.305281 0.759038 0.605109
0.429600 0.758370 0.606140
0.553919 0.757702 0.609194
0.672079 0.757035 0.611238
0.789867 0.758974 0.611227
0.918002 0.764721 0.611440
1.000000 0.768189 0.611263
0.061922 0.883915 0.602811
0.186175 0.883183 0.603067
0.310428 0.882450 0.603745
0.434680 0.881718 0.605189
0.558933 0.880985 0.608257
0.678722 0.880253 0.609686
0.796010 0.879520 0.608939
0.915538 0.880835 0.608927
1.000000 0.884483 0.608581
0.067022 1.000000 0.600584
0.191225 1.000000 0.601089
0.315427 1.000000 0.602053
0.439630 1.000000 0.603772
0.563833 1.000000 0.606860
0.684152 1.000000 0.608036
0.802305 1.000000 0.607238
0.920482 1.000000 0.606441
1.000000 1.000000 0.605899
0.068792 0.035988 0.740123
0.190937 0.035307 0.739456
0.313087 0.034626 0.738788
0.435241 0.033945 0.738120
0.557400 0.033264 0.737453
0.679564 0.032583 0.736785
0.803117 0.033242 0.737497
0.932538 0.038017 0.737898
1.000000 0.042084 0.737563
0.067197 0.157134 0.737877
0.190675 0.158016 0.737209
0.312368 0.157335 0.736542
0.434067 0.156654 0.735874
0.555771 0.155973 0.735206
0.677481 0.155292 0.734539
0.800871 0.155951 0.735505
0.930074 0.160503 0.736032
1.000000 0.164402 0.735727
0.064906 0.277559 0.735631
0.189225 0.278813 0.734963
0.312479 0.280044 0.734296
0.433474 0.279363 0.733628
0.554477 0.278682 0.732960
0.675487 0.278001 0.732293
0.798625 0.278660 0.733630
0.927610 0.282990 0.734390
1.000000 0.286720 0.734174
0.062615 0.398000 0.733385
0.186934 0.398727 0.732717
0.311253 0.400283 0.732049
0.434116 0.402072 0.731382
0.553893 0.401391 0.730714
0.673680 0.400710 0.730046
0.796379 0.401369 0.731979
0.925146 0.405477 0.733130
1.000000 0.409038 0.733072
0.060324 0.518458 0.731139
0.184643 0.518661 0.730471
0.308962 0.519383 0.729803
0.433281 0.521281 0.729136
0.555289 0.524100 0.728468
0.672397 0.523419 0.727800
0.794132 0.524078 0.730842
0.922682 0.527963 0.732595
1.000000 0.531356 0.732761
0.058033 0.638933 0.728893
0.182352 0.638616 0.728225
0.306671 0.638509 0.727557
0.430990 0.638876 0.726889
0.555309 0.640765 0.726222
0.673946 0.646128 0.725554
0.791886 0.646787 0.731383
0.920217 0.650450 0.733722
1.000000 0.653674 0.734033
0.056412 0.760146 0.727365
0.180731 0.759479 0.726851
0.305050 0.758811 0.726419
0.429369 0.758143 0.726163
0.553688 0.757476 0.726397
0.678007 0.756808 0.729284
0.789640 0.762818 0.735995
0.917753 0.769633 0.736187
1.000000 0.773175 0.735992
0.061668 0.883667 0.725128
0.185921 0.882934 0.724957
0.310174 0.882202 0.725027
0.434427 0.881469 0.725533
0.558680 0.880737 0.726962
0.682932 0.880004 0.730966
0.799348 0.879272 0.733685
0.915289 0.881834 0.733673
1.000000 0.886799 0.733310
0.066751 1.000000 0.722694
0.190954 1.000000 0.722806
0.315157 1.000000 0.723239
0.439359 1.000000 0.724198
0.563562 1.000000 0.726113
0.687765 1.000000 0.730056
0.806413 1.000000 0.731968
0.921975 1.000000 0.731170
1.000000 1.000000 0.730628
0.077513 0.041523 0.863916
0.199395 0.040776 0.863184
0.321282 0.040029 0.862451
0.443173 0.039282 0.861719
0.565068 0.038534 0.860987
0.686967 0.037787 0.860254
0.808871 0.037040 0.859522
0.932289 0.037763 0.860295
1.000000 0.041813 0.859741
0.075760 0.162319 0.861452
0.199123 0.163262 0.860720
0.320599 0.162515 0.859987
0.442080 0.161768 0.859255
0.563566 0.161021 0.858522
0.685057 0.160274 0.857790
0.806554 0.159527 0.857058
0.929825 0.160250 0.858064
1.000000 0.164131 0.857540
0.073246 0.282334 0.858988
0.197499 0.283752 0.858256
0.320676 0.285002 0.857523
0.441573 0.284255 0.856791
0.562475 0.283508 0.856058
0.683384 0.282761 0.855326
0.804299 0.282013 0.854593
0.927361 0.282736 0.855921
1.000000 0.286449 0.855500
0.070733 0.402363 0.856524
0.194986 0.403317 0.855792
0.319239 0.405043 0.855059
0.442129 0.406741 0.854327
0.562131 0.405994 0.853594
0.682140 0.405247 0.852862
0.802157 0.404500 0.852129
0.924897 0.405223 0.853927
1.000000 0.408767 0.853716
0.068219 0.522409 0.854060
0.192472 0.522900 0.853328
0.316725 0.523953 0.852595
0.440978 0.526068 0.851863
0.563368 0.528481 0.851130
0.681807 0.527734 0.850398
0.800257 0.526987 0.849665
0.922433 0.527710 0.852215
1.000000 0.531085 0.852382
0.065706 0.642469 0.851596
0.189959 0.642502 0.850864
0.314212 0.642885 0.850131
0.438465 0.643932 0.849399
0.562718 0.646487 0.848666
0.684011 0.650220 0.847934
0.799027 0.649473 0.847201
0.919969 0.650196 0.851152
1.000000 0.653403 0.851947
0.063193 0.762546 0.849132
0.187446 0.762122 0.848399
0.311698 0.761839 0.847667
0.435951 0.761825 0.846934
0.560204 0.762419 0.846202
0.684457 0.764963 0.845470
0.801429 0.771960 0.844737
0.917505 0.772683 0.852212
1.000000 0.775721 0.853762
0.061414 0.883418 0.847446
0.185667 0.882685 0.846850
0.309920 0.881953 0.846312
0.434173 0.881220 0.845879
0.558426 0.880488 0.845671
0.682679 0.879755 0.846086
0.806932 0.879023 0.849877
0.915040 0.886730 0.858419
1.000000 0.893100 0.858039
0.066480 1.000000 0.844805
0.190683 1.000000 0.844525
0.314886 1.000000 0.844427
0.439089 1.000000 0.844629
0.563291 1.000000 0.845373
0.687494 1.000000 0.847269
0.811697 1.000000 0.852376
0.926149 1.000000 0.855900
1.000000 1.000000 0.855357
0.086596 0.047419 0.987666
0.208213 0.046606 0.986868
0.329835 0.045792 0.986071
0.451461 0.044979 0.985274
0.573091 0.044166 0.984477
0.694725 0.043353 0.983679
0.816363 0.042540 0.982882
0.938005 0.041726 0.982085
1.000000 0.041543 0.981920
0.084683 0.167863 0.984984
0.207927 0.168870 0.984186
0.329170 0.168057 0.983389
0.450418 0.167244 0.982592
0.571671 0.166430 0.981795
0.692929 0.165617 0.980997
0.814191 0.164804 0.980200
0.935458 0.163991 0.979403
1.000000 0.163861 0.979354
0.081948 0.287463 0.982302
0.206134 0.289036 0.981504
0.329216 0.290321 0.980707
0.449953 0.289508 0.979910
0.570696 0.288695 0.979113
0.691445 0.287882 0.978315
0.812199 0.287068 0.977518
0.932959 0.286255 0.976721
1.000000 0.286179 0.976828
0.079212 0.407078 0.979620
0.203399 0.408228 0.978822
0.327586 0.410104 0.978025
0.450436 0.411772 0.977228
0.570451 0.410959 0.976431
0.690473 0.410146 0.975633
0.810502 0.409333 0.974836
0.930537 0.408520 0.974039
1.000000 0.408497 0.974363
0.076476 0.526707 0.976938
0.200663 0.527436 0.976140
0.324850 0.528736 0.975343
0.449037 0.530997 0.974546
0.571530 0.533224 0.973749
0.690430 0.532410 0.972951
0.809340 0.531597 0.972154
0.928257 0.530784 0.971357
1.000000 0.530815 0.972008
0.073741 0.646351 0.974256
0.197927 0.646662 0.973458
0.322114 0.647388 0.972661
0.446301 0.648811 0.971864
0.570488 0.651557 0.971067
0.692358 0.654675 0.970269
0.809311 0.653861 0.969472
0.926277 0.653048 0.968675
1.000000 0.653133 0.969870
0.071005 0.766009 0.971574
0.195192 0.765905 0.970776
0.319379 0.766059 0.969979
0.443565 0.766651 0.969182
0.567752 0.768068 0.968385
0.691939 0.771363 0.967587
0.812443 0.776126 0.966790
0.925133 0.775313 0.965993
1.000000 0.775451 0.968276
0.068269 0.885682 0.968892
0.192456 0.885164 0.968094
0.316643 0.884751 0.967297
0.440830 0.884515 0.966500
0.565017 0.884611 0.965703
0.689203 0.885466 0.964905
0.813390 0.888749 0.964108
0.928511 0.897577 0.963311
1.000000 0.897769 0.968861
0.066210 1.000000 0.966918
0.190412 1.000000 0.966246
0.314615 1.000000 0.965618
0.438818 1.000000 0.965063
0.563021 1.000000 0.964639
0.687223 1.000000 0.964494
0.811426 1.000000 0.965125
0.935629 1.000000 0.969962
1.000000 1.000000 0.980087
