luts/original/creamy-indoor.cube
TITLE "Creamy Indoor"
LUT_3D_SIZE 5
DOMAIN_MIN 0.0 0.0 0.0
DOMAIN_MAX 1.0 1.0 1.0
0.024411 0.010899 0.010899
0.284927 0.017688 0.017688
0.544925 0.025574 0.025574
0.804405 0.034556 0.034556
1.000000 0.043622 0.043622
0.035358 0.262495 0.015308
0.282178 0.262120 0.014884
0.541305 0.268373 0.021881
0.799913 0.275682 0.029974
1.000000 0.283165 0.038258
0.046283 0.512836 0.019843
0.291694 0.511760 0.018745
0.537684 0.511240 0.018187
0.795420 0.516865 0.025391
1.000000 0.522763 0.032894
0.057043 0.761434 0.024225
0.301428 0.760099 0.022863
0.545830 0.758763 0.021501
0.790928 0.758106 0.020809
1.000000 0.762416 0.027530
0.067482 1.000000 0.028289
0.310855 1.000000 0.026694
0.554245 1.000000 0.025100
0.797650 1.000000 0.023505
1.000000 1.000000 0.022166
0.037497 0.017464 0.244511
0.284694 0.017450 0.244592
0.544618 0.025261 0.245289
0.804024 0.034167 0.247041
1.000000 0.043167 0.248868
0.035570 0.262262 0.242297
0.281945 0.263046 0.244146
0.540998 0.270650 0.244567
0.799532 0.278650 0.246085
1.000000 0.286767 0.247803
0.046530 0.512529 0.239943
0.293507 0.511453 0.241432
0.537377 0.511286 0.240874
0.795040 0.518271 0.241503
1.000000 0.524980 0.242439
0.057337 0.761053 0.237276
0.304085 0.759718 0.238975
0.546833 0.758383 0.237613
0.790547 0.757969 0.236921
1.000000 0.763281 0.237075
0.067834 1.000000 0.234263
0.314198 1.000000 0.236240
0.556241 1.000000 0.234645
0.798310 1.000000 0.233051
1.000000 1.000000 0.231711
0.052430 0.026003 0.492405
0.297759 0.024906 0.491329
0.544253 0.024888 0.491384
0.803571 0.033705 0.492266
1.000000 0.042626 0.493213
0.049310 0.269047 0.488785
0.296974 0.271212 0.487708
0.540632 0.271195 0.488718
0.799078 0.279122 0.490355
1.000000 0.287262 0.491530
0.046157 0.512164 0.485772
0.295059 0.511088 0.485416
0.537011 0.513756 0.490501
0.794586 0.522909 0.491040
1.000000 0.530383 0.491898
0.056874 0.760600 0.482318
0.305512 0.759264 0.483801
0.550641 0.757929 0.487150
0.790094 0.758214 0.486458
1.000000 0.765661 0.486534
0.067293 1.000000 0.478476
0.315698 1.000000 0.480871
0.561118 1.000000 0.484104
0.800230 1.000000 0.482509
1.000000 1.000000 0.481170
0.068792 0.035988 0.740123
0.313087 0.034626 0.738788
0.557400 0.033264 0.737453
0.803117 0.033242 0.737497
1.000000 0.042084 0.737563
0.064906 0.277559 0.735631
0.312479 0.280044 0.734296
0.554477 0.278682 0.732960
0.798625 0.278660 0.733630
1.000000 0.286720 0.734174
0.060324 0.518458 0.731139
0.308962 0.519383 0.729803
0.555289 0.524100 0.728468
0.794132 0.524078 0.730842
1.000000 0.531356 0.732761
0.056412 0.760146 0.727365
0.305050 0.758811 0.726419
0.553688 0.757476 0.726397
0.789640 0.762818 0.735995
1.000000 0.773175 0.735992
0.066751 1.000000 0.722694
0.315157 1.000000 0.723239
0.563562 1.000000 0.726113
0.806413 1.000000 0.731968
1.000000 1.000000 0.730628
0.086596 0.047419 0.987666
0.329835 0.045792 0.986071
0.573091 0.044166 0.984477
0.816363 0.042540 0.982882
1.000000 0.041543 0.981920
0.081948 0.287463 0.982302
0.329216 0.290321 0.980707
0.570696 0.288695 0.979113
0.812199 0.287068 0.977518
1.000000 0.286179 0.976828
0.076476 0.526707 0.976938
0.324850 0.528736 0.975343
0.571530 0.533224 0.973749
0.809340 0.531597 0.972154
1.000000 0.530815 0.972008
0.071005 0.766009 0.971574
0.319379 0.766059 0.969979
0.567752 0.768068 0.968385
0.812443 0.776126 0.966790
1.000000 0.775451 0.968276
0.066210 1.000000 0.966918
0.314615 1.000000 0.965618
0.563021 1.000000 0.964639
0.811426 1.000000 0.965125
1.000000 1.000000 0.980087
