luts/original/creamy-indoor.cube
TITLE "Creamy Indoor"
LUT_3D_SIZE 33
DOMAIN_MIN 0.0 0.0 0.0
DOMAIN_MAX 1.0 1.0 1.0
0.024411 0.010899 0.010899
0.057004 0.011688 0.011688
0.089588 0.012493 0.012493
0.122165 0.013316 0.013316
0.154734 0.014156 0.014156
0.187294 0.015014 0.015014
0.219847 0.015888 0.015888
0.252391 0.016780 0.016780
0.284927 0.017688 0.017688
0.317455 0.018614 0.018614
0.349975 0.019557 0.019557
0.382487 0.020517 0.020517
0.414991 0.021494 0.021494
0.447487 0.022488 0.022488
0.479974 0.023500 0.023500
0.512454 0.024528 0.024528
0.544925 0.025574 0.025574
0.577389 0.026637 0.026637
0.609844 0.027716 0.027716
0.642291 0.028813 0.028813
0.674730 0.029928 0.029928
0.707161 0.031059 0.031059
0.739584 0.032207 0.032207
0.771999 0.033373 0.033373
0.804405 0.034556 0.034556
0.836804 0.035756 0.035756
0.869194 0.036973 0.036973
0.901577 0.038207 0.038207
0.933951 0.039458 0.039458
0.966317 0.040726 0.040726
0.997461 0.041988 0.041988
0.999365 0.042736 0.042736
1.000000 0.043622 0.043622
0.025579 0.042129 0.011278
0.056755 0.042359 0.011434
0.089326 0.043164 0.012226
0.121890 0.043974 0.013035
0.154445 0.044796 0.013862
0.186991 0.045632 0.014705
0.219530 0.046484 0.015565
0.252061 0.047352 0.016443
0.284583 0.048237 0.017338
0.317098 0.049138 0.018249
0.349604 0.050056 0.019178
0.382103 0.050991 0.020125
0.414593 0.051943 0.021088
0.447075 0.052912 0.022068
0.479549 0.053897 0.023066
0.512015 0.054900 0.024080
0.544473 0.055920 0.025112
0.576922 0.056957 0.026161
0.609364 0.058011 0.027227
0.641797 0.059082 0.028310
0.674223 0.060170 0.029410
0.706640 0.061275 0.030528
0.739049 0.062398 0.031662
0.771451 0.063537 0.032814
0.803844 0.064693 0.033983
0.836229 0.065867 0.035169
0.868605 0.067058 0.036372
0.900974 0.068266 0.037592
0.933335 0.069491 0.038830
0.965687 0.070733 0.040084
0.997461 0.071980 0.041344
0.999365 0.072702 0.042079
1.000000 0.073562 0.042951
0.026976 0.073595 0.011805
0.057892 0.073613 0.011794
0.089065 0.073837 0.011959
0.121614 0.074634 0.012754
0.154155 0.075437 0.013567
0.186689 0.076253 0.014396
0.219214 0.077082 0.015243
0.251731 0.077927 0.016106
0.284240 0.078787 0.016987
0.316741 0.079664 0.017885
0.349233 0.080557 0.018800
0.381718 0.081467 0.019732
0.414195 0.082393 0.020682
0.446663 0.083336 0.021648
0.479124 0.084296 0.022632
0.511576 0.085273 0.023633
0.544020 0.086267 0.024650
0.576456 0.087278 0.025685
0.608884 0.088306 0.026738
0.641304 0.089351 0.027807
0.673716 0.090413 0.028893
0.706120 0.091492 0.029997
0.738515 0.092588 0.031117
0.770903 0.093702 0.032255
0.803282 0.094832 0.033410
0.835653 0.095979 0.034582
0.868017 0.097144 0.035771
0.900372 0.098325 0.036978
0.932719 0.099524 0.038201
0.965058 0.100740 0.039442
0.997388 0.101973 0.040700
0.999365 0.102670 0.041422
1.000000 0.103503 0.042281
0.028407 0.105147 0.012395
0.059242 0.105065 0.012312
0.090170 0.105074 0.012300
0.121338 0.105296 0.012473
0.153866 0.106081 0.013272
0.186386 0.106875 0.014087
0.218897 0.107682 0.014920
0.251401 0.108503 0.015770
0.283896 0.109339 0.016637
0.316383 0.110191 0.017521
0.348863 0.111059 0.018422
0.381334 0.111943 0.019340
0.413797 0.112844 0.020276
0.446251 0.113762 0.021228
0.478698 0.114696 0.022198
0.511137 0.115648 0.023185
0.543567 0.116616 0.024189
0.575990 0.117601 0.025210
0.608404 0.118603 0.026248
0.640811 0.119622 0.027304
0.673209 0.120657 0.028376
0.705599 0.121710 0.029466
0.737981 0.122780 0.030572
0.770355 0.123867 0.031696
0.802721 0.124972 0.032837
0.835078 0.126093 0.033996
0.867428 0.127231 0.035171
0.899769 0.128386 0.036363
0.932103 0.129559 0.037573
0.964428 0.130748 0.038800
0.996745 0.131955 0.040043
0.999365 0.132638 0.040765
1.000000 0.133444 0.041611
0.029813 0.136671 0.012982
0.060648 0.136585 0.012895
0.091484 0.136499 0.012807
0.122413 0.136503 0.012795
0.153577 0.136727 0.012977
0.186083 0.137500 0.013778
0.218581 0.138283 0.014597
0.251071 0.139081 0.015433
0.283553 0.139892 0.016286
0.316026 0.140719 0.017156
0.348492 0.141562 0.018044
0.380949 0.142422 0.018948
0.413398 0.143297 0.019870
0.445840 0.144189 0.020808
0.478273 0.145098 0.021764
0.510698 0.146023 0.022737
0.543115 0.146965 0.023727
0.575524 0.147924 0.024734
0.607924 0.148900 0.025759
0.640317 0.149893 0.026800
0.672702 0.150903 0.027859
0.705078 0.151929 0.028935
0.737447 0.152973 0.030027
0.769807 0.154034 0.031138
0.802159 0.155112 0.032265
0.834503 0.156207 0.033409
0.866839 0.157319 0.034570
0.899167 0.158448 0.035749
0.931487 0.159594 0.036945
0.963798 0.160757 0.038157
0.996102 0.161937 0.039387
0.999365 0.162607 0.040108
1.000000 0.163387 0.040940
0.031208 0.168168 0.013567
0.062037 0.168078 0.013475
0.092866 0.167988 0.013384
0.123697 0.167898 0.013292
0.154620 0.167899 0.013279
0.185780 0.168126 0.013470
0.218265 0.168886 0.014274
0.250741 0.169660 0.015096
0.283209 0.170447 0.015936
0.315669 0.171249 0.016792
0.348121 0.172067 0.017665
0.380565 0.172901 0.018556
0.413000 0.173751 0.019464
0.445428 0.174617 0.020388
0.477848 0.175500 0.021330
0.510259 0.176399 0.022289
0.542662 0.177316 0.023266
0.575058 0.178249 0.024259
0.607445 0.179198 0.025269
0.639824 0.180165 0.026297
0.672195 0.181149 0.027342
0.704557 0.182149 0.028404
0.736912 0.183167 0.029483
0.769259 0.184202 0.030579
0.801597 0.185253 0.031692
0.833928 0.186322 0.032822
0.866250 0.187407 0.033970
0.898565 0.188510 0.035134
0.930871 0.189630 0.036316
0.963169 0.190767 0.037515
0.995459 0.191921 0.038731
0.999365 0.192577 0.039452
1.000000 0.193330 0.040270
0.032596 0.199638 0.014150
0.063415 0.199543 0.014054
0.094235 0.199449 0.013958
0.125056 0.199355 0.013862
0.155877 0.199261 0.013766
0.186792 0.199260 0.013753
0.217948 0.199491 0.013952
0.250411 0.200241 0.014760
0.282865 0.201003 0.015585
0.315312 0.201781 0.016427
0.347750 0.202573 0.017287
0.380180 0.203381 0.018164
0.412602 0.204206 0.019057
0.445016 0.205046 0.019968
0.477422 0.205903 0.020896
0.509820 0.206777 0.021842
0.542210 0.207667 0.022804
0.574591 0.208574 0.023783
0.606965 0.209498 0.024780
0.639330 0.210438 0.025794
0.671688 0.211396 0.026824
0.704037 0.212370 0.027872
0.736378 0.213362 0.028938
0.768711 0.214370 0.030020
0.801036 0.215395 0.031119
0.833353 0.216438 0.032236
0.865662 0.217497 0.033369
0.897962 0.218573 0.034520
0.930255 0.219667 0.035688
0.962539 0.220777 0.036873
0.994815 0.221905 0.038075
0.999365 0.222547 0.038795
1.000000 0.223274 0.039599
0.033979 0.231080 0.014730
0.064786 0.230982 0.014630
0.095595 0.230884 0.014530
0.126403 0.230786 0.014430
0.157213 0.230688 0.014330
0.188023 0.230589 0.014230
0.218929 0.230587 0.014216
0.250081 0.230823 0.014423
0.282522 0.231561 0.015235
0.314954 0.232313 0.016063
0.347379 0.233080 0.016909
0.379796 0.233863 0.017771
0.412204 0.234662 0.018651
0.444605 0.235477 0.019548
0.476997 0.236308 0.020463
0.509381 0.237155 0.021394
0.541757 0.238020 0.022342
0.574125 0.238900 0.023308
0.606485 0.239798 0.024290
0.638837 0.240713 0.025290
0.671180 0.241644 0.026307
0.703516 0.242592 0.027341
0.735844 0.243557 0.028393
0.768163 0.244539 0.029461
0.800474 0.245538 0.030546
0.832778 0.246554 0.031649
0.865073 0.247587 0.032769
0.897360 0.248637 0.033906
0.929639 0.249704 0.035060
0.961909 0.250789 0.036231
0.994172 0.251890 0.037419
0.999365 0.252519 0.038138
1.000000 0.253219 0.038929
0.035358 0.262495 0.015308
0.066152 0.262393 0.015203
0.096948 0.262291 0.015099
0.127744 0.262189 0.014995
0.158540 0.262087 0.014891
0.189337 0.261984 0.014787
0.220134 0.261882 0.014682
0.251030 0.261878 0.014668
0.282178 0.262120 0.014884
0.314597 0.262847 0.015699
0.347008 0.263589 0.016530
0.379411 0.264346 0.017379
0.411806 0.265119 0.018245
0.444193 0.265908 0.019128
0.476571 0.266713 0.020029
0.508942 0.267535 0.020946
0.541305 0.268373 0.021881
0.573659 0.269228 0.022832
0.606005 0.270099 0.023801
0.638343 0.270988 0.024787
0.670673 0.271893 0.025790
0.702995 0.272815 0.026810
0.735309 0.273754 0.027848
0.767615 0.274709 0.028902
0.799913 0.275682 0.029974
0.832202 0.276672 0.031062
0.864484 0.277679 0.032168
0.896757 0.278702 0.033291
0.929023 0.279743 0.034431
0.961280 0.280801 0.035588
0.993529 0.281876 0.036763
0.999365 0.282491 0.037481
1.000000 0.283165 0.038258
0.036733 0.293883 0.015883
0.067514 0.293777 0.015775
0.098296 0.293671 0.015666
0.129078 0.293565 0.015558
0.159861 0.293458 0.015450
0.190644 0.293352 0.015341
0.221427 0.293246 0.015233
0.252211 0.293140 0.015125
0.283096 0.293134 0.015110
0.314240 0.293383 0.015334
0.346637 0.294099 0.016152
0.379027 0.294831 0.016987
0.411408 0.295578 0.017839
0.443781 0.296341 0.018708
0.476146 0.297120 0.019595
0.508503 0.297916 0.020498
0.540852 0.298728 0.021419
0.573193 0.299556 0.022357
0.605525 0.300402 0.023312
0.637850 0.301264 0.024284
0.670166 0.302143 0.025273
0.702475 0.303038 0.026279
0.734775 0.303951 0.027303
0.767067 0.304881 0.028343
0.799351 0.305827 0.029401
0.831627 0.306790 0.030476
0.863895 0.307771 0.031568
0.896155 0.308768 0.032677
0.928407 0.309782 0.033803
0.960650 0.310814 0.034946
0.992886 0.311862 0.036107
0.999365 0.312465 0.036824
1.000000 0.313112 0.037588
0.038106 0.325244 0.016456
0.068873 0.325134 0.016343
0.099640 0.325023 0.016231
0.130408 0.324913 0.016118
0.161176 0.324803 0.016006
0.191944 0.324693 0.015894
0.222714 0.324582 0.015781
0.253483 0.324472 0.015669
0.284253 0.324362 0.015556
0.315127 0.324355 0.015541
0.346266 0.324610 0.015774
0.378642 0.325316 0.016595
0.411010 0.326038 0.017433
0.443369 0.326775 0.018288
0.475721 0.327528 0.019161
0.508064 0.328298 0.020051
0.540399 0.329084 0.020957
0.572726 0.329886 0.021881
0.605045 0.330705 0.022822
0.637356 0.331541 0.023780
0.669659 0.332394 0.024756
0.701954 0.333263 0.025748
0.734241 0.334149 0.026758
0.766519 0.335053 0.027784
0.798790 0.335973 0.028828
0.831052 0.336910 0.029889
0.863306 0.337864 0.030967
0.895553 0.338835 0.032062
0.927791 0.339823 0.033175
0.960021 0.340828 0.034304
0.992242 0.341850 0.035451
0.999365 0.342439 0.036167
1.000000 0.343059 0.036917
0.039475 0.356577 0.017026
0.070227 0.356463 0.016910
0.100980 0.356349 0.016793
0.131733 0.356235 0.016677
0.162486 0.356120 0.016560
0.193240 0.356006 0.016443
0.223995 0.355892 0.016327
0.254749 0.355777 0.016210
0.285504 0.355663 0.016094
0.316260 0.355549 0.015977
0.347122 0.355541 0.015961
0.378258 0.355803 0.016203
0.410612 0.356499 0.017027
0.442958 0.357210 0.017869
0.475295 0.357937 0.018727
0.507625 0.358680 0.019603
0.539947 0.359440 0.020496
0.572260 0.360217 0.021406
0.604566 0.361010 0.022333
0.636863 0.361819 0.023277
0.669152 0.362645 0.024238
0.701433 0.363489 0.025217
0.733706 0.364349 0.026213
0.765971 0.365225 0.027225
0.798228 0.366119 0.028255
0.830477 0.367030 0.029302
0.862718 0.367958 0.030366
0.894950 0.368902 0.031448
0.927175 0.369864 0.032546
0.959391 0.370842 0.033662
0.991599 0.371838 0.034794
0.999365 0.372414 0.035510
1.000000 0.373008 0.036247
0.040842 0.387884 0.017595
0.071579 0.387765 0.017474
0.102317 0.387647 0.017353
0.133055 0.387529 0.017232
0.163793 0.387410 0.017112
0.194532 0.387292 0.016991
0.225271 0.387174 0.016870
0.256011 0.387055 0.016750
0.286750 0.386937 0.016629
0.317491 0.386819 0.016508
0.348232 0.386700 0.016387
0.379082 0.386691 0.016371
0.410214 0.386961 0.016621
0.442546 0.387646 0.017449
0.474870 0.388347 0.018293
0.507186 0.389064 0.019155
0.539494 0.389798 0.020034
0.571794 0.390548 0.020930
0.604086 0.391315 0.021843
0.636370 0.392098 0.022774
0.668645 0.392898 0.023721
0.700913 0.393715 0.024686
0.733172 0.394549 0.025668
0.765423 0.395399 0.026666
0.797667 0.396267 0.027682
0.829902 0.397151 0.028716
0.862129 0.398052 0.029766
0.894348 0.398971 0.030833
0.926559 0.399906 0.031918
0.958761 0.400858 0.033019
0.990956 0.401827 0.034138
0.999365 0.402389 0.034853
1.000000 0.402957 0.035576
0.042206 0.419163 0.018160
0.072928 0.419040 0.018035
0.103650 0.418918 0.017911
0.134373 0.418796 0.017786
0.165096 0.418673 0.017661
0.195820 0.418551 0.017536
0.226543 0.418428 0.017411
0.257268 0.418306 0.017286
0.287992 0.418184 0.017162
0.318717 0.418061 0.017037
0.349442 0.417939 0.016912
0.380168 0.417816 0.016787
0.411007 0.417806 0.016770
0.442134 0.418083 0.017029
0.474445 0.418758 0.017859
0.506747 0.419449 0.018707
0.539042 0.420157 0.019572
0.571328 0.420881 0.020455
0.603606 0.421621 0.021354
0.635876 0.422378 0.022270
0.668138 0.423152 0.023204
0.700392 0.423943 0.024155
0.732638 0.424750 0.025123
0.764875 0.425574 0.026108
0.797105 0.426415 0.027110
0.829327 0.427273 0.028129
0.861540 0.428148 0.029165
0.893745 0.429040 0.030219
0.925942 0.429949 0.031289
0.958132 0.430874 0.032377
0.990313 0.431817 0.033482
0.999365 0.432366 0.034196
1.000000 0.432908 0.034906
0.043567 0.450415 0.018724
0.074274 0.450288 0.018595
0.104981 0.450162 0.018466
0.135688 0.450035 0.018337
0.166396 0.449909 0.018208
0.197104 0.449782 0.018079
0.227812 0.449656 0.017950
0.258521 0.449529 0.017821
0.289230 0.449403 0.017692
0.319939 0.449277 0.017563
0.350649 0.449150 0.017434
0.381359 0.449024 0.017305
0.412069 0.448897 0.017176
0.442896 0.448886 0.017158
0.474019 0.449171 0.017426
0.506308 0.449836 0.018260
0.538589 0.450517 0.019111
0.570862 0.451214 0.019979
0.603126 0.451928 0.020865
0.635383 0.452659 0.021767
0.667631 0.453407 0.022687
0.699871 0.454171 0.023624
0.732103 0.454952 0.024578
0.764328 0.455750 0.025549
0.796544 0.456564 0.026537
0.828751 0.457396 0.027542
0.860951 0.458244 0.028565
0.893143 0.459110 0.029604
0.925326 0.459992 0.030661
0.957502 0.460892 0.031735
0.989669 0.461808 0.032826
0.999365 0.462344 0.033540
1.000000 0.462859 0.034235
0.044926 0.481639 0.019285
0.075617 0.481509 0.019151
0.106309 0.481378 0.019018
0.137000 0.481248 0.018885
0.167692 0.481117 0.018752
0.198384 0.480987 0.018619
0.229077 0.480856 0.018486
0.259770 0.480726 0.018353
0.290464 0.480595 0.018220
0.321157 0.480465 0.018087
0.351851 0.480334 0.017954
0.382546 0.480204 0.017820
0.413240 0.480073 0.017687
0.443936 0.479943 0.017554
0.474750 0.479931 0.017536
0.505869 0.480223 0.017812
0.538136 0.480878 0.018649
0.570395 0.481549 0.019504
0.602646 0.482237 0.020375
0.634889 0.482941 0.021264
0.667124 0.483662 0.022170
0.699351 0.484400 0.023093
0.731569 0.485155 0.024033
0.763780 0.485926 0.024990
0.795982 0.486714 0.025964
0.828176 0.487520 0.026956
0.860362 0.488342 0.027964
0.892541 0.489181 0.028990
0.924710 0.490037 0.030033
0.956872 0.490910 0.031093
0.989026 0.491800 0.032170
0.999365 0.492322 0.032883
1.000000 0.492811 0.033565
0.046283 0.512836 0.019843
0.076958 0.512702 0.019706
0.107633 0.512567 0.019569
0.138309 0.512433 0.019431
0.168986 0.512298 0.019294
0.199662 0.512164 0.019157
0.230339 0.512029 0.019020
0.261016 0.511895 0.018883
0.291694 0.511760 0.018745
0.322372 0.511626 0.018608
0.353050 0.511491 0.018471
0.383729 0.511356 0.018334
0.414408 0.511222 0.018196
0.445087 0.511087 0.018059
0.475767 0.510953 0.017922
0.506568 0.510940 0.017903
0.537684 0.511240 0.018187
0.569929 0.511885 0.019028
0.602167 0.512546 0.019886
0.634396 0.513224 0.020760
0.666617 0.513919 0.021652
0.698830 0.514630 0.022561
0.731035 0.515359 0.023488
0.763232 0.516104 0.024431
0.795420 0.516865 0.025391
0.827601 0.517644 0.026369
0.859774 0.518440 0.027364
0.891938 0.519252 0.028375
0.924094 0.520082 0.029404
0.956243 0.520929 0.030451
0.988383 0.521792 0.031514
0.999365 0.522301 0.032226
1.000000 0.522763 0.032894
0.047636 0.544006 0.020399
0.078296 0.543868 0.020258
0.108956 0.543729 0.020117
0.139616 0.543591 0.019975
0.170276 0.543452 0.019834
0.200937 0.543314 0.019693
0.231598 0.543175 0.019551
0.262259 0.543036 0.019410
0.292921 0.542898 0.019268
0.323583 0.542759 0.019127
0.354245 0.542621 0.018986
0.384908 0.542482 0.018844
0.415571 0.542343 0.018703
0.446234 0.542205 0.018562
0.476898 0.542066 0.018420
0.507562 0.541928 0.018279
0.538352 0.541914 0.018259
0.569463 0.542221 0.018552
0.601687 0.542856 0.019396
0.633902 0.543508 0.020257
0.666110 0.544177 0.021135
0.698309 0.544862 0.022030
0.730501 0.545563 0.022943
0.762684 0.546282 0.023872
0.794859 0.547017 0.024819
0.827026 0.547770 0.025782
0.859185 0.548539 0.026763
0.891336 0.549325 0.027761
0.923478 0.550128 0.028776
0.955613 0.550948 0.029808
0.987740 0.551785 0.030858
0.999365 0.552281 0.031569
1.000000 0.552717 0.032224
0.048988 0.575149 0.020953
0.079631 0.575007 0.020808
0.110275 0.574864 0.020662
0.140919 0.574721 0.020517
0.171564 0.574579 0.020371
0.202209 0.574436 0.020226
0.232854 0.574293 0.020080
0.263499 0.574151 0.019935
0.294145 0.574008 0.019789
0.324791 0.573866 0.019644
0.355437 0.573723 0.019498
0.386084 0.573580 0.019353
0.416731 0.573438 0.019207
0.447379 0.573295 0.019062
0.478026 0.573152 0.018916
0.508674 0.573010 0.018771
0.539322 0.572867 0.018625
0.570100 0.572853 0.018605
0.601207 0.573168 0.018907
0.633409 0.573793 0.019754
0.665603 0.574435 0.020618
0.697789 0.575094 0.021499
0.729966 0.575769 0.022398
0.762136 0.576461 0.023313
0.794297 0.577170 0.024246
0.826451 0.577896 0.025196
0.858596 0.578639 0.026163
0.890733 0.579399 0.027147
0.922862 0.580175 0.028148
0.954983 0.580969 0.029166
0.987096 0.581779 0.030202
0.999365 0.582262 0.030912
1.000000 0.582672 0.031553
0.050336 0.606265 0.021504
0.080964 0.606118 0.021355
0.111592 0.605972 0.021205
0.142220 0.605825 0.021056
0.172849 0.605678 0.020906
0.203477 0.605532 0.020756
0.234107 0.605385 0.020607
0.264736 0.605238 0.020457
0.295366 0.605091 0.020308
0.325996 0.604945 0.020158
0.356626 0.604798 0.020008
0.387257 0.604651 0.019859
0.417888 0.604505 0.019709
0.448519 0.604358 0.019559
0.479151 0.604211 0.019410
0.509783 0.604065 0.019260
0.540415 0.603918 0.019111
0.571048 0.603771 0.018961
0.601812 0.603756 0.018940
0.632915 0.604079 0.019251
0.665096 0.604694 0.020101
0.697268 0.605327 0.020968
0.729432 0.605976 0.021853
0.761588 0.606641 0.022754
0.793736 0.607324 0.023673
0.825876 0.608023 0.024609
0.858007 0.608740 0.025562
0.890131 0.609473 0.026532
0.922246 0.610223 0.027519
0.954354 0.610990 0.028524
0.986453 0.611774 0.029545
0.999365 0.612243 0.030255
1.000000 0.612627 0.030883
0.051683 0.637353 0.022053
0.082294 0.637203 0.021900
0.112906 0.637052 0.021746
0.143518 0.636901 0.021592
0.174131 0.636750 0.021438
0.204744 0.636600 0.021285
0.235357 0.636449 0.021131
0.265970 0.636298 0.020977
0.296584 0.636147 0.020823
0.327198 0.635997 0.020670
0.357812 0.635846 0.020516
0.388427 0.635695 0.020362
0.419042 0.635544 0.020209
0.449657 0.635394 0.020055
0.480272 0.635243 0.019901
0.510888 0.635092 0.019747
0.541504 0.634942 0.019594
0.572121 0.634791 0.019440
0.602737 0.634640 0.019286
0.633489 0.634624 0.019265
0.664589 0.634955 0.019584
0.696747 0.635561 0.020437
0.728898 0.636183 0.021308
0.761040 0.636822 0.022195
0.793174 0.637478 0.023100
0.825300 0.638151 0.024022
0.857419 0.638841 0.024961
0.889529 0.639548 0.025918
0.921630 0.640272 0.026891
0.953724 0.641012 0.027882
0.985810 0.641770 0.028889
0.999365 0.642226 0.029598
1.000000 0.642583 0.030212
0.053026 0.668414 0.022600
0.083622 0.668260 0.022442
0.114218 0.668105 0.022284
0.144814 0.667950 0.022126
0.175410 0.667795 0.021969
0.206007 0.667640 0.021811
0.236604 0.667486 0.021653
0.267201 0.667331 0.021495
0.297799 0.667176 0.021337
0.328397 0.667021 0.021179
0.358995 0.666867 0.021021
0.389593 0.666712 0.020863
0.420192 0.666557 0.020706
0.450791 0.666402 0.020548
0.481391 0.666247 0.020390
0.511990 0.666093 0.020232
0.542590 0.665938 0.020074
0.573191 0.665783 0.019916
0.603791 0.665628 0.019758
0.634392 0.665474 0.019600
0.665131 0.665457 0.019578
0.696227 0.665796 0.019906
0.728363 0.666391 0.020763
0.760492 0.667004 0.021637
0.792613 0.667634 0.022527
0.824725 0.668280 0.023436
0.856830 0.668944 0.024361
0.888926 0.669624 0.025303
0.921014 0.670321 0.026263
0.953094 0.671035 0.027239
0.985167 0.671767 0.028233
0.999365 0.672209 0.028941
1.000000 0.672540 0.029541
0.054368 0.699448 0.023144
0.084947 0.699289 0.022982
0.115527 0.699131 0.022820
0.146107 0.698972 0.022658
0.176687 0.698813 0.022496
0.207268 0.698654 0.022334
0.237849 0.698495 0.022172
0.268430 0.698336 0.022010
0.299011 0.698178 0.021848
0.329593 0.698019 0.021686
0.360175 0.697860 0.021524
0.390757 0.697701 0.021362
0.421340 0.697542 0.021200
0.451923 0.697384 0.021038
0.482506 0.697225 0.020876
0.513089 0.697066 0.020714
0.543673 0.696907 0.020552
0.574257 0.696748 0.020390
0.604842 0.696589 0.020228
0.635426 0.696431 0.020066
0.666011 0.696272 0.019904
0.696738 0.696254 0.019882
0.727829 0.696601 0.020218
0.759944 0.697187 0.021078
0.792051 0.697790 0.021955
0.824150 0.698410 0.022849
0.856241 0.699047 0.023760
0.888324 0.699701 0.024689
0.920398 0.700372 0.025634
0.952465 0.701059 0.026597
0.984523 0.701764 0.027577
0.999365 0.702193 0.028285
1.000000 0.702498 0.028871
0.055707 0.730455 0.023686
0.086270 0.730292 0.023520
0.116834 0.730129 0.023354
0.147397 0.729966 0.023188
0.177962 0.729803 0.023022
0.208526 0.729640 0.022855
0.239091 0.729478 0.022689
0.269656 0.729315 0.022523
0.300221 0.729152 0.022357
0.330786 0.728989 0.022191
0.361352 0.728826 0.022025
0.391918 0.728663 0.021859
0.422485 0.728500 0.021692
0.453051 0.728338 0.021526
0.483618 0.728175 0.021360
0.514186 0.728012 0.021194
0.544753 0.727849 0.021028
0.575321 0.727686 0.020862
0.605889 0.727523 0.020696
0.636457 0.727360 0.020530
0.667026 0.727197 0.020363
0.697595 0.727035 0.020197
0.728309 0.727017 0.020174
0.759396 0.727371 0.020519
0.791490 0.727947 0.021382
0.823575 0.728541 0.022262
0.855652 0.729151 0.023160
0.887721 0.729779 0.024074
0.919782 0.730423 0.025006
0.951835 0.731084 0.025955
0.983880 0.731762 0.026921
0.999365 0.732178 0.027628
1.000000 0.732457 0.028200
0.057043 0.761434 0.024225
0.087590 0.761267 0.024055
0.118138 0.761100 0.023885
0.148685 0.760934 0.023715
0.179233 0.760767 0.023544
0.209781 0.760600 0.023374
0.240330 0.760433 0.023204
0.270879 0.760266 0.023034
0.301428 0.760099 0.022863
0.331977 0.759932 0.022693
0.362527 0.759765 0.022523
0.393077 0.759598 0.022353
0.423627 0.759431 0.022182
0.454177 0.759264 0.022012
0.484728 0.759097 0.021842
0.515279 0.758930 0.021672
0.545830 0.758763 0.021501
0.576382 0.758597 0.021331
0.606933 0.758430 0.021161
0.637486 0.758263 0.020990
0.668038 0.758096 0.020820
0.698591 0.757929 0.020650
0.729144 0.757762 0.020480
0.759845 0.757743 0.020456
0.790928 0.758106 0.020809
0.823000 0.758673 0.021676
0.855063 0.759256 0.022559
0.887119 0.759857 0.023460
0.919166 0.760475 0.024378
0.951206 0.761110 0.025313
0.983237 0.761761 0.026265
0.999365 0.762164 0.026971
1.000000 0.762416 0.027530
0.058377 0.792386 0.024762
0.088908 0.792215 0.024588
0.119439 0.792045 0.024414
0.149971 0.791874 0.024239
0.180502 0.791703 0.024065
0.211034 0.791532 0.023891
0.241567 0.791361 0.023716
0.272099 0.791190 0.023542
0.302632 0.791019 0.023367
0.333165 0.790848 0.023193
0.363698 0.790677 0.023019
0.394232 0.790506 0.022844
0.424766 0.790335 0.022670
0.455300 0.790164 0.022495
0.485835 0.789993 0.022321
0.516369 0.789822 0.022147
0.546904 0.789651 0.021972
0.577439 0.789480 0.021798
0.607975 0.789309 0.021623
0.638511 0.789138 0.021449
0.669047 0.788967 0.021275
0.699583 0.788796 0.021100
0.730120 0.788625 0.020926
0.760657 0.788454 0.020751
0.791346 0.788435 0.020727
0.822425 0.788805 0.021089
0.854475 0.789362 0.021959
0.886516 0.789937 0.022845
0.918550 0.790528 0.023749
0.950576 0.791136 0.024670
0.982594 0.791761 0.025609
0.999365 0.792151 0.026314
1.000000 0.792377 0.026859
0.059709 0.823311 0.025297
0.090224 0.823136 0.025119
0.120739 0.822961 0.024940
0.151254 0.822786 0.024762
0.181769 0.822611 0.024583
0.212285 0.822436 0.024405
0.242801 0.822261 0.024226
0.273317 0.822086 0.024047
0.303834 0.821911 0.023869
0.334350 0.821736 0.023690
0.364868 0.821561 0.023512
0.395385 0.821386 0.023333
0.425902 0.821211 0.023155
0.456420 0.821036 0.022976
0.486938 0.820861 0.022798
0.517457 0.820686 0.022619
0.547976 0.820511 0.022441
0.578494 0.820336 0.022262
0.609014 0.820161 0.022084
0.639533 0.819986 0.021905
0.670053 0.819811 0.021727
0.700573 0.819636 0.021548
0.731093 0.819461 0.021370
0.761614 0.819286 0.021191
0.792135 0.819111 0.021013
0.822811 0.819091 0.020988
0.853886 0.819469 0.021358
