luts/original/cross-process-mood.cube
TITLE "Cross Process Mood"
LUT_3D_SIZE 33
DOMAIN_MIN 0.0 0.0 0.0
DOMAIN_MAX 1.0 1.0 1.0
0.003485 0.003485 0.024485
0.023365 0.003687 0.025906
0.042950 0.003887 0.027325
0.073156 0.004062 0.028718
0.103359 0.004234 0.030109
0.133560 0.004404 0.031497
0.163758 0.004570 0.032883
0.193953 0.004734 0.034266
0.224146 0.004896 0.035646
0.254336 0.005054 0.037023
0.284523 0.005210 0.038398
0.314707 0.005364 0.039770
0.344889 0.005514 0.041139
0.375068 0.005662 0.042506
0.405245 0.005807 0.043870
0.435418 0.005950 0.045231
0.465589 0.006089 0.046589
0.495758 0.006226 0.047945
0.525923 0.006361 0.049298
0.556086 0.006492 0.050649
0.586246 0.006621 0.051996
0.616404 0.006748 0.053341
0.646559 0.006871 0.054684
0.676711 0.006992 0.056023
0.706860 0.007110 0.057360
0.737007 0.007226 0.058694
0.767151 0.007338 0.060026
0.797292 0.007448 0.061355
0.827431 0.007556 0.062681
0.857567 0.007660 0.064004
0.887700 0.007762 0.065325
0.917830 0.007862 0.066643
0.947958 0.007958 0.067958
0.003604 0.034854 0.025823
0.023282 0.034854 0.025823
0.041891 0.034567 0.027243
0.070835 0.032777 0.028649
0.103283 0.032605 0.029618
0.133492 0.031239 0.029005
0.163699 0.029745 0.028604
0.193903 0.028121 0.028164
0.224107 0.026369 0.027633
0.254308 0.024488 0.026991
0.284508 0.022479 0.026231
0.314706 0.020341 0.025350
0.344901 0.018222 0.024476
0.375081 0.017735 0.025080
0.405258 0.017246 0.025705
0.435432 0.016754 0.026344
0.465604 0.016260 0.026993
0.495772 0.015763 0.027651
0.525938 0.015263 0.028314
0.556102 0.014760 0.028982
0.586262 0.014255 0.029653
0.616420 0.013747 0.030325
0.646576 0.013236 0.030999
0.676728 0.012722 0.031674
0.706878 0.012206 0.032349
0.737025 0.011688 0.033023
0.767170 0.011166 0.033697
0.797312 0.010642 0.034371
0.827451 0.010115 0.035043
0.857587 0.009585 0.035714
0.887721 0.009053 0.036384
0.917852 0.008518 0.037052
0.947980 0.007980 0.037719
0.003715 0.066215 0.027152
0.022758 0.066215 0.027152
0.041801 0.066215 0.027112
0.070409 0.066384 0.028317
0.103179 0.065152 0.027125
0.133390 0.062687 0.026981
0.163593 0.061112 0.026701
0.193793 0.059459 0.026292
0.223992 0.057692 0.025755
0.254189 0.055802 0.025088
0.284384 0.053787 0.024293
0.314578 0.051645 0.023369
0.344770 0.049375 0.022317
0.374960 0.046977 0.021135
0.405148 0.044452 0.019826
0.435335 0.041798 0.018387
0.465520 0.039015 0.016820
0.495703 0.036105 0.015124
0.525885 0.033066 0.013300
0.556065 0.029898 0.011347
0.586243 0.026602 0.009265
0.616420 0.023177 0.007055
0.646577 0.021788 0.006890
0.676730 0.020685 0.007011
0.706880 0.019579 0.007130
0.737027 0.018472 0.007246
0.767172 0.017362 0.007359
0.797314 0.016250 0.007470
0.827453 0.015135 0.007578
0.857589 0.014018 0.007683
0.887723 0.012899 0.007786
0.917854 0.011777 0.007885
0.947982 0.010653 0.007982
0.003816 0.097566 0.028472
0.022224 0.097566 0.028472
0.040633 0.097566 0.028093
0.069038 0.097546 0.026286
0.099636 0.097705 0.025787
0.133262 0.097556 0.026854
0.163467 0.095022 0.026576
0.193666 0.093054 0.026165
0.223861 0.091151 0.025623
0.254054 0.089201 0.024953
0.284244 0.087164 0.024153
0.314433 0.085023 0.023225
0.344621 0.082768 0.022167
0.374806 0.080395 0.020982
0.404990 0.077900 0.019667
0.435172 0.075282 0.018224
0.465352 0.072540 0.016652
0.495530 0.069671 0.014951
0.525707 0.066677 0.013122
0.555882 0.063556 0.011164
0.586055 0.060308 0.009077
0.616227 0.056932 0.006862
0.646380 0.055474 0.006693
0.676529 0.054293 0.006810
0.706675 0.053117 0.006925
0.736818 0.051945 0.007037
0.766959 0.050776 0.007146
0.797096 0.049610 0.007253
0.827231 0.048445 0.007356
0.857363 0.047282 0.007457
0.887493 0.046119 0.007555
0.917620 0.044957 0.007651
0.947744 0.043795 0.007744
0.003908 0.128908 0.029783
0.021682 0.128908 0.029783
0.039456 0.128909 0.029212
0.066376 0.128892 0.025927
0.098012 0.128863 0.024348
0.130669 0.129009 0.025459
0.163342 0.128932 0.026451
0.193538 0.126649 0.026037
0.223729 0.124611 0.025492
0.253918 0.122600 0.024817
0.284105 0.120542 0.024013
0.314289 0.118401 0.023080
0.344472 0.116161 0.022018
0.374652 0.113812 0.020828
0.404831 0.111349 0.019508
0.435008 0.108767 0.018060
0.465183 0.106064 0.016483
0.495357 0.103238 0.014778
0.525529 0.100288 0.012944
0.555699 0.097214 0.010981
0.585867 0.094014 0.008889
0.616034 0.090688 0.006669
0.646184 0.089160 0.006496
0.676328 0.087901 0.006609
0.706470 0.086655 0.006720
0.736609 0.085418 0.006828
0.766745 0.084191 0.006933
0.796879 0.082970 0.007035
0.827010 0.081755 0.007135
0.857138 0.080546 0.007231
0.887263 0.079340 0.007325
0.917385 0.078137 0.007416
0.947505 0.076937 0.007505
0.003991 0.160241 0.031085
0.021130 0.160241 0.031085
0.038269 0.160242 0.030379
0.063579 0.160228 0.025528
0.095165 0.160198 0.023986
0.128671 0.160163 0.023952
0.161038 0.160303 0.024993
0.193410 0.160244 0.025909
0.223598 0.158070 0.025361
0.253783 0.156000 0.024682
0.283965 0.153919 0.023873
0.314145 0.151779 0.022936
0.344322 0.149554 0.021869
0.374498 0.147229 0.020674
0.404672 0.144797 0.019350
0.434845 0.142251 0.017897
0.465015 0.139588 0.016315
0.495184 0.136805 0.014605
0.525351 0.133900 0.012766
0.555516 0.130872 0.010798
0.585679 0.127720 0.008701
0.615841 0.124443 0.006476
0.645987 0.122846 0.006299
0.676127 0.121509 0.006408
0.706265 0.120192 0.006515
0.736400 0.118892 0.006619
0.766532 0.117605 0.006720
0.796661 0.116330 0.006818
0.826788 0.115065 0.006913
0.856912 0.113809 0.007005
0.887033 0.112560 0.007095
0.917151 0.111317 0.007182
0.947266 0.110079 0.007266
0.004066 0.191566 0.032378
0.020569 0.191566 0.032378
0.037074 0.191566 0.031566
0.060646 0.191556 0.025031
0.092212 0.191525 0.023490
0.125594 0.191489 0.023454
0.158977 0.191453 0.023418
0.191223 0.191585 0.024388
0.223467 0.191530 0.025229
0.253647 0.189399 0.024546
0.283825 0.187297 0.023734
0.314000 0.185157 0.022791
0.344173 0.182947 0.021720
0.374344 0.180647 0.020520
0.404514 0.178245 0.019191
0.434681 0.175735 0.017733
0.464847 0.173112 0.016147
0.495011 0.170371 0.014431
0.525173 0.167511 0.012587
0.555333 0.164530 0.010615
0.585491 0.161426 0.008513
0.615648 0.158199 0.006283
0.645790 0.156532 0.006102
0.675926 0.155117 0.006208
0.706060 0.153730 0.006310
0.736191 0.152365 0.006410
0.766319 0.151019 0.006506
0.796444 0.149690 0.006600
0.826566 0.148375 0.006691
0.856686 0.147073 0.006779
0.886802 0.145780 0.006865
0.916916 0.144497 0.006948
0.947028 0.143221 0.007028
0.004131 0.222881 0.033662
0.020000 0.222881 0.033662
0.035869 0.222881 0.032759
0.057577 0.222875 0.024417
0.089134 0.222842 0.022857
0.122466 0.222805 0.022820
0.155798 0.222768 0.022783
0.189130 0.222731 0.022745
0.221326 0.222856 0.023645
0.253512 0.222798 0.024411
0.283685 0.220674 0.023594
0.313856 0.218535 0.022647
0.344024 0.216340 0.021571
0.374191 0.214064 0.020366
0.404355 0.211694 0.019032
0.434518 0.209220 0.017570
0.464678 0.206636 0.015978
0.494837 0.203938 0.014258
0.524995 0.201123 0.012409
0.555150 0.198188 0.010432
0.585304 0.195132 0.008325
0.615455 0.191954 0.006090
0.645593 0.190218 0.005905
0.675725 0.188725 0.006007
0.705855 0.187267 0.006105
0.735982 0.185838 0.006200
0.766106 0.184434 0.006293
0.796226 0.183050 0.006383
0.826345 0.181685 0.006470
0.856460 0.180336 0.006554
0.886572 0.179000 0.006635
0.916682 0.177676 0.006713
0.946789 0.176363 0.006789
0.004186 0.254186 0.034936
0.019421 0.254186 0.034936
0.034656 0.254187 0.033954
0.054373 0.254185 0.023678
0.085926 0.254151 0.022089
0.119245 0.254113 0.022050
0.152564 0.254074 0.022012
0.185882 0.254036 0.021973
0.219201 0.253997 0.021935
0.251381 0.254116 0.022764
0.283545 0.254051 0.023454
0.313711 0.251913 0.022503
0.343875 0.249733 0.021422
0.374037 0.247481 0.020212
0.404196 0.245142 0.018874
0.434354 0.242704 0.017406
0.464510 0.240160 0.015810
0.494664 0.237505 0.014085
0.524816 0.234734 0.012231
0.554967 0.231846 0.010249
0.585116 0.228838 0.008138
0.615263 0.225709 0.005898
0.645396 0.223904 0.005708
0.675524 0.222333 0.005806
0.705650 0.220805 0.005900
0.735773 0.219311 0.005991
0.765892 0.217848 0.006080
0.796009 0.216411 0.006165
0.826123 0.214995 0.006248
0.856234 0.213600 0.006328
0.886342 0.212221 0.006405
0.916447 0.210856 0.006479
0.946550 0.209505 0.006550
0.004233 0.285483 0.036202
0.018833 0.285483 0.036202
0.033433 0.285484 0.035146
0.051032 0.285487 0.022809
0.082586 0.285452 0.021185
0.115913 0.285412 0.021145
0.149240 0.285372 0.021105
0.182566 0.285332 0.021065
0.215893 0.285292 0.021025
0.249220 0.285252 0.020986
0.281404 0.285363 0.021744
0.313567 0.285291 0.022358
0.343726 0.283126 0.021273
0.373883 0.280899 0.020059
0.404038 0.278591 0.018715
0.434191 0.276189 0.017243
0.464342 0.273684 0.015642
0.494491 0.271071 0.013912
0.524638 0.268346 0.012053
0.554784 0.265504 0.010066
0.584928 0.262545 0.007950
0.615070 0.259465 0.005705
0.645199 0.257589 0.005511
0.675323 0.255941 0.005605
0.705445 0.254342 0.005695
0.735563 0.252785 0.005782
0.765679 0.251262 0.005866
0.795792 0.249771 0.005948
0.825901 0.248305 0.006026
0.856008 0.246863 0.006102
0.886112 0.245441 0.006174
0.916213 0.244036 0.006244
0.946311 0.242647 0.006311
0.004271 0.316771 0.037459
0.018236 0.316771 0.037459
0.032202 0.316772 0.036333
0.047557 0.316779 0.021810
0.079113 0.316743 0.020145
0.112461 0.316702 0.020104
0.145809 0.316661 0.020063
0.179157 0.316619 0.020022
0.212505 0.316578 0.019980
0.245853 0.316537 0.019939
0.279200 0.316495 0.019898
0.311403 0.316599 0.020586
0.343577 0.316519 0.021124
0.373729 0.314316 0.019905
0.403879 0.312039 0.018557
0.434027 0.309673 0.017079
0.464173 0.307208 0.015473
0.494318 0.304638 0.013739
0.524460 0.301957 0.011875
0.554601 0.299162 0.009883
0.584740 0.296251 0.007762
0.614877 0.293220 0.005512
0.645002 0.291275 0.005314
0.675122 0.289550 0.005404
0.705240 0.287880 0.005490
0.735354 0.286258 0.005573
0.765466 0.284677 0.005653
0.795574 0.283131 0.005730
0.825680 0.281615 0.005805
0.855782 0.280127 0.005876
0.885882 0.278661 0.005944
0.915979 0.277216 0.006010
0.946073 0.275788 0.006073
0.004300 0.348050 0.038706
0.017630 0.348050 0.038706
0.030961 0.348051 0.037515
0.044303 0.348063 0.021004
0.075505 0.348026 0.018970
0.108883 0.347983 0.018928
0.142261 0.347940 0.018885
0.175640 0.347898 0.018842
0.209018 0.347855 0.018799
0.242396 0.347812 0.018757
0.275774 0.347770 0.018714
0.309152 0.347727 0.018671
0.341381 0.347824 0.019288
0.373575 0.347733 0.019751
0.403721 0.345487 0.018398
0.433864 0.343157 0.016916
0.464005 0.340732 0.015305
0.494145 0.338205 0.013565
0.524282 0.335569 0.011697
0.554418 0.332820 0.009700
0.584552 0.329957 0.007574
0.614684 0.326976 0.005319
0.644805 0.324961 0.005118
0.674922 0.323158 0.005203
0.705035 0.321417 0.005285
0.735145 0.319731 0.005364
0.765252 0.318091 0.005440
0.795357 0.316491 0.005513
0.825458 0.314925 0.005583
0.855556 0.313390 0.005650
0.885652 0.311881 0.005714
0.915744 0.310396 0.005775
0.945834 0.308930 0.005834
0.004319 0.379319 0.039944
0.017015 0.379319 0.039944
0.029711 0.379320 0.038690
0.042419 0.379333 0.021460
0.071763 0.379300 0.017659
0.105177 0.379256 0.017615
0.138592 0.379212 0.017571
0.172007 0.379168 0.017527
0.205422 0.379123 0.017483
0.238836 0.379079 0.017439
0.272251 0.379035 0.017394
0.305666 0.378991 0.017350
0.339081 0.378947 0.017306
0.371341 0.379036 0.017853
0.403562 0.378936 0.018239
0.433700 0.376642 0.016752
0.463837 0.374256 0.015137
0.493971 0.371771 0.013392
0.524104 0.369180 0.011519
0.554235 0.366478 0.009517
0.584364 0.363663 0.007386
0.614491 0.360731 0.005126
0.644608 0.358647 0.004921
0.674721 0.356766 0.005002
0.704830 0.354955 0.005080
0.734936 0.353204 0.005155
0.765039 0.351505 0.005227
0.795139 0.349851 0.005295
0.825236 0.348235 0.005361
0.855330 0.346654 0.005424
0.885422 0.345102 0.005484
0.915510 0.343575 0.005541
0.945595 0.342072 0.005595
0.004330 0.410580 0.041174
0.016390 0.410580 0.041174
0.028452 0.410581 0.039858
0.040525 0.410594 0.021923
0.067885 0.410565 0.016213
0.101341 0.410520 0.016167
0.134797 0.410474 0.016122
0.168253 0.410429 0.016076
0.201709 0.410383 0.016030
0.235165 0.410337 0.015985
0.268621 0.410292 0.015939
0.302077 0.410246 0.015894
0.335533 0.410201 0.015848
0.368988 0.410155 0.015802
0.401285 0.410237 0.016278
0.433537 0.410126 0.016589
0.463668 0.407781 0.014968
0.493798 0.405338 0.013219
0.523926 0.402792 0.011341
0.554052 0.400137 0.009334
0.584176 0.397369 0.007198
0.614298 0.394486 0.004933
0.644411 0.392333 0.004724
0.674520 0.390374 0.004801
0.704625 0.388492 0.004875
0.734727 0.386678 0.004946
0.764826 0.384920 0.005013
0.794922 0.383211 0.005078
0.825015 0.381545 0.005140
0.855104 0.379917 0.005198
0.885191 0.378322 0.005254
0.915275 0.376755 0.005307
0.945356 0.375214 0.005356
0.004331 0.441831 0.042394
0.015757 0.441831 0.042394
0.027184 0.441832 0.041019
0.038623 0.441846 0.022390
0.063873 0.441822 0.014631
0.097374 0.441775 0.014583
0.130874 0.441728 0.014536
0.164375 0.441681 0.014489
0.197875 0.441634 0.014442
0.231375 0.441587 0.014395
0.264876 0.441540 0.014348
0.298376 0.441493 0.014301
0.331877 0.441446 0.014254
0.365377 0.441399 0.014207
0.398878 0.441352 0.014160
0.431214 0.441426 0.014565
0.463500 0.441305 0.014800
0.493625 0.438905 0.013046
0.523748 0.436403 0.011163
0.553869 0.433795 0.009151
0.583988 0.431075 0.007010
0.614105 0.428242 0.004740
0.644214 0.426019 0.004527
0.674319 0.423982 0.004600
0.704420 0.422030 0.004670
0.734518 0.420151 0.004737
0.764613 0.418334 0.004800
0.794704 0.416571 0.004861
0.824793 0.414855 0.004918
0.854879 0.413181 0.004972
0.884961 0.411542 0.005024
0.915041 0.409935 0.005072
0.945118 0.408356 0.005118
0.004324 0.473074 0.043605
0.015115 0.473074 0.043605
0.025907 0.473075 0.042171
0.036712 0.473089 0.022858
0.059725 0.473070 0.012913
0.093273 0.473021 0.012864
0.126821 0.472973 0.012816
0.160369 0.472924 0.012767
0.193916 0.472876 0.012719
0.227464 0.472827 0.012670
0.261012 0.472779 0.012622
0.294560 0.472730 0.012573
0.328107 0.472682 0.012525
0.361655 0.472633 0.012476
0.395203 0.472585 0.012428
0.428751 0.472536 0.012379
0.461128 0.472604 0.012713
0.493452 0.472471 0.012873
0.523570 0.470014 0.010985
0.553686 0.467453 0.008968
0.583800 0.464781 0.006822
0.613913 0.461997 0.004548
0.644017 0.459705 0.004330
0.674118 0.457590 0.004399
0.704215 0.455568 0.004465
0.734309 0.453624 0.004528
0.764399 0.451748 0.004587
0.794487 0.449931 0.004643
0.824571 0.448165 0.004696
0.854653 0.446444 0.004746
0.884731 0.444762 0.004794
0.914806 0.443115 0.004838
0.944879 0.441498 0.004879
0.004307 0.504307 0.044807
0.014463 0.504307 0.044807
0.024621 0.504308 0.043316
0.034791 0.504322 0.023324
0.055443 0.504309 0.011059
0.089040 0.504259 0.011009
0.122637 0.504209 0.010959
0.156234 0.504159 0.010909
0.189831 0.504109 0.010859
0.223428 0.504059 0.010809
0.257025 0.504009 0.010759
0.290622 0.503959 0.010709
0.324219 0.503909 0.010659
0.357816 0.503860 0.010610
0.391413 0.503810 0.010560
0.425010 0.503760 0.010510
0.458607 0.503710 0.010460
0.491030 0.503770 0.010723
0.523392 0.503626 0.010806
0.553503 0.501111 0.008785
0.583612 0.498488 0.006634
0.613720 0.495753 0.004355
0.643820 0.493391 0.004133
0.673917 0.491198 0.004198
0.704010 0.489105 0.004260
0.734100 0.487097 0.004318
0.764186 0.485163 0.004374
0.794269 0.483291 0.004426
0.824350 0.481475 0.004475
0.854427 0.479708 0.004521
0.884501 0.477983 0.004563
0.914572 0.476295 0.004603
0.944640 0.474640 0.004640
0.004281 0.535531 0.046000
0.013803 0.535531 0.046000
0.023325 0.535532 0.044452
0.032862 0.535547 0.023787
0.051024 0.535539 0.009070
0.084672 0.535488 0.009018
0.118320 0.535437 0.008967
0.151968 0.535385 0.008916
0.185617 0.535334 0.008864
0.219265 0.535282 0.008813
0.252913 0.535231 0.008761
0.286561 0.535180 0.008710
0.320209 0.535128 0.008659
0.353857 0.535077 0.008607
0.387505 0.535025 0.008556
0.421153 0.534974 0.008504
0.454801 0.534923 0.008453
0.488449 0.534871 0.008401
0.520917 0.534924 0.008594
0.553320 0.534769 0.008602
0.583424 0.532194 0.006446
0.613527 0.529508 0.004162
0.643623 0.527077 0.003936
0.673716 0.524806 0.003997
0.703805 0.522643 0.004055
0.733891 0.520571 0.004109
0.763973 0.518577 0.004160
0.794052 0.516652 0.004208
0.824128 0.514785 0.004253
0.854201 0.512971 0.004295
0.884271 0.511203 0.004333
0.914338 0.509475 0.004369
0.944401 0.507782 0.004401
0.004246 0.566746 0.047184
0.013133 0.566746 0.047184
0.022021 0.566747 0.045580
0.030923 0.566763 0.024247
0.046470 0.566761 0.006945
0.080171 0.566708 0.006892
0.113871 0.566655 0.006839
0.147572 0.566603 0.006786
0.181272 0.566550 0.006733
0.214973 0.566497 0.006680
0.248673 0.566444 0.006628
0.282374 0.566391 0.006575
0.316074 0.566338 0.006522
0.349775 0.566285 0.006469
0.383475 0.566233 0.006416
0.417176 0.566180 0.006363
0.450876 0.566127 0.006310
0.484577 0.566074 0.006258
0.518277 0.566021 0.006205
0.550792 0.566067 0.006326
0.583236 0.565900 0.006258
0.613334 0.563264 0.003969
0.643426 0.560763 0.003739
0.673515 0.558414 0.003796
0.703600 0.556180 0.003850
0.733681 0.554044 0.003900
0.763760 0.551991 0.003947
0.793835 0.550012 0.003991
0.823906 0.548095 0.004031
0.853975 0.546235 0.004069
0.884041 0.544423 0.004103
0.914103 0.542654 0.004134
0.944163 0.540924 0.004163
0.004202 0.597952 0.048359
0.012454 0.597952 0.048359
0.020707 0.597954 0.046699
0.028975 0.597969 0.024702
0.041781 0.597974 0.004684
0.075535 0.597920 0.004630
0.109289 0.597866 0.004576
0.143043 0.597811 0.004521
0.176797 0.597757 0.004467
0.210551 0.597703 0.004413
0.244305 0.597648 0.004358
0.278059 0.597594 0.004304
0.311813 0.597540 0.004250
0.345567 0.597485 0.004195
0.379321 0.597431 0.004141
0.413075 0.597377 0.004087
0.446829 0.597322 0.004032
0.480583 0.597268 0.003978
0.514337 0.597214 0.003924
0.548091 0.597159 0.003869
0.580654 0.597197 0.003920
0.613141 0.597019 0.003776
0.643230 0.594449 0.003542
0.673314 0.592022 0.003595
0.703395 0.589718 0.003645
0.733472 0.587517 0.003691
0.763546 0.585406 0.003734
0.793617 0.583372 0.003773
0.823685 0.581405 0.003810
0.853749 0.579498 0.003843
0.883810 0.577643 0.003873
0.913869 0.575834 0.003900
0.943924 0.574066 0.003924
0.004149 0.629149 0.049524
0.011766 0.629149 0.049524
0.019385 0.629151 0.047810
0.027018 0.629167 0.025152
0.038825 0.629173 0.004173
0.072529 0.629118 0.004118
0.106233 0.629062 0.004062
0.139937 0.629006 0.004006
0.173641 0.628951 0.003951
0.207345 0.628895 0.003895
0.241049 0.628840 0.003840
0.274753 0.628784 0.003784
0.308458 0.628729 0.003729
0.342162 0.628673 0.003673
0.375866 0.628617 0.003617
0.409570 0.628562 0.003562
0.443274 0.628506 0.003506
0.476978 0.628451 0.003451
0.510682 0.628395 0.003395
0.544386 0.628339 0.003339
0.578090 0.628284 0.003284
0.610600 0.628315 0.003315
0.643033 0.628134 0.003345
0.673113 0.625631 0.003394
0.703190 0.623255 0.003440
0.733263 0.620990 0.003482
0.763333 0.618820 0.003521
0.793400 0.616732 0.003556
0.823463 0.614715 0.003588
0.853523 0.612762 0.003617
0.883580 0.610864 0.003643
0.913634 0.609014 0.003665
0.943685 0.607208 0.003685
0.004087 0.660337 0.050681
0.011070 0.660337 0.050681
0.018053 0.660338 0.048912
0.025053 0.660355 0.025595
0.036315 0.660362 0.004112
0.069950 0.660305 0.004055
0.103585 0.660248 0.003998
0.137221 0.660191 0.003941
0.170856 0.660135 0.003885
0.204491 0.660078 0.003828
0.238126 0.660021 0.003771
0.271762 0.659964 0.003714
0.305397 0.659907 0.003657
0.339032 0.659851 0.003601
0.372667 0.659794 0.003544
0.406303 0.659737 0.003487
0.439938 0.659680 0.003430
0.473573 0.659624 0.003374
0.507208 0.659567 0.003317
0.540843 0.659510 0.003260
0.574479 0.659453 0.003203
0.608114 0.659396 0.003146
0.640553 0.659420 0.003170
0.672912 0.659239 0.003193
0.702985 0.656793 0.003235
0.733054 0.654464 0.003273
0.763120 0.652234 0.003307
0.793182 0.650092 0.003338
0.823241 0.648026 0.003366
0.853297 0.646025 0.003391
0.883350 0.644084 0.003413
0.913400 0.642194 0.003431
0.943446 0.640350 0.003446
0.004016 0.691516 0.051828
0.010364 0.691516 0.051828
0.016713 0.691517 0.050005
0.023078 0.691535 0.026032
0.033797 0.691541 0.004041
0.067370 0.691483 0.003983
0.100943 0.691425 0.003925
0.134516 0.691367 0.003867
0.168090 0.691309 0.003809
0.201663 0.691251 0.003751
0.235236 0.691193 0.003693
0.268809 0.691135 0.003635
0.302382 0.691077 0.003577
0.335955 0.691019 0.003519
0.369528 0.690961 0.003461
0.403101 0.690903 0.003403
0.436674 0.690845 0.003345
0.470247 0.690787 0.003287
0.503821 0.690729 0.003229
0.537394 0.690671 0.003171
0.570967 0.690613 0.003113
0.604540 0.690555 0.003055
0.638113 0.690497 0.002997
0.670486 0.690514 0.003014
0.702780 0.690330 0.003030
0.732845 0.687937 0.003064
0.762907 0.685649 0.003094
0.792965 0.683452 0.003121
0.823020 0.681336 0.003145
0.853071 0.679289 0.003165
0.883120 0.677304 0.003182
0.913165 0.675374 0.003197
0.943208 0.673492 0.003208
0.003936 0.722686 0.052967
0.009649 0.722686 0.052967
0.015363 0.722687 0.051089
0.021094 0.722705 0.026463
0.031271 0.722712 0.003962
0.064788 0.722652 0.003902
0.098305 0.722593 0.003843
0.131821 0.722534 0.003784
0.165338 0.722475 0.003725
0.198855 0.722415 0.003665
0.232372 0.722356 0.003606
0.265888 0.722297 0.003547
0.299405 0.722238 0.003488
0.332922 0.722179 0.003429
0.366439 0.722119 0.003369
0.399955 0.722060 0.003310
0.433472 0.722001 0.003251
0.466989 0.721942 0.003192
0.500505 0.721882 0.003132
0.534022 0.721823 0.003073
0.567539 0.721764 0.003014
0.601056 0.721705 0.002955
0.634572 0.721645 0.002895
0.668089 0.721586 0.002836
0.700403 0.721596 0.002846
0.732636 0.721410 0.002855
0.762693 0.719063 0.002881
0.792747 0.716812 0.002904
0.822798 0.714646 0.002923
0.852845 0.712552 0.002939
0.882890 0.710524 0.002952
0.912931 0.708553 0.002962
0.942969 0.706634 0.002969
0.003846 0.753846 0.054096
0.008924 0.753846 0.054096
0.014004 0.753848 0.052165
0.019100 0.753866 0.026886
0.028737 0.753873 0.003873
0.062202 0.753812 0.003812
0.095668 0.753752 0.003752
0.129133 0.753692 0.003692
0.162598 0.753631 0.003631
0.196064 0.753571 0.003571
0.229529 0.753510 0.003510
0.262994 0.753450 0.003450
0.296460 0.753389 0.003389
0.329925 0.753329 0.003329
0.363390 0.753268 0.003268
0.396856 0.753208 0.003208
0.430321 0.753147 0.003147
0.463786 0.753087 0.003087
0.497252 0.753026 0.003026
0.530717 0.752966 0.002966
0.564182 0.752905 0.002905
0.597648 0.752845 0.002845
0.631113 0.752784 0.002784
0.664578 0.752724 0.002724
0.698044 0.752663 0.002663
0.730303 0.752666 0.002666
0.762480 0.752477 0.002668
0.792530 0.750172 0.002686
0.822576 0.747956 0.002701
0.852620 0.745816 0.002713
0.882660 0.743744 0.002722
0.912696 0.741733 0.002728
0.942730 0.739776 0.002730
0.003748 0.784998 0.055217
0.008191 0.784998 0.055217
0.012636 0.784999 0.053232
0.017098 0.785018 0.027302
0.026195 0.785025 0.003775
0.059613 0.784963 0.003713
0.093031 0.784902 0.003652
0.126449 0.784840 0.003590
0.159868 0.784778 0.003528
0.193286 0.784717 0.003467
0.226704 0.784655 0.003405
0.260123 0.784593 0.003343
0.293541 0.784531 0.003281
0.326959 0.784470 0.003220
0.360377 0.784408 0.003158
0.393796 0.784346 0.003096
0.427214 0.784284 0.003034
0.460632 0.784223 0.002973
0.494051 0.784161 0.002911
0.527469 0.784099 0.002849
0.560887 0.784038 0.002788
0.594305 0.783976 0.002726
0.627724 0.783914 0.002664
0.661142 0.783852 0.002602
0.694560 0.783791 0.002541
0.727978 0.783729 0.002479
0.760187 0.783724 0.002474
0.792312 0.783532 0.002469
0.822355 0.781265 0.002480
0.852394 0.779079 0.002487
0.882429 0.776965 0.002492
0.912462 0.774913 0.002493
0.942491 0.772918 0.002491
0.003640 0.816140 0.056328
0.007449 0.816140 0.056328
0.011259 0.816142 0.054290
0.015087 0.816161 0.027711
0.023643 0.816168 0.003668
0.057018 0.816105 0.003605
0.090394 0.816042 0.003542
0.123769 0.815979 0.003479
0.157144 0.815916 0.003416
0.190519 0.815853 0.003353
0.223894 0.815790 0.003290
0.257269 0.815727 0.003227
0.290644 0.815664 0.003164
0.324019 0.815601 0.003101
0.357394 0.815538 0.003038
0.390769 0.815475 0.002975
0.424144 0.815412 0.002912
0.457519 0.815349 0.002849
0.490894 0.815287 0.002786
0.524269 0.815224 0.002724
0.557644 0.815161 0.002661
0.591019 0.815098 0.002598
0.624394 0.815035 0.002535
0.657769 0.814972 0.002472
0.691144 0.814909 0.002409
0.724519 0.814846 0.002346
0.757894 0.814783 0.002283
