luts/original/cross-process-mood.cube
TITLE "Cross Process Mood"
LUT_3D_SIZE 9
DOMAIN_MIN 0.0 0.0 0.0
DOMAIN_MAX 1.0 1.0 1.0
0.003485 0.003485 0.024485
0.103359 0.004234 0.030109
0.224146 0.004896 0.035646
0.344889 0.005514 0.041139
0.465589 0.006089 0.046589
0.586246 0.006621 0.051996
0.706860 0.007110 0.057360
0.827431 0.007556 0.062681
0.947958 0.007958 0.067958
0.003908 0.128908 0.029783
0.098012 0.128863 0.024348
0.223729 0.124611 0.025492
0.344472 0.116161 0.022018
0.465183 0.106064 0.016483
0.585867 0.094014 0.008889
0.706470 0.086655 0.006720
0.827010 0.081755 0.007135
0.947505 0.076937 0.007505
0.004186 0.254186 0.034936
0.085926 0.254151 0.022089
0.219201 0.253997 0.021935
0.343875 0.249733 0.021422
0.464510 0.240160 0.015810
0.585116 0.228838 0.008138
0.705650 0.220805 0.005900
0.826123 0.214995 0.006248
0.946550 0.209505 0.006550
0.004319 0.379319 0.039944
0.071763 0.379300 0.017659
0.205422 0.379123 0.017483
0.339081 0.378947 0.017306
0.463837 0.374256 0.015137
0.584364 0.363663 0.007386
0.704830 0.354955 0.005080
0.825236 0.348235 0.005361
0.945595 0.342072 0.005595
0.004307 0.504307 0.044807
0.055443 0.504309 0.011059
0.189831 0.504109 0.010859
0.324219 0.503909 0.010659
0.458607 0.503710 0.010460
0.583612 0.498488 0.006634
0.704010 0.489105 0.004260
0.824350 0.481475 0.004475
0.944640 0.474640 0.004640
0.004149 0.629149 0.049524
0.038825 0.629173 0.004173
0.173641 0.628951 0.003951
0.308458 0.628729 0.003729
0.443274 0.628506 0.003506
0.578090 0.628284 0.003284
0.703190 0.623255 0.003440
0.823463 0.614715 0.003588
0.943685 0.607208 0.003685
0.003846 0.753846 0.054096
0.028737 0.753873 0.003873
0.162598 0.753631 0.003631
0.296460 0.753389 0.003389
0.430321 0.753147 0.003147
0.564182 0.752905 0.002905
0.698044 0.752663 0.002663
0.822576 0.747956 0.002701
0.942730 0.739776 0.002730
0.003398 0.878398 0.058523
0.018516 0.878428 0.003427
0.151708 0.878165 0.003165
0.284901 0.877903 0.002903
0.418094 0.877641 0.002641
0.551286 0.877379 0.002379
0.684479 0.877117 0.002117
0.817671 0.876855 0.001855
0.941775 0.872343 0.001775
0.002805 1.000000 0.062805
0.008156 1.000000 0.002837
0.140852 1.000000 0.002554
0.273548 1.000000 0.002271
0.406244 1.000000 0.001989
0.538940 1.000000 0.001706
0.671636 1.000000 0.001423
0.804332 1.000000 0.001140
0.937028 1.000000 0.000858
0.004255 0.004255 0.155130
0.103320 0.004195 0.155070
0.224100 0.004850 0.160600
0.344836 0.005461 0.166086
0.465528 0.006028 0.171528
0.586178 0.006553 0.176928
0.706785 0.007035 0.182285
0.827348 0.007473 0.187598
0.947868 0.007868 0.192868
0.003869 0.128869 0.154744
0.095002 0.124866 0.154730
0.223712 0.119724 0.159462
0.344448 0.111370 0.152901
0.465155 0.100955 0.147112
0.585834 0.088481 0.139683
0.706486 0.073949 0.130336
0.827111 0.057358 0.118994
0.947709 0.038709 0.105629
0.004140 0.254140 0.159890
0.085537 0.254100 0.155348
0.211391 0.253968 0.146905
0.343854 0.245128 0.146401
0.464501 0.232872 0.140801
0.585110 0.220066 0.133132
0.705689 0.205589 0.123401
0.826239 0.189212 0.111611
0.946762 0.170855 0.097762
0.004266 0.379266 0.164891
0.071350 0.379241 0.151219
0.196783 0.379088 0.142447
0.336243 0.378899 0.142259
0.463794 0.371723 0.140094
0.584333 0.358344 0.132355
0.704838 0.344042 0.122550
0.825312 0.328141 0.110684
0.945757 0.310413 0.096757
0.004246 0.504246 0.169746
0.054992 0.504242 0.145303
0.180354 0.504068 0.135818
0.318539 0.503861 0.135611
0.456724 0.503653 0.135403
0.583557 0.496623 0.131579
0.703987 0.482495 0.121699
0.824384 0.467070 0.109756
0.944752 0.449970 0.095752
0.004081 0.629081 0.174456
0.036463 0.629104 0.137342
0.161806 0.628909 0.127018
0.300004 0.628680 0.126789
0.438202 0.628450 0.126559
0.576400 0.628220 0.126330
0.703136 0.620948 0.120848
0.823457 0.605999 0.108829
0.943746 0.589528 0.094746
0.003771 0.753771 0.179021
0.024116 0.753803 0.134152
0.141104 0.753610 0.116048
0.279748 0.753358 0.115796
0.418392 0.753106 0.115543
0.557037 0.752854 0.115291
0.695681 0.752602 0.115039
0.822529 0.744928 0.107901
0.942741 0.729085 0.093741
0.003315 0.878315 0.183440
0.013508 0.878352 0.132605
0.118239 0.878172 0.102906
0.257527 0.877897 0.102631
0.396816 0.877622 0.102356
0.536104 0.877346 0.102081
0.675392 0.877071 0.101806
0.814681 0.876796 0.101531
0.941736 0.868643 0.092736
0.002714 1.000000 0.187714
0.002755 1.000000 0.131098
0.093207 1.000000 0.087594
0.233247 1.000000 0.087296
0.373286 1.000000 0.086997
0.513325 1.000000 0.086699
0.653364 1.000000 0.086401
0.793403 1.000000 0.086102
0.933442 1.000000 0.085804
0.005010 0.005010 0.285760
0.099189 0.004939 0.285689
0.224053 0.004803 0.285553
0.344782 0.005407 0.291032
0.465468 0.005967 0.296468
0.586110 0.006485 0.301860
0.706709 0.006959 0.307209
0.827265 0.007390 0.312515
0.947778 0.007778 0.317778
0.004552 0.129552 0.285302
0.082963 0.117604 0.285351
0.213425 0.113593 0.285231
0.344385 0.111307 0.290143
0.465085 0.100885 0.283828
0.585757 0.088404 0.276744
0.706402 0.073864 0.268036
0.827019 0.057266 0.257467
0.947608 0.038608 0.244946
0.004094 0.254094 0.284844
0.082447 0.250194 0.284835
0.207340 0.246034 0.284728
0.343855 0.235777 0.288666
0.464488 0.225288 0.275167
0.585088 0.212735 0.266249
0.705661 0.198123 0.256253
0.826206 0.181453 0.244530
0.946724 0.162724 0.230898
0.004212 0.379212 0.289837
0.071290 0.379181 0.285137
0.196135 0.379025 0.281827
0.322696 0.378874 0.267234
0.463785 0.364435 0.265085
0.584340 0.347878 0.257362
0.704847 0.332194 0.247560
0.825322 0.315206 0.235693
0.945767 0.296465 0.221767
0.004185 0.504185 0.294685
0.054924 0.504174 0.279933
0.179749 0.503999 0.273814
0.305465 0.503827 0.260577
0.452443 0.503601 0.260351
0.583514 0.492998 0.256536
0.703962 0.475319 0.246675
0.824368 0.457786 0.234739
0.944739 0.439088 0.220739
0.004013 0.629013 0.299388
0.036387 0.629028 0.272816
0.161192 0.628833 0.264981
0.286749 0.628639 0.251749
0.430264 0.628399 0.251508
0.573780 0.628158 0.251267
0.703078 0.618443 0.245790
0.823414 0.600367 0.233786
0.943712 0.581712 0.219712
0.003695 0.753695 0.303945
0.024033 0.753720 0.269003
0.140464 0.753526 0.254423
0.265963 0.753312 0.240749
0.408547 0.753051 0.240489
0.551131 0.752791 0.240228
0.693715 0.752530 0.239968
0.822460 0.742947 0.232832
0.942684 0.724335 0.218684
0.003232 0.878232 0.308357
0.013419 0.878262 0.266732
0.117564 0.878080 0.241897
0.243040 0.877845 0.227579
0.385544 0.877563 0.227297
0.528047 0.877281 0.227015
0.670551 0.876999 0.226733
0.813055 0.876717 0.226451
0.941657 0.866959 0.217657
0.002624 1.000000 0.312624
0.002659 1.000000 0.264691
0.092494 1.000000 0.227309
0.217962 1.000000 0.212238
0.360774 1.000000 0.211933
0.503586 1.000000 0.211629
0.646397 1.000000 0.211325
0.789209 1.000000 0.211021
0.932021 1.000000 0.210716
0.005751 0.005751 0.416376
0.095044 0.005669 0.416294
0.219886 0.005511 0.416136
0.344728 0.005353 0.415978
0.465407 0.005907 0.421407
0.586042 0.006417 0.426792
0.706633 0.006883 0.432133
0.827182 0.007307 0.437432
0.947688 0.007687 0.442687
0.005220 0.130220 0.415845
0.068895 0.108708 0.415973
0.199171 0.104380 0.415834
0.334406 0.104200 0.415654
0.465016 0.100816 0.420544
0.585680 0.088327 0.413806
0.706317 0.073779 0.405736
0.826926 0.057173 0.395939
0.947508 0.038508 0.384262
0.004689 0.254689 0.415314
0.068301 0.241841 0.415380
0.193191 0.235141 0.415269
0.327134 0.228684 0.415137
0.464413 0.225213 0.419631
0.585008 0.212655 0.408124
0.705573 0.198036 0.397583
0.826111 0.181358 0.386001
0.946621 0.162621 0.372824
0.004159 0.379159 0.414784
0.067708 0.374973 0.414786
0.192566 0.372694 0.414644
0.317455 0.365994 0.414533
0.463810 0.349610 0.417526
0.584340 0.336987 0.395855
0.704834 0.322297 0.383554
0.825300 0.305547 0.370883
0.945738 0.286738 0.356721
0.004124 0.504124 0.419624
0.054856 0.504106 0.414563
0.179678 0.503928 0.412352
0.304502 0.503752 0.407394
0.431930 0.503583 0.385333
0.583521 0.482532 0.381543
0.703988 0.461181 0.371701
0.824395 0.442450 0.359766
0.944765 0.422864 0.345765
0.003945 0.628945 0.424320
0.036311 0.628952 0.408291
0.161114 0.628754 0.403485
0.285919 0.628559 0.394965
0.411972 0.628369 0.376478
0.567801 0.628102 0.376211
0.703037 0.613557 0.370749
0.823397 0.591083 0.358769
0.943705 0.570071 0.344705
0.003620 0.753620 0.428870
0.023950 0.753638 0.403854
0.140378 0.753440 0.393358
0.265163 0.753225 0.382990
0.390947 0.753013 0.365450
0.540597 0.752737 0.365175
0.690248 0.752462 0.364899
0.822400 0.739716 0.357771
0.942644 0.717278 0.343644
0.003149 0.878149 0.433274
0.013329 0.878173 0.400858
0.117471 0.877986 0.381474
0.242235 0.877751 0.369712
0.367915 0.877517 0.352251
0.515460 0.877224 0.351959
0.663006 0.876932 0.351666
0.810551 0.876639 0.351373
0.941584 0.864485 0.342584
0.002534 1.000000 0.437534
0.002562 1.000000 0.398284
0.092393 1.000000 0.367640
0.217136 1.000000 0.354655
0.342766 1.000000 0.336881
0.489577 1.000000 0.336569
0.636389 1.000000 0.336256
0.783200 1.000000 0.335943
0.930011 1.000000 0.335630
0.006477 0.006477 0.546977
0.090884 0.006384 0.546884
0.215704 0.006204 0.546704
0.340525 0.006025 0.546525
0.465346 0.005846 0.546346
0.585973 0.006348 0.551723
0.706558 0.006808 0.557058
0.827099 0.007224 0.562349
0.947597 0.007597 0.567597
0.005874 0.130874 0.546374
0.052798 0.097880 0.546598
0.183288 0.093140 0.546440
0.318948 0.092937 0.546237
0.454607 0.092735 0.546035
0.585603 0.088250 0.550868
0.706232 0.073694 0.543436
0.826833 0.057080 0.534411
0.947407 0.038407 0.523579
0.005270 0.255270 0.545770
0.052127 0.231754 0.545927
0.177004 0.223634 0.545804
0.309778 0.217352 0.545652
0.449808 0.217140 0.545440
0.584927 0.212574 0.549999
0.705486 0.197949 0.538912
0.826016 0.181263 0.527472
0.946519 0.162519 0.514751
0.004667 0.379667 0.545167
0.051455 0.365628 0.545255
0.176310 0.360710 0.545110
0.301199 0.350956 0.544999
0.439339 0.341558 0.544858
0.584251 0.336898 0.548877
0.704742 0.322205 0.531393
0.825202 0.305449 0.517057
0.945633 0.286633 0.502412
0.004063 0.504063 0.544563
0.050783 0.499501 0.544583
0.175615 0.497785 0.544415
0.300458 0.494501 0.544258
0.425347 0.484747 0.544147
0.583577 0.461224 0.546040
0.704005 0.446467 0.514966
0.824393 0.429640 0.499027
0.944752 0.410752 0.483570
0.003876 0.628876 0.549251
0.036236 0.628876 0.543765
0.161036 0.628676 0.541989
0.285837 0.628478 0.538942
0.410641 0.628281 0.532049
0.539090 0.628095 0.501204
0.703063 0.599419 0.495775
0.823445 0.572779 0.483817
0.943752 0.550831 0.469752
0.003544 0.753544 0.553794
0.023867 0.753555 0.538705
0.140292 0.753355 0.532293
0.265074 0.753137 0.525951
0.389859 0.752922 0.514674
0.516304 0.752713 0.490151
0.682317 0.752403 0.489840
0.822362 0.733400 0.482733
0.942637 0.705637 0.468637
0.003066 0.878066 0.558191
0.013240 0.878083 0.534984
0.117377 0.877893 0.521050
0.242139 0.877655 0.512560
0.366904 0.877420 0.499331
0.492950 0.877189 0.476924
0.649539 0.876877 0.476612
0.806128 0.876565 0.476300
0.941522 0.860443 0.467522
0.002444 1.000000 0.562444
0.002466 1.000000 0.531878
0.092292 1.000000 0.507971
0.217033 1.000000 0.497799
0.341778 1.000000 0.483206
0.467661 1.000000 0.461525
0.620744 1.000000 0.461199
0.773827 1.000000 0.460873
0.926910 1.000000 0.460546
0.007188 0.007188 0.677563
0.086709 0.007084 0.677459
0.211508 0.006883 0.677258
0.336307 0.006682 0.677057
0.461106 0.006481 0.676856
0.585905 0.006280 0.676655
0.706482 0.006732 0.681982
0.827016 0.007141 0.687266
0.947507 0.007507 0.692507
0.006512 0.131512 0.676887
0.037299 0.087431 0.677205
0.165509 0.079872 0.677050
0.301847 0.079646 0.676824
0.438185 0.079421 0.676599
0.574522 0.079195 0.676373
0.706147 0.073610 0.681136
0.826741 0.056987 0.672883
0.947307 0.038307 0.662895
0.005836 0.255836 0.676211
0.036552 0.221594 0.676458
0.158788 0.210443 0.676342
0.291357 0.203991 0.676169
0.431010 0.203758 0.675936
0.570663 0.203526 0.675704
0.705399 0.197861 0.680242
0.825921 0.181168 0.668943
0.946416 0.162416 0.656677
0.005160 0.380160 0.675535
0.035805 0.355758 0.675711
0.158019 0.347755 0.675572
0.282896 0.336672 0.675449
0.418594 0.328107 0.675285
0.564237 0.327862 0.675040
0.704650 0.322113 0.679233
0.825104 0.305350 0.663231
0.945528 0.286528 0.648103
0.004484 0.504484 0.674859
0.035058 0.489921 0.674964
0.157249 0.485067 0.674802
0.282095 0.478372 0.674648
0.406988 0.465050 0.674542
0.550041 0.452215 0.674393
0.703902 0.446364 0.677881
0.824289 0.429535 0.653637
0.944643 0.410643 0.635165
0.003808 0.628808 0.674183
0.034311 0.624085 0.674217
0.156479 0.622378 0.674033
0.281294 0.620071 0.673847
0.406123 0.615615 0.673676
0.531017 0.602293 0.673570
0.703155 0.570618 0.674210
0.823482 0.553729 0.632500
0.943764 0.534764 0.612669
0.003468 0.753468 0.678718
0.023785 0.753472 0.673557
0.140206 0.753269 0.671228
0.264985 0.753048 0.668912
0.389766 0.752828 0.664908
0.514549 0.752612 0.655793
0.644178 0.752409 0.614846
0.822410 0.715096 0.607782
0.942712 0.682673 0.593712
0.002984 0.877984 0.683109
0.013150 0.877994 0.669111
0.117284 0.877799 0.660626
0.242043 0.877559 0.655409
0.366805 0.877320 0.647332
0.491571 0.877086 0.632940
0.618460 0.876860 0.601595
0.795992 0.876504 0.601238
0.941488 0.852527 0.592488
0.002353 1.000000 0.687353
0.002369 1.000000 0.665471
0.092190 1.000000 0.648301
0.216930 1.000000 0.640944
0.341671 1.000000 0.630421
0.466417 1.000000 0.614003
0.592755 1.000000 0.586168
0.757088 1.000000 0.585818
0.921420 1.000000 0.585468
0.007885 0.007885 0.808135
0.082519 0.007769 0.808019
0.207297 0.007547 0.807797
0.332074 0.007324 0.807574
0.456852 0.007102 0.807352
0.581629 0.006879 0.807129
0.706407 0.006657 0.806907
0.826933 0.007058 0.812183
0.947417 0.007417 0.817417
0.007136 0.132136 0.807387
0.027807 0.082441 0.807744
0.145764 0.064576 0.807664
0.282894 0.064328 0.807415
0.420024 0.064079 0.807166
0.557154 0.063830 0.806917
0.694284 0.063581 0.806668
0.826648 0.056895 0.811355
0.947206 0.038206 0.802212
0.006388 0.256388 0.806638
0.026993 0.215761 0.806930
0.138544 0.195359 0.806882
0.271226 0.188602 0.806690
0.411114 0.188347 0.806435
0.551001 0.188093 0.806180
0.690889 0.187838 0.805925
0.825827 0.181073 0.810414
0.946314 0.162314 0.798604
0.005639 0.380639 0.805889
0.026179 0.349081 0.806116
0.137698 0.333190 0.806035
0.262561 0.321034 0.805899
0.397513 0.312626 0.805713
0.541742 0.312362 0.805449
0.685972 0.312098 0.805185
0.825005 0.305252 0.809404
0.945423 0.286423 0.793794
0.004890 0.504890 0.805140
0.025365 0.482400 0.805302
0.136851 0.471020 0.805189
0.261690 0.462293 0.805028
0.386570 0.447821 0.804908
0.525620 0.436646 0.804733
0.677693 0.436365 0.804453
0.824184 0.429431 0.808246
0.944533 0.410533 0.786760
0.004142 0.629142 0.804392
0.024551 0.615720 0.804488
0.136005 0.608850 0.804342
0.260819 0.603553 0.804156
0.385657 0.594826 0.803995
0.510559 0.577422 0.803896
0.659239 0.560654 0.803742
0.823363 0.553610 0.806643
0.943647 0.534647 0.774853
0.003393 0.753393 0.803643
0.023737 0.749040 0.803674
0.135158 0.746681 0.803496
0.259948 0.744812 0.803285
0.384745 0.741832 0.803082
0.509562 0.736037 0.802900
0.634464 0.718632 0.802801
0.822545 0.677792 0.802035
0.942771 0.658771 0.748456
0.002901 0.877901 0.808026
0.013060 0.877904 0.803237
0.117190 0.877706 0.800203
0.241947 0.877463 0.798257
0.366705 0.877221 0.795333
0.491465 0.876980 0.790249
0.616229 0.876744 0.778624
0.747193 0.876525 0.726259
0.941563 0.829563 0.717563
0.002263 1.000000 0.812263
0.002273 1.000000 0.799064
0.092089 1.000000 0.788632
0.216826 1.000000 0.784089
0.341565 1.000000 0.777636
0.466306 1.000000 0.767628
0.591053 1.000000 0.749763
0.718441 1.000000 0.710810
0.908825 1.000000 0.710404
0.008567 0.008567 0.938692
0.078315 0.008440 0.938565
0.203071 0.008196 0.938321
0.327827 0.007952 0.938077
0.452583 0.007708 0.937833
0.577339 0.007464 0.937589
0.702095 0.007220 0.937345
0.826850 0.006975 0.937100
0.947326 0.007326 0.942326
0.007746 0.132746 0.937871
0.018300 0.077543 0.938269
0.124022 0.047254 0.938282
0.262007 0.046982 0.938010
0.399991 0.046709 0.937737
0.537975 0.046437 0.937465
0.675960 0.046165 0.937193
0.813944 0.045892 0.936920
0.947105 0.038105 0.941528
0.006925 0.256925 0.937050
0.017417 0.210241 0.937386
0.116273 0.178316 0.937426
0.249212 0.171186 0.937214
0.389610 0.170908 0.936936
0.530009 0.170631 0.936659
0.670407 0.170353 0.936382
0.810805 0.170076 0.936104
0.946211 0.162211 0.940530
0.006103 0.381103 0.936228
0.016534 0.342938 0.936503
0.115348 0.316805 0.936502
0.240197 0.303636 0.936350
0.374962 0.295116 0.936145
0.518852 0.294832 0.935860
0.662742 0.294547 0.935575
0.806632 0.294262 0.935290
0.945317 0.286317 0.939486
0.005282 0.505282 0.935407
0.015652 0.475636 0.935620
0.114424 0.455294 0.935577
0.239252 0.445009 0.935405
0.364117 0.429654 0.935270
0.501756 0.419045 0.935073
0.651144 0.418748 0.934776
0.800532 0.418452 0.934480
0.944424 0.410424 0.938355
0.004460 0.629460 0.934585
0.014769 0.608334 0.934738
0.113499 0.593783 0.934653
0.238307 0.586383 0.934460
0.363140 0.575370 0.934293
0.488026 0.557081 0.934179
0.630855 0.542968 0.933996
0.790176 0.542651 0.933679
0.943530 0.534530 0.937038
0.003639 0.753639 0.933764
0.013886 0.741031 0.933855
0.112575 0.732272 0.933728
0.237362 0.727757 0.933515
0.362164 0.721087 0.933317
0.486997 0.710074 0.933150
0.611910 0.688072 0.933063
0.766934 0.666877 0.932905
0.942637 0.658637 0.935163
0.002818 0.877818 0.932943
0.013003 0.873729 0.932972
0.111651 0.870760 0.932804
0.236416 0.869131 0.932570
0.361187 0.866803 0.932340
0.485968 0.863066 0.932121
0.610775 0.855766 0.931928
0.735688 0.833764 0.931841
0.941746 0.782746 0.929515
0.002173 1.000000 0.937173
0.002176 1.000000 0.932657
0.091987 1.000000 0.928963
0.216723 1.000000 0.927234
0.341458 1.000000 0.924851
0.466195 1.000000 0.921253
0.590934 1.000000 0.914966
0.715678 1.000000 0.900543
0.848135 1.000000 0.835443
0.009278 0.009278 1.000000
0.074140 0.009140 1.000000
0.198874 0.008874 1.000000
0.323608 0.008608 1.000000
0.448343 0.008343 1.000000
0.573077 0.008077 1.000000
0.697811 0.007811 1.000000
0.822545 0.007545 1.000000
0.947280 0.007280 1.000000
0.008384 0.133384 1.000000
0.008819 0.072990 1.000000
0.106321 0.033892 1.000000
0.245310 0.033596 1.000000
0.384300 0.033300 1.000000
0.523289 0.033004 1.000000
0.662279 0.032708 1.000000
0.801269 0.032411 1.000000
0.940258 0.032115 1.000000
0.007490 0.257490 1.000000
0.007863 0.205724 1.000000
0.097961 0.165368 1.000000
0.231396 0.157730 1.000000
0.372762 0.157429 1.000000
0.514127 0.157127 1.000000
0.655493 0.156826 1.000000
0.796858 0.156525 1.000000
0.938224 0.156224 1.000000
0.006596 0.381596 1.000000
0.006907 0.338458 1.000000
0.096957 0.304796 1.000000
0.221791 0.290551 1.000000
0.356966 0.281566 1.000000
0.501658 0.281258 1.000000
0.646350 0.280950 1.000000
0.791041 0.280641 1.000000
0.935733 0.280333 1.000000
0.005702 0.505702 1.000000
0.005951 0.471191 1.000000
0.095952 0.444224 1.000000
0.220767 0.432774 1.000000
0.345618 0.416332 1.000000
0.483401 0.405401 1.000000
0.633082 0.405082 1.000000
0.782763 0.404763 1.000000
0.932444 0.404444 1.000000
0.004808 0.629808 1.000000
0.004994 0.603925 1.000000
0.094948 0.583651 1.000000
0.219742 0.574998 1.000000
0.344564 0.562600 1.000000
0.469436 0.543229 1.000000
0.611565 0.529232 1.000000
0.769562 0.528895 1.000000
0.927559 0.528559 1.000000
0.003914 0.753914 1.000000
0.004038 0.736659 1.000000
0.093943 0.723079 1.000000
0.218718 0.717222 1.000000
0.343510 0.708868 1.000000
0.468336 0.695865 1.000000
0.593236 0.672591 1.000000
0.744054 0.653054 1.000000
0.918682 0.652682 1.000000
0.003020 0.878020 1.000000
0.003082 0.869392 1.000000
0.092939 0.862507 1.000000
0.217693 0.859445 1.000000
0.342457 0.855135 1.000000
0.467237 0.848501 1.000000
0.592054 0.836731 1.000000
0.716983 0.809416 1.000000
0.893839 0.776839 1.000000
0.002126 1.000000 1.000000
0.002126 1.000000 1.000000
0.091935 1.000000 1.000000
0.216669 1.000000 1.000000
0.341403 1.000000 1.000000
0.466137 1.000000 1.000000
0.590872 1.000000 1.000000
0.715606 1.000000 1.000000
0.840340 1.000000 1.000000
