luts/original/cross-process-mood.cube
TITLE "Cross Process Mood"
LUT_3D_SIZE 5
DOMAIN_MIN 0.0 0.0 0.0
DOMAIN_MAX 1.0 1.0 1.0
0.003485 0.003485 0.024485
0.224146 0.004896 0.035646
0.465589 0.006089 0.046589
0.706860 0.007110 0.057360
0.947958 0.007958 0.067958
0.004186 0.254186 0.034936
0.219201 0.253997 0.021935
0.464510 0.240160 0.015810
0.705650 0.220805 0.005900
0.946550 0.209505 0.006550
0.004307 0.504307 0.044807
0.189831 0.504109 0.010859
0.458607 0.503710 0.010460
0.704010 0.489105 0.004260
0.944640 0.474640 0.004640
0.003846 0.753846 0.054096
0.162598 0.753631 0.003631
0.430321 0.753147 0.003147
0.698044 0.752663 0.002663
0.942730 0.739776 0.002730
0.002805 1.000000 0.062805
0.140852 1.000000 0.002554
0.406244 1.000000 0.001989
0.671636 1.000000 0.001423
0.937028 1.000000 0.000858
0.005010 0.005010 0.285760
0.224053 0.004803 0.285553
0.465468 0.005967 0.296468
0.706709 0.006959 0.307209
0.947778 0.007778 0.317778
0.004094 0.254094 0.284844
0.207340 0.246034 0.284728
0.464488 0.225288 0.275167
0.705661 0.198123 0.256253
0.946724 0.162724 0.230898
0.004185 0.504185 0.294685
0.179749 0.503999 0.273814
0.452443 0.503601 0.260351
0.703962 0.475319 0.246675
0.944739 0.439088 0.220739
0.003695 0.753695 0.303945
0.140464 0.753526 0.254423
0.408547 0.753051 0.240489
0.693715 0.752530 0.239968
0.942684 0.724335 0.218684
0.002624 1.000000 0.312624
0.092494 1.000000 0.227309
0.360774 1.000000 0.211933
0.646397 1.000000 0.211325
0.932021 1.000000 0.210716
0.006477 0.006477 0.546977
0.215704 0.006204 0.546704
0.465346 0.005846 0.546346
0.706558 0.006808 0.557058
0.947597 0.007597 0.567597
0.005270 0.255270 0.545770
0.177004 0.223634 0.545804
0.449808 0.217140 0.545440
0.705486 0.197949 0.538912
0.946519 0.162519 0.514751
0.004063 0.504063 0.544563
0.175615 0.497785 0.544415
0.425347 0.484747 0.544147
0.704005 0.446467 0.514966
0.944752 0.410752 0.483570
0.003544 0.753544 0.553794
0.140292 0.753355 0.532293
0.389859 0.752922 0.514674
0.682317 0.752403 0.489840
0.942637 0.705637 0.468637
0.002444 1.000000 0.562444
0.092292 1.000000 0.507971
0.341778 1.000000 0.483206
0.620744 1.000000 0.461199
0.926910 1.000000 0.460546
0.007885 0.007885 0.808135
0.207297 0.007547 0.807797
0.456852 0.007102 0.807352
0.706407 0.006657 0.806907
0.947417 0.007417 0.817417
0.006388 0.256388 0.806638
0.138544 0.195359 0.806882
0.411114 0.188347 0.806435
0.690889 0.187838 0.805925
0.946314 0.162314 0.798604
0.004890 0.504890 0.805140
0.136851 0.471020 0.805189
0.386570 0.447821 0.804908
0.677693 0.436365 0.804453
0.944533 0.410533 0.786760
0.003393 0.753393 0.803643
0.135158 0.746681 0.803496
0.384745 0.741832 0.803082
0.634464 0.718632 0.802801
0.942771 0.658771 0.748456
0.002263 1.000000 0.812263
0.092089 1.000000 0.788632
0.341565 1.000000 0.777636
0.591053 1.000000 0.749763
0.908825 1.000000 0.710404
0.009278 0.009278 1.000000
0.198874 0.008874 1.000000
0.448343 0.008343 1.000000
0.697811 0.007811 1.000000
0.947280 0.007280 1.000000
0.007490 0.257490 1.000000
0.097961 0.165368 1.000000
0.372762 0.157429 1.000000
0.655493 0.156826 1.000000
0.938224 0.156224 1.000000
0.005702 0.505702 1.000000
0.095952 0.444224 1.000000
0.345618 0.416332 1.000000
0.633082 0.405082 1.000000
0.932444 0.404444 1.000000
0.003914 0.753914 1.000000
0.093943 0.723079 1.000000
0.343510 0.708868 1.000000
0.593236 0.672591 1.000000
0.918682 0.652682 1.000000
0.002126 1.000000 1.000000
0.091935 1.000000 1.000000
0.341403 1.000000 1.000000
0.590872 1.000000 1.000000
0.840340 1.000000 1.000000
