luts/original/dark-room-blue.cube
TITLE "Dark Room Blue"
LUT_3D_SIZE 5
DOMAIN_MIN 0.0 0.0 0.0
DOMAIN_MAX 1.0 1.0 1.0
0.000000 0.000000 0.000000
0.226938 0.000000 0.000000
0.439250 0.000000 0.000000
0.636937 0.000000 0.000000
0.820000 0.000000 0.000000
0.000000 0.234625 0.000000
0.226938 0.234625 0.000000
0.439250 0.229750 0.000000
0.636937 0.224875 0.000000
0.820000 0.220000 0.000000
0.000000 0.459500 0.000000
0.219625 0.459500 0.000000
0.439250 0.459500 0.000000
0.636937 0.449750 0.000000
0.820000 0.440000 0.000000
0.000000 0.674625 0.000000
0.212312 0.674625 0.000000
0.424625 0.674625 0.000000
0.636937 0.674625 0.000000
0.820000 0.660000 0.000000
0.000000 0.880000 0.000000
0.205000 0.880000 0.000000
0.410000 0.880000 0.000000
0.615000 0.880000 0.000000
0.820000 0.880000 0.000000
0.000000 0.000000 0.267937
0.226938 0.000000 0.267937
0.439250 0.000000 0.273625
0.636937 0.000000 0.279312
0.820000 0.000000 0.285000
0.000000 0.234625 0.267937
0.226938 0.234625 0.267937
0.439250 0.229750 0.273625
0.636937 0.224875 0.279312
0.820000 0.220000 0.285000
0.000000 0.459500 0.273625
0.219625 0.459500 0.273625
0.439250 0.459500 0.273625
0.636937 0.449750 0.279312
0.820000 0.440000 0.285000
0.000000 0.674625 0.279312
0.212312 0.674625 0.279312
0.424625 0.674625 0.279312
0.636937 0.674625 0.279312
0.820000 0.660000 0.285000
0.000000 0.880000 0.285000
0.205000 0.880000 0.285000
0.410000 0.880000 0.285000
0.615000 0.880000 0.285000
0.820000 0.880000 0.285000
0.000000 0.000000 0.547250
0.219625 0.000000 0.547250
0.439250 0.000000 0.547250
0.636937 0.000000 0.558625
0.820000 0.000000 0.570000
0.000000 0.229750 0.547250
0.219625 0.229750 0.547250
0.439250 0.229750 0.547250
0.636937 0.224875 0.558625
0.820000 0.220000 0.570000
0.000000 0.459500 0.547250
0.219625 0.459500 0.547250
0.439250 0.459500 0.547250
0.636937 0.449750 0.558625
0.820000 0.440000 0.570000
0.000000 0.674625 0.558625
0.212312 0.674625 0.558625
0.424625 0.674625 0.558625
0.636937 0.674625 0.558625
0.820000 0.660000 0.570000
0.000000 0.880000 0.570000
0.205000 0.880000 0.570000
0.410000 0.880000 0.570000
0.615000 0.880000 0.570000
0.820000 0.880000 0.570000
0.000000 0.000000 0.837938
0.212312 0.000000 0.837938
0.424625 0.000000 0.837938
0.636937 0.000000 0.837938
0.820000 0.000000 0.855000
0.000000 0.224875 0.837938
0.212312 0.224875 0.837938
0.424625 0.224875 0.837938
0.636937 0.224875 0.837938
0.820000 0.220000 0.855000
0.000000 0.449750 0.837938
0.212312 0.449750 0.837938
0.424625 0.449750 0.837938
0.636937 0.449750 0.837938
0.820000 0.440000 0.855000
0.000000 0.674625 0.837938
0.212312 0.674625 0.837938
0.424625 0.674625 0.837938
0.636937 0.674625 0.837938
0.820000 0.660000 0.855000
0.000000 0.880000 0.855000
0.205000 0.880000 0.855000
0.410000 0.880000 0.855000
0.615000 0.880000 0.855000
0.820000 0.880000 0.855000
0.000000 0.000000 1.000000
0.205000 0.000000 1.000000
0.410000 0.000000 1.000000
0.615000 0.000000 1.000000
0.820000 0.000000 1.000000
0.000000 0.220000 1.000000
0.205000 0.220000 1.000000
0.410000 0.220000 1.000000
0.615000 0.220000 1.000000
0.820000 0.220000 1.000000
0.000000 0.440000 1.000000
0.205000 0.440000 1.000000
0.410000 0.440000 1.000000
0.615000 0.440000 1.000000
0.820000 0.440000 1.000000
0.000000 0.660000 1.000000
0.205000 0.660000 1.000000
0.410000 0.660000 1.000000
0.615000 0.660000 1.000000
0.820000 0.660000 1.000000
0.000000 0.880000 1.000000
0.205000 0.880000 1.000000
0.410000 0.880000 1.000000
0.615000 0.880000 1.000000
0.820000 0.880000 1.000000
