luts/original/dark-room-blue.cube
TITLE "Dark Room Blue"
LUT_3D_SIZE 9
DOMAIN_MIN 0.0 0.0 0.0
DOMAIN_MAX 1.0 1.0 1.0
0.000000 0.000000 0.000000
0.115297 0.000000 0.000000
0.226938 0.000000 0.000000
0.334922 0.000000 0.000000
0.439250 0.000000 0.000000
0.539922 0.000000 0.000000
0.636937 0.000000 0.000000
0.730297 0.000000 0.000000
0.820000 0.000000 0.000000
0.000000 0.118531 0.000000
0.115297 0.118531 0.000000
0.226938 0.117313 0.000000
0.334922 0.116094 0.000000
0.439250 0.114875 0.000000
0.539922 0.113656 0.000000
0.636937 0.112437 0.000000
0.730297 0.111219 0.000000
0.820000 0.110000 0.000000
0.000000 0.234625 0.000000
0.113469 0.234625 0.000000
0.226938 0.234625 0.000000
0.334922 0.232187 0.000000
0.439250 0.229750 0.000000
0.539922 0.227313 0.000000
0.636937 0.224875 0.000000
0.730297 0.222438 0.000000
0.820000 0.220000 0.000000
0.000000 0.348281 0.000000
0.111641 0.348281 0.000000
0.223281 0.348281 0.000000
0.334922 0.348281 0.000000
0.439250 0.344625 0.000000
0.539922 0.340969 0.000000
0.636937 0.337313 0.000000
0.730297 0.333656 0.000000
0.820000 0.330000 0.000000
0.000000 0.459500 0.000000
0.109812 0.459500 0.000000
0.219625 0.459500 0.000000
0.329437 0.459500 0.000000
0.439250 0.459500 0.000000
0.539922 0.454625 0.000000
0.636937 0.449750 0.000000
0.730297 0.444875 0.000000
0.820000 0.440000 0.000000
0.000000 0.568281 0.000000
0.107984 0.568281 0.000000
0.215969 0.568281 0.000000
0.323953 0.568281 0.000000
0.431937 0.568281 0.000000
0.539922 0.568281 0.000000
0.636937 0.562188 0.000000
0.730297 0.556094 0.000000
0.820000 0.550000 0.000000
0.000000 0.674625 0.000000
0.106156 0.674625 0.000000
0.212312 0.674625 0.000000
0.318469 0.674625 0.000000
0.424625 0.674625 0.000000
0.530781 0.674625 0.000000
0.636937 0.674625 0.000000
0.730297 0.667312 0.000000
0.820000 0.660000 0.000000
0.000000 0.778531 0.000000
0.104328 0.778531 0.000000
0.208656 0.778531 0.000000
0.312984 0.778531 0.000000
0.417312 0.778531 0.000000
0.521641 0.778531 0.000000
0.625969 0.778531 0.000000
0.730297 0.778531 0.000000
0.820000 0.770000 0.000000
0.000000 0.880000 0.000000
0.102500 0.880000 0.000000
0.205000 0.880000 0.000000
0.307500 0.880000 0.000000
0.410000 0.880000 0.000000
0.512500 0.880000 0.000000
0.615000 0.880000 0.000000
0.717500 0.880000 0.000000
0.820000 0.880000 0.000000
0.000000 0.000000 0.132547
0.115297 0.000000 0.132547
0.226938 0.000000 0.133969
0.334922 0.000000 0.135391
0.439250 0.000000 0.136813
0.539922 0.000000 0.138234
0.636937 0.000000 0.139656
0.730297 0.000000 0.141078
0.820000 0.000000 0.142500
0.000000 0.118531 0.132547
0.115297 0.118531 0.132547
0.226938 0.117313 0.133969
0.334922 0.116094 0.135391
0.439250 0.114875 0.136813
0.539922 0.113656 0.138234
0.636937 0.112437 0.139656
0.730297 0.111219 0.141078
0.820000 0.110000 0.142500
0.000000 0.234625 0.133969
0.113469 0.234625 0.133969
0.226938 0.234625 0.133969
0.334922 0.232187 0.135391
0.439250 0.229750 0.136813
0.539922 0.227313 0.138234
0.636937 0.224875 0.139656
0.730297 0.222438 0.141078
0.820000 0.220000 0.142500
0.000000 0.348281 0.135391
0.111641 0.348281 0.135391
0.223281 0.348281 0.135391
0.334922 0.348281 0.135391
0.439250 0.344625 0.136813
0.539922 0.340969 0.138234
0.636937 0.337313 0.139656
0.730297 0.333656 0.141078
0.820000 0.330000 0.142500
0.000000 0.459500 0.136813
0.109812 0.459500 0.136813
0.219625 0.459500 0.136813
0.329437 0.459500 0.136813
0.439250 0.459500 0.136813
0.539922 0.454625 0.138234
0.636937 0.449750 0.139656
0.730297 0.444875 0.141078
0.820000 0.440000 0.142500
0.000000 0.568281 0.138234
0.107984 0.568281 0.138234
0.215969 0.568281 0.138234
0.323953 0.568281 0.138234
0.431937 0.568281 0.138234
0.539922 0.568281 0.138234
0.636937 0.562188 0.139656
0.730297 0.556094 0.141078
0.820000 0.550000 0.142500
0.000000 0.674625 0.139656
0.106156 0.674625 0.139656
0.212312 0.674625 0.139656
0.318469 0.674625 0.139656
0.424625 0.674625 0.139656
0.530781 0.674625 0.139656
0.636937 0.674625 0.139656
0.730297 0.667312 0.141078
0.820000 0.660000 0.142500
0.000000 0.778531 0.141078
0.104328 0.778531 0.141078
0.208656 0.778531 0.141078
0.312984 0.778531 0.141078
0.417312 0.778531 0.141078
0.521641 0.778531 0.141078
0.625969 0.778531 0.141078
0.730297 0.778531 0.141078
0.820000 0.770000 0.142500
0.000000 0.880000 0.142500
0.102500 0.880000 0.142500
0.205000 0.880000 0.142500
0.307500 0.880000 0.142500
0.410000 0.880000 0.142500
0.512500 0.880000 0.142500
0.615000 0.880000 0.142500
0.717500 0.880000 0.142500
0.820000 0.880000 0.142500
0.000000 0.000000 0.267937
0.113469 0.000000 0.267937
0.226938 0.000000 0.267937
0.334922 0.000000 0.270781
0.439250 0.000000 0.273625
0.539922 0.000000 0.276469
0.636937 0.000000 0.279312
0.730297 0.000000 0.282156
0.820000 0.000000 0.285000
0.000000 0.117313 0.267937
0.113469 0.117313 0.267937
0.226938 0.117313 0.267937
0.334922 0.116094 0.270781
0.439250 0.114875 0.273625
0.539922 0.113656 0.276469
0.636937 0.112437 0.279312
0.730297 0.111219 0.282156
0.820000 0.110000 0.285000
0.000000 0.234625 0.267937
0.113469 0.234625 0.267937
0.226938 0.234625 0.267937
0.334922 0.232187 0.270781
0.439250 0.229750 0.273625
0.539922 0.227313 0.276469
0.636937 0.224875 0.279312
0.730297 0.222438 0.282156
0.820000 0.220000 0.285000
0.000000 0.348281 0.270781
0.111641 0.348281 0.270781
0.223281 0.348281 0.270781
0.334922 0.348281 0.270781
0.439250 0.344625 0.273625
0.539922 0.340969 0.276469
0.636937 0.337313 0.279312
0.730297 0.333656 0.282156
0.820000 0.330000 0.285000
0.000000 0.459500 0.273625
0.109812 0.459500 0.273625
0.219625 0.459500 0.273625
0.329437 0.459500 0.273625
0.439250 0.459500 0.273625
0.539922 0.454625 0.276469
0.636937 0.449750 0.279312
0.730297 0.444875 0.282156
0.820000 0.440000 0.285000
0.000000 0.568281 0.276469
0.107984 0.568281 0.276469
0.215969 0.568281 0.276469
0.323953 0.568281 0.276469
0.431937 0.568281 0.276469
0.539922 0.568281 0.276469
0.636937 0.562188 0.279312
0.730297 0.556094 0.282156
0.820000 0.550000 0.285000
0.000000 0.674625 0.279312
0.106156 0.674625 0.279312
0.212312 0.674625 0.279312
0.318469 0.674625 0.279312
0.424625 0.674625 0.279312
0.530781 0.674625 0.279312
0.636937 0.674625 0.279312
0.730297 0.667312 0.282156
0.820000 0.660000 0.285000
0.000000 0.778531 0.282156
0.104328 0.778531 0.282156
0.208656 0.778531 0.282156
0.312984 0.778531 0.282156
0.417312 0.778531 0.282156
0.521641 0.778531 0.282156
0.625969 0.778531 0.282156
0.730297 0.778531 0.282156
0.820000 0.770000 0.285000
0.000000 0.880000 0.285000
0.102500 0.880000 0.285000
0.205000 0.880000 0.285000
0.307500 0.880000 0.285000
0.410000 0.880000 0.285000
0.512500 0.880000 0.285000
0.615000 0.880000 0.285000
0.717500 0.880000 0.285000
0.820000 0.880000 0.285000
0.000000 0.000000 0.406172
0.111641 0.000000 0.406172
0.223281 0.000000 0.406172
0.334922 0.000000 0.406172
0.439250 0.000000 0.410438
0.539922 0.000000 0.414703
0.636937 0.000000 0.418969
0.730297 0.000000 0.423234
0.820000 0.000000 0.427500
0.000000 0.116094 0.406172
0.111641 0.116094 0.406172
0.223281 0.116094 0.406172
0.334922 0.116094 0.406172
0.439250 0.114875 0.410438
0.539922 0.113656 0.414703
0.636937 0.112437 0.418969
0.730297 0.111219 0.423234
0.820000 0.110000 0.427500
0.000000 0.232187 0.406172
0.111641 0.232187 0.406172
0.223281 0.232187 0.406172
0.334922 0.232187 0.406172
0.439250 0.229750 0.410438
0.539922 0.227313 0.414703
0.636937 0.224875 0.418969
0.730297 0.222438 0.423234
0.820000 0.220000 0.427500
0.000000 0.348281 0.406172
0.111641 0.348281 0.406172
0.223281 0.348281 0.406172
0.334922 0.348281 0.406172
0.439250 0.344625 0.410438
0.539922 0.340969 0.414703
0.636937 0.337313 0.418969
0.730297 0.333656 0.423234
0.820000 0.330000 0.427500
0.000000 0.459500 0.410438
0.109812 0.459500 0.410438
0.219625 0.459500 0.410438
0.329437 0.459500 0.410438
0.439250 0.459500 0.410438
0.539922 0.454625 0.414703
0.636937 0.449750 0.418969
0.730297 0.444875 0.423234
0.820000 0.440000 0.427500
0.000000 0.568281 0.414703
0.107984 0.568281 0.414703
0.215969 0.568281 0.414703
0.323953 0.568281 0.414703
0.431937 0.568281 0.414703
0.539922 0.568281 0.414703
0.636937 0.562188 0.418969
0.730297 0.556094 0.423234
0.820000 0.550000 0.427500
0.000000 0.674625 0.418969
0.106156 0.674625 0.418969
0.212312 0.674625 0.418969
0.318469 0.674625 0.418969
0.424625 0.674625 0.418969
0.530781 0.674625 0.418969
0.636937 0.674625 0.418969
0.730297 0.667312 0.423234
0.820000 0.660000 0.427500
0.000000 0.778531 0.423234
0.104328 0.778531 0.423234
0.208656 0.778531 0.423234
0.312984 0.778531 0.423234
0.417312 0.778531 0.423234
0.521641 0.778531 0.423234
0.625969 0.778531 0.423234
0.730297 0.778531 0.423234
0.820000 0.770000 0.427500
0.000000 0.880000 0.427500
0.102500 0.880000 0.427500
0.205000 0.880000 0.427500
0.307500 0.880000 0.427500
0.410000 0.880000 0.427500
0.512500 0.880000 0.427500
0.615000 0.880000 0.427500
0.717500 0.880000 0.427500
0.820000 0.880000 0.427500
0.000000 0.000000 0.547250
0.109812 0.000000 0.547250
0.219625 0.000000 0.547250
0.329437 0.000000 0.547250
0.439250 0.000000 0.547250
0.539922 0.000000 0.552937
0.636937 0.000000 0.558625
0.730297 0.000000 0.564312
0.820000 0.000000 0.570000
0.000000 0.114875 0.547250
0.109812 0.114875 0.547250
0.219625 0.114875 0.547250
0.329437 0.114875 0.547250
0.439250 0.114875 0.547250
0.539922 0.113656 0.552937
0.636937 0.112437 0.558625
0.730297 0.111219 0.564312
0.820000 0.110000 0.570000
0.000000 0.229750 0.547250
0.109812 0.229750 0.547250
0.219625 0.229750 0.547250
0.329437 0.229750 0.547250
0.439250 0.229750 0.547250
0.539922 0.227313 0.552937
0.636937 0.224875 0.558625
0.730297 0.222438 0.564312
0.820000 0.220000 0.570000
0.000000 0.344625 0.547250
0.109812 0.344625 0.547250
0.219625 0.344625 0.547250
0.329437 0.344625 0.547250
0.439250 0.344625 0.547250
0.539922 0.340969 0.552937
0.636937 0.337313 0.558625
0.730297 0.333656 0.564312
0.820000 0.330000 0.570000
0.000000 0.459500 0.547250
0.109812 0.459500 0.547250
0.219625 0.459500 0.547250
0.329437 0.459500 0.547250
0.439250 0.459500 0.547250
0.539922 0.454625 0.552937
0.636937 0.449750 0.558625
0.730297 0.444875 0.564312
0.820000 0.440000 0.570000
0.000000 0.568281 0.552937
0.107984 0.568281 0.552937
0.215969 0.568281 0.552937
0.323953 0.568281 0.552937
0.431937 0.568281 0.552937
0.539922 0.568281 0.552937
0.636937 0.562188 0.558625
0.730297 0.556094 0.564312
0.820000 0.550000 0.570000
0.000000 0.674625 0.558625
0.106156 0.674625 0.558625
0.212312 0.674625 0.558625
0.318469 0.674625 0.558625
0.424625 0.674625 0.558625
0.530781 0.674625 0.558625
0.636937 0.674625 0.558625
0.730297 0.667312 0.564312
0.820000 0.660000 0.570000
0.000000 0.778531 0.564312
0.104328 0.778531 0.564312
0.208656 0.778531 0.564312
0.312984 0.778531 0.564312
0.417312 0.778531 0.564312
0.521641 0.778531 0.564312
0.625969 0.778531 0.564312
0.730297 0.778531 0.564312
0.820000 0.770000 0.570000
0.000000 0.880000 0.570000
0.102500 0.880000 0.570000
0.205000 0.880000 0.570000
0.307500 0.880000 0.570000
0.410000 0.880000 0.570000
0.512500 0.880000 0.570000
0.615000 0.880000 0.570000
0.717500 0.880000 0.570000
0.820000 0.880000 0.570000
0.000000 0.000000 0.691172
0.107984 0.000000 0.691172
0.215969 0.000000 0.691172
0.323953 0.000000 0.691172
0.431937 0.000000 0.691172
0.539922 0.000000 0.691172
0.636937 0.000000 0.698281
0.730297 0.000000 0.705391
0.820000 0.000000 0.712500
0.000000 0.113656 0.691172
0.107984 0.113656 0.691172
0.215969 0.113656 0.691172
0.323953 0.113656 0.691172
0.431937 0.113656 0.691172
0.539922 0.113656 0.691172
0.636937 0.112437 0.698281
0.730297 0.111219 0.705391
0.820000 0.110000 0.712500
0.000000 0.227313 0.691172
0.107984 0.227313 0.691172
0.215969 0.227313 0.691172
0.323953 0.227313 0.691172
0.431937 0.227313 0.691172
0.539922 0.227313 0.691172
0.636937 0.224875 0.698281
0.730297 0.222438 0.705391
0.820000 0.220000 0.712500
0.000000 0.340969 0.691172
0.107984 0.340969 0.691172
0.215969 0.340969 0.691172
0.323953 0.340969 0.691172
0.431937 0.340969 0.691172
0.539922 0.340969 0.691172
0.636937 0.337313 0.698281
0.730297 0.333656 0.705391
0.820000 0.330000 0.712500
0.000000 0.454625 0.691172
0.107984 0.454625 0.691172
0.215969 0.454625 0.691172
0.323953 0.454625 0.691172
0.431937 0.454625 0.691172
0.539922 0.454625 0.691172
0.636937 0.449750 0.698281
0.730297 0.444875 0.705391
0.820000 0.440000 0.712500
0.000000 0.568281 0.691172
0.107984 0.568281 0.691172
0.215969 0.568281 0.691172
0.323953 0.568281 0.691172
0.431937 0.568281 0.691172
0.539922 0.568281 0.691172
0.636937 0.562188 0.698281
0.730297 0.556094 0.705391
0.820000 0.550000 0.712500
0.000000 0.674625 0.698281
0.106156 0.674625 0.698281
0.212312 0.674625 0.698281
0.318469 0.674625 0.698281
0.424625 0.674625 0.698281
0.530781 0.674625 0.698281
0.636937 0.674625 0.698281
0.730297 0.667312 0.705391
0.820000 0.660000 0.712500
0.000000 0.778531 0.705391
0.104328 0.778531 0.705391
0.208656 0.778531 0.705391
0.312984 0.778531 0.705391
0.417312 0.778531 0.705391
0.521641 0.778531 0.705391
0.625969 0.778531 0.705391
0.730297 0.778531 0.705391
0.820000 0.770000 0.712500
0.000000 0.880000 0.712500
0.102500 0.880000 0.712500
0.205000 0.880000 0.712500
0.307500 0.880000 0.712500
0.410000 0.880000 0.712500
0.512500 0.880000 0.712500
0.615000 0.880000 0.712500
0.717500 0.880000 0.712500
0.820000 0.880000 0.712500
0.000000 0.000000 0.837938
0.106156 0.000000 0.837938
0.212312 0.000000 0.837938
0.318469 0.000000 0.837938
0.424625 0.000000 0.837938
0.530781 0.000000 0.837938
0.636937 0.000000 0.837938
0.730297 0.000000 0.846469
0.820000 0.000000 0.855000
0.000000 0.112437 0.837938
0.106156 0.112437 0.837938
0.212312 0.112437 0.837938
0.318469 0.112437 0.837938
0.424625 0.112437 0.837938
0.530781 0.112437 0.837938
0.636937 0.112437 0.837938
0.730297 0.111219 0.846469
0.820000 0.110000 0.855000
0.000000 0.224875 0.837938
0.106156 0.224875 0.837938
0.212312 0.224875 0.837938
0.318469 0.224875 0.837938
0.424625 0.224875 0.837938
0.530781 0.224875 0.837938
0.636937 0.224875 0.837938
0.730297 0.222438 0.846469
0.820000 0.220000 0.855000
0.000000 0.337313 0.837938
0.106156 0.337313 0.837938
0.212312 0.337313 0.837938
0.318469 0.337313 0.837938
0.424625 0.337313 0.837938
0.530781 0.337313 0.837938
0.636937 0.337313 0.837938
0.730297 0.333656 0.846469
0.820000 0.330000 0.855000
0.000000 0.449750 0.837938
0.106156 0.449750 0.837938
0.212312 0.449750 0.837938
0.318469 0.449750 0.837938
0.424625 0.449750 0.837938
0.530781 0.449750 0.837938
0.636937 0.449750 0.837938
0.730297 0.444875 0.846469
0.820000 0.440000 0.855000
0.000000 0.562188 0.837938
0.106156 0.562188 0.837938
0.212312 0.562188 0.837938
0.318469 0.562188 0.837938
0.424625 0.562188 0.837938
0.530781 0.562188 0.837938
0.636937 0.562188 0.837938
0.730297 0.556094 0.846469
0.820000 0.550000 0.855000
0.000000 0.674625 0.837938
0.106156 0.674625 0.837938
0.212312 0.674625 0.837938
0.318469 0.674625 0.837938
0.424625 0.674625 0.837938
0.530781 0.674625 0.837938
0.636937 0.674625 0.837938
0.730297 0.667312 0.846469
0.820000 0.660000 0.855000
0.000000 0.778531 0.846469
0.104328 0.778531 0.846469
0.208656 0.778531 0.846469
0.312984 0.778531 0.846469
0.417312 0.778531 0.846469
0.521641 0.778531 0.846469
0.625969 0.778531 0.846469
0.730297 0.778531 0.846469
0.820000 0.770000 0.855000
0.000000 0.880000 0.855000
0.102500 0.880000 0.855000
0.205000 0.880000 0.855000
0.307500 0.880000 0.855000
0.410000 0.880000 0.855000
0.512500 0.880000 0.855000
0.615000 0.880000 0.855000
0.717500 0.880000 0.855000
0.820000 0.880000 0.855000
0.000000 0.000000 0.987547
0.104328 0.000000 0.987547
0.208656 0.000000 0.987547
0.312984 0.000000 0.987547
0.417312 0.000000 0.987547
0.521641 0.000000 0.987547
0.625969 0.000000 0.987547
0.730297 0.000000 0.987547
0.820000 0.000000 0.997500
0.000000 0.111219 0.987547
0.104328 0.111219 0.987547
0.208656 0.111219 0.987547
0.312984 0.111219 0.987547
0.417312 0.111219 0.987547
0.521641 0.111219 0.987547
0.625969 0.111219 0.987547
0.730297 0.111219 0.987547
0.820000 0.110000 0.997500
0.000000 0.222438 0.987547
0.104328 0.222438 0.987547
0.208656 0.222438 0.987547
0.312984 0.222438 0.987547
0.417312 0.222438 0.987547
0.521641 0.222438 0.987547
0.625969 0.222438 0.987547
0.730297 0.222438 0.987547
0.820000 0.220000 0.997500
0.000000 0.333656 0.987547
0.104328 0.333656 0.987547
0.208656 0.333656 0.987547
0.312984 0.333656 0.987547
0.417312 0.333656 0.987547
0.521641 0.333656 0.987547
0.625969 0.333656 0.987547
0.730297 0.333656 0.987547
0.820000 0.330000 0.997500
0.000000 0.444875 0.987547
0.104328 0.444875 0.987547
0.208656 0.444875 0.987547
0.312984 0.444875 0.987547
0.417312 0.444875 0.987547
0.521641 0.444875 0.987547
0.625969 0.444875 0.987547
0.730297 0.444875 0.987547
0.820000 0.440000 0.997500
0.000000 0.556094 0.987547
0.104328 0.556094 0.987547
0.208656 0.556094 0.987547
0.312984 0.556094 0.987547
0.417312 0.556094 0.987547
0.521641 0.556094 0.987547
0.625969 0.556094 0.987547
0.730297 0.556094 0.987547
0.820000 0.550000 0.997500
0.000000 0.667312 0.987547
0.104328 0.667312 0.987547
0.208656 0.667312 0.987547
0.312984 0.667312 0.987547
0.417312 0.667312 0.987547
0.521641 0.667312 0.987547
0.625969 0.667312 0.987547
0.730297 0.667312 0.987547
0.820000 0.660000 0.997500
0.000000 0.778531 0.987547
0.104328 0.778531 0.987547
0.208656 0.778531 0.987547
0.312984 0.778531 0.987547
0.417312 0.778531 0.987547
0.521641 0.778531 0.987547
0.625969 0.778531 0.987547
0.730297 0.778531 0.987547
0.820000 0.770000 0.997500
0.000000 0.880000 0.997500
0.102500 0.880000 0.997500
0.205000 0.880000 0.997500
0.307500 0.880000 0.997500
0.410000 0.880000 0.997500
0.512500 0.880000 0.997500
0.615000 0.880000 0.997500
0.717500 0.880000 0.997500
0.820000 0.880000 0.997500
0.000000 0.000000 1.000000
0.102500 0.000000 1.000000
0.205000 0.000000 1.000000
0.307500 0.000000 1.000000
0.410000 0.000000 1.000000
0.512500 0.000000 1.000000
0.615000 0.000000 1.000000
0.717500 0.000000 1.000000
0.820000 0.000000 1.000000
0.000000 0.110000 1.000000
0.102500 0.110000 1.000000
0.205000 0.110000 1.000000
0.307500 0.110000 1.000000
0.410000 0.110000 1.000000
0.512500 0.110000 1.000000
0.615000 0.110000 1.000000
0.717500 0.110000 1.000000
0.820000 0.110000 1.000000
0.000000 0.220000 1.000000
0.102500 0.220000 1.000000
0.205000 0.220000 1.000000
0.307500 0.220000 1.000000
0.410000 0.220000 1.000000
0.512500 0.220000 1.000000
0.615000 0.220000 1.000000
0.717500 0.220000 1.000000
0.820000 0.220000 1.000000
0.000000 0.330000 1.000000
0.102500 0.330000 1.000000
0.205000 0.330000 1.000000
0.307500 0.330000 1.000000
0.410000 0.330000 1.000000
0.512500 0.330000 1.000000
0.615000 0.330000 1.000000
0.717500 0.330000 1.000000
0.820000 0.330000 1.000000
0.000000 0.440000 1.000000
0.102500 0.440000 1.000000
0.205000 0.440000 1.000000
0.307500 0.440000 1.000000
0.410000 0.440000 1.000000
0.512500 0.440000 1.000000
0.615000 0.440000 1.000000
0.717500 0.440000 1.000000
0.820000 0.440000 1.000000
0.000000 0.550000 1.000000
0.102500 0.550000 1.000000
0.205000 0.550000 1.000000
0.307500 0.550000 1.000000
0.410000 0.550000 1.000000
0.512500 0.550000 1.000000
0.615000 0.550000 1.000000
0.717500 0.550000 1.000000
0.820000 0.550000 1.000000
0.000000 0.660000 1.000000
0.102500 0.660000 1.000000
0.205000 0.660000 1.000000
0.307500 0.660000 1.000000
0.410000 0.660000 1.000000
0.512500 0.660000 1.000000
0.615000 0.660000 1.000000
0.717500 0.660000 1.000000
0.820000 0.660000 1.000000
0.000000 0.770000 1.000000
0.102500 0.770000 1.000000
0.205000 0.770000 1.000000
0.307500 0.770000 1.000000
0.410000 0.770000 1.000000
0.512500 0.770000 1.000000
0.615000 0.770000 1.000000
0.717500 0.770000 1.000000
0.820000 0.770000 1.000000
0.000000 0.880000 1.000000
0.102500 0.880000 1.000000
0.205000 0.880000 1.000000
0.307500 0.880000 1.000000
0.410000 0.880000 1.000000
0.512500 0.880000 1.000000
0.615000 0.880000 1.000000
0.717500 0.880000 1.000000
0.820000 0.880000 1.000000
