luts/original/dark-room-blue.cube
TITLE "Dark Room Blue"
LUT_3D_SIZE 33
DOMAIN_MIN 0.0 0.0 0.0
DOMAIN_MAX 1.0 1.0 1.0
0.000000 0.000000 0.000000
0.029167 0.000000 0.000000
0.058105 0.000000 0.000000
0.086815 0.000000 0.000000
0.115297 0.000000 0.000000
0.143550 0.000000 0.000000
0.171574 0.000000 0.000000
0.199370 0.000000 0.000000
0.226938 0.000000 0.000000
0.254276 0.000000 0.000000
0.281387 0.000000 0.000000
0.308269 0.000000 0.000000
0.334922 0.000000 0.000000
0.361347 0.000000 0.000000
0.387543 0.000000 0.000000
0.413511 0.000000 0.000000
0.439250 0.000000 0.000000
0.464761 0.000000 0.000000
0.490043 0.000000 0.000000
0.515097 0.000000 0.000000
0.539922 0.000000 0.000000
0.564519 0.000000 0.000000
0.588887 0.000000 0.000000
0.613026 0.000000 0.000000
0.636937 0.000000 0.000000
0.660620 0.000000 0.000000
0.684074 0.000000 0.000000
0.707300 0.000000 0.000000
0.730297 0.000000 0.000000
0.753065 0.000000 0.000000
0.775605 0.000000 0.000000
0.797917 0.000000 0.000000
0.820000 0.000000 0.000000
0.000000 0.029861 0.000000
0.029167 0.029861 0.000000
0.058105 0.029785 0.000000
0.086815 0.029709 0.000000
0.115297 0.029633 0.000000
0.143550 0.029557 0.000000
0.171574 0.029480 0.000000
0.199370 0.029404 0.000000
0.226938 0.029328 0.000000
0.254276 0.029252 0.000000
0.281387 0.029176 0.000000
0.308269 0.029100 0.000000
0.334922 0.029023 0.000000
0.361347 0.028947 0.000000
0.387543 0.028871 0.000000
0.413511 0.028795 0.000000
0.439250 0.028719 0.000000
0.464761 0.028643 0.000000
0.490043 0.028566 0.000000
0.515097 0.028490 0.000000
0.539922 0.028414 0.000000
0.564519 0.028338 0.000000
0.588887 0.028262 0.000000
0.613026 0.028186 0.000000
0.636937 0.028109 0.000000
0.660620 0.028033 0.000000
0.684074 0.027957 0.000000
0.707300 0.027881 0.000000
0.730297 0.027805 0.000000
0.753065 0.027729 0.000000
0.775605 0.027652 0.000000
0.797917 0.027576 0.000000
0.820000 0.027500 0.000000
0.000000 0.059570 0.000000
0.029053 0.059570 0.000000
0.058105 0.059570 0.000000
0.086815 0.059418 0.000000
0.115297 0.059266 0.000000
0.143550 0.059113 0.000000
0.171574 0.058961 0.000000
0.199370 0.058809 0.000000
0.226938 0.058656 0.000000
0.254276 0.058504 0.000000
0.281387 0.058352 0.000000
0.308269 0.058199 0.000000
0.334922 0.058047 0.000000
0.361347 0.057895 0.000000
0.387543 0.057742 0.000000
0.413511 0.057590 0.000000
0.439250 0.057438 0.000000
0.464761 0.057285 0.000000
0.490043 0.057133 0.000000
0.515097 0.056980 0.000000
0.539922 0.056828 0.000000
0.564519 0.056676 0.000000
0.588887 0.056523 0.000000
0.613026 0.056371 0.000000
0.636937 0.056219 0.000000
0.660620 0.056066 0.000000
0.684074 0.055914 0.000000
0.707300 0.055762 0.000000
0.730297 0.055609 0.000000
0.753065 0.055457 0.000000
0.775605 0.055305 0.000000
0.797917 0.055152 0.000000
0.820000 0.055000 0.000000
0.000000 0.089127 0.000000
0.028938 0.089127 0.000000
0.057877 0.089127 0.000000
0.086815 0.089127 0.000000
0.115297 0.088898 0.000000
0.143550 0.088670 0.000000
0.171574 0.088441 0.000000
0.199370 0.088213 0.000000
0.226938 0.087984 0.000000
0.254276 0.087756 0.000000
0.281387 0.087527 0.000000
0.308269 0.087299 0.000000
0.334922 0.087070 0.000000
0.361347 0.086842 0.000000
0.387543 0.086613 0.000000
0.413511 0.086385 0.000000
0.439250 0.086156 0.000000
0.464761 0.085928 0.000000
0.490043 0.085699 0.000000
0.515097 0.085471 0.000000
0.539922 0.085242 0.000000
0.564519 0.085014 0.000000
0.588887 0.084785 0.000000
0.613026 0.084557 0.000000
0.636937 0.084328 0.000000
0.660620 0.084100 0.000000
0.684074 0.083871 0.000000
0.707300 0.083643 0.000000
0.730297 0.083414 0.000000
0.753065 0.083186 0.000000
0.775605 0.082957 0.000000
0.797917 0.082729 0.000000
0.820000 0.082500 0.000000
0.000000 0.118531 0.000000
0.028824 0.118531 0.000000
0.057648 0.118531 0.000000
0.086473 0.118531 0.000000
0.115297 0.118531 0.000000
0.143550 0.118227 0.000000
0.171574 0.117922 0.000000
0.199370 0.117617 0.000000
0.226938 0.117313 0.000000
0.254276 0.117008 0.000000
0.281387 0.116703 0.000000
0.308269 0.116398 0.000000
0.334922 0.116094 0.000000
0.361347 0.115789 0.000000
0.387543 0.115484 0.000000
0.413511 0.115180 0.000000
0.439250 0.114875 0.000000
0.464761 0.114570 0.000000
0.490043 0.114266 0.000000
0.515097 0.113961 0.000000
0.539922 0.113656 0.000000
0.564519 0.113352 0.000000
0.588887 0.113047 0.000000
0.613026 0.112742 0.000000
0.636937 0.112437 0.000000
0.660620 0.112133 0.000000
0.684074 0.111828 0.000000
0.707300 0.111523 0.000000
0.730297 0.111219 0.000000
0.753065 0.110914 0.000000
0.775605 0.110609 0.000000
0.797917 0.110305 0.000000
0.820000 0.110000 0.000000
0.000000 0.147783 0.000000
0.028710 0.147783 0.000000
0.057420 0.147783 0.000000
0.086130 0.147783 0.000000
0.114840 0.147783 0.000000
0.143550 0.147783 0.000000
0.171574 0.147402 0.000000
0.199370 0.147021 0.000000
0.226938 0.146641 0.000000
0.254276 0.146260 0.000000
0.281387 0.145879 0.000000
0.308269 0.145498 0.000000
0.334922 0.145117 0.000000
0.361347 0.144736 0.000000
0.387543 0.144355 0.000000
0.413511 0.143975 0.000000
0.439250 0.143594 0.000000
0.464761 0.143213 0.000000
0.490043 0.142832 0.000000
0.515097 0.142451 0.000000
0.539922 0.142070 0.000000
0.564519 0.141689 0.000000
0.588887 0.141309 0.000000
0.613026 0.140928 0.000000
0.636937 0.140547 0.000000
0.660620 0.140166 0.000000
0.684074 0.139785 0.000000
0.707300 0.139404 0.000000
0.730297 0.139023 0.000000
0.753065 0.138643 0.000000
0.775605 0.138262 0.000000
0.797917 0.137881 0.000000
0.820000 0.137500 0.000000
0.000000 0.176883 0.000000
0.028596 0.176883 0.000000
0.057191 0.176883 0.000000
0.085787 0.176883 0.000000
0.114383 0.176883 0.000000
0.142979 0.176883 0.000000
0.171574 0.176883 0.000000
0.199370 0.176426 0.000000
0.226938 0.175969 0.000000
0.254276 0.175512 0.000000
0.281387 0.175055 0.000000
0.308269 0.174598 0.000000
0.334922 0.174141 0.000000
0.361347 0.173684 0.000000
0.387543 0.173227 0.000000
0.413511 0.172770 0.000000
0.439250 0.172313 0.000000
0.464761 0.171855 0.000000
0.490043 0.171398 0.000000
0.515097 0.170941 0.000000
0.539922 0.170484 0.000000
0.564519 0.170027 0.000000
0.588887 0.169570 0.000000
0.613026 0.169113 0.000000
0.636937 0.168656 0.000000
0.660620 0.168199 0.000000
0.684074 0.167742 0.000000
0.707300 0.167285 0.000000
0.730297 0.166828 0.000000
0.753065 0.166371 0.000000
0.775605 0.165914 0.000000
0.797917 0.165457 0.000000
0.820000 0.165000 0.000000
0.000000 0.205830 0.000000
0.028481 0.205830 0.000000
0.056963 0.205830 0.000000
0.085444 0.205830 0.000000
0.113926 0.205830 0.000000
0.142407 0.205830 0.000000
0.170889 0.205830 0.000000
0.199370 0.205830 0.000000
0.226938 0.205297 0.000000
0.254276 0.204764 0.000000
0.281387 0.204230 0.000000
0.308269 0.203697 0.000000
0.334922 0.203164 0.000000
0.361347 0.202631 0.000000
0.387543 0.202098 0.000000
0.413511 0.201564 0.000000
0.439250 0.201031 0.000000
0.464761 0.200498 0.000000
0.490043 0.199965 0.000000
0.515097 0.199432 0.000000
0.539922 0.198898 0.000000
0.564519 0.198365 0.000000
0.588887 0.197832 0.000000
0.613026 0.197299 0.000000
0.636937 0.196766 0.000000
0.660620 0.196232 0.000000
0.684074 0.195699 0.000000
0.707300 0.195166 0.000000
0.730297 0.194633 0.000000
0.753065 0.194100 0.000000
0.775605 0.193566 0.000000
0.797917 0.193033 0.000000
0.820000 0.192500 0.000000
0.000000 0.234625 0.000000
0.028367 0.234625 0.000000
0.056734 0.234625 0.000000
0.085102 0.234625 0.000000
0.113469 0.234625 0.000000
0.141836 0.234625 0.000000
0.170203 0.234625 0.000000
0.198570 0.234625 0.000000
0.226938 0.234625 0.000000
0.254276 0.234016 0.000000
0.281387 0.233406 0.000000
0.308269 0.232797 0.000000
0.334922 0.232187 0.000000
0.361347 0.231578 0.000000
0.387543 0.230969 0.000000
0.413511 0.230359 0.000000
0.439250 0.229750 0.000000
0.464761 0.229141 0.000000
0.490043 0.228531 0.000000
0.515097 0.227922 0.000000
0.539922 0.227313 0.000000
0.564519 0.226703 0.000000
0.588887 0.226094 0.000000
0.613026 0.225484 0.000000
0.636937 0.224875 0.000000
0.660620 0.224266 0.000000
0.684074 0.223656 0.000000
0.707300 0.223047 0.000000
0.730297 0.222438 0.000000
0.753065 0.221828 0.000000
0.775605 0.221219 0.000000
0.797917 0.220609 0.000000
0.820000 0.220000 0.000000
0.000000 0.263268 0.000000
0.028253 0.263268 0.000000
0.056506 0.263268 0.000000
0.084759 0.263268 0.000000
0.113012 0.263268 0.000000
0.141265 0.263268 0.000000
0.169518 0.263268 0.000000
0.197771 0.263268 0.000000
0.226023 0.263268 0.000000
0.254276 0.263268 0.000000
0.281387 0.262582 0.000000
0.308269 0.261896 0.000000
0.334922 0.261211 0.000000
0.361347 0.260525 0.000000
0.387543 0.259840 0.000000
0.413511 0.259154 0.000000
0.439250 0.258469 0.000000
0.464761 0.257783 0.000000
0.490043 0.257098 0.000000
0.515097 0.256412 0.000000
0.539922 0.255727 0.000000
0.564519 0.255041 0.000000
0.588887 0.254355 0.000000
0.613026 0.253670 0.000000
0.636937 0.252984 0.000000
0.660620 0.252299 0.000000
0.684074 0.251613 0.000000
0.707300 0.250928 0.000000
0.730297 0.250242 0.000000
0.753065 0.249557 0.000000
0.775605 0.248871 0.000000
0.797917 0.248186 0.000000
0.820000 0.247500 0.000000
0.000000 0.291758 0.000000
0.028139 0.291758 0.000000
0.056277 0.291758 0.000000
0.084416 0.291758 0.000000
0.112555 0.291758 0.000000
0.140693 0.291758 0.000000
0.168832 0.291758 0.000000
0.196971 0.291758 0.000000
0.225109 0.291758 0.000000
0.253248 0.291758 0.000000
0.281387 0.291758 0.000000
0.308269 0.290996 0.000000
0.334922 0.290234 0.000000
0.361347 0.289473 0.000000
0.387543 0.288711 0.000000
0.413511 0.287949 0.000000
0.439250 0.287188 0.000000
0.464761 0.286426 0.000000
0.490043 0.285664 0.000000
0.515097 0.284902 0.000000
0.539922 0.284141 0.000000
0.564519 0.283379 0.000000
0.588887 0.282617 0.000000
0.613026 0.281855 0.000000
0.636937 0.281094 0.000000
0.660620 0.280332 0.000000
0.684074 0.279570 0.000000
0.707300 0.278809 0.000000
0.730297 0.278047 0.000000
0.753065 0.277285 0.000000
0.775605 0.276523 0.000000
0.797917 0.275762 0.000000
0.820000 0.275000 0.000000
0.000000 0.320096 0.000000
0.028024 0.320096 0.000000
0.056049 0.320096 0.000000
0.084073 0.320096 0.000000
0.112098 0.320096 0.000000
0.140122 0.320096 0.000000
0.168146 0.320096 0.000000
0.196171 0.320096 0.000000
0.224195 0.320096 0.000000
0.252220 0.320096 0.000000
0.280244 0.320096 0.000000
0.308269 0.320096 0.000000
0.334922 0.319258 0.000000
0.361347 0.318420 0.000000
0.387543 0.317582 0.000000
0.413511 0.316744 0.000000
0.439250 0.315906 0.000000
0.464761 0.315068 0.000000
0.490043 0.314230 0.000000
0.515097 0.313393 0.000000
0.539922 0.312555 0.000000
0.564519 0.311717 0.000000
0.588887 0.310879 0.000000
0.613026 0.310041 0.000000
0.636937 0.309203 0.000000
0.660620 0.308365 0.000000
0.684074 0.307527 0.000000
0.707300 0.306689 0.000000
0.730297 0.305852 0.000000
0.753065 0.305014 0.000000
0.775605 0.304176 0.000000
0.797917 0.303338 0.000000
0.820000 0.302500 0.000000
0.000000 0.348281 0.000000
0.027910 0.348281 0.000000
0.055820 0.348281 0.000000
0.083730 0.348281 0.000000
0.111641 0.348281 0.000000
0.139551 0.348281 0.000000
0.167461 0.348281 0.000000
0.195371 0.348281 0.000000
0.223281 0.348281 0.000000
0.251191 0.348281 0.000000
0.279102 0.348281 0.000000
0.307012 0.348281 0.000000
0.334922 0.348281 0.000000
0.361347 0.347367 0.000000
0.387543 0.346453 0.000000
0.413511 0.345539 0.000000
0.439250 0.344625 0.000000
0.464761 0.343711 0.000000
0.490043 0.342797 0.000000
0.515097 0.341883 0.000000
0.539922 0.340969 0.000000
0.564519 0.340055 0.000000
0.588887 0.339141 0.000000
0.613026 0.338227 0.000000
0.636937 0.337313 0.000000
0.660620 0.336398 0.000000
0.684074 0.335484 0.000000
0.707300 0.334570 0.000000
0.730297 0.333656 0.000000
0.753065 0.332742 0.000000
0.775605 0.331828 0.000000
0.797917 0.330914 0.000000
0.820000 0.330000 0.000000
0.000000 0.376314 0.000000
0.027796 0.376314 0.000000
0.055592 0.376314 0.000000
0.083388 0.376314 0.000000
0.111184 0.376314 0.000000
0.138979 0.376314 0.000000
0.166775 0.376314 0.000000
0.194571 0.376314 0.000000
0.222367 0.376314 0.000000
0.250163 0.376314 0.000000
0.277959 0.376314 0.000000
0.305755 0.376314 0.000000
0.333551 0.376314 0.000000
0.361347 0.376314 0.000000
0.387543 0.375324 0.000000
0.413511 0.374334 0.000000
0.439250 0.373344 0.000000
0.464761 0.372354 0.000000
0.490043 0.371363 0.000000
0.515097 0.370373 0.000000
0.539922 0.369383 0.000000
0.564519 0.368393 0.000000
0.588887 0.367402 0.000000
0.613026 0.366412 0.000000
0.636937 0.365422 0.000000
0.660620 0.364432 0.000000
0.684074 0.363441 0.000000
0.707300 0.362451 0.000000
0.730297 0.361461 0.000000
0.753065 0.360471 0.000000
0.775605 0.359480 0.000000
0.797917 0.358490 0.000000
0.820000 0.357500 0.000000
0.000000 0.404195 0.000000
0.027682 0.404195 0.000000
0.055363 0.404195 0.000000
0.083045 0.404195 0.000000
0.110727 0.404195 0.000000
0.138408 0.404195 0.000000
0.166090 0.404195 0.000000
0.193771 0.404195 0.000000
0.221453 0.404195 0.000000
0.249135 0.404195 0.000000
0.276816 0.404195 0.000000
0.304498 0.404195 0.000000
0.332180 0.404195 0.000000
0.359861 0.404195 0.000000
0.387543 0.404195 0.000000
0.413511 0.403129 0.000000
0.439250 0.402062 0.000000
0.464761 0.400996 0.000000
0.490043 0.399930 0.000000
0.515097 0.398863 0.000000
0.539922 0.397797 0.000000
0.564519 0.396730 0.000000
0.588887 0.395664 0.000000
0.613026 0.394598 0.000000
0.636937 0.393531 0.000000
0.660620 0.392465 0.000000
0.684074 0.391398 0.000000
0.707300 0.390332 0.000000
0.730297 0.389266 0.000000
0.753065 0.388199 0.000000
0.775605 0.387133 0.000000
0.797917 0.386066 0.000000
0.820000 0.385000 0.000000
0.000000 0.431924 0.000000
0.027567 0.431924 0.000000
0.055135 0.431924 0.000000
0.082702 0.431924 0.000000
0.110270 0.431924 0.000000
0.137837 0.431924 0.000000
0.165404 0.431924 0.000000
0.192972 0.431924 0.000000
0.220539 0.431924 0.000000
0.248106 0.431924 0.000000
0.275674 0.431924 0.000000
0.303241 0.431924 0.000000
0.330809 0.431924 0.000000
0.358376 0.431924 0.000000
0.385943 0.431924 0.000000
0.413511 0.431924 0.000000
0.439250 0.430781 0.000000
0.464761 0.429639 0.000000
0.490043 0.428496 0.000000
0.515097 0.427354 0.000000
0.539922 0.426211 0.000000
0.564519 0.425068 0.000000
0.588887 0.423926 0.000000
0.613026 0.422783 0.000000
0.636937 0.421641 0.000000
0.660620 0.420498 0.000000
0.684074 0.419355 0.000000
0.707300 0.418213 0.000000
0.730297 0.417070 0.000000
0.753065 0.415928 0.000000
0.775605 0.414785 0.000000
0.797917 0.413643 0.000000
0.820000 0.412500 0.000000
0.000000 0.459500 0.000000
0.027453 0.459500 0.000000
0.054906 0.459500 0.000000
0.082359 0.459500 0.000000
0.109812 0.459500 0.000000
0.137266 0.459500 0.000000
0.164719 0.459500 0.000000
0.192172 0.459500 0.000000
0.219625 0.459500 0.000000
0.247078 0.459500 0.000000
0.274531 0.459500 0.000000
0.301984 0.459500 0.000000
0.329437 0.459500 0.000000
0.356891 0.459500 0.000000
0.384344 0.459500 0.000000
0.411797 0.459500 0.000000
0.439250 0.459500 0.000000
0.464761 0.458281 0.000000
0.490043 0.457062 0.000000
0.515097 0.455844 0.000000
0.539922 0.454625 0.000000
0.564519 0.453406 0.000000
0.588887 0.452188 0.000000
0.613026 0.450969 0.000000
0.636937 0.449750 0.000000
0.660620 0.448531 0.000000
0.684074 0.447313 0.000000
0.707300 0.446094 0.000000
0.730297 0.444875 0.000000
0.753065 0.443656 0.000000
0.775605 0.442437 0.000000
0.797917 0.441219 0.000000
0.820000 0.440000 0.000000
0.000000 0.486924 0.000000
0.027339 0.486924 0.000000
0.054678 0.486924 0.000000
0.082017 0.486924 0.000000
0.109355 0.486924 0.000000
0.136694 0.486924 0.000000
0.164033 0.486924 0.000000
0.191372 0.486924 0.000000
0.218711 0.486924 0.000000
0.246050 0.486924 0.000000
0.273389 0.486924 0.000000
0.300728 0.486924 0.000000
0.328066 0.486924 0.000000
0.355405 0.486924 0.000000
0.382744 0.486924 0.000000
0.410083 0.486924 0.000000
0.437422 0.486924 0.000000
0.464761 0.486924 0.000000
0.490043 0.485629 0.000000
0.515097 0.484334 0.000000
0.539922 0.483039 0.000000
0.564519 0.481744 0.000000
0.588887 0.480449 0.000000
0.613026 0.479154 0.000000
0.636937 0.477859 0.000000
0.660620 0.476564 0.000000
0.684074 0.475270 0.000000
0.707300 0.473975 0.000000
0.730297 0.472680 0.000000
0.753065 0.471385 0.000000
0.775605 0.470090 0.000000
0.797917 0.468795 0.000000
0.820000 0.467500 0.000000
0.000000 0.514195 0.000000
0.027225 0.514195 0.000000
0.054449 0.514195 0.000000
0.081674 0.514195 0.000000
0.108898 0.514195 0.000000
0.136123 0.514195 0.000000
0.163348 0.514195 0.000000
0.190572 0.514195 0.000000
0.217797 0.514195 0.000000
0.245021 0.514195 0.000000
0.272246 0.514195 0.000000
0.299471 0.514195 0.000000
0.326695 0.514195 0.000000
0.353920 0.514195 0.000000
0.381145 0.514195 0.000000
0.408369 0.514195 0.000000
0.435594 0.514195 0.000000
0.462818 0.514195 0.000000
0.490043 0.514195 0.000000
0.515097 0.512824 0.000000
0.539922 0.511453 0.000000
0.564519 0.510082 0.000000
0.588887 0.508711 0.000000
0.613026 0.507340 0.000000
0.636937 0.505969 0.000000
0.660620 0.504598 0.000000
0.684074 0.503227 0.000000
0.707300 0.501855 0.000000
0.730297 0.500484 0.000000
0.753065 0.499113 0.000000
0.775605 0.497742 0.000000
0.797917 0.496371 0.000000
0.820000 0.495000 0.000000
0.000000 0.541314 0.000000
0.027110 0.541314 0.000000
0.054221 0.541314 0.000000
0.081331 0.541314 0.000000
0.108441 0.541314 0.000000
0.135552 0.541314 0.000000
0.162662 0.541314 0.000000
0.189772 0.541314 0.000000
0.216883 0.541314 0.000000
0.243993 0.541314 0.000000
0.271104 0.541314 0.000000
0.298214 0.541314 0.000000
0.325324 0.541314 0.000000
0.352435 0.541314 0.000000
0.379545 0.541314 0.000000
0.406655 0.541314 0.000000
0.433766 0.541314 0.000000
0.460876 0.541314 0.000000
0.487986 0.541314 0.000000
0.515097 0.541314 0.000000
0.539922 0.539867 0.000000
0.564519 0.538420 0.000000
0.588887 0.536973 0.000000
0.613026 0.535525 0.000000
0.636937 0.534078 0.000000
0.660620 0.532631 0.000000
0.684074 0.531184 0.000000
0.707300 0.529736 0.000000
0.730297 0.528289 0.000000
0.753065 0.526842 0.000000
0.775605 0.525395 0.000000
0.797917 0.523947 0.000000
0.820000 0.522500 0.000000
0.000000 0.568281 0.000000
0.026996 0.568281 0.000000
0.053992 0.568281 0.000000
0.080988 0.568281 0.000000
0.107984 0.568281 0.000000
0.134980 0.568281 0.000000
0.161977 0.568281 0.000000
0.188973 0.568281 0.000000
0.215969 0.568281 0.000000
0.242965 0.568281 0.000000
0.269961 0.568281 0.000000
0.296957 0.568281 0.000000
0.323953 0.568281 0.000000
0.350949 0.568281 0.000000
0.377945 0.568281 0.000000
0.404941 0.568281 0.000000
0.431937 0.568281 0.000000
0.458934 0.568281 0.000000
0.485930 0.568281 0.000000
0.512926 0.568281 0.000000
0.539922 0.568281 0.000000
0.564519 0.566758 0.000000
0.588887 0.565234 0.000000
0.613026 0.563711 0.000000
0.636937 0.562188 0.000000
0.660620 0.560664 0.000000
0.684074 0.559141 0.000000
0.707300 0.557617 0.000000
0.730297 0.556094 0.000000
0.753065 0.554570 0.000000
0.775605 0.553047 0.000000
0.797917 0.551523 0.000000
0.820000 0.550000 0.000000
0.000000 0.595096 0.000000
0.026882 0.595096 0.000000
0.053764 0.595096 0.000000
0.080646 0.595096 0.000000
0.107527 0.595096 0.000000
0.134409 0.595096 0.000000
0.161291 0.595096 0.000000
0.188173 0.595096 0.000000
0.215055 0.595096 0.000000
0.241937 0.595096 0.000000
0.268818 0.595096 0.000000
0.295700 0.595096 0.000000
0.322582 0.595096 0.000000
0.349464 0.595096 0.000000
0.376346 0.595096 0.000000
0.403228 0.595096 0.000000
0.430109 0.595096 0.000000
0.456991 0.595096 0.000000
0.483873 0.595096 0.000000
0.510755 0.595096 0.000000
0.537637 0.595096 0.000000
0.564519 0.595096 0.000000
0.588887 0.593496 0.000000
0.613026 0.591896 0.000000
0.636937 0.590297 0.000000
0.660620 0.588697 0.000000
0.684074 0.587098 0.000000
0.707300 0.585498 0.000000
0.730297 0.583898 0.000000
0.753065 0.582299 0.000000
0.775605 0.580699 0.000000
0.797917 0.579100 0.000000
0.820000 0.577500 0.000000
0.000000 0.621758 0.000000
0.026768 0.621758 0.000000
0.053535 0.621758 0.000000
0.080303 0.621758 0.000000
0.107070 0.621758 0.000000
0.133838 0.621758 0.000000
0.160605 0.621758 0.000000
0.187373 0.621758 0.000000
0.214141 0.621758 0.000000
0.240908 0.621758 0.000000
0.267676 0.621758 0.000000
0.294443 0.621758 0.000000
0.321211 0.621758 0.000000
0.347979 0.621758 0.000000
0.374746 0.621758 0.000000
0.401514 0.621758 0.000000
0.428281 0.621758 0.000000
0.455049 0.621758 0.000000
0.481816 0.621758 0.000000
0.508584 0.621758 0.000000
0.535352 0.621758 0.000000
0.562119 0.621758 0.000000
0.588887 0.621758 0.000000
0.613026 0.620082 0.000000
0.636937 0.618406 0.000000
0.660620 0.616730 0.000000
0.684074 0.615055 0.000000
0.707300 0.613379 0.000000
0.730297 0.611703 0.000000
0.753065 0.610027 0.000000
0.775605 0.608352 0.000000
0.797917 0.606676 0.000000
0.820000 0.605000 0.000000
0.000000 0.648268 0.000000
0.026653 0.648268 0.000000
0.053307 0.648268 0.000000
0.079960 0.648268 0.000000
0.106613 0.648268 0.000000
0.133267 0.648268 0.000000
0.159920 0.648268 0.000000
0.186573 0.648268 0.000000
0.213227 0.648268 0.000000
0.239880 0.648268 0.000000
0.266533 0.648268 0.000000
0.293187 0.648268 0.000000
0.319840 0.648268 0.000000
0.346493 0.648268 0.000000
0.373146 0.648268 0.000000
0.399800 0.648268 0.000000
0.426453 0.648268 0.000000
0.453106 0.648268 0.000000
0.479760 0.648268 0.000000
0.506413 0.648268 0.000000
0.533066 0.648268 0.000000
0.559720 0.648268 0.000000
0.586373 0.648268 0.000000
0.613026 0.648268 0.000000
0.636937 0.646516 0.000000
0.660620 0.644764 0.000000
0.684074 0.643012 0.000000
0.707300 0.641260 0.000000
0.730297 0.639508 0.000000
0.753065 0.637756 0.000000
0.775605 0.636004 0.000000
0.797917 0.634252 0.000000
0.820000 0.632500 0.000000
0.000000 0.674625 0.000000
0.026539 0.674625 0.000000
0.053078 0.674625 0.000000
0.079617 0.674625 0.000000
0.106156 0.674625 0.000000
0.132695 0.674625 0.000000
0.159234 0.674625 0.000000
0.185773 0.674625 0.000000
0.212312 0.674625 0.000000
0.238852 0.674625 0.000000
0.265391 0.674625 0.000000
0.291930 0.674625 0.000000
0.318469 0.674625 0.000000
0.345008 0.674625 0.000000
0.371547 0.674625 0.000000
0.398086 0.674625 0.000000
0.424625 0.674625 0.000000
0.451164 0.674625 0.000000
0.477703 0.674625 0.000000
0.504242 0.674625 0.000000
0.530781 0.674625 0.000000
0.557320 0.674625 0.000000
0.583859 0.674625 0.000000
0.610398 0.674625 0.000000
0.636937 0.674625 0.000000
0.660620 0.672797 0.000000
0.684074 0.670969 0.000000
0.707300 0.669141 0.000000
0.730297 0.667312 0.000000
0.753065 0.665484 0.000000
0.775605 0.663656 0.000000
0.797917 0.661828 0.000000
0.820000 0.660000 0.000000
0.000000 0.700830 0.000000
0.026425 0.700830 0.000000
0.052850 0.700830 0.000000
0.079274 0.700830 0.000000
0.105699 0.700830 0.000000
0.132124 0.700830 0.000000
0.158549 0.700830 0.000000
0.184974 0.700830 0.000000
0.211398 0.700830 0.000000
0.237823 0.700830 0.000000
0.264248 0.700830 0.000000
0.290673 0.700830 0.000000
0.317098 0.700830 0.000000
0.343522 0.700830 0.000000
0.369947 0.700830 0.000000
0.396372 0.700830 0.000000
0.422797 0.700830 0.000000
0.449222 0.700830 0.000000
0.475646 0.700830 0.000000
0.502071 0.700830 0.000000
0.528496 0.700830 0.000000
0.554921 0.700830 0.000000
0.581346 0.700830 0.000000
0.607771 0.700830 0.000000
0.634195 0.700830 0.000000
0.660620 0.700830 0.000000
0.684074 0.698926 0.000000
0.707300 0.697021 0.000000
0.730297 0.695117 0.000000
0.753065 0.693213 0.000000
0.775605 0.691309 0.000000
0.797917 0.689404 0.000000
0.820000 0.687500 0.000000
0.000000 0.726883 0.000000
0.026311 0.726883 0.000000
0.052621 0.726883 0.000000
0.078932 0.726883 0.000000
0.105242 0.726883 0.000000
0.131553 0.726883 0.000000
0.157863 0.726883 0.000000
0.184174 0.726883 0.000000
0.210484 0.726883 0.000000
0.236795 0.726883 0.000000
0.263105 0.726883 0.000000
0.289416 0.726883 0.000000
0.315727 0.726883 0.000000
0.342037 0.726883 0.000000
0.368348 0.726883 0.000000
0.394658 0.726883 0.000000
0.420969 0.726883 0.000000
0.447279 0.726883 0.000000
0.473590 0.726883 0.000000
0.499900 0.726883 0.000000
0.526211 0.726883 0.000000
0.552521 0.726883 0.000000
0.578832 0.726883 0.000000
0.605143 0.726883 0.000000
0.631453 0.726883 0.000000
0.657764 0.726883 0.000000
0.684074 0.726883 0.000000
