luts/original/drill-dark-cover.cube
TITLE "Drill Dark Cover"
LUT_3D_SIZE 33
DOMAIN_MIN 0.0 0.0 0.0
DOMAIN_MAX 1.0 1.0 1.0
0.000000 0.000000 0.012288
0.019678 0.000000 0.013002
0.038338 0.000000 0.013729
0.067342 0.000000 0.014481
0.097124 0.000000 0.016111
0.127119 0.000000 0.018058
0.157120 0.000000 0.020110
0.187126 0.000000 0.022270
0.217137 0.000962 0.024537
0.247153 0.002401 0.026910
0.277175 0.003947 0.029390
0.307201 0.005599 0.031977
0.337234 0.007359 0.034671
0.367271 0.009225 0.037472
0.397313 0.011198 0.040379
0.427361 0.013278 0.043393
0.457414 0.015464 0.046514
0.487473 0.017758 0.049742
0.517536 0.020158 0.053077
0.547605 0.022665 0.056518
0.577679 0.025279 0.060067
0.607758 0.028000 0.063722
0.637843 0.030827 0.067483
0.667933 0.033762 0.071352
0.698028 0.036803 0.075328
0.728128 0.039951 0.079410
0.758234 0.043205 0.083599
0.788344 0.046567 0.087895
0.818460 0.050035 0.092298
0.848582 0.053611 0.096807
0.878708 0.057293 0.101424
0.908840 0.061081 0.106147
0.938977 0.064977 0.110977
0.000000 0.026406 0.013116
0.019678 0.026406 0.013116
0.038853 0.026353 0.013853
0.067824 0.026966 0.014620
0.097269 0.027669 0.016873
0.127272 0.028688 0.019057
0.157279 0.029813 0.021241
0.187292 0.031046 0.023499
0.217310 0.032385 0.025849
0.247333 0.033831 0.028297
0.277361 0.035383 0.030848
0.307395 0.037043 0.033502
0.337434 0.038809 0.036261
0.367478 0.040682 0.039126
0.397528 0.042662 0.042096
0.427582 0.044749 0.045172
0.457642 0.046942 0.048354
0.487707 0.049243 0.051643
0.517778 0.051650 0.055038
0.547854 0.054164 0.058539
0.577935 0.056785 0.062147
0.608021 0.059512 0.065862
0.638112 0.062346 0.069683
0.668209 0.065288 0.073611
0.698311 0.068336 0.077646
0.728418 0.071491 0.081787
0.758530 0.074752 0.086035
0.788648 0.078121 0.090390
0.818771 0.081596 0.094851
0.848899 0.085178 0.099419
0.879032 0.088867 0.104094
0.909171 0.092662 0.108876
0.939315 0.096565 0.113764
0.000000 0.056930 0.014352
0.019043 0.056930 0.014352
0.039368 0.056946 0.014466
0.069457 0.056699 0.016116
0.097401 0.057757 0.018114
0.127415 0.059228 0.020159
0.157430 0.060473 0.022308
0.187450 0.061755 0.024564
0.217475 0.063117 0.026925
0.247505 0.064573 0.029394
0.277541 0.066129 0.031969
0.307581 0.067788 0.034651
0.337627 0.069550 0.037439
0.367678 0.071417 0.040335
0.397734 0.073390 0.043337
0.427795 0.075468 0.046446
0.457862 0.077652 0.049662
0.487933 0.079943 0.052984
0.518011 0.082339 0.056414
0.548093 0.084843 0.059950
0.578180 0.087452 0.063593
0.608273 0.090168 0.067343
0.638371 0.092991 0.071199
0.668475 0.095920 0.075163
0.698583 0.098956 0.079233
0.728697 0.102099 0.083410
0.758816 0.105348 0.087694
0.788940 0.108704 0.092085
0.819070 0.112167 0.096582
0.849205 0.115736 0.101187
0.879345 0.119412 0.105898
0.909490 0.123195 0.110716
0.939641 0.127085 0.115641
0.000000 0.088033 0.016268
0.018408 0.088033 0.016268
0.039335 0.088049 0.016506
0.070627 0.088092 0.017585
0.098923 0.087849 0.018896
0.127543 0.088474 0.020288
0.157569 0.090008 0.022447
0.187597 0.091402 0.024710
0.217629 0.092812 0.027079
0.247666 0.094284 0.029554
0.277708 0.095838 0.032136
0.307755 0.097484 0.034824
0.337807 0.099226 0.037619
0.367864 0.101068 0.040521
0.397927 0.103012 0.043530
0.427995 0.105059 0.046645
0.458068 0.107210 0.049868
0.488146 0.109465 0.053197
0.518229 0.111826 0.056632
0.548318 0.114291 0.060175
0.578412 0.116863 0.063824
0.608511 0.119540 0.067580
0.638615 0.122323 0.071443
0.668725 0.125213 0.075413
0.698840 0.128208 0.079490
0.728960 0.131310 0.083673
0.759085 0.134518 0.087963
0.789216 0.137833 0.092360
0.819352 0.141254 0.096864
0.849493 0.144781 0.101475
0.879639 0.148415 0.106192
0.909791 0.152156 0.111016
0.939947 0.156003 0.115947
0.000000 0.119149 0.018299
0.017773 0.119149 0.018299
0.039417 0.119167 0.018604
0.070711 0.119211 0.019754
0.100562 0.119250 0.020125
0.128819 0.119018 0.021112
0.157707 0.119542 0.022585
0.187743 0.121050 0.024856
0.217782 0.122507 0.027232
0.247826 0.123995 0.029714
0.277875 0.125547 0.032303
0.307928 0.127180 0.034998
0.337987 0.128902 0.037800
0.368051 0.130719 0.040708
0.398120 0.132634 0.043723
0.428194 0.134650 0.046845
0.458274 0.136767 0.050074
0.488358 0.138988 0.053409
0.518448 0.141312 0.056851
0.548543 0.143740 0.060400
0.578643 0.146273 0.064056
0.608749 0.148912 0.067818
0.638859 0.151655 0.071687
0.668975 0.154505 0.075663
0.699096 0.157460 0.079746
0.729223 0.160521 0.083936
0.759354 0.163688 0.088233
0.789491 0.166961 0.092636
0.819633 0.170340 0.097146
0.849781 0.173826 0.101763
0.879933 0.177418 0.106487
0.910091 0.181116 0.111317
0.940254 0.184921 0.116254
0.000000 0.150280 0.020447
0.017139 0.150280 0.020447
0.039615 0.150298 0.020799
0.070911 0.150345 0.022004
0.100874 0.150386 0.022358
0.130504 0.150426 0.022398
0.158902 0.150205 0.023447
0.187889 0.150698 0.025002
0.217936 0.152202 0.027386
0.247987 0.153706 0.029875
0.278042 0.155256 0.032470
0.308102 0.156876 0.035172
0.338167 0.158578 0.037980
0.368238 0.160370 0.040895
0.398313 0.162256 0.043916
0.428394 0.164241 0.047044
0.458479 0.166325 0.050279
0.488570 0.168510 0.053621
0.518667 0.170798 0.057070
0.548768 0.173189 0.060625
0.578874 0.175684 0.064287
0.608986 0.178284 0.068056
0.639103 0.180988 0.071931
0.669225 0.183797 0.075914
0.699353 0.186712 0.080003
0.729486 0.189732 0.084199
0.759624 0.192858 0.088502
0.789767 0.196089 0.092911
0.819915 0.199427 0.097428
0.850069 0.202871 0.102051
0.880228 0.206421 0.106781
0.910392 0.210077 0.111618
0.940561 0.213839 0.116561
0.001003 0.181425 0.022709
0.017507 0.181425 0.022709
0.039928 0.181444 0.023099
0.071227 0.181492 0.024356
0.101233 0.181536 0.024707
0.130916 0.181577 0.024749
0.160599 0.181619 0.024791
0.189057 0.181410 0.025902
0.218089 0.181898 0.027539
0.248147 0.183417 0.030035
0.278209 0.184965 0.032637
0.308276 0.186572 0.035345
0.338348 0.188254 0.038160
0.368424 0.190021 0.041081
0.398506 0.191879 0.044109
0.428593 0.193832 0.047244
0.458685 0.195882 0.050485
0.488783 0.198033 0.053833
0.518885 0.200284 0.057288
0.548993 0.202638 0.060850
0.579106 0.205095 0.064518
0.609224 0.207655 0.068293
0.639347 0.210320 0.072175
0.669476 0.213089 0.076164
0.699610 0.215963 0.080260
0.729749 0.218943 0.084462
0.759893 0.222027 0.088771
0.790042 0.225218 0.093187
0.820197 0.228514 0.097710
0.850357 0.231916 0.102339
0.880522 0.235423 0.107075
0.910693 0.239037 0.111918
0.940868 0.242757 0.116868
0.002447 0.212584 0.025087
0.018316 0.212584 0.025087
0.040358 0.212604 0.025510
0.071658 0.212654 0.026819
0.101677 0.212699 0.027172
0.131376 0.212743 0.027216
0.161075 0.212787 0.027260
0.190774 0.212831 0.027304
0.219254 0.212633 0.028476
0.248307 0.213128 0.030196
0.278376 0.214674 0.032804
0.308450 0.216268 0.035519
0.338528 0.217930 0.038340
0.368611 0.219672 0.041268
0.398699 0.221501 0.044303
0.428793 0.223422 0.047444
0.458891 0.225440 0.050691
0.488995 0.227555 0.054046
0.519104 0.229770 0.057507
0.549218 0.232087 0.061075
0.579337 0.234505 0.064750
0.609461 0.237027 0.068531
0.639591 0.239652 0.072419
0.669726 0.242381 0.076414
0.699866 0.245215 0.080516
0.730011 0.248154 0.084725
0.760162 0.251197 0.089040
0.790318 0.254346 0.093462
0.820479 0.257600 0.097991
0.850645 0.260960 0.102627
0.880817 0.264426 0.107370
0.910993 0.267998 0.112219
0.941175 0.271675 0.117175
0.004006 0.243756 0.027581
0.019241 0.243756 0.027581
0.040902 0.243777 0.028034
0.072205 0.243830 0.029394
0.102221 0.243877 0.029752
0.131915 0.243923 0.029798
0.161610 0.243969 0.029844
0.191304 0.244015 0.029890
0.220998 0.244061 0.029936
0.249482 0.243873 0.031170
0.278543 0.244383 0.032971
0.308623 0.245964 0.035693
0.338708 0.247606 0.038521
0.368798 0.249323 0.041455
0.398893 0.251123 0.044496
0.428992 0.253013 0.047643
0.459097 0.254997 0.050897
0.489207 0.257078 0.054258
0.519322 0.259256 0.057726
0.549443 0.261536 0.061300
0.579568 0.263916 0.064981
0.609699 0.266399 0.068769
0.639835 0.268984 0.072663
0.669976 0.271674 0.076665
0.700123 0.274467 0.080773
0.730274 0.277365 0.084988
0.760431 0.280367 0.089309
0.790593 0.283475 0.093738
0.820761 0.286687 0.098273
0.850933 0.290005 0.102915
0.881111 0.293429 0.107664
0.911294 0.296958 0.112520
0.941482 0.300593 0.117482
0.005681 0.274943 0.030191
0.020281 0.274943 0.030191
0.041563 0.274965 0.030671
0.072867 0.275019 0.032083
0.102870 0.275069 0.032448
0.132548 0.275117 0.032496
0.162226 0.275165 0.032544
0.191904 0.275213 0.032592
0.221582 0.275261 0.032639
0.251260 0.275308 0.032687
0.279735 0.275132 0.033983
0.308797 0.275660 0.035867
0.338888 0.277282 0.038701
0.368985 0.278974 0.041642
0.399086 0.280745 0.044689
0.429192 0.282604 0.047843
0.459303 0.284555 0.051103
0.489420 0.286600 0.054470
0.519541 0.288743 0.057944
0.549668 0.290984 0.061525
0.579800 0.293327 0.065212
0.609937 0.295770 0.069006
0.640079 0.298317 0.072907
0.670227 0.300966 0.076915
0.700379 0.303719 0.081029
0.730537 0.306576 0.085250
0.760700 0.309537 0.089578
0.790869 0.312603 0.094013
0.821042 0.315774 0.098555
0.851221 0.319050 0.103203
0.881405 0.322432 0.107958
0.911595 0.325919 0.112820
0.941789 0.329511 0.117789
0.007472 0.306144 0.032916
0.021437 0.306144 0.032916
0.042339 0.306167 0.033423
0.073645 0.306223 0.034886
0.103630 0.306275 0.035259
0.133283 0.306324 0.035309
0.162937 0.306374 0.035359
0.192591 0.306424 0.035409
0.222244 0.306474 0.035458
0.251898 0.306524 0.035508
0.281552 0.306574 0.035558
0.310010 0.306408 0.036916
0.339069 0.306958 0.038881
0.369171 0.308624 0.041828
0.399279 0.310368 0.044882
0.429391 0.312195 0.048042
0.459509 0.314112 0.051309
0.489632 0.316123 0.054683
0.519760 0.318229 0.058163
0.549893 0.320433 0.061750
0.580031 0.322737 0.065444
0.610174 0.325142 0.069244
0.640323 0.327649 0.073151
0.670477 0.330258 0.077165
0.700636 0.332970 0.081286
0.730800 0.335787 0.085513
0.760970 0.338707 0.089848
0.791144 0.341731 0.094289
0.821324 0.344861 0.098837
0.851509 0.348095 0.103491
0.881700 0.351434 0.108253
0.911895 0.354879 0.113121
0.942096 0.358429 0.118096
0.009379 0.337359 0.035757
0.022709 0.337359 0.035757
0.043230 0.337382 0.036289
0.074539 0.337441 0.037804
0.104500 0.337494 0.038186
0.134124 0.337546 0.038238
0.163748 0.337598 0.038289
0.193373 0.337650 0.038341
0.222997 0.337702 0.038393
0.252621 0.337753 0.038445
0.282245 0.337805 0.038497
0.311869 0.337857 0.038548
0.340307 0.337702 0.039968
0.369358 0.338275 0.042015
0.399472 0.339990 0.045075
0.429591 0.341786 0.048242
0.459715 0.343670 0.051515
0.489844 0.345645 0.054895
0.519978 0.347715 0.058382
0.550118 0.349882 0.061975
0.580262 0.352148 0.065675
0.610412 0.354514 0.069482
0.640567 0.356981 0.073395
0.670727 0.359550 0.077415
0.700892 0.362222 0.081542
0.731063 0.364998 0.085776
0.761239 0.367877 0.090117
0.791420 0.370860 0.094564
0.821606 0.373947 0.099118
0.851797 0.377140 0.103779
0.881994 0.380437 0.108547
0.912196 0.383840 0.113422
0.942403 0.387347 0.118403
0.011401 0.368588 0.038713
0.024096 0.368588 0.038713
0.044237 0.368612 0.039270
0.075548 0.368673 0.040837
0.105483 0.368728 0.041228
0.135074 0.368782 0.041282
0.164665 0.368836 0.041336
0.194256 0.368889 0.041389
0.223847 0.368943 0.041443
0.253438 0.368997 0.041497
0.283029 0.369051 0.041551
0.312620 0.369104 0.041604
0.342211 0.369158 0.041658
0.370623 0.369014 0.043139
0.399665 0.369612 0.045268
0.429790 0.371377 0.048441
0.459921 0.373227 0.051721
0.490056 0.375167 0.055107
0.520197 0.377201 0.058600
0.550343 0.379331 0.062200
0.580494 0.381559 0.065906
0.610650 0.383886 0.069719
0.640811 0.386313 0.073639
0.670977 0.388842 0.077666
0.701149 0.391474 0.081799
0.731326 0.394208 0.086039
0.761508 0.397046 0.090386
0.791695 0.399988 0.094840
0.821888 0.403034 0.099400
0.852085 0.406185 0.104067
0.882288 0.409440 0.108841
0.912497 0.412800 0.113722
0.942710 0.416265 0.118710
0.013538 0.399831 0.041785
0.025599 0.399831 0.041785
0.045360 0.399856 0.042366
0.076673 0.399919 0.043985
0.106580 0.399976 0.044386
0.136135 0.400032 0.044442
0.165690 0.400087 0.044498
0.195245 0.400143 0.044553
0.224800 0.400199 0.044609
0.254355 0.400254 0.044664
0.283910 0.400310 0.044720
0.313465 0.400366 0.044776
0.343020 0.400421 0.044831
0.372575 0.400477 0.044887
0.400960 0.400343 0.046429
0.429990 0.400968 0.048641
0.460127 0.402785 0.051927
0.490269 0.404690 0.055320
0.520416 0.406687 0.058819
0.550568 0.408780 0.062425
0.580725 0.410969 0.066137
0.610887 0.413257 0.069957
0.641055 0.415646 0.073883
0.671228 0.418135 0.077916
0.701406 0.420726 0.082056
0.731589 0.423419 0.086302
0.761777 0.426216 0.090655
0.791971 0.429116 0.095115
0.822169 0.432121 0.099682
0.852373 0.435229 0.104356
0.882583 0.438443 0.109136
0.912797 0.441761 0.114023
0.943017 0.445184 0.119017
0.015791 0.431088 0.044973
0.027217 0.431088 0.044973
0.046599 0.431114 0.045577
0.077914 0.431179 0.047249
0.107790 0.431238 0.047660
0.137307 0.431296 0.047718
0.166824 0.431353 0.047775
0.196341 0.431411 0.047833
0.225858 0.431468 0.047890
0.255375 0.431526 0.047948
0.284892 0.431583 0.048005
0.314409 0.431641 0.048063
0.343926 0.431698 0.048120
0.373443 0.431756 0.048178
0.402959 0.431813 0.048235
0.431315 0.431691 0.049839
0.460333 0.432342 0.052133
0.490481 0.434212 0.055532
0.520634 0.436173 0.059037
0.550793 0.438229 0.062650
0.580956 0.440380 0.066369
0.611125 0.442629 0.070195
0.641299 0.444978 0.074127
0.671478 0.447427 0.078166
0.701662 0.449978 0.082312
0.731852 0.452630 0.086565
0.762046 0.455386 0.090924
0.792246 0.458245 0.095391
0.822451 0.461208 0.099964
0.852662 0.464274 0.104644
0.882877 0.467445 0.109430
0.913098 0.470721 0.114324
0.943324 0.474102 0.119324
0.018160 0.462359 0.048276
0.028951 0.462359 0.048276
0.047953 0.462386 0.048903
0.079270 0.462453 0.050627
0.109115 0.462514 0.051049
0.138592 0.462574 0.051109
0.168069 0.462633 0.051168
0.197547 0.462692 0.051228
0.227024 0.462752 0.051287
0.256501 0.462811 0.051346
0.285978 0.462871 0.051406
0.315456 0.462930 0.051465
0.344933 0.462989 0.051525
0.374410 0.463049 0.051584
0.403887 0.463108 0.051643
0.433365 0.463168 0.051703
0.461689 0.463056 0.053368
0.490693 0.463735 0.055744
0.520853 0.465660 0.059256
0.551018 0.467677 0.062875
0.581188 0.469790 0.066600
0.611363 0.472001 0.070432
0.641543 0.474310 0.074371
0.671728 0.476719 0.078416
0.701919 0.479229 0.082569
0.732115 0.481841 0.086828
0.762316 0.484556 0.091194
0.792522 0.487373 0.095666
0.822733 0.490294 0.100246
0.852950 0.493319 0.104932
0.883171 0.496448 0.109725
0.913398 0.499681 0.114624
0.943631 0.503020 0.119631
0.020645 0.493645 0.051695
0.030801 0.493645 0.051695
0.049422 0.493672 0.052345
0.080741 0.493741 0.054122
0.110554 0.493804 0.054554
0.139991 0.493866 0.054616
0.169427 0.493927 0.054677
0.198863 0.493988 0.054738
0.228299 0.494049 0.054799
0.257736 0.494111 0.054861
0.287172 0.494172 0.054922
0.316608 0.494233 0.054983
0.346045 0.494295 0.055045
0.375481 0.494356 0.055106
0.404917 0.494417 0.055167
0.434353 0.494478 0.055228
0.463790 0.494540 0.055290
0.492082 0.494439 0.057017
0.521072 0.495146 0.059475
0.551243 0.497126 0.063100
0.581419 0.499201 0.066831
0.611600 0.501373 0.070670
0.641787 0.503642 0.074615
0.671978 0.506011 0.078667
0.702175 0.508481 0.082825
0.732377 0.511052 0.087091
0.762585 0.513726 0.091463
0.792797 0.516502 0.095942
0.823015 0.519381 0.100527
0.853238 0.522364 0.105220
0.883466 0.525451 0.110019
0.913699 0.528642 0.114925
0.943938 0.531938 0.119938
0.023245 0.524944 0.055229
0.032766 0.524944 0.055229
0.051008 0.524972 0.055903
0.082329 0.525044 0.057731
0.112108 0.525108 0.058175
0.141503 0.525172 0.058238
0.170897 0.525235 0.058301
0.200291 0.525298 0.058364
0.229686 0.525361 0.058427
0.259080 0.525424 0.058491
0.288474 0.525487 0.058554
0.317868 0.525551 0.058617
0.347263 0.525614 0.058680
0.376657 0.525677 0.058743
0.406051 0.525740 0.058807
0.435446 0.525803 0.058870
0.464840 0.525866 0.058933
0.494234 0.525930 0.058996
0.522493 0.525839 0.060785
0.551468 0.526575 0.063325
0.581650 0.528612 0.067063
0.611838 0.530744 0.070907
0.642031 0.532974 0.074859
0.672229 0.535304 0.078917
0.702432 0.537733 0.083082
0.732640 0.540263 0.087354
0.762854 0.542895 0.091732
0.793073 0.545630 0.096217
0.823297 0.548468 0.100809
0.853526 0.551409 0.105508
0.883760 0.554453 0.110313
0.914000 0.557602 0.115226
0.944245 0.560856 0.120245
0.025960 0.556257 0.058879
0.034847 0.556257 0.058879
0.052708 0.556287 0.059575
0.084032 0.556360 0.061456
0.113778 0.556427 0.061911
0.143129 0.556492 0.061976
0.172480 0.556557 0.062041
0.201832 0.556622 0.062106
0.231183 0.556687 0.062171
0.260535 0.556752 0.062236
0.289886 0.556817 0.062301
0.319238 0.556882 0.062366
0.348589 0.556947 0.062431
0.377941 0.557012 0.062496
0.407292 0.557077 0.062561
0.436643 0.557142 0.062627
0.465995 0.557207 0.062692
0.495346 0.557272 0.062757
0.524698 0.557337 0.062822
0.552922 0.557258 0.064672
0.581882 0.558022 0.067294
0.612076 0.560116 0.071145
0.642275 0.562307 0.075103
0.672479 0.564596 0.079167
0.702689 0.566985 0.083339
0.732903 0.569474 0.087616
0.763123 0.572065 0.092001
0.793348 0.574758 0.096493
0.823578 0.577554 0.101091
0.853814 0.580454 0.105796
0.884055 0.583456 0.110608
0.914300 0.586563 0.115526
0.944552 0.589774 0.120552
0.028792 0.587585 0.062645
0.037044 0.587585 0.062645
0.054525 0.587615 0.063363
0.085850 0.587690 0.065297
0.115562 0.587759 0.065763
0.144870 0.587826 0.065830
0.174178 0.587893 0.065897
0.203485 0.587960 0.065963
0.232793 0.588026 0.066030
0.262101 0.588093 0.066097
0.291409 0.588160 0.066164
0.320717 0.588227 0.066231
0.350025 0.588294 0.066298
0.379333 0.588361 0.066365
0.408641 0.588428 0.066432
0.437949 0.588495 0.066499
0.467257 0.588562 0.066566
0.496565 0.588629 0.066633
0.525872 0.588696 0.066700
0.555180 0.588763 0.066767
0.583370 0.588694 0.068678
0.612313 0.589488 0.071383
0.642519 0.591639 0.075347
0.672729 0.593888 0.079418
0.702945 0.596236 0.083595
0.733166 0.598685 0.087879
0.763392 0.601235 0.092270
0.793624 0.603887 0.096768
0.823860 0.606641 0.101373
0.854102 0.609498 0.106084
0.884349 0.612459 0.110902
0.914601 0.615523 0.115827
0.944858 0.618692 0.120858
0.031739 0.618926 0.066526
0.039356 0.618926 0.066526
0.056457 0.618957 0.067267
0.087784 0.619034 0.069253
0.117461 0.619105 0.069730
0.146725 0.619174 0.069799
0.175989 0.619243 0.069868
0.205252 0.619311 0.069936
0.234516 0.619380 0.070005
0.263780 0.619449 0.070074
0.293044 0.619518 0.070143
0.322307 0.619587 0.070212
0.351571 0.619655 0.070281
0.380835 0.619724 0.070349
0.410099 0.619793 0.070418
0.439363 0.619862 0.070487
0.468626 0.619931 0.070556
0.497890 0.620000 0.070625
0.527154 0.620068 0.070693
0.556418 0.620137 0.070762
0.585682 0.620206 0.070831
0.613836 0.620148 0.072804
0.642763 0.620971 0.075591
0.672980 0.623180 0.079668
0.703202 0.625488 0.083852
0.733429 0.627896 0.088142
0.763661 0.630405 0.092540
0.793899 0.633015 0.097044
0.824142 0.635728 0.101654
0.854390 0.638543 0.106372
0.884643 0.641462 0.111196
0.914902 0.644484 0.116128
0.945165 0.647610 0.121165
0.034801 0.650282 0.070523
0.041784 0.650282 0.070523
0.058505 0.650313 0.071286
0.089834 0.650393 0.073325
0.119476 0.650465 0.073813
0.148695 0.650536 0.073884
0.177914 0.650607 0.073954
0.207133 0.650677 0.074025
0.236352 0.650748 0.074096
0.265571 0.650819 0.074166
0.294791 0.650889 0.074237
0.324010 0.650960 0.074308
0.353229 0.651031 0.074379
0.382448 0.651102 0.074449
0.411667 0.651172 0.074520
0.440886 0.651243 0.074591
0.470106 0.651314 0.074661
0.499325 0.651384 0.074732
0.528544 0.651455 0.074803
0.557763 0.651526 0.074873
0.586982 0.651596 0.074944
0.616201 0.651667 0.075015
0.644320 0.651620 0.077049
0.673230 0.652472 0.079918
0.703458 0.654740 0.084108
0.733692 0.657107 0.088405
0.763931 0.659575 0.092809
0.794175 0.662144 0.097319
0.824424 0.664815 0.101936
0.854678 0.667588 0.106660
0.884938 0.670464 0.111491
0.915202 0.673444 0.116428
0.945472 0.676528 0.121472
0.037979 0.681651 0.074636
0.044327 0.681651 0.074636
0.060668 0.681684 0.075421
0.092000 0.681765 0.077512
0.121605 0.681840 0.078012
0.150779 0.681912 0.078084
0.179954 0.681985 0.078157
0.209128 0.682057 0.078229
0.238302 0.682130 0.078302
0.267476 0.682203 0.078374
0.296650 0.682275 0.078447
0.325824 0.682348 0.078520
0.354998 0.682420 0.078592
0.384172 0.682493 0.078665
0.413347 0.682565 0.078737
0.442521 0.682638 0.078810
0.471695 0.682710 0.078882
0.500869 0.682783 0.078955
0.530043 0.682856 0.079027
0.559217 0.682928 0.079100
0.588391 0.683001 0.079173
0.617565 0.683073 0.079245
0.646740 0.683146 0.079318
0.674822 0.683109 0.081414
0.703715 0.683992 0.084365
0.733955 0.686318 0.088668
0.764200 0.688745 0.093078
0.794450 0.691272 0.097595
0.824705 0.693901 0.102218
0.854966 0.696633 0.106948
0.885232 0.699467 0.111785
0.915503 0.702405 0.116729
0.945779 0.705446 0.121779
0.041273 0.713035 0.078864
0.046986 0.713035 0.078864
0.062947 0.713068 0.079671
0.094281 0.713152 0.081814
0.123850 0.713228 0.082326
0.152979 0.713303 0.082400
0.182108 0.713377 0.082475
0.211237 0.713451 0.082549
0.240365 0.713526 0.082624
0.269494 0.713600 0.082698
0.298623 0.713675 0.082772
0.327752 0.713749 0.082847
0.356880 0.713824 0.082921
0.386009 0.713898 0.082996
0.415138 0.713973 0.083070
0.444266 0.714047 0.083145
0.473395 0.714121 0.083219
0.502524 0.714196 0.083293
0.531653 0.714270 0.083368
0.560781 0.714345 0.083442
0.589910 0.714419 0.083517
0.619039 0.714494 0.083591
0.648167 0.714568 0.083666
0.677296 0.714642 0.083740
0.705342 0.714617 0.085898
0.734218 0.715529 0.088931
0.764469 0.717914 0.093347
0.794726 0.720400 0.097870
0.824987 0.722988 0.102500
0.855254 0.725678 0.107236
0.885526 0.728470 0.112079
0.915804 0.731365 0.117029
0.946086 0.734364 0.122086
0.044682 0.744432 0.083207
0.049761 0.744432 0.083207
0.065342 0.744467 0.084037
0.096677 0.744552 0.086233
0.126211 0.744631 0.086756
0.155294 0.744707 0.086832
0.184377 0.744783 0.086908
0.213460 0.744860 0.086985
0.242543 0.744936 0.087061
0.271626 0.745012 0.087137
0.300709 0.745088 0.087213
0.329792 0.745165 0.087290
0.358875 0.745241 0.087366
0.387958 0.745317 0.087442
0.417041 0.745394 0.087519
0.446124 0.745470 0.087595
0.475207 0.745546 0.087671
0.504290 0.745623 0.087748
0.533373 0.745699 0.087824
0.562456 0.745775 0.087900
0.591539 0.745852 0.087977
0.620622 0.745928 0.088053
0.649705 0.746004 0.088129
0.678788 0.746080 0.088205
0.707871 0.746157 0.088282
0.735880 0.746142 0.090501
0.764738 0.747084 0.093616
0.795001 0.749529 0.098146
0.825269 0.752075 0.102782
0.855542 0.754722 0.107524
0.885821 0.757473 0.112374
0.916104 0.760326 0.117330
0.946393 0.763282 0.122393
0.048207 0.775844 0.087667
0.052651 0.775844 0.087667
0.067852 0.775879 0.088518
0.099190 0.775967 0.090767
0.128687 0.776047 0.091301
0.157724 0.776125 0.091379
0.186761 0.776204 0.091457
0.215798 0.776282 0.091536
0.244835 0.776360 0.091614
0.273872 0.776438 0.091692
0.302909 0.776516 0.091770
0.331946 0.776594 0.091848
0.360983 0.776673 0.091927
0.390020 0.776751 0.092005
0.419057 0.776829 0.092083
0.448094 0.776907 0.092161
0.477131 0.776985 0.092239
0.506168 0.777063 0.092317
0.535205 0.777142 0.092396
0.564242 0.777220 0.092474
0.593279 0.777298 0.092552
0.622316 0.777376 0.092630
0.651353 0.777454 0.092708
0.680390 0.777533 0.092786
0.709427 0.777611 0.092865
0.738464 0.777689 0.092943
0.766436 0.777685 0.095224
0.795277 0.778657 0.098421
0.825551 0.781161 0.103063
0.855830 0.783767 0.107812
0.886115 0.786475 0.112668
0.916405 0.789286 0.117631
0.946700 0.792200 0.122700
0.051848 0.807270 0.092242
0.055657 0.807270 0.092242
0.070478 0.807306 0.093115
0.101818 0.807396 0.095416
0.131278 0.807478 0.095962
0.160269 0.807558 0.096042
0.189260 0.807638 0.096122
0.218251 0.807718 0.096202
0.247241 0.807798 0.096282
0.276232 0.807878 0.096362
0.305223 0.807958 0.096442
0.334214 0.808038 0.096522
0.363204 0.808118 0.096603
0.392195 0.808198 0.096683
0.421186 0.808278 0.096763
0.450177 0.808358 0.096843
0.479168 0.808438 0.096923
0.508158 0.808518 0.097003
0.537149 0.808598 0.097083
0.566140 0.808679 0.097163
0.595131 0.808759 0.097243
0.624122 0.808839 0.097323
0.653112 0.808919 0.097403
0.682103 0.808999 0.097483
0.711094 0.809079 0.097563
0.740085 0.809159 0.097643
0.769075 0.809239 0.097723
