luts/original/drill-dark-cover.cube
TITLE "Drill Dark Cover"
LUT_3D_SIZE 9
DOMAIN_MIN 0.0 0.0 0.0
DOMAIN_MAX 1.0 1.0 1.0
0.000000 0.000000 0.012288
0.097124 0.000000 0.016111
0.217137 0.000962 0.024537
0.337234 0.007359 0.034671
0.457414 0.015464 0.046514
0.577679 0.025279 0.060067
0.698028 0.036803 0.075328
0.818460 0.050035 0.092298
0.938977 0.064977 0.110977
0.000000 0.119149 0.018299
0.100562 0.119250 0.020125
0.217782 0.122507 0.027232
0.337987 0.128902 0.037800
0.458274 0.136767 0.050074
0.578643 0.146273 0.064056
0.699096 0.157460 0.079746
0.819633 0.170340 0.097146
0.940254 0.184921 0.116254
0.004006 0.243756 0.027581
0.102221 0.243877 0.029752
0.220998 0.244061 0.029936
0.338708 0.247606 0.038521
0.459097 0.254997 0.050897
0.579568 0.263916 0.064981
0.700123 0.274467 0.080773
0.820761 0.286687 0.098273
0.941482 0.300593 0.117482
0.011401 0.368588 0.038713
0.105483 0.368728 0.041228
0.223847 0.368943 0.041443
0.342211 0.369158 0.041658
0.459921 0.373227 0.051721
0.580494 0.381559 0.065906
0.701149 0.391474 0.081799
0.821888 0.403034 0.099400
0.942710 0.416265 0.118710
0.020645 0.493645 0.051695
0.110554 0.493804 0.054554
0.228299 0.494049 0.054799
0.346045 0.494295 0.055045
0.463790 0.494540 0.055290
0.581419 0.499201 0.066831
0.702175 0.508481 0.082825
0.823015 0.519381 0.100527
0.943938 0.531938 0.119938
0.031739 0.618926 0.066526
0.117461 0.619105 0.069730
0.234516 0.619380 0.070005
0.351571 0.619655 0.070281
0.468626 0.619931 0.070556
0.585682 0.620206 0.070831
0.703202 0.625488 0.083852
0.824142 0.635728 0.101654
0.945165 0.647610 0.121165
0.044682 0.744432 0.083207
0.126211 0.744631 0.086756
0.242543 0.744936 0.087061
0.358875 0.745241 0.087366
0.475207 0.745546 0.087671
0.591539 0.745852 0.087977
0.707871 0.746157 0.088282
0.825269 0.752075 0.102782
0.946393 0.763282 0.122393
0.059476 0.870164 0.101739
0.136807 0.870381 0.105631
0.252398 0.870716 0.105966
0.367989 0.871051 0.106301
0.483580 0.871387 0.106637
0.599171 0.871722 0.106972
0.714761 0.872057 0.107307
0.830352 0.872392 0.107642
0.947621 0.878954 0.123621
0.076120 0.996120 0.122120
0.149251 0.996356 0.126356
0.264090 0.996721 0.126721
0.378929 0.997086 0.127086
0.493767 0.997452 0.127452
0.608606 0.997817 0.127817
0.723445 0.998182 0.128182
0.838284 0.998547 0.128547
0.953122 0.998912 0.128912
0.000000 0.000000 0.140260
0.100679 0.000000 0.140354
0.217201 0.001026 0.144476
0.337307 0.007432 0.153807
0.457498 0.015548 0.164848
0.577773 0.025373 0.177598
0.698132 0.036907 0.192057
0.818575 0.050150 0.208225
0.939102 0.065102 0.226102
0.000267 0.120954 0.140792
0.103821 0.122365 0.140909
0.217890 0.126715 0.146873
0.338109 0.133234 0.159062
0.458410 0.141460 0.171471
0.578795 0.151395 0.185342
0.699263 0.163038 0.200835
0.819816 0.176391 0.217997
0.940453 0.191453 0.236847
0.004070 0.243820 0.147520
0.103569 0.243944 0.148962
0.225352 0.244144 0.155019
0.338826 0.251232 0.163639
0.459248 0.260671 0.176048
0.579743 0.270820 0.190155
0.700319 0.282394 0.205969
0.820978 0.295556 0.223490
0.941720 0.310365 0.242720
0.011475 0.368662 0.157850
0.106932 0.368807 0.160369
0.229941 0.369043 0.166543
0.344009 0.369244 0.166744
0.460035 0.375412 0.176835
0.580640 0.385847 0.191053
0.701322 0.397231 0.206972
0.822085 0.410002 0.224597
0.942929 0.424316 0.243929
0.020729 0.493729 0.170029
0.112144 0.493894 0.173291
0.235336 0.494163 0.179913
0.350187 0.494399 0.180149
0.465039 0.494635 0.180385
0.581538 0.500873 0.191950
0.702326 0.512067 0.207976
0.823192 0.524448 0.225704
0.944139 0.538268 0.245139
0.031833 0.619020 0.184058
0.119205 0.619205 0.187955
0.242407 0.619507 0.195132
0.357171 0.619775 0.195400
0.471936 0.620043 0.195668
0.586700 0.620311 0.195936
0.703329 0.626904 0.208979
0.824299 0.638894 0.226811
0.945348 0.652219 0.246348
0.044787 0.744537 0.199937
0.128117 0.744742 0.204422
0.251267 0.745077 0.212202
0.365642 0.745376 0.212501
0.480017 0.745675 0.212800
0.594392 0.745974 0.213099
0.708767 0.746273 0.213398
0.825406 0.753340 0.227918
0.946558 0.766171 0.247558
0.059590 0.870278 0.217665
0.138878 0.870503 0.222714
0.261949 0.870871 0.231121
0.375794 0.871200 0.231450
0.489639 0.871530 0.231780
0.603484 0.871859 0.232109
0.717330 0.872189 0.232439
0.831175 0.872519 0.232769
0.947767 0.880122 0.248767
0.076244 0.996244 0.237244
0.151489 0.996489 0.242840
0.274465 0.996889 0.251889
0.387704 0.997249 0.252249
0.500943 0.997609 0.252609
0.614181 0.997969 0.252969
0.727420 0.998329 0.253329
0.840659 0.998689 0.253689
0.953898 0.999049 0.254049
0.004950 0.004950 0.268275
0.101363 0.005063 0.268388
0.221426 0.005251 0.268576
0.337381 0.007506 0.272944
0.457582 0.015632 0.283182
0.577867 0.025467 0.295130
0.698236 0.037011 0.308786
0.818689 0.050264 0.324152
0.939226 0.065226 0.341226
0.005582 0.125457 0.268907
0.105106 0.127997 0.269056
0.225051 0.130948 0.269273
0.338178 0.133303 0.274483
0.458491 0.141541 0.287206
0.578887 0.151487 0.300771
0.699366 0.163141 0.315742
0.819929 0.176504 0.332282
0.940576 0.191576 0.350454
0.006215 0.245965 0.269540
0.105720 0.246778 0.269670
0.230961 0.250436 0.269911
0.338978 0.259103 0.278499
0.459404 0.267454 0.295129
0.579910 0.277510 0.309970
0.700499 0.289274 0.325938
0.821171 0.302746 0.343411
0.941928 0.317928 0.362500
0.011548 0.368736 0.276986
0.107004 0.368879 0.278020
0.232244 0.369119 0.281440
0.351535 0.369348 0.291848
0.460185 0.381085 0.301985
0.580828 0.393940 0.316240
0.701533 0.406514 0.332183
0.822316 0.420229 0.349829
0.943181 0.435412 0.369181
0.020813 0.493813 0.288363
0.112226 0.493976 0.290432
0.237501 0.494251 0.296001
0.359394 0.494519 0.305269
0.467734 0.494734 0.305484
0.581672 0.503972 0.317085
0.702499 0.517824 0.333149
0.823393 0.531868 0.350906
0.944365 0.546981 0.370365
0.031927 0.619115 0.301589
0.119298 0.619298 0.304455
0.244607 0.619607 0.311335
0.367000 0.619909 0.320534
0.477712 0.620164 0.320789
0.588424 0.620419 0.321044
0.703465 0.629133 0.334115
0.824471 0.643508 0.351983
0.945549 0.658549 0.371549
0.044891 0.744641 0.316666
0.128220 0.744845 0.320220
0.253562 0.745187 0.328176
0.376105 0.745522 0.337647
0.487436 0.745811 0.337936
0.598767 0.746101 0.338226
0.710098 0.746390 0.338515
0.825548 0.755148 0.353060
0.946734 0.770118 0.372734
0.059705 0.870392 0.333592
0.138991 0.870616 0.337779
0.264367 0.870992 0.346714
0.386938 0.871360 0.356610
0.498279 0.871681 0.356931
0.609620 0.872003 0.357253
0.720960 0.872325 0.357575
0.832301 0.872646 0.357896
0.947918 0.881687 0.373918
0.076369 0.996369 0.352369
0.151613 0.996613 0.357153
0.277022 0.997022 0.367022
0.399565 0.997422 0.377422
0.510632 0.997775 0.377775
0.621700 0.998128 0.378128
0.732767 0.998481 0.378481
0.843834 0.998834 0.378834
0.954902 0.999187 0.379187
0.011835 0.011835 0.396335
0.103716 0.011966 0.396466
0.222996 0.012184 0.396684
0.342277 0.012402 0.396902
0.457666 0.015716 0.401516
0.577962 0.025562 0.412662
0.698341 0.037116 0.425516
0.818804 0.050379 0.440079
0.939351 0.065351 0.456351
0.012568 0.131631 0.397068
0.108055 0.134859 0.397243
0.228260 0.137994 0.397494
0.345058 0.138204 0.397704
0.458572 0.141622 0.402941
0.578978 0.151578 0.416199
0.699468 0.163243 0.430648
0.820041 0.176616 0.446566
0.940699 0.191699 0.464062
0.013301 0.251426 0.397801
0.108774 0.253368 0.397962
0.234071 0.259272 0.398258
0.350676 0.264016 0.398516
0.459479 0.267529 0.405016
0.579997 0.277597 0.421678
0.700598 0.289373 0.438009
0.821282 0.302857 0.455339
0.942049 0.318049 0.474049
0.014033 0.371221 0.398533
0.109493 0.371877 0.398681
0.234747 0.373733 0.398934
0.360044 0.379637 0.399231
0.460389 0.393439 0.410989
0.581022 0.403622 0.432738
0.701733 0.415508 0.450168
0.822526 0.429101 0.468301
0.943403 0.444403 0.487795
0.020897 0.493897 0.406697
0.112309 0.494059 0.407574
0.237580 0.494330 0.409830
0.362855 0.494605 0.414926
0.479112 0.494862 0.430612
0.581859 0.512066 0.442272
0.702727 0.528711 0.458377
0.823644 0.543849 0.476156
0.944635 0.559778 0.495635
0.032021 0.619209 0.419121
0.119391 0.619391 0.420954
0.244697 0.619697 0.425304
0.370007 0.620007 0.433028
0.490580 0.620307 0.445932
0.592173 0.620533 0.446158
0.703621 0.633287 0.459271
0.824672 0.650929 0.477185
0.945782 0.667829 0.496782
0.044995 0.744745 0.433395
0.128323 0.744948 0.436018
0.253663 0.745288 0.441856
0.379006 0.745631 0.450933
0.500475 0.745966 0.463091
0.606421 0.746238 0.463363
0.712366 0.746510 0.463635
0.825701 0.758008 0.478214
0.946929 0.775881 0.497929
0.059819 0.870507 0.449519
0.139105 0.870730 0.452843
0.264478 0.871103 0.459916
0.389855 0.871480 0.470037
0.511650 0.871848 0.482098
0.619094 0.872157 0.482407
0.726539 0.872466 0.482716
0.833984 0.872776 0.483026
0.948076 0.883933 0.499076
0.076493 0.996493 0.467493
0.151736 0.996736 0.471466
0.277143 0.997143 0.479643
0.402554 0.997554 0.490702
0.524476 0.997954 0.502954
0.632428 0.998297 0.503297
0.740379 0.998640 0.503640
0.848331 0.998984 0.503983
0.956283 0.999327 0.504327
0.020390 0.020390 0.524440
0.107739 0.020539 0.524589
0.226236 0.020786 0.524836
0.344734 0.021034 0.525084
0.463232 0.021282 0.525332
0.578056 0.025656 0.530193
0.698445 0.037220 0.542245
0.818918 0.050493 0.556006
0.939475 0.065475 0.571475
0.021223 0.139473 0.525273
0.112673 0.143297 0.525473
0.232718 0.146709 0.525759
0.349224 0.146951 0.526001
0.465730 0.147192 0.526242
0.579070 0.151670 0.531628
0.699570 0.163345 0.545555
0.820154 0.176729 0.560851
0.940821 0.191821 0.577670
0.022056 0.258556 0.526106
0.113495 0.261303 0.526295
0.238836 0.268343 0.526636
0.356702 0.272877 0.526927
0.469556 0.273106 0.527156
0.580085 0.277685 0.533386
0.700697 0.289472 0.550080
0.821392 0.302967 0.567267
0.942170 0.318170 0.585598
0.022889 0.377639 0.526939
0.114316 0.379308 0.527116
0.239627 0.383527 0.527427
0.364985 0.392135 0.527785
0.477555 0.399034 0.528084
0.581101 0.403701 0.536075
0.701827 0.415602 0.557223
0.822632 0.429207 0.576564
0.943521 0.444521 0.596390
0.023721 0.496721 0.527771
0.115137 0.497314 0.527937
0.240419 0.498711 0.528219
0.365713 0.501363 0.528513
0.491070 0.509970 0.528870
0.582123 0.529723 0.544344
0.702964 0.541740 0.571890
0.823880 0.555455 0.592064
0.944878 0.570878 0.612433
0.032115 0.619303 0.536653
0.119484 0.619484 0.537453
0.244788 0.619788 0.539273
0.370092 0.620092 0.542358
0.495401 0.620401 0.549419
0.608081 0.620685 0.571310
0.703849 0.644174 0.584499
0.824945 0.664982 0.602457
0.946075 0.682825 0.622075
0.045100 0.744850 0.550125
0.128427 0.745052 0.551815
0.253764 0.745389 0.555537
0.379104 0.745729 0.561251
0.504448 0.746073 0.571448
0.623499 0.746405 0.588530
0.717326 0.746639 0.588764
0.825881 0.763356 0.603393
0.947161 0.785161 0.623161
0.059934 0.870621 0.565446
0.139218 0.870843 0.567908
0.264590 0.871215 0.573118
0.389964 0.871589 0.580529
0.515342 0.871967 0.592085
0.635762 0.872334 0.607584
0.736314 0.872621 0.607871
0.836865 0.872909 0.608159
0.948247 0.887497 0.624247
0.076618 0.996618 0.582618
0.151860 0.996860 0.585779
0.277265 0.997265 0.592265
0.402673 0.997673 0.601006
0.528085 0.998085 0.613539
0.649040 0.998485 0.628485
0.752146 0.998813 0.628813
0.855252 0.999140 0.629140
0.958357 0.999468 0.629468
0.030615 0.030615 0.652590
0.113431 0.030781 0.652756
0.231146 0.031059 0.653034
0.348861 0.031336 0.653311
0.466576 0.031613 0.653588
0.584291 0.031891 0.653866
0.698549 0.037324 0.658974
0.819032 0.050608 0.671933
0.939600 0.065600 0.686600
0.031548 0.148985 0.653523
0.118961 0.153370 0.653748
0.238712 0.157094 0.654069
0.354703 0.157366 0.654341
0.470694 0.157637 0.654612
0.586684 0.157909 0.654884
0.699673 0.163448 0.660462
0.820267 0.176842 0.675135
0.940944 0.191944 0.691278
0.032481 0.267356 0.654456
0.119884 0.270785 0.654671
0.245267 0.278781 0.655054
0.363385 0.283404 0.655379
0.476637 0.283667 0.655642
0.589889 0.283930 0.655905
0.700796 0.289571 0.662152
0.821502 0.303077 0.679195
0.942290 0.318290 0.697147
0.033414 0.385726 0.655389
0.120807 0.388200 0.655594
0.246166 0.393933 0.655953
0.371566 0.403545 0.656354
0.486688 0.409710 0.656685
0.594920 0.409957 0.656932
0.701921 0.415696 0.664278
0.822739 0.429314 0.684826
0.943638 0.444638 0.704986
0.034347 0.504097 0.656322
0.121730 0.505615 0.656517
0.247065 0.509085 0.656852
0.372424 0.514817 0.657211
0.497847 0.526584 0.657634
0.605688 0.536002 0.657977
0.703046 0.541821 0.667659
0.823979 0.555554 0.693841
0.944990 0.570990 0.716435
0.035280 0.622467 0.657255
0.122652 0.623030 0.657440
0.247963 0.624237 0.657751
0.373281 0.626090 0.658069
0.498618 0.629668 0.658405
0.624041 0.641434 0.658828
0.704180 0.667955 0.678563
0.825230 0.681805 0.712583
0.946351 0.697351 0.735658
0.045204 0.744954 0.666854
0.128530 0.745155 0.667613
0.253865 0.745490 0.669217
0.379201 0.745826 0.671569
0.504539 0.746164 0.675601
0.629883 0.746508 0.684918
0.738444 0.746819 0.713944
0.826153 0.777409 0.728666
0.947482 0.802755 0.748482
0.060048 0.870736 0.681373
0.139332 0.870957 0.682973
0.264701 0.871326 0.686319
0.390072 0.871697 0.691021
0.515446 0.872071 0.698273
0.640826 0.872451 0.711263
0.758151 0.872815 0.733065
0.843193 0.873053 0.733303
0.948452 0.894180 0.749452
0.076742 0.996742 0.697742
0.151984 0.996984 0.700092
0.277387 0.997387 0.704887
0.402792 0.997792 0.711311
0.528200 0.998200 0.720473
0.653614 0.998614 0.734791
0.772860 0.999013 0.754013
0.867391 0.999314 0.754314
0.961922 0.999614 0.754614
0.042509 0.042509 0.780784
0.120793 0.042693 0.780968
0.237725 0.043000 0.781276
0.354658 0.043308 0.781583
0.471590 0.043615 0.781890
0.588522 0.043922 0.782197
0.705454 0.044229 0.782504
0.819147 0.050722 0.787859
0.939724 0.065724 0.801724
0.043542 0.160167 0.781817
0.126918 0.165096 0.782068
0.246317 0.169147 0.782422
0.361693 0.169450 0.782724
0.477069 0.169752 0.783027
0.592446 0.170054 0.783329
0.707822 0.170356 0.783631
0.820379 0.176954 0.789420
0.941067 0.192067 0.804885
0.044576 0.277826 0.782851
0.127942 0.281879 0.783092
0.253366 0.290775 0.783516
0.371416 0.295600 0.783875
0.484529 0.295895 0.784170
0.597642 0.296190 0.784465
0.710755 0.296485 0.784760
0.821612 0.303187 0.791123
0.942411 0.318411 0.808697
0.045609 0.395484 0.783884
0.128966 0.398661 0.784116
0.254370 0.405611 0.784520
0.379811 0.416044 0.784961
0.495716 0.422050 0.785325
0.605235 0.422334 0.785609
0.714754 0.422617 0.785892
0.822845 0.429420 0.793088
0.943756 0.444756 0.813582
0.046642 0.513142 0.784917
0.129990 0.515444 0.785140
0.255373 0.520448 0.785523
0.380783 0.527910 0.785933
0.506246 0.540464 0.786396
0.618219 0.548494 0.786769
0.721149 0.548757 0.787032
0.824078 0.555653 0.795618
0.945103 0.571103 0.820436
0.047675 0.630800 0.785950
0.131014 0.632227 0.786164
0.256376 0.635285 0.786526
0.381754 0.639777 0.786904
0.507164 0.647239 0.787314
0.632657 0.662621 0.787807
0.735074 0.674921 0.788196
0.825313 0.681888 0.799768
0.946454 0.697454 0.831531
0.048709 0.748459 0.786983
0.132038 0.749009 0.787188
0.257380 0.750121 0.787530
0.382726 0.751643 0.787876
0.508082 0.754014 0.788232
0.633461 0.758647 0.788611
0.758955 0.774030 0.789105
0.826559 0.808134 0.813647
0.947819 0.823819 0.854819
0.060163 0.870850 0.797300
0.139445 0.871070 0.798037
0.264813 0.871438 0.799521
0.390181 0.871806 0.801513
0.515550 0.872175 0.804462
0.640921 0.872546 0.809562
0.766300 0.872925 0.821425
0.870200 0.873263 0.858513
0.948773 0.911773 0.874773
0.076867 0.996867 0.812867
0.152107 0.997107 0.814405
0.277509 0.997509 0.817509
0.402912 0.997912 0.821615
0.528316 0.998316 0.827407
0.653724 0.998724 0.836371
0.779140 0.999140 0.852473
0.894535 0.999535 0.879535
0.969774 0.999774 0.879774
0.056073 0.056073 0.909023
0.129825 0.056275 0.909225
0.245974 0.056612 0.909562
0.362124 0.056949 0.909899
0.478273 0.057286 0.910236
0.594423 0.057623 0.910573
0.710572 0.057960 0.910910
0.826722 0.058297 0.911247
0.939849 0.065849 0.916849
0.057206 0.173019 0.910156
0.136544 0.178482 0.910432
0.255559 0.182871 0.910820
0.370268 0.183203 0.911153
0.484978 0.183535 0.911485
0.599687 0.183868 0.911818
0.714396 0.184200 0.912150
0.829106 0.184532 0.912482
0.941190 0.192190 0.918493
0.058340 0.289965 0.911290
0.137669 0.294609 0.911556
0.263135 0.304384 0.912023
0.380973 0.309465 0.912415
0.493709 0.309791 0.912741
0.606445 0.310117 0.913067
0.719181 0.310443 0.913393
0.831917 0.310769 0.913719
0.942532 0.318532 0.920246
0.059473 0.406911 0.912423
0.138794 0.410736 0.912681
0.264241 0.418768 0.913129
0.389723 0.429995 0.913610
0.505849 0.436058 0.914008
0.615715 0.436375 0.914325
0.725580 0.436692 0.914642
0.835445 0.437009 0.914959
0.943873 0.444873 0.922178
0.060607 0.523857 0.913557
0.139919 0.526862 0.913806
0.265348 0.533152 0.914235
0.390803 0.541911 0.914690
0.516305 0.555086 0.915193
0.629712 0.562647 0.915597
0.735018 0.562950 0.915900
0.840324 0.563252 0.916202
0.945215 0.571215 0.924437
0.061740 0.640803 0.914690
0.141043 0.642989 0.914931
0.266454 0.647537 0.915341
0.391883 0.653827 0.915771
0.517345 0.663235 0.916233
0.642876 0.679101 0.916764
0.751295 0.689230 0.917180
0.848243 0.689506 0.917456
0.946558 0.697558 0.927404
0.062874 0.757749 0.915824
0.142168 0.759116 0.916056
0.267560 0.761921 0.916448
0.392963 0.765743 0.916851
0.518385 0.771383 0.917273
0.643848 0.780791 0.917735
0.769416 0.800246 0.918304
0.865714 0.815789 0.918739
0.947903 0.823903 0.932403
0.064007 0.874695 0.916957
0.143293 0.875242 0.917180
0.268667 0.876305 0.917554
0.394043 0.877659 0.917931
0.519425 0.879532 0.918313
0.644819 0.882482 0.918707
0.770243 0.888302 0.919131
0.895812 0.907756 0.919700
0.949250 0.949250 0.949250
0.076991 0.996991 0.927991
0.152231 0.997231 0.928718
0.277631 0.997631 0.930131
0.403031 0.998031 0.931920
0.528432 0.998432 0.934341
0.653834 0.998834 0.937952
0.779239 0.999239 0.944239
0.904653 0.999653 0.958939
1.000000 1.000000 1.000000
0.067196 0.067196 0.987196
0.136416 0.067416 0.987416
0.251783 0.067783 0.987783
0.367150 0.068150 0.988150
0.482517 0.068517 0.988517
0.597883 0.068883 0.988883
0.713250 0.069250 0.989250
0.828617 0.069617 0.989617
0.943984 0.069984 0.989984
0.068430 0.183430 0.988430
0.143730 0.189406 0.988730
0.262296 0.194153 0.989153
0.376230 0.194515 0.989515
0.490163 0.194878 0.989878
0.604097 0.195240 0.990240
0.718031 0.195602 0.990602
0.831964 0.195964 0.990964
0.945898 0.196326 0.991326
0.069664 0.299664 0.989664
0.144955 0.304820 0.989955
0.270463 0.315463 0.990463
0.387889 0.320889 0.990889
0.499912 0.321245 0.991245
0.611935 0.321601 0.991601
0.723958 0.321958 0.991958
0.835980 0.322314 0.992314
0.948003 0.322670 0.992670
0.070898 0.415898 0.990898
0.146180 0.420234 0.991180
0.271669 0.429169 0.991669
0.397192 0.441266 0.992192
0.513024 0.447624 0.992624
0.622371 0.447971 0.992971
0.731719 0.448319 0.993319
0.841067 0.448667 0.993667
0.950414 0.449014 0.994014
0.072131 0.532131 0.992131
0.147405 0.535648 0.992405
0.272876 0.542876 0.992876
0.398374 0.552634 0.993374
0.523917 0.566645 0.993917
0.637356 0.574356 0.994356
0.742691 0.574691 0.994691
0.848025 0.575025 0.995025
0.953360 0.575360 0.995360
0.073365 0.648365 0.993365
0.148630 0.651063 0.993630
0.274083 0.656583 0.994083
0.399556 0.664001 0.994556
0.525063 0.674609 0.995063
0.650634 0.691222 0.995634
0.760083 0.701083 0.996083
0.858730 0.701396 0.996396
0.957376 0.701710 0.996710
0.074599 0.764599 0.994599
0.149855 0.766477 0.994855
0.275290 0.770290 0.995290
0.400738 0.775368 0.995738
0.526209 0.782573 0.996209
0.651723 0.793781 0.996723
0.777332 0.813998 0.997332
0.878797 0.827797 0.997797
0.964068 0.828068 0.998068
0.075832 0.880832 0.995832
0.151080 0.881891 0.996080
0.276497 0.883997 0.996497
0.401920 0.886735 0.996920
0.527355 0.890537 0.997355
0.652811 0.896341 0.997811
0.778315 0.906648 0.998315
0.903969 0.931112 0.998969
0.981460 0.954460 0.999460
0.077066 0.997066 0.997066
0.152305 0.997305 0.997305
0.277704 0.997704 0.997704
0.403103 0.998103 0.998103
0.528501 0.998501 0.998501
0.653900 0.998900 0.998900
0.779298 0.999298 0.999298
0.904697 0.999697 0.999697
1.000000 1.000000 1.000000
