luts/original/drill-dark-cover.cube
TITLE "Drill Dark Cover"
LUT_3D_SIZE 5
DOMAIN_MIN 0.0 0.0 0.0
DOMAIN_MAX 1.0 1.0 1.0
0.000000 0.000000 0.012288
0.217137 0.000962 0.024537
0.457414 0.015464 0.046514
0.698028 0.036803 0.075328
0.938977 0.064977 0.110977
0.004006 0.243756 0.027581
0.220998 0.244061 0.029936
0.459097 0.254997 0.050897
0.700123 0.274467 0.080773
0.941482 0.300593 0.117482
0.020645 0.493645 0.051695
0.228299 0.494049 0.054799
0.463790 0.494540 0.055290
0.702175 0.508481 0.082825
0.943938 0.531938 0.119938
0.044682 0.744432 0.083207
0.242543 0.744936 0.087061
0.475207 0.745546 0.087671
0.707871 0.746157 0.088282
0.946393 0.763282 0.122393
0.076120 0.996120 0.122120
0.264090 0.996721 0.126721
0.493767 0.997452 0.127452
0.723445 0.998182 0.128182
0.953122 0.998912 0.128912
0.004950 0.004950 0.268275
0.221426 0.005251 0.268576
0.457582 0.015632 0.283182
0.698236 0.037011 0.308786
0.939226 0.065226 0.341226
0.006215 0.245965 0.269540
0.230961 0.250436 0.269911
0.459404 0.267454 0.295129
0.700499 0.289274 0.325938
0.941928 0.317928 0.362500
0.020813 0.493813 0.288363
0.237501 0.494251 0.296001
0.467734 0.494734 0.305484
0.702499 0.517824 0.333149
0.944365 0.546981 0.370365
0.044891 0.744641 0.316666
0.253562 0.745187 0.328176
0.487436 0.745811 0.337936
0.710098 0.746390 0.338515
0.946734 0.770118 0.372734
0.076369 0.996369 0.352369
0.277022 0.997022 0.367022
0.510632 0.997775 0.377775
0.732767 0.998481 0.378481
0.954902 0.999187 0.379187
0.020390 0.020390 0.524440
0.226236 0.020786 0.524836
0.463232 0.021282 0.525332
0.698445 0.037220 0.542245
0.939475 0.065475 0.571475
0.022056 0.258556 0.526106
0.238836 0.268343 0.526636
0.469556 0.273106 0.527156
0.700697 0.289472 0.550080
0.942170 0.318170 0.585598
0.023721 0.496721 0.527771
0.240419 0.498711 0.528219
0.491070 0.509970 0.528870
0.702964 0.541740 0.571890
0.944878 0.570878 0.612433
0.045100 0.744850 0.550125
0.253764 0.745389 0.555537
0.504448 0.746073 0.571448
0.717326 0.746639 0.588764
0.947161 0.785161 0.623161
0.076618 0.996618 0.582618
0.277265 0.997265 0.592265
0.528085 0.998085 0.613539
0.752146 0.998813 0.628813
0.958357 0.999468 0.629468
0.042509 0.042509 0.780784
0.237725 0.043000 0.781276
0.471590 0.043615 0.781890
0.705454 0.044229 0.782504
0.939724 0.065724 0.801724
0.044576 0.277826 0.782851
0.253366 0.290775 0.783516
0.484529 0.295895 0.784170
0.710755 0.296485 0.784760
0.942411 0.318411 0.808697
0.046642 0.513142 0.784917
0.255373 0.520448 0.785523
0.506246 0.540464 0.786396
0.721149 0.548757 0.787032
0.945103 0.571103 0.820436
0.048709 0.748459 0.786983
0.257380 0.750121 0.787530
0.508082 0.754014 0.788232
0.758955 0.774030 0.789105
0.947819 0.823819 0.854819
0.076867 0.996867 0.812867
0.277509 0.997509 0.817509
0.528316 0.998316 0.827407
0.779140 0.999140 0.852473
0.969774 0.999774 0.879774
0.067196 0.067196 0.987196
0.251783 0.067783 0.987783
0.482517 0.068517 0.988517
0.713250 0.069250 0.989250
0.943984 0.069984 0.989984
0.069664 0.299664 0.989664
0.270463 0.315463 0.990463
0.499912 0.321245 0.991245
0.723958 0.321958 0.991958
0.948003 0.322670 0.992670
0.072131 0.532131 0.992131
0.272876 0.542876 0.992876
0.523917 0.566645 0.993917
0.742691 0.574691 0.994691
0.953360 0.575360 0.995360
0.074599 0.764599 0.994599
0.275290 0.770290 0.995290
0.526209 0.782573 0.996209
0.777332 0.813998 0.997332
0.964068 0.828068 0.998068
0.077066 0.997066 0.997066
0.277704 0.997704 0.997704
0.528501 0.998501 0.998501
0.779298 0.999298 0.999298
1.000000 1.000000 1.000000
