luts/original/epic-scope.cube
TITLE "Epic Scope"
LUT_3D_SIZE 5
DOMAIN_MIN 0.0 0.0 0.0
DOMAIN_MAX 1.0 1.0 1.0
0.000000 0.000000 0.026250
0.215104 0.000000 0.034896
0.458703 0.000000 0.041297
0.704548 0.000000 0.045452
0.952638 0.000000 0.047362
0.000000 0.250000 0.022365
0.225056 0.250000 0.014015
0.474393 0.239084 0.003775
0.724014 0.232286 0.000000
0.975882 0.231606 0.000000
0.000000 0.500000 0.006214
0.227140 0.500000 0.000000
0.489782 0.500000 0.000000
0.743481 0.497850 0.000000
0.999126 0.499563 0.000000
0.020440 0.750000 0.000000
0.251375 0.750000 0.000000
0.507161 0.750000 0.000000
0.762948 0.750000 0.000000
1.000000 0.750000 0.000000
0.039336 1.000000 0.000000
0.274886 1.000000 0.000000
0.531795 1.000000 0.000000
0.788705 1.000000 0.000000
1.000000 1.000000 0.000000
0.000509 0.000000 0.287235
0.216306 0.000000 0.283694
0.460287 0.000000 0.289713
0.706513 0.000000 0.293487
0.954984 0.000000 0.295016
0.000000 0.249050 0.275322
0.217725 0.244753 0.271781
0.475976 0.228057 0.255723
0.725980 0.207713 0.234306
0.978229 0.181524 0.205343
0.000000 0.500000 0.261149
0.213377 0.500000 0.242752
0.490439 0.500000 0.234709
0.745447 0.478175 0.210903
1.000000 0.453425 0.178528
0.000000 0.750000 0.234803
0.210067 0.750000 0.202691
0.488549 0.750000 0.196905
0.764913 0.748504 0.190074
1.000000 0.727411 0.155283
0.000000 1.000000 0.197306
0.212137 1.000000 0.152768
0.492554 1.000000 0.145858
0.772561 1.000000 0.138949
1.000000 1.000000 0.132040
0.001340 0.000000 0.547457
0.207207 0.000000 0.542793
0.461871 0.000000 0.538129
0.708478 0.000000 0.541522
0.957331 0.000000 0.542669
0.000000 0.245572 0.531768
0.197374 0.227580 0.527104
0.471646 0.224804 0.522440
0.727945 0.207575 0.504381
0.980575 0.181360 0.476098
0.000000 0.499307 0.516078
0.214162 0.498545 0.511414
0.469153 0.487951 0.506750
0.747412 0.456212 0.459349
1.000000 0.430531 0.426181
0.000000 0.750000 0.491327
0.211336 0.750000 0.471864
0.471547 0.750000 0.444939
0.766879 0.746866 0.437971
1.000000 0.716797 0.402937
0.000000 1.000000 0.454803
0.209578 1.000000 0.418965
0.476010 1.000000 0.393512
0.766783 1.000000 0.386602
1.000000 1.000000 0.379693
0.002494 0.000000 0.806917
0.198870 0.000000 0.801130
0.454656 0.000000 0.795344
0.710443 0.000000 0.789557
0.959678 0.000000 0.790322
0.000000 0.242525 0.787450
0.172151 0.206848 0.781663
0.447237 0.204220 0.775877
0.725756 0.204625 0.770090
0.982921 0.181195 0.746816
0.000000 0.493124 0.767983
0.192981 0.477589 0.762197
0.449173 0.456864 0.756410
0.749116 0.455988 0.750623
1.000000 0.430000 0.707971
0.000000 0.750000 0.748449
0.213302 0.750000 0.741953
0.469088 0.750000 0.734019
0.768844 0.727356 0.685868
1.000000 0.687368 0.650590
0.000000 1.000000 0.712833
0.211925 1.000000 0.690592
0.468834 1.000000 0.667324
0.747398 1.000000 0.634256
1.000000 1.000000 0.627347
0.003971 0.000000 0.996029
0.191296 0.000000 0.993106
0.448205 0.000000 0.990183
0.705114 0.000000 0.987259
0.962024 0.000000 0.984336
0.000000 0.239548 0.986195
0.145710 0.184346 0.983272
0.423632 0.181376 0.980349
0.704932 0.181580 0.977425
0.985268 0.181031 0.973492
0.000000 0.488180 0.976361
0.169643 0.456147 0.973438
0.426757 0.432822 0.970514
0.720316 0.432269 0.967591
1.000000 0.430000 0.959722
0.000000 0.742232 0.966527
0.193575 0.729493 0.963604
0.450689 0.718000 0.960680
0.715821 0.682957 0.957757
1.000000 0.680000 0.942188
0.000000 1.000000 0.954733
0.214272 1.000000 0.949248
0.471181 1.000000 0.943347
0.728091 1.000000 0.929869
1.000000 1.000000 0.875000
