luts/original/epic-scope.cube
TITLE "Epic Scope"
LUT_3D_SIZE 33
DOMAIN_MIN 0.0 0.0 0.0
DOMAIN_MAX 1.0 1.0 1.0
0.000000 0.000000 0.026250
0.019813 0.000000 0.027454
0.038371 0.000000 0.028622
0.063994 0.000000 0.029756
0.094146 0.000000 0.030854
0.124333 0.000000 0.031917
0.154555 0.000000 0.032945
0.184812 0.000000 0.033938
0.215104 0.000000 0.034896
0.245431 0.000000 0.035819
0.275793 0.000000 0.036707
0.306190 0.000000 0.037560
0.336623 0.000000 0.038377
0.367090 0.000000 0.039160
0.397592 0.000000 0.039908
0.428130 0.000000 0.040620
0.458703 0.000000 0.041297
0.489311 0.000000 0.041939
0.519953 0.000000 0.042546
0.550631 0.000000 0.043119
0.581345 0.000000 0.043655
0.612093 0.000000 0.044157
0.642876 0.000000 0.044624
0.673694 0.000000 0.045056
0.704548 0.000000 0.045452
0.735436 0.000000 0.045814
0.766360 0.000000 0.046140
0.797318 0.000000 0.046432
0.828312 0.000000 0.046688
0.859341 0.000000 0.046909
0.890405 0.000000 0.047095
0.921504 0.000000 0.047246
0.952638 0.000000 0.047362
0.000000 0.030988 0.026697
0.019678 0.030911 0.026378
0.038086 0.030812 0.027487
0.063189 0.029560 0.028562
0.094719 0.029178 0.029601
0.125645 0.028453 0.029594
0.155926 0.027267 0.029181
0.186242 0.025989 0.028755
0.216593 0.024620 0.028242
0.246979 0.023159 0.027621
0.277400 0.021607 0.026883
0.307856 0.019964 0.026023
0.338348 0.018230 0.025039
0.368874 0.016404 0.023929
0.399436 0.014487 0.022693
0.430032 0.012478 0.021330
0.460664 0.010379 0.019839
0.491331 0.009521 0.019475
0.522033 0.008887 0.019296
0.552770 0.008252 0.019091
0.583542 0.007617 0.018859
0.614349 0.006982 0.018598
0.645191 0.006348 0.018308
0.676069 0.005713 0.017988
0.706981 0.005078 0.017636
0.737929 0.004443 0.017253
0.768911 0.003809 0.016837
0.799929 0.003174 0.016389
0.830982 0.002539 0.015909
0.862069 0.001904 0.015395
0.893192 0.001270 0.014848
0.924350 0.000635 0.014267
0.955544 0.000000 0.013653
0.000000 0.062404 0.027027
0.019043 0.062402 0.026690
0.038086 0.062404 0.026352
0.064467 0.062301 0.027368
0.094668 0.061508 0.028348
0.126957 0.059612 0.026642
0.157297 0.058421 0.026225
0.187672 0.057139 0.025754
0.218082 0.055777 0.025184
0.248527 0.054357 0.024524
0.279007 0.052844 0.023738
0.309522 0.051240 0.022825
0.340073 0.049547 0.021786
0.370658 0.047763 0.020621
0.401279 0.045890 0.019329
0.431935 0.043928 0.017911
0.462625 0.041876 0.016366
0.493351 0.039735 0.014695
0.524112 0.037505 0.012897
0.554908 0.035186 0.010974
0.585739 0.032778 0.008923
0.616605 0.030281 0.006747
0.647507 0.027695 0.004443
0.678443 0.025020 0.002014
0.709414 0.022787 0.000000
0.740421 0.022558 0.000000
0.771463 0.022362 0.000000
0.802539 0.022201 0.000000
0.833651 0.022072 0.000000
0.864798 0.021978 0.000000
0.895980 0.021918 0.000000
0.927197 0.021891 0.000000
0.958449 0.021898 0.000000
0.000000 0.093750 0.026776
0.018408 0.093750 0.026357
0.036816 0.093750 0.025935
0.064880 0.093750 0.024901
0.095075 0.093750 0.024324
0.128269 0.093701 0.025001
0.158668 0.091662 0.024657
0.189102 0.090151 0.024187
0.219571 0.088702 0.023590
0.250075 0.087225 0.022868
0.280614 0.085689 0.022018
0.311189 0.084081 0.021042
0.341798 0.082395 0.019940
0.372442 0.080627 0.018712
0.403122 0.078775 0.017357
0.433837 0.076837 0.015875
0.464586 0.074814 0.014267
0.495371 0.072703 0.012533
0.526191 0.070506 0.010673
0.557046 0.068220 0.008686
0.587936 0.065847 0.006572
0.618862 0.063386 0.004332
0.649822 0.060837 0.001966
0.680817 0.058686 0.000000
0.711848 0.058388 0.000000
0.742913 0.058132 0.000000
0.774014 0.057915 0.000000
0.805150 0.057736 0.000000
0.836320 0.057597 0.000000
0.867526 0.057495 0.000000
0.898767 0.057430 0.000000
0.930043 0.057403 0.000000
0.961354 0.057412 0.000000
0.000000 0.125000 0.026244
0.017773 0.125000 0.025770
0.035547 0.125000 0.025294
0.063762 0.125000 0.023582
0.095683 0.125000 0.022068
0.127915 0.125000 0.022718
0.160039 0.124741 0.023190
0.190532 0.123054 0.022657
0.221060 0.121529 0.021997
0.251623 0.120019 0.021211
0.282221 0.118474 0.020299
0.312855 0.116871 0.019260
0.343523 0.115199 0.018094
0.374227 0.113451 0.016803
0.404965 0.111624 0.015384
0.435739 0.109715 0.013840
0.466548 0.107722 0.012169
0.497392 0.105644 0.010372
0.528270 0.103480 0.008448
0.559185 0.101230 0.006398
0.590134 0.098893 0.004221
0.621118 0.096468 0.001918
0.652137 0.094399 0.000000
0.683192 0.094028 0.000000
0.714281 0.093706 0.000000
0.745406 0.093431 0.000000
0.776565 0.093200 0.000000
0.807760 0.093013 0.000000
0.838990 0.092869 0.000000
0.870255 0.092765 0.000000
0.901555 0.092702 0.000000
0.932890 0.092679 0.000000
0.964260 0.092696 0.000000
0.000000 0.156250 0.025536
0.017139 0.156250 0.025019
0.034277 0.156250 0.024500
0.062674 0.156250 0.022101
0.094860 0.156250 0.020808
0.128122 0.156250 0.020418
0.160181 0.156250 0.020929
0.191962 0.155834 0.021127
0.222549 0.154268 0.020404
0.253171 0.152745 0.019555
0.283828 0.151204 0.018579
0.314521 0.149614 0.017477
0.345248 0.147963 0.016248
0.376011 0.146240 0.014894
0.406808 0.144441 0.013412
0.437641 0.142562 0.011805
0.468509 0.140602 0.010070
0.499412 0.138558 0.008210
0.530350 0.136429 0.006223
0.561323 0.134216 0.004110
0.592331 0.131916 0.001870
0.623374 0.129926 0.000000
0.654453 0.129477 0.000000
0.685566 0.129085 0.000000
0.716714 0.128748 0.000000
0.747898 0.128462 0.000000
0.779117 0.128226 0.000000
0.810370 0.128037 0.000000
0.841659 0.127894 0.000000
0.872983 0.127795 0.000000
0.904342 0.127739 0.000000
0.935736 0.127725 0.000000
0.967166 0.127753 0.000000
0.000000 0.187500 0.024654
0.016504 0.187500 0.024099
0.033008 0.187500 0.023542
0.061615 0.187500 0.020423
0.094051 0.187500 0.019341
0.127225 0.187500 0.018933
0.160380 0.187500 0.018526
0.192429 0.187500 0.018898
0.224038 0.186930 0.018811
0.254719 0.185411 0.017898
0.285436 0.183883 0.016859
0.316187 0.182314 0.015694
0.346973 0.180688 0.014403
0.377795 0.178994 0.012985
0.408652 0.177226 0.011440
0.439543 0.175381 0.009769
0.470470 0.173455 0.007972
0.501432 0.171447 0.006048
0.532429 0.169355 0.003998
0.563461 0.167178 0.001822
0.594528 0.165268 0.000000
0.625630 0.164733 0.000000
0.656768 0.164267 0.000000
0.687940 0.163864 0.000000
0.719148 0.163521 0.000000
0.750390 0.163233 0.000000
0.781668 0.162998 0.000000
0.812981 0.162813 0.000000
0.844329 0.162677 0.000000
0.875712 0.162588 0.000000
0.907130 0.162544 0.000000
0.938583 0.162544 0.000000
0.970071 0.162587 0.000000
0.000000 0.218750 0.023597
0.015869 0.218750 0.023007
0.031738 0.218750 0.022321
0.060585 0.218750 0.018534
0.093276 0.218750 0.017667
0.126422 0.218750 0.017242
0.159552 0.218750 0.016817
0.192668 0.218750 0.016391
0.224770 0.218750 0.016625
0.256267 0.218022 0.016242
0.287043 0.216516 0.015140
0.317853 0.214974 0.013911
0.348698 0.213377 0.012557
0.379579 0.211715 0.011075
0.410495 0.209981 0.009468
0.441445 0.208171 0.007734
0.472431 0.206282 0.005873
0.503452 0.204311 0.003887
0.534508 0.202257 0.001773
0.565599 0.200423 0.000000
0.596726 0.199795 0.000000
0.627887 0.199249 0.000000
0.659083 0.198777 0.000000
0.690315 0.198372 0.000000
0.721581 0.198031 0.000000
0.752883 0.197748 0.000000
0.784219 0.197522 0.000000
0.815591 0.197348 0.000000
0.846998 0.197224 0.000000
0.878440 0.197150 0.000000
0.909917 0.197122 0.000000
0.941429 0.197141 0.000000
0.972977 0.197204 0.000000
0.000000 0.250000 0.022365
0.015234 0.250000 0.021742
0.030469 0.250000 0.020259
0.059584 0.250000 0.016428
0.092540 0.250000 0.015786
0.125687 0.250000 0.015343
0.158822 0.250000 0.014900
0.191945 0.250000 0.014458
0.225056 0.250000 0.014015
0.257239 0.250000 0.014110
0.288650 0.249107 0.013420
0.319519 0.247596 0.012129
0.350424 0.246033 0.010711
0.381363 0.244406 0.009166
0.412338 0.242708 0.007496
0.443348 0.240935 0.005699
0.474393 0.239084 0.003775
0.505472 0.237152 0.001725
0.536587 0.235391 0.000000
0.567738 0.234663 0.000000
0.598923 0.234030 0.000000
0.630143 0.233484 0.000000
0.661398 0.233015 0.000000
0.692689 0.232617 0.000000
0.724014 0.232286 0.000000
0.755375 0.232015 0.000000
0.786771 0.231803 0.000000
0.818202 0.231645 0.000000
0.849668 0.231540 0.000000
0.881169 0.231485 0.000000
0.912705 0.231479 0.000000
0.944276 0.231520 0.000000
0.975882 0.231606 0.000000
0.000000 0.281250 0.020958
0.014600 0.281250 0.020304
0.029199 0.281250 0.017893
0.058668 0.281250 0.014158
0.091844 0.281250 0.013698
0.125010 0.281250 0.013237
0.158166 0.281250 0.012777
0.191311 0.281250 0.012317
0.224445 0.281250 0.011857
0.257569 0.281250 0.011397
0.289852 0.281250 0.011354
0.321185 0.280183 0.010346
0.352149 0.278656 0.008865
0.383147 0.277067 0.007257
0.414181 0.275408 0.005524
0.445250 0.273674 0.003663
0.476354 0.271862 0.001677
0.507493 0.270173 0.000000
0.538667 0.269333 0.000000
0.569876 0.268608 0.000000
0.601120 0.267982 0.000000
0.632399 0.267445 0.000000
0.663714 0.266989 0.000000
0.695063 0.266606 0.000000
0.726448 0.266291 0.000000
0.757867 0.266040 0.000000
0.789322 0.265848 0.000000
0.820812 0.265712 0.000000
0.852337 0.265630 0.000000
0.883897 0.265599 0.000000
0.915492 0.265618 0.000000
0.947122 0.265685 0.000000
0.978787 0.265798 0.000000
0.000000 0.312500 0.019376
0.013965 0.312500 0.018691
0.027930 0.312500 0.015237
0.057987 0.312500 0.011881
0.091191 0.312500 0.011403
0.124386 0.312500 0.010925
0.157572 0.312500 0.010447
0.190749 0.312500 0.009970
0.223916 0.312500 0.009492
0.257074 0.312500 0.009014
0.290224 0.312500 0.008536
0.322615 0.312500 0.008355
0.353874 0.311250 0.007019
0.384932 0.309701 0.005348
0.416024 0.308082 0.003551
0.447152 0.306389 0.001628
0.478315 0.304768 0.000000
0.509513 0.303805 0.000000
0.540746 0.302978 0.000000
0.572014 0.302267 0.000000
0.603317 0.301659 0.000000
0.634656 0.301141 0.000000
0.666029 0.300706 0.000000
0.697438 0.300345 0.000000
0.728881 0.300054 0.000000
0.760360 0.299827 0.000000
0.791874 0.299661 0.000000
0.823422 0.299552 0.000000
0.855006 0.299497 0.000000
0.886625 0.299495 0.000000
0.918280 0.299543 0.000000
0.949969 0.299640 0.000000
0.981693 0.299783 0.000000
0.000000 0.343750 0.017620
0.013330 0.343750 0.016905
0.026660 0.343750 0.012298
0.057342 0.343750 0.009396
0.090581 0.343750 0.008901
0.123813 0.343750 0.008406
0.157035 0.343750 0.007910
0.190250 0.343750 0.007415
0.223456 0.343750 0.006920
0.256654 0.343750 0.006425
0.289844 0.343750 0.005929
0.323026 0.343750 0.005434
0.355534 0.343750 0.005114
0.386716 0.342308 0.003439
0.417867 0.340731 0.001579
0.449054 0.339175 0.000000
0.480276 0.338076 0.000000
0.511533 0.337138 0.000000
0.542825 0.336336 0.000000
0.574152 0.335651 0.000000
0.605515 0.335069 0.000000
0.636912 0.334579 0.000000
0.668344 0.334172 0.000000
0.699812 0.333841 0.000000
0.731315 0.333579 0.000000
0.762852 0.333383 0.000000
0.794425 0.333248 0.000000
0.826033 0.333171 0.000000
0.857676 0.333148 0.000000
0.889354 0.333178 0.000000
0.921067 0.333259 0.000000
0.952815 0.333389 0.000000
0.984599 0.333566 0.000000
0.000000 0.375000 0.015688
0.012695 0.375000 0.014944
0.025391 0.375000 0.009082
0.056735 0.375000 0.006705
0.090015 0.375000 0.006192
0.123287 0.375000 0.005680
0.156551 0.375000 0.005167
0.189808 0.375000 0.004654
0.223057 0.375000 0.004141
0.256299 0.375000 0.003628
0.289534 0.375000 0.003115
0.322761 0.375000 0.002603
0.355980 0.375000 0.002090
0.388500 0.374891 0.001530
0.419711 0.373393 0.000000
0.450956 0.372142 0.000000
0.482237 0.371082 0.000000
0.513553 0.370181 0.000000
0.544904 0.369416 0.000000
0.576291 0.368767 0.000000
0.607712 0.368221 0.000000
0.639168 0.367767 0.000000
0.670660 0.367395 0.000000
0.702186 0.367100 0.000000
0.733748 0.366874 0.000000
0.765345 0.366713 0.000000
0.796976 0.366614 0.000000
0.828643 0.366573 0.000000
0.860345 0.366586 0.000000
0.892082 0.366653 0.000000
0.923854 0.366770 0.000000
0.955662 0.366936 0.000000
0.987504 0.367150 0.000000
0.000000 0.406250 0.013582
0.012061 0.406250 0.012808
0.024121 0.406250 0.005593
0.056168 0.406250 0.003807
0.089492 0.406250 0.003277
0.122808 0.406250 0.002746
0.156118 0.406250 0.002216
0.189420 0.406250 0.001686
0.222716 0.406250 0.001155
0.256004 0.406250 0.000625
0.289286 0.406250 0.000095
0.322665 0.406250 0.000000
0.355977 0.406250 0.000000
0.389192 0.406250 0.000000
0.421554 0.405998 0.000000
0.452859 0.404804 0.000000
0.484199 0.403797 0.000000
0.515574 0.402946 0.000000
0.546984 0.402228 0.000000
0.578429 0.401625 0.000000
0.609909 0.401123 0.000000
0.641425 0.400711 0.000000
0.672975 0.400382 0.000000
0.704561 0.400128 0.000000
0.736181 0.399943 0.000000
0.767837 0.399823 0.000000
0.799528 0.399764 0.000000
0.831254 0.399763 0.000000
0.863015 0.399816 0.000000
0.894811 0.399922 0.000000
0.926642 0.400079 0.000000
0.958508 0.400285 0.000000
0.990409 0.400538 0.000000
0.000000 0.437500 0.011301
0.011426 0.437500 0.010498
0.022852 0.437500 0.001833
0.055642 0.437500 0.000702
0.089013 0.437500 0.000154
0.122677 0.437500 0.000000
0.156377 0.437500 0.000000
0.189983 0.437500 0.000000
0.223496 0.437500 0.000000
0.256916 0.437500 0.000000
0.290243 0.437500 0.000000
0.323479 0.437500 0.000000
0.356624 0.437500 0.000000
0.389678 0.437500 0.000000
0.422642 0.437500 0.000000
0.454761 0.437175 0.000000
0.486160 0.436234 0.000000
0.517594 0.435443 0.000000
0.549063 0.434781 0.000000
0.580567 0.434231 0.000000
0.612107 0.433781 0.000000
0.643681 0.433419 0.000000
0.675290 0.433138 0.000000
0.706935 0.432931 0.000000
0.738615 0.432792 0.000000
0.770329 0.432717 0.000000
0.802079 0.432702 0.000000
0.833864 0.432745 0.000000
0.865684 0.432842 0.000000
0.897539 0.432991 0.000000
0.929429 0.433191 0.000000
0.961355 0.433439 0.000000
0.993315 0.433734 0.000000
0.000000 0.468750 0.008845
0.010791 0.468750 0.008014
0.023763 0.468750 0.000000
0.057554 0.468750 0.000000
0.091255 0.468750 0.000000
0.124867 0.468750 0.000000
0.158389 0.468750 0.000000
0.191823 0.468750 0.000000
0.225169 0.468750 0.000000
0.258427 0.468750 0.000000
0.291599 0.468750 0.000000
0.324683 0.468750 0.000000
0.357682 0.468750 0.000000
0.390595 0.468750 0.000000
0.423424 0.468750 0.000000
0.456167 0.468750 0.000000
0.488121 0.468401 0.000000
0.519614 0.467680 0.000000
0.551142 0.467083 0.000000
0.582705 0.466595 0.000000
0.614304 0.466203 0.000000
0.645937 0.465897 0.000000
0.677606 0.465669 0.000000
0.709309 0.465514 0.000000
0.741048 0.465426 0.000000
0.772822 0.465400 0.000000
0.804631 0.465434 0.000000
0.836475 0.465524 0.000000
0.868354 0.465668 0.000000
0.900268 0.465863 0.000000
0.932217 0.466108 0.000000
0.964201 0.466401 0.000000
0.996221 0.466741 0.000000
0.000000 0.500000 0.006214
0.010156 0.500000 0.005355
0.026682 0.500000 0.000000
0.060303 0.500000 0.000000
0.093840 0.500000 0.000000
0.127291 0.500000 0.000000
0.160658 0.500000 0.000000
0.193940 0.500000 0.000000
0.227140 0.500000 0.000000
0.260256 0.500000 0.000000
0.293290 0.500000 0.000000
0.326241 0.500000 0.000000
0.359111 0.500000 0.000000
0.391900 0.500000 0.000000
0.424607 0.500000 0.000000
0.457235 0.500000 0.000000
0.489782 0.500000 0.000000
0.521634 0.499667 0.000000
0.553221 0.499143 0.000000
0.584844 0.498723 0.000000
0.616501 0.498395 0.000000
0.648193 0.498151 0.000000
0.679921 0.497982 0.000000
0.711684 0.497883 0.000000
0.743481 0.497850 0.000000
0.775314 0.497878 0.000000
0.807182 0.497964 0.000000
0.839085 0.498105 0.000000
0.871023 0.498298 0.000000
0.902996 0.498543 0.000000
0.935004 0.498836 0.000000
0.967048 0.499176 0.000000
0.999126 0.499563 0.000000
0.000000 0.531250 0.003408
0.009521 0.531250 0.002521
0.029776 0.531250 0.000000
0.063247 0.531250 0.000000
0.096637 0.531250 0.000000
0.129946 0.531250 0.000000
0.163174 0.531250 0.000000
0.196323 0.531250 0.000000
0.229392 0.531250 0.000000
0.262382 0.531250 0.000000
0.295293 0.531250 0.000000
0.328125 0.531250 0.000000
0.360880 0.531250 0.000000
0.393556 0.531250 0.000000
0.426156 0.531250 0.000000
0.458679 0.531250 0.000000
0.491125 0.531250 0.000000
0.523495 0.531250 0.000000
0.555301 0.530969 0.000000
0.586982 0.530623 0.000000
0.618698 0.530365 0.000000
0.650450 0.530187 0.000000
0.682236 0.530082 0.000000
0.714058 0.530044 0.000000
0.745915 0.530070 0.000000
0.777806 0.530155 0.000000
0.809733 0.530296 0.000000
0.841695 0.530490 0.000000
0.873692 0.530737 0.000000
0.905725 0.531033 0.000000
0.937792 0.531250 0.000000
0.969894 0.531250 0.000000
1.000000 0.531250 0.000000
0.000000 0.562500 0.000428
0.009374 0.562500 0.000000
0.033051 0.562500 0.000000
0.066388 0.562500 0.000000
0.099647 0.562500 0.000000
0.132829 0.562500 0.000000
0.165933 0.562500 0.000000
0.198961 0.562500 0.000000
0.231913 0.562500 0.000000
0.264789 0.562500 0.000000
0.297589 0.562500 0.000000
0.330314 0.562500 0.000000
0.362965 0.562500 0.000000
0.395540 0.562500 0.000000
0.428042 0.562500 0.000000
0.460470 0.562500 0.000000
0.492824 0.562500 0.000000
0.525106 0.562500 0.000000
0.557314 0.562500 0.000000
0.589120 0.562301 0.000000
0.620896 0.562119 0.000000
0.652706 0.562012 0.000000
0.684552 0.561974 0.000000
0.716432 0.562001 0.000000
0.748348 0.562089 0.000000
0.780299 0.562234 0.000000
0.812285 0.562434 0.000000
0.844306 0.562500 0.000000
0.876362 0.562500 0.000000
0.908453 0.562500 0.000000
0.940579 0.562500 0.000000
0.972741 0.562500 0.000000
1.000000 0.562500 0.000000
0.002710 0.593750 0.000000
0.011893 0.593750 0.000000
0.036515 0.593750 0.000000
0.069730 0.593750 0.000000
0.102871 0.593750 0.000000
0.135938 0.593750 0.000000
0.168930 0.593750 0.000000
0.201849 0.593750 0.000000
0.234694 0.593750 0.000000
0.267467 0.593750 0.000000
0.300166 0.593750 0.000000
0.332794 0.593750 0.000000
0.365349 0.593750 0.000000
0.397832 0.593750 0.000000
0.430244 0.593750 0.000000
0.462585 0.593750 0.000000
0.494855 0.593750 0.000000
0.527055 0.593750 0.000000
0.559185 0.593750 0.000000
0.591244 0.593750 0.000000
0.623093 0.593662 0.000000
0.654962 0.593630 0.000000
0.686867 0.593664 0.000000
0.718807 0.593750 0.000000
0.750781 0.593750 0.000000
0.782791 0.593750 0.000000
0.814836 0.593750 0.000000
0.846916 0.593750 0.000000
0.879031 0.593750 0.000000
0.911181 0.593750 0.000000
0.943367 0.593750 0.000000
0.975587 0.593750 0.000000
1.000000 0.593750 0.000000
0.005981 0.625000 0.000000
0.014544 0.625000 0.000000
0.040172 0.625000 0.000000
0.073276 0.625000 0.000000
0.106309 0.625000 0.000000
0.139271 0.625000 0.000000
0.172161 0.625000 0.000000
0.204980 0.625000 0.000000
0.237728 0.625000 0.000000
0.270405 0.625000 0.000000
0.303013 0.625000 0.000000
0.335550 0.625000 0.000000
0.368018 0.625000 0.000000
0.400417 0.625000 0.000000
0.432746 0.625000 0.000000
0.465007 0.625000 0.000000
0.497199 0.625000 0.000000
0.529324 0.625000 0.000000
0.561380 0.625000 0.000000
0.593369 0.625000 0.000000
0.625290 0.625000 0.000000
0.657219 0.625000 0.000000
0.689182 0.625000 0.000000
0.721181 0.625000 0.000000
0.753215 0.625000 0.000000
0.785284 0.625000 0.000000
0.817388 0.625000 0.000000
0.849527 0.625000 0.000000
0.881701 0.625000 0.000000
0.913910 0.625000 0.000000
0.946154 0.625000 0.000000
0.978434 0.625000 0.000000
1.000000 0.625000 0.000000
0.009387 0.656250 0.000000
0.017330 0.656250 0.000000
0.044025 0.656250 0.000000
0.077028 0.656250 0.000000
0.109962 0.656250 0.000000
0.142827 0.656250 0.000000
0.175623 0.656250 0.000000
0.208349 0.656250 0.000000
0.241008 0.656250 0.000000
0.273598 0.656250 0.000000
0.306120 0.656250 0.000000
0.338574 0.656250 0.000000
0.370962 0.656250 0.000000
0.403281 0.656250 0.000000
0.435534 0.656250 0.000000
0.467721 0.656250 0.000000
0.499841 0.656250 0.000000
0.531792 0.656250 0.000000
0.563713 0.656250 0.000000
0.595634 0.656250 0.000000
0.627554 0.656250 0.000000
0.659475 0.656250 0.000000
0.691498 0.656250 0.000000
0.723555 0.656250 0.000000
0.755648 0.656250 0.000000
0.787776 0.656250 0.000000
0.819939 0.656250 0.000000
0.852137 0.656250 0.000000
0.884370 0.656250 0.000000
0.916638 0.656250 0.000000
0.948942 0.656250 0.000000
0.981280 0.656250 0.000000
1.000000 0.656250 0.000000
0.012930 0.687500 0.000000
0.020255 0.687500 0.000000
0.048077 0.687500 0.000000
0.080987 0.687500 0.000000
0.113830 0.687500 0.000000
0.146605 0.687500 0.000000
0.179313 0.687500 0.000000
0.211955 0.687500 0.000000
0.244530 0.687500 0.000000
0.277039 0.687500 0.000000
0.309482 0.687500 0.000000
0.341859 0.687500 0.000000
0.374171 0.687500 0.000000
0.406369 0.687500 0.000000
0.438307 0.687500 0.000000
0.470245 0.687500 0.000000
0.502183 0.687500 0.000000
0.534122 0.687500 0.000000
0.566060 0.687500 0.000000
0.597998 0.687500 0.000000
0.629936 0.687500 0.000000
0.661875 0.687500 0.000000
0.693813 0.687500 0.000000
0.725930 0.687500 0.000000
0.758081 0.687500 0.000000
0.790268 0.687500 0.000000
0.822490 0.687500 0.000000
0.854747 0.687500 0.000000
0.887040 0.687500 0.000000
0.919367 0.687500 0.000000
0.951729 0.687500 0.000000
0.984127 0.687500 0.000000
1.000000 0.687500 0.000000
0.016614 0.718750 0.000000
0.023321 0.718750 0.000000
0.052331 0.718750 0.000000
0.085154 0.718750 0.000000
0.117912 0.718750 0.000000
0.150604 0.718750 0.000000
0.183231 0.718750 0.000000
0.215793 0.718750 0.000000
0.248290 0.718750 0.000000
0.280723 0.718750 0.000000
0.312879 0.718750 0.000000
0.344834 0.718750 0.000000
0.376790 0.718750 0.000000
0.408746 0.718750 0.000000
0.440702 0.718750 0.000000
0.472658 0.718750 0.000000
0.504613 0.718750 0.000000
0.536569 0.718750 0.000000
0.568525 0.718750 0.000000
0.600481 0.718750 0.000000
0.632437 0.718750 0.000000
0.664392 0.718750 0.000000
0.696348 0.718750 0.000000
0.728304 0.718750 0.000000
0.760515 0.718750 0.000000
0.792761 0.718750 0.000000
0.825042 0.718750 0.000000
0.857358 0.718750 0.000000
0.889709 0.718750 0.000000
0.922095 0.718750 0.000000
0.954517 0.718750 0.000000
0.986973 0.718750 0.000000
1.000000 0.718750 0.000000
0.020440 0.750000 0.000000
0.026529 0.750000 0.000000
0.056790 0.750000 0.000000
0.089531 0.750000 0.000000
0.122209 0.750000 0.000000
0.154823 0.750000 0.000000
0.187374 0.750000 0.000000
0.219401 0.750000 0.000000
0.251375 0.750000 0.000000
0.283348 0.750000 0.000000
0.315321 0.750000 0.000000
0.347295 0.750000 0.000000
0.379268 0.750000 0.000000
0.411241 0.750000 0.000000
0.443215 0.750000 0.000000
0.475188 0.750000 0.000000
0.507161 0.750000 0.000000
0.539135 0.750000 0.000000
0.571108 0.750000 0.000000
0.603081 0.750000 0.000000
0.635055 0.750000 0.000000
0.667028 0.750000 0.000000
0.699001 0.750000 0.000000
0.730975 0.750000 0.000000
0.762948 0.750000 0.000000
0.795253 0.750000 0.000000
0.827593 0.750000 0.000000
0.859968 0.750000 0.000000
0.892378 0.750000 0.000000
0.924824 0.750000 0.000000
0.957304 0.750000 0.000000
0.989819 0.750000 0.000000
1.000000 0.750000 0.000000
0.024409 0.781250 0.000000
0.029882 0.781250 0.000000
0.061453 0.781250 0.000000
0.093946 0.781250 0.000000
0.125937 0.781250 0.000000
0.157928 0.781250 0.000000
0.189919 0.781250 0.000000
0.221910 0.781250 0.000000
0.253900 0.781250 0.000000
0.285891 0.781250 0.000000
0.317882 0.781250 0.000000
0.349873 0.781250 0.000000
0.381864 0.781250 0.000000
0.413855 0.781250 0.000000
0.445846 0.781250 0.000000
0.477837 0.781250 0.000000
0.509828 0.781250 0.000000
0.541818 0.781250 0.000000
0.573809 0.781250 0.000000
0.605800 0.781250 0.000000
0.637791 0.781250 0.000000
0.669782 0.781250 0.000000
0.701773 0.781250 0.000000
0.733764 0.781250 0.000000
0.765755 0.781250 0.000000
0.797745 0.781250 0.000000
0.830145 0.781250 0.000000
0.862579 0.781250 0.000000
0.895048 0.781250 0.000000
0.927552 0.781250 0.000000
0.960091 0.781250 0.000000
0.992666 0.781250 0.000000
1.000000 0.781250 0.000000
0.028065 0.812500 0.000000
0.032485 0.812500 0.000000
0.064494 0.812500 0.000000
0.096502 0.812500 0.000000
0.128511 0.812500 0.000000
0.160519 0.812500 0.000000
0.192527 0.812500 0.000000
0.224536 0.812500 0.000000
0.256544 0.812500 0.000000
0.288553 0.812500 0.000000
0.320561 0.812500 0.000000
0.352569 0.812500 0.000000
0.384578 0.812500 0.000000
0.416586 0.812500 0.000000
0.448595 0.812500 0.000000
0.480603 0.812500 0.000000
0.512612 0.812500 0.000000
0.544620 0.812500 0.000000
0.576629 0.812500 0.000000
0.608637 0.812500 0.000000
0.640645 0.812500 0.000000
0.672654 0.812500 0.000000
0.704662 0.812500 0.000000
0.736671 0.812500 0.000000
0.768679 0.812500 0.000000
0.800687 0.812500 0.000000
0.832696 0.812500 0.000000
