luts/original/epic-scope.cube
TITLE "Epic Scope"
LUT_3D_SIZE 9
DOMAIN_MIN 0.0 0.0 0.0
DOMAIN_MAX 1.0 1.0 1.0
0.000000 0.000000 0.026250
0.094146 0.000000 0.030854
0.215104 0.000000 0.034896
0.336623 0.000000 0.038377
0.458703 0.000000 0.041297
0.581345 0.000000 0.043655
0.704548 0.000000 0.045452
0.828312 0.000000 0.046688
0.952638 0.000000 0.047362
0.000000 0.125000 0.026244
0.095683 0.125000 0.022068
0.221060 0.121529 0.021997
0.343523 0.115199 0.018094
0.466548 0.107722 0.012169
0.590134 0.098893 0.004221
0.714281 0.093706 0.000000
0.838990 0.092869 0.000000
0.964260 0.092696 0.000000
0.000000 0.250000 0.022365
0.092540 0.250000 0.015786
0.225056 0.250000 0.014015
0.350424 0.246033 0.010711
0.474393 0.239084 0.003775
0.598923 0.234030 0.000000
0.724014 0.232286 0.000000
0.849668 0.231540 0.000000
0.975882 0.231606 0.000000
0.000000 0.375000 0.015688
0.090015 0.375000 0.006192
0.223057 0.375000 0.004141
0.355980 0.375000 0.002090
0.482237 0.371082 0.000000
0.607712 0.368221 0.000000
0.733748 0.366874 0.000000
0.860345 0.366586 0.000000
0.987504 0.367150 0.000000
0.000000 0.500000 0.006214
0.093840 0.500000 0.000000
0.227140 0.500000 0.000000
0.359111 0.500000 0.000000
0.489782 0.500000 0.000000
0.616501 0.498395 0.000000
0.743481 0.497850 0.000000
0.871023 0.498298 0.000000
0.999126 0.499563 0.000000
0.005981 0.625000 0.000000
0.106309 0.625000 0.000000
0.237728 0.625000 0.000000
0.368018 0.625000 0.000000
0.497199 0.625000 0.000000
0.625290 0.625000 0.000000
0.753215 0.625000 0.000000
0.881701 0.625000 0.000000
1.000000 0.625000 0.000000
0.020440 0.750000 0.000000
0.122209 0.750000 0.000000
0.251375 0.750000 0.000000
0.379268 0.750000 0.000000
0.507161 0.750000 0.000000
0.635055 0.750000 0.000000
0.762948 0.750000 0.000000
0.892378 0.750000 0.000000
1.000000 0.750000 0.000000
0.031622 0.875000 0.000000
0.134012 0.875000 0.000000
0.262186 0.875000 0.000000
0.390360 0.875000 0.000000
0.518534 0.875000 0.000000
0.646708 0.875000 0.000000
0.774882 0.875000 0.000000
0.903056 0.875000 0.000000
1.000000 0.875000 0.000000
0.039336 1.000000 0.000000
0.146431 1.000000 0.000000
0.274886 1.000000 0.000000
0.403340 1.000000 0.000000
0.531795 1.000000 0.000000
0.660250 1.000000 0.000000
0.788705 1.000000 0.000000
0.917159 1.000000 0.000000
1.000000 1.000000 0.000000
0.000214 0.000000 0.156838
0.094652 0.000000 0.155348
0.215705 0.000000 0.159295
0.337319 0.000000 0.162681
0.459495 0.000000 0.165505
0.582232 0.000000 0.167768
0.705530 0.000000 0.169470
0.829390 0.000000 0.170610
0.953811 0.000000 0.171189
0.000000 0.124201 0.151826
0.094117 0.122227 0.150336
0.221661 0.118015 0.151895
0.344220 0.111569 0.145863
0.467340 0.103661 0.139483
0.591021 0.094293 0.131304
0.715264 0.083463 0.121152
0.840068 0.071172 0.108979
0.965433 0.057420 0.094766
0.000000 0.250000 0.149280
0.091878 0.250000 0.145096
0.222801 0.250000 0.138414
0.351120 0.243043 0.134965
0.475184 0.234518 0.127928
0.599810 0.225304 0.118867
0.724997 0.214887 0.107784
0.850745 0.203143 0.094679
0.977055 0.190025 0.079551
0.000000 0.375000 0.142822
0.088332 0.375000 0.134372
0.219739 0.375000 0.128444
0.356008 0.375000 0.126393
0.483029 0.368100 0.119534
0.608599 0.359031 0.109463
0.734730 0.348994 0.097370
0.861423 0.337740 0.083254
0.988677 0.325172 0.067115
0.000000 0.500000 0.133592
0.085253 0.500000 0.120326
0.218192 0.500000 0.115165
0.354174 0.500000 0.112833
0.489991 0.500000 0.110501
0.617388 0.492203 0.100059
0.744464 0.482662 0.086955
0.872101 0.471965 0.071829
1.000000 0.460014 0.054701
0.000000 0.625000 0.121574
0.082641 0.625000 0.102771
0.217487 0.625000 0.098575
0.353872 0.625000 0.095962
0.490136 0.625000 0.093349
0.626177 0.624897 0.090654
0.754197 0.615938 0.076540
0.882779 0.605852 0.060403
1.000000 0.595403 0.043079
0.000000 0.750000 0.106764
0.080495 0.750000 0.081657
0.217537 0.750000 0.078674
0.354568 0.750000 0.075781
0.491500 0.750000 0.072887
0.628333 0.750000 0.069994
0.763931 0.748864 0.066125
0.893456 0.739430 0.048978
1.000000 0.730524 0.031457
0.000000 0.875000 0.089158
0.080440 0.875000 0.058637
0.218318 0.875000 0.055463
0.356107 0.875000 0.052289
0.493811 0.875000 0.049115
0.631430 0.875000 0.045941
0.768965 0.875000 0.042767
0.904134 0.872727 0.037553
1.000000 0.865386 0.019835
0.000000 1.000000 0.068757
0.081130 1.000000 0.032396
0.219818 1.000000 0.028941
0.358429 1.000000 0.025486
0.496962 1.000000 0.022032
0.635419 1.000000 0.018577
0.773801 1.000000 0.015122
0.912107 1.000000 0.011668
1.000000 1.000000 0.008213
0.000509 0.000000 0.287235
0.089536 0.000000 0.285464
0.216306 0.000000 0.283694
0.338016 0.000000 0.286984
0.460287 0.000000 0.289713
0.583119 0.000000 0.291881
0.706513 0.000000 0.293487
0.830468 0.000000 0.294532
0.954984 0.000000 0.295016
0.000000 0.123153 0.281279
0.084458 0.116611 0.279508
0.215669 0.114090 0.277738
0.344916 0.111520 0.278483
0.468132 0.103606 0.271714
0.591908 0.094230 0.263703
0.716246 0.083394 0.253910
0.841146 0.071096 0.242184
0.966606 0.057338 0.228465
0.000000 0.249050 0.275322
0.090831 0.247751 0.273552
0.217725 0.244753 0.271781
0.351817 0.236037 0.265563
0.475976 0.228057 0.255723
0.600697 0.218615 0.245860
0.725980 0.207713 0.234306
0.851823 0.195349 0.220824
0.978229 0.181524 0.205343
0.000000 0.375000 0.270167
0.089029 0.375000 0.265415
0.216080 0.375000 0.258923
0.354337 0.375000 0.250697
0.483821 0.363754 0.243686
0.609486 0.353011 0.233514
0.735713 0.341987 0.221318
0.862501 0.329925 0.207100
0.989851 0.316616 0.190860
0.000000 0.500000 0.261149
0.086045 0.500000 0.251828
0.213377 0.500000 0.242752
0.350131 0.500000 0.237041
0.490439 0.500000 0.234709
0.618276 0.489399 0.224109
0.745447 0.478175 0.210903
0.873179 0.466277 0.195675
1.000000 0.453425 0.178528
0.000000 0.625000 0.249367
0.083528 0.625000 0.234828
0.211141 0.625000 0.224007
0.349161 0.625000 0.220075
0.488338 0.625000 0.217462
0.627065 0.624762 0.214705
0.755180 0.613650 0.200489
0.883857 0.602072 0.184250
1.000000 0.590601 0.166906
0.000000 0.750000 0.234803
0.081478 0.750000 0.214311
0.210067 0.750000 0.202691
0.349385 0.750000 0.199798
0.488549 0.750000 0.196905
0.627561 0.750000 0.194011
0.764913 0.748504 0.190074
0.894534 0.737370 0.172825
1.000000 0.727411 0.155283
0.000000 0.875000 0.217450
0.079894 0.875000 0.190238
0.210811 0.875000 0.179385
0.350495 0.875000 0.176211
0.490057 0.875000 0.173037
0.629498 0.875000 0.169863
0.768820 0.875000 0.166689
0.905212 0.872220 0.161400
1.000000 0.863872 0.143661
0.000000 1.000000 0.197306
0.078777 1.000000 0.162591
0.212137 1.000000 0.152768
0.352398 1.000000 0.149313
0.492554 1.000000 0.145858
0.632608 1.000000 0.142404
0.772561 1.000000 0.138949
0.912414 1.000000 0.135494
1.000000 1.000000 0.132040
0.000884 0.000000 0.417441
0.084610 0.000000 0.415390
0.211661 0.000000 0.413339
0.338712 0.000000 0.411288
0.461079 0.000000 0.413921
0.584006 0.000000 0.415994
0.707495 0.000000 0.417505
0.831546 0.000000 0.418454
0.956158 0.000000 0.418842
0.000000 0.122249 0.410541
0.073580 0.109857 0.408490
0.205005 0.107213 0.406438
0.339782 0.107357 0.404387
0.468924 0.103550 0.403930
0.592795 0.094168 0.396094
0.717229 0.083325 0.386663
0.842224 0.071021 0.375385
0.967780 0.057255 0.362161
0.000000 0.247172 0.403640
0.080964 0.241276 0.401589
0.208159 0.236140 0.399538
0.344533 0.232840 0.397487
0.476768 0.228001 0.392500
0.601585 0.218553 0.381224
0.726962 0.207644 0.369353
0.852901 0.195273 0.355946
0.979402 0.181442 0.340725
0.000000 0.374107 0.396740
0.088347 0.373222 0.394688
0.215542 0.372291 0.392637
0.342737 0.366662 0.390586
0.484613 0.352452 0.372868
0.610374 0.342938 0.360253
0.736696 0.331963 0.347171
0.863579 0.319526 0.332361
0.991024 0.305628 0.315615
0.000000 0.500000 0.388887
0.086837 0.500000 0.383374
0.214169 0.500000 0.377784
0.341501 0.500000 0.366199
0.490139 0.500000 0.358917
0.619163 0.483661 0.348160
0.746429 0.470685 0.334852
0.874257 0.457788 0.319522
1.000000 0.444236 0.302354
0.000000 0.625000 0.377321
0.084415 0.625000 0.366921
0.212028 0.625000 0.358763
0.339641 0.625000 0.344974
0.483885 0.625000 0.341575
0.627952 0.624496 0.338755
0.756163 0.609921 0.324437
0.884934 0.596516 0.308097
1.000000 0.583937 0.290732
0.000000 0.750000 0.362990
0.082460 0.750000 0.346997
0.210354 0.750000 0.336898
0.340222 0.750000 0.323815
0.483082 0.750000 0.320922
0.625677 0.750000 0.318029
0.765896 0.747928 0.314023
0.895612 0.734383 0.296672
1.000000 0.723114 0.279110
0.000000 0.875000 0.345882
0.080972 0.875000 0.323542
0.209146 0.875000 0.311767
0.341698 0.875000 0.300133
0.484018 0.875000 0.296959
0.626152 0.875000 0.293785
0.768104 0.875000 0.290611
0.906290 0.871495 0.285246
1.000000 0.861793 0.267488
0.000000 1.000000 0.325988
0.079950 1.000000 0.296527
0.208405 1.000000 0.283210
0.343650 1.000000 0.273140
0.486053 1.000000 0.269685
0.628311 1.000000 0.266230
0.770426 1.000000 0.262776
0.912400 1.000000 0.259321
1.000000 1.000000 0.255866
0.001340 0.000000 0.547457
0.079875 0.000000 0.545125
0.207207 0.000000 0.542793
0.334539 0.000000 0.540461
0.461871 0.000000 0.538129
0.584894 0.000000 0.540106
0.708478 0.000000 0.541522
0.832624 0.000000 0.542376
0.957331 0.000000 0.542669
0.000000 0.121338 0.539612
0.061485 0.101750 0.537280
0.193453 0.098929 0.534948
0.328819 0.099092 0.532616
0.464213 0.099255 0.530285
0.593683 0.094106 0.528476
0.718211 0.083256 0.519410
0.843302 0.070945 0.508581
0.968953 0.057173 0.495853
0.000000 0.245572 0.531768
0.069879 0.233684 0.529436
0.197374 0.227580 0.527104
0.332680 0.224641 0.524772
0.471646 0.224804 0.522440
0.602472 0.218491 0.516557
0.727945 0.207575 0.504381
0.853979 0.195198 0.491055
0.980575 0.181360 0.476098
0.000000 0.371506 0.523923
0.078273 0.366011 0.521591
0.205768 0.362513 0.519259
0.333263 0.353742 0.516927
0.478136 0.350353 0.514595
0.611261 0.342876 0.501453
0.737678 0.331894 0.485931
0.864657 0.319451 0.470280
0.992197 0.305546 0.453294
0.000000 0.499307 0.516078
0.086667 0.498796 0.513746
0.214162 0.498545 0.511414
0.341657 0.497851 0.509082
0.469153 0.487951 0.506750
0.620050 0.467261 0.474019
0.747412 0.456212 0.459349
0.875335 0.443758 0.443368
1.000000 0.430531 0.426181
0.000000 0.625000 0.505436
0.085303 0.625000 0.499051
0.212915 0.625000 0.493583
0.340528 0.625000 0.485204
0.468988 0.625000 0.465687
0.628839 0.623747 0.462806
0.757145 0.602766 0.448386
0.886012 0.587542 0.431943
1.000000 0.574073 0.414559
0.000000 0.750000 0.491327
0.083443 0.750000 0.479716
0.211336 0.750000 0.471864
0.339230 0.750000 0.460525
0.471547 0.750000 0.444939
0.621130 0.750000 0.442046
0.766879 0.746866 0.437971
0.896690 0.729659 0.420518
1.000000 0.716797 0.402937
0.000000 0.875000 0.474453
0.082050 0.875000 0.456876
0.210224 0.875000 0.447075
0.338398 0.875000 0.433718
0.473571 0.875000 0.420881
0.620090 0.875000 0.417707
0.766297 0.875000 0.414533
0.907368 0.870370 0.409093
1.000000 0.858757 0.391315
0.000000 1.000000 0.454803
0.081124 1.000000 0.430491
0.209578 1.000000 0.418965
0.338033 1.000000 0.403936
0.476010 1.000000 0.393512
0.621505 1.000000 0.390057
0.766783 1.000000 0.386602
0.911849 1.000000 0.383148
1.000000 1.000000 0.379693
0.001877 0.000000 0.677282
0.075330 0.000000 0.674670
0.202943 0.000000 0.672057
0.330556 0.000000 0.669444
0.458168 0.000000 0.666832
0.585781 0.000000 0.664219
0.709461 0.000000 0.665539
0.833702 0.000000 0.666298
0.958504 0.000000 0.666496
0.000000 0.120379 0.668493
0.048172 0.092248 0.665881
0.180800 0.089235 0.663268
0.316955 0.089418 0.660655
0.453129 0.089601 0.658043
0.589324 0.089784 0.655430
0.719194 0.083188 0.652150
0.844379 0.070870 0.641773
0.970126 0.057091 0.629542
0.000000 0.244048 0.659704
0.057576 0.224783 0.657091
0.185372 0.217875 0.654479
0.320788 0.215033 0.651866
0.459585 0.215216 0.649253
0.598453 0.215399 0.646641
0.728927 0.207506 0.639390
0.855057 0.195123 0.626151
0.981748 0.181278 0.611462
0.000000 0.369230 0.650915
0.066981 0.357641 0.648302
0.194776 0.352710 0.645690
0.322572 0.343406 0.643077
0.463576 0.340832 0.640464
0.607822 0.341014 0.637852
0.738661 0.331825 0.624643
0.865735 0.319375 0.608170
0.993370 0.305464 0.590952
0.000000 0.496046 0.642126
0.076385 0.490867 0.639513
0.204180 0.488256 0.636901
0.331976 0.483132 0.634288
0.459772 0.468523 0.631675
0.618187 0.466630 0.629063
0.748394 0.456144 0.605186
0.876413 0.443628 0.585699
1.000000 0.430000 0.566809
0.000000 0.624629 0.633337
0.085789 0.624508 0.630724
0.213585 0.624642 0.628111
0.341380 0.624913 0.625499
0.469028 0.625000 0.622129
0.629727 0.608292 0.586857
0.758128 0.583455 0.572335
0.887090 0.570601 0.555790
1.000000 0.557970 0.538386
0.000000 0.750000 0.619813
0.084426 0.750000 0.612467
0.212319 0.750000 0.606882
0.340212 0.750000 0.599397
0.468106 0.750000 0.586905
0.606999 0.750000 0.566063
0.767861 0.744248 0.561920
0.897768 0.721066 0.544365
1.000000 0.706601 0.526764
0.000000 0.875000 0.603165
0.083128 0.875000 0.590239
0.211302 0.875000 0.582428
0.339476 0.875000 0.572121
0.467650 0.875000 0.556562
0.607701 0.875000 0.541629
0.761964 0.875000 0.538455
0.908446 0.868390 0.532940
1.000000 0.853908 0.515142
0.000000 1.000000 0.583751
0.082297 1.000000 0.564483
0.210752 1.000000 0.554759
0.339206 1.000000 0.542309
0.467661 1.000000 0.524860
0.609949 1.000000 0.513884
0.760298 1.000000 0.510429
0.910288 1.000000 0.506975
1.000000 1.000000 0.503520
0.002494 0.000000 0.806917
0.070976 0.000000 0.804024
0.198870 0.000000 0.801130
0.326763 0.000000 0.798237
0.454656 0.000000 0.795344
0.582550 0.000000 0.792450
0.710443 0.000000 0.789557
0.834780 0.000000 0.790220
0.959678 0.000000 0.790322
0.000000 0.119358 0.797184
0.033641 0.081337 0.794290
0.166988 0.078133 0.791397
0.304022 0.078336 0.788503
0.441070 0.078539 0.785610
0.578133 0.078741 0.782717
0.715211 0.078944 0.779823
0.845457 0.070795 0.774960
0.971300 0.057009 0.763227
0.000000 0.242525 0.787450
0.044056 0.214513 0.784557
0.172151 0.206848 0.781663
0.308048 0.204017 0.778770
0.447237 0.204220 0.775877
0.586472 0.204422 0.772983
0.725756 0.204625 0.770090
0.856135 0.195047 0.761234
0.982921 0.181195 0.746816
0.000000 0.367083 0.777717
0.054470 0.347972 0.774823
0.182566 0.341951 0.771930
0.310662 0.332148 0.769037
0.450851 0.329901 0.766143
0.593756 0.330104 0.763250
0.736790 0.330306 0.760357
0.866813 0.319300 0.746031
0.994543 0.305382 0.728590
0.000000 0.493124 0.767983
0.064885 0.481745 0.765090
0.192981 0.477589 0.762197
0.321077 0.470669 0.759303
0.449173 0.456864 0.756410
0.598281 0.455785 0.753516
0.749116 0.455988 0.750623
0.877491 0.443552 0.728018
1.000000 0.430000 0.707971
0.000000 0.620749 0.758250
0.075300 0.615864 0.755356
0.203396 0.613836 0.752463
0.331492 0.610374 0.749570
0.459588 0.603132 0.746676
0.590432 0.581466 0.743783
0.759110 0.580394 0.733748
0.888168 0.567805 0.703582
1.000000 0.555000 0.682226
0.000000 0.750000 0.748449
0.085408 0.750000 0.745252
0.213302 0.750000 0.741953
0.341195 0.750000 0.738366
0.469088 0.750000 0.734019
0.596982 0.750000 0.726146
0.768844 0.727356 0.685868
0.898846 0.700558 0.668211
1.000000 0.687368 0.650590
0.000000 0.875000 0.732018
0.084206 0.875000 0.723633
0.212380 0.875000 0.717825
0.340554 0.875000 0.710595
0.468728 0.875000 0.700370
0.596902 0.875000 0.681885
0.749211 0.875000 0.662377
0.909524 0.863982 0.656786
1.000000 0.844935 0.638969
0.000000 1.000000 0.712833
0.083470 1.000000 0.698503
0.211925 1.000000 0.690592
0.340380 1.000000 0.680740
0.468834 1.000000 0.667324
0.597289 1.000000 0.646215
0.747398 1.000000 0.634256
0.906464 1.000000 0.630801
1.000000 1.000000 0.627347
0.003192 0.000000 0.936361
0.066813 0.000000 0.933187
0.194987 0.000000 0.930013
0.323161 0.000000 0.926839
0.451335 0.000000 0.923665
0.579509 0.000000 0.920491
0.707684 0.000000 0.917316
0.835858 0.000000 0.914142
0.960851 0.000000 0.914149
0.000000 0.118266 0.925683
0.017892 0.069012 0.922509
0.151997 0.065623 0.919335
0.289957 0.065845 0.916161
0.427928 0.066067 0.912987
0.565911 0.066290 0.909813
0.703906 0.066512 0.906639
0.841912 0.066734 0.903465
0.972473 0.056927 0.896909
0.000000 0.240970 0.915005
0.029317 0.202852 0.911831
0.157713 0.194446 0.908657
0.294258 0.191593 0.905483
0.434082 0.191815 0.902309
0.573939 0.192037 0.899135
0.713830 0.192259 0.895961
0.853757 0.192481 0.892787
0.984095 0.181113 0.882160
0.000000 0.364978 0.904328
0.040742 0.336947 0.901154
0.169138 0.329981 0.897980
0.297535 0.319629 0.894805
0.437782 0.317562 0.891631
0.580492 0.317785 0.888457
0.723285 0.318007 0.885283
0.866160 0.318229 0.882109
0.995717 0.305300 0.866209
0.000000 0.490363 0.893650
0.052167 0.471322 0.890476
0.180564 0.465954 0.887302
0.308960 0.457860 0.884128
0.437356 0.444257 0.880954
0.583972 0.443532 0.877780
0.731753 0.443754 0.874606
0.878568 0.443477 0.870273
1.000000 0.430000 0.849134
0.000000 0.617206 0.882972
0.063593 0.606001 0.879798
0.191989 0.602413 0.876624
0.320385 0.596918 0.873450
0.448781 0.587442 0.870276
0.579162 0.569279 0.867102
0.737539 0.569502 0.863928
0.889246 0.567729 0.854064
1.000000 0.555000 0.829167
0.000000 0.745593 0.872294
0.075018 0.741013 0.869120
0.203414 0.739416 0.865946
0.331810 0.736925 0.862772
0.460206 0.732505 0.859598
0.588603 0.722513 0.856424
0.729790 0.695249 0.853250
0.899924 0.691982 0.829384
1.000000 0.680000 0.800854
0.000000 0.875000 0.861011
0.085284 0.875000 0.857057
0.213458 0.875000 0.853266
0.341632 0.875000 0.849141
0.469806 0.875000 0.844312
0.597980 0.875000 0.837533
0.726154 0.875000 0.820431
0.910602 0.845617 0.780633
1.000000 0.822669 0.762795
0.000000 1.000000 0.842049
0.084643 1.000000 0.832551
0.213098 1.000000 0.826465
0.341553 1.000000 0.819229
0.470008 1.000000 0.809882
0.598463 1.000000 0.795969
0.726917 1.000000 0.768825
0.895584 1.000000 0.754628
1.000000 1.000000 0.751173
0.003971 0.000000 0.996029
0.062841 0.000000 0.994567
0.191296 0.000000 0.993106
0.319750 0.000000 0.991644
0.448205 0.000000 0.990183
0.576660 0.000000 0.988721
0.705114 0.000000 0.987259
0.833569 0.000000 0.985798
0.962024 0.000000 0.984336
0.000000 0.117163 0.991112
0.005187 0.059550 0.989650
0.139988 0.055827 0.988189
0.278843 0.055929 0.986727
0.417702 0.056031 0.985265
0.556565 0.056134 0.983804
0.695433 0.056236 0.982342
0.834306 0.056338 0.980881
0.973183 0.056441 0.979419
0.000000 0.239548 0.986195
0.017153 0.193642 0.984733
0.145710 0.184346 0.983272
0.283001 0.181273 0.981810
0.423632 0.181376 0.980349
0.564276 0.181478 0.978887
0.704932 0.181580 0.977425
0.845600 0.181683 0.975964
0.985268 0.181031 0.973492
0.000000 0.363208 0.981278
0.029120 0.327973 0.979816
0.157677 0.320066 0.978355
0.286234 0.308857 0.976893
0.427080 0.306720 0.975432
0.570270 0.306822 0.973970
0.713488 0.306924 0.972508
0.856733 0.307027 0.971047
0.996890 0.305218 0.966521
0.000000 0.488180 0.976361
0.041086 0.462558 0.974899
0.169643 0.456147 0.973438
0.298200 0.446986 0.971976
0.426757 0.432822 0.970514
0.573124 0.432166 0.969053
0.720316 0.432269 0.967591
0.867569 0.432371 0.966130
1.000000 0.430000 0.959722
0.000000 0.614508 0.971444
0.053052 0.597411 0.969982
0.181609 0.592614 0.968521
0.310166 0.585700 0.967059
0.438723 0.574875 0.965598
0.569224 0.557510 0.964136
0.723422 0.557613 0.962674
0.877764 0.557715 0.961213
1.000000 0.555000 0.952238
0.000000 0.742232 0.966527
0.065018 0.732548 0.965065
0.193575 0.729493 0.963604
0.322132 0.725050 0.962142
0.450689 0.718000 0.960680
0.579246 0.705093 0.959219
0.715821 0.682957 0.957757
0.886105 0.683059 0.956296
1.000000 0.680000 0.942188
0.000000 0.871399 0.961610
0.076984 0.867986 0.960148
0.205541 0.866814 0.958687
0.334098 0.865093 0.957225
0.462656 0.862322 0.955764
0.591213 0.857121 0.954302
0.719770 0.843794 0.952840
0.883137 0.808403 0.951379
1.000000 0.805000 0.921871
0.000000 1.000000 0.954733
0.085817 1.000000 0.951519
0.214272 1.000000 0.949248
0.342726 1.000000 0.946624
0.471181 1.000000 0.943347
0.599636 1.000000 0.938660
0.728091 1.000000 0.929869
0.856545 1.000000 0.895441
1.000000 1.000000 0.875000
