luts/original/expired-warmth.cube
TITLE "Expired Warmth"
LUT_3D_SIZE 5
DOMAIN_MIN 0.0 0.0 0.0
DOMAIN_MAX 1.0 1.0 1.0
0.049000 0.035000 0.021000
0.308937 0.064575 0.044075
0.560750 0.097200 0.070200
0.804438 0.135675 0.102175
1.000000 0.180000 0.140000
0.085075 0.288437 0.044075
0.308937 0.288437 0.044075
0.560750 0.315475 0.070200
0.804438 0.347429 0.102175
1.000000 0.385000 0.140000
0.124200 0.533750 0.070200
0.342475 0.533750 0.070200
0.560750 0.533750 0.070200
0.804438 0.559183 0.102175
1.000000 0.590000 0.140000
0.169175 0.770938 0.102175
0.380929 0.770938 0.102175
0.592683 0.770938 0.102175
0.804438 0.770938 0.102175
1.000000 0.795000 0.140000
0.220000 1.000000 0.140000
0.425000 1.000000 0.140000
0.630000 1.000000 0.140000
0.835000 1.000000 0.140000
1.000000 1.000000 0.140000
0.085075 0.064575 0.267938
0.308937 0.064575 0.267938
0.560750 0.097200 0.288475
0.804438 0.135675 0.313929
1.000000 0.180000 0.345000
0.085075 0.288437 0.267938
0.308937 0.288437 0.267938
0.560750 0.330325 0.303325
0.804438 0.364738 0.331237
1.000000 0.405000 0.365000
0.124200 0.533750 0.288475
0.357325 0.533750 0.303325
0.560750 0.533750 0.303325
0.804438 0.567837 0.331237
1.000000 0.603333 0.365000
0.169175 0.770938 0.313929
0.398237 0.770938 0.331237
0.601337 0.770938 0.331237
0.804438 0.770938 0.331237
1.000000 0.801667 0.365000
0.220000 1.000000 0.345000
0.445000 1.000000 0.365000
0.643333 1.000000 0.365000
0.841667 1.000000 0.365000
1.000000 1.000000 0.365000
0.124200 0.097200 0.506750
0.342475 0.097200 0.506750
0.560750 0.097200 0.506750
0.804438 0.135675 0.525683
1.000000 0.180000 0.550000
0.124200 0.315475 0.506750
0.357325 0.330325 0.506750
0.560750 0.330325 0.506750
0.804438 0.364738 0.534338
1.000000 0.405000 0.563333
0.124200 0.533750 0.506750
0.357325 0.533750 0.506750
0.560750 0.533750 0.506750
0.804438 0.593800 0.560300
1.000000 0.630000 0.590000
0.169175 0.770938 0.525683
0.398237 0.770938 0.534338
0.627300 0.770938 0.560300
0.804438 0.770938 0.560300
1.000000 0.815000 0.590000
0.220000 1.000000 0.550000
0.445000 1.000000 0.563333
0.670000 1.000000 0.590000
0.855000 1.000000 0.590000
1.000000 1.000000 0.590000
0.169175 0.135675 0.737437
0.380929 0.135675 0.737437
0.592683 0.135675 0.737437
0.804438 0.135675 0.737437
1.000000 0.180000 0.755000
0.169175 0.347429 0.737437
0.398237 0.364738 0.737437
0.601337 0.364738 0.737437
0.804438 0.364738 0.737437
1.000000 0.405000 0.761667
0.169175 0.559183 0.737437
0.398237 0.567837 0.737437
0.627300 0.593800 0.737437
0.804438 0.593800 0.737437
1.000000 0.630000 0.775000
0.169175 0.770938 0.737437
0.398237 0.770938 0.737437
0.627300 0.770938 0.737437
0.804438 0.770938 0.737437
1.000000 0.855000 0.815000
0.220000 1.000000 0.755000
0.445000 1.000000 0.761667
0.670000 1.000000 0.775000
0.895000 1.000000 0.815000
1.000000 1.000000 0.815000
0.220000 0.180000 0.960000
0.425000 0.180000 0.960000
0.630000 0.180000 0.960000
0.835000 0.180000 0.960000
1.000000 0.180000 0.960000
0.220000 0.385000 0.960000
0.445000 0.405000 0.960000
0.643333 0.405000 0.960000
0.841667 0.405000 0.960000
1.000000 0.405000 0.960000
0.220000 0.590000 0.960000
0.445000 0.603333 0.960000
0.670000 0.630000 0.960000
0.855000 0.630000 0.960000
1.000000 0.630000 0.960000
0.220000 0.795000 0.960000
0.445000 0.801667 0.960000
0.670000 0.815000 0.960000
0.895000 0.855000 0.960000
1.000000 0.855000 0.960000
0.220000 1.000000 0.960000
0.445000 1.000000 0.960000
0.670000 1.000000 0.960000
0.895000 1.000000 0.960000
1.000000 1.000000 0.960000
