luts/original/expired-warmth.cube
TITLE "Expired Warmth"
LUT_3D_SIZE 9
DOMAIN_MIN 0.0 0.0 0.0
DOMAIN_MAX 1.0 1.0 1.0
0.049000 0.035000 0.021000
0.179984 0.050456 0.033206
0.308937 0.064575 0.044075
0.435859 0.080156 0.056406
0.560750 0.097200 0.070200
0.683609 0.115706 0.085456
0.804438 0.135675 0.102175
0.923234 0.157106 0.120356
1.000000 0.180000 0.140000
0.067706 0.162734 0.033206
0.179984 0.162734 0.033206
0.308937 0.176506 0.044075
0.435859 0.190807 0.056406
0.560750 0.206337 0.070200
0.683609 0.223237 0.085456
0.804438 0.241552 0.102175
0.923234 0.261303 0.120356
1.000000 0.282500 0.140000
0.085075 0.288437 0.044075
0.197006 0.288437 0.044075
0.308937 0.288437 0.044075
0.435859 0.301458 0.056406
0.560750 0.315475 0.070200
0.683609 0.330768 0.085456
0.804438 0.347429 0.102175
0.923234 0.365500 0.120356
1.000000 0.385000 0.140000
0.103906 0.412109 0.056406
0.214557 0.412109 0.056406
0.325208 0.412109 0.056406
0.435859 0.412109 0.056406
0.560750 0.424612 0.070200
0.683609 0.438298 0.085456
0.804438 0.453306 0.102175
0.923234 0.469697 0.120356
1.000000 0.487500 0.140000
0.124200 0.533750 0.070200
0.233338 0.533750 0.070200
0.342475 0.533750 0.070200
0.451613 0.533750 0.070200
0.560750 0.533750 0.070200
0.683609 0.545829 0.085456
0.804438 0.559183 0.102175
0.923234 0.573894 0.120356
1.000000 0.590000 0.140000
0.145956 0.653359 0.085456
0.253487 0.653359 0.085456
0.361017 0.653359 0.085456
0.468548 0.653359 0.085456
0.576079 0.653359 0.085456
0.683609 0.653359 0.085456
0.804438 0.665060 0.102175
0.923234 0.678091 0.120356
1.000000 0.692500 0.140000
0.169175 0.770938 0.102175
0.275052 0.770938 0.102175
0.380929 0.770938 0.102175
0.486806 0.770938 0.102175
0.592683 0.770938 0.102175
0.698560 0.770938 0.102175
0.804438 0.770938 0.102175
0.923234 0.782287 0.120356
1.000000 0.795000 0.140000
0.193856 0.886484 0.120356
0.298053 0.886484 0.120356
0.402250 0.886484 0.120356
0.506447 0.886484 0.120356
0.610644 0.886484 0.120356
0.714841 0.886484 0.120356
0.819037 0.886484 0.120356
0.923234 0.886484 0.120356
1.000000 0.897500 0.140000
0.220000 1.000000 0.140000
0.322500 1.000000 0.140000
0.425000 1.000000 0.140000
0.527500 1.000000 0.140000
0.630000 1.000000 0.140000
0.732500 1.000000 0.140000
0.835000 1.000000 0.140000
0.937500 1.000000 0.140000
1.000000 1.000000 0.140000
0.067706 0.050456 0.145484
0.179984 0.050456 0.145484
0.308937 0.064575 0.156006
0.435859 0.080156 0.167057
0.560750 0.097200 0.179338
0.683609 0.115706 0.192987
0.804438 0.135675 0.208052
0.923234 0.157106 0.224553
1.000000 0.180000 0.242500
0.067706 0.162734 0.145484
0.179984 0.162734 0.145484
0.308937 0.183169 0.162669
0.435859 0.197734 0.173984
0.560750 0.213763 0.186762
0.683609 0.231253 0.201003
0.804438 0.250206 0.216706
0.923234 0.270622 0.233872
1.000000 0.292500 0.252500
0.085075 0.288437 0.156006
0.203669 0.288437 0.162669
0.308937 0.288437 0.162669
0.435859 0.304922 0.173984
0.560750 0.320425 0.186762
0.683609 0.336780 0.201003
0.804438 0.354353 0.216706
0.923234 0.373266 0.233872
1.000000 0.393571 0.252500
0.103906 0.412109 0.167057
0.221484 0.412109 0.173984
0.328672 0.412109 0.173984
0.435859 0.412109 0.173984
0.560750 0.427087 0.186762
0.683609 0.442306 0.201003
0.804438 0.458499 0.216706
0.923234 0.475909 0.233872
1.000000 0.494643 0.252500
0.124200 0.533750 0.179338
0.240763 0.533750 0.186762
0.347425 0.533750 0.186762
0.454087 0.533750 0.186762
0.560750 0.533750 0.186762
0.683609 0.547833 0.201003
0.804438 0.562645 0.216706
0.923234 0.578553 0.233872
1.000000 0.595714 0.252500
0.145956 0.653359 0.192987
0.261503 0.653359 0.201003
0.367030 0.653359 0.201003
0.472556 0.653359 0.201003
0.578083 0.653359 0.201003
0.683609 0.653359 0.201003
0.804438 0.666791 0.216706
0.923234 0.681197 0.233872
1.000000 0.696786 0.252500
0.169175 0.770938 0.208052
0.283706 0.770938 0.216706
0.387852 0.770938 0.216706
0.491999 0.770938 0.216706
0.596145 0.770938 0.216706
0.700291 0.770938 0.216706
0.804438 0.770938 0.216706
0.923234 0.783841 0.233872
1.000000 0.797857 0.252500
0.193856 0.886484 0.224553
0.307372 0.886484 0.233872
0.410016 0.886484 0.233872
0.512659 0.886484 0.233872
0.615303 0.886484 0.233872
0.717947 0.886484 0.233872
0.820591 0.886484 0.233872
0.923234 0.886484 0.233872
1.000000 0.898929 0.252500
0.220000 1.000000 0.242500
0.332500 1.000000 0.252500
0.433571 1.000000 0.252500
0.534643 1.000000 0.252500
0.635714 1.000000 0.252500
0.736786 1.000000 0.252500
0.837857 1.000000 0.252500
0.938929 1.000000 0.252500
1.000000 1.000000 0.252500
0.085075 0.064575 0.267938
0.197006 0.064575 0.267938
0.308937 0.064575 0.267938
0.435859 0.080156 0.277708
0.560750 0.097200 0.288475
0.683609 0.115706 0.300517
0.804438 0.135675 0.313929
0.923234 0.157106 0.328750
1.000000 0.180000 0.345000
0.085075 0.176506 0.267938
0.203669 0.183169 0.267938
0.308937 0.183169 0.267938
0.435859 0.197734 0.281172
0.560750 0.213763 0.293425
0.683609 0.231253 0.306530
0.804438 0.250206 0.320852
0.923234 0.270622 0.336516
1.000000 0.292500 0.353571
0.085075 0.288437 0.267938
0.203669 0.288437 0.267938
0.308937 0.288437 0.267938
0.435859 0.315313 0.291562
0.560750 0.330325 0.303325
0.683609 0.346800 0.316550
0.804438 0.364738 0.331237
0.923234 0.384138 0.347387
1.000000 0.405000 0.365000
0.103906 0.412109 0.277708
0.221484 0.412109 0.281172
0.339063 0.412109 0.291562
0.435859 0.412109 0.291562
0.560750 0.432038 0.303325
0.683609 0.448986 0.316550
0.804438 0.466287 0.331237
0.923234 0.484607 0.347387
1.000000 0.504167 0.365000
0.124200 0.533750 0.288475
0.240763 0.533750 0.293425
0.357325 0.533750 0.303325
0.459038 0.533750 0.303325
0.560750 0.533750 0.303325
0.683609 0.551173 0.316550
0.804438 0.567837 0.331237
0.923234 0.585076 0.347387
1.000000 0.603333 0.365000
0.145956 0.653359 0.300517
0.261503 0.653359 0.306530
0.377050 0.653359 0.316550
0.479236 0.653359 0.316550
0.581423 0.653359 0.316550
0.683609 0.653359 0.316550
0.804438 0.669388 0.331237
0.923234 0.685546 0.347387
1.000000 0.702500 0.365000
0.169175 0.770938 0.313929
0.283706 0.770938 0.320852
0.398237 0.770938 0.331237
0.499788 0.770938 0.331237
0.601337 0.770938 0.331237
0.702887 0.770938 0.331237
0.804438 0.770938 0.331237
0.923234 0.786015 0.347387
1.000000 0.801667 0.365000
0.193856 0.886484 0.328750
0.307372 0.886484 0.336516
0.420888 0.886484 0.347387
0.521357 0.886484 0.347387
0.621826 0.886484 0.347387
0.722296 0.886484 0.347387
0.822765 0.886484 0.347387
0.923234 0.886484 0.347387
1.000000 0.900833 0.365000
0.220000 1.000000 0.345000
0.332500 1.000000 0.353571
0.445000 1.000000 0.365000
0.544167 1.000000 0.365000
0.643333 1.000000 0.365000
0.742500 1.000000 0.365000
0.841667 1.000000 0.365000
0.940833 1.000000 0.365000
1.000000 1.000000 0.365000
0.103906 0.080156 0.388359
0.214557 0.080156 0.388359
0.325208 0.080156 0.388359
0.435859 0.080156 0.388359
0.560750 0.097200 0.397613
0.683609 0.115706 0.408048
0.804438 0.135675 0.419806
0.923234 0.157106 0.432947
1.000000 0.180000 0.447500
0.103906 0.190807 0.388359
0.221484 0.197734 0.388359
0.328672 0.197734 0.388359
0.435859 0.197734 0.388359
0.560750 0.213763 0.400088
0.683609 0.231253 0.412056
0.804438 0.250206 0.424999
0.923234 0.270622 0.439159
1.000000 0.292500 0.454643
0.103906 0.301458 0.388359
0.221484 0.304922 0.388359
0.339063 0.315313 0.388359
0.435859 0.315313 0.388359
0.560750 0.330325 0.405037
0.683609 0.346800 0.418736
0.804438 0.364738 0.432788
0.923234 0.384138 0.447857
1.000000 0.405000 0.464167
0.103906 0.412109 0.388359
0.221484 0.412109 0.388359
0.339063 0.412109 0.388359
0.435859 0.412109 0.388359
0.560750 0.446887 0.419888
0.683609 0.462347 0.432097
0.804438 0.479269 0.445769
0.923234 0.497653 0.460903
1.000000 0.517500 0.477500
0.124200 0.533750 0.397613
0.240763 0.533750 0.400088
0.357325 0.533750 0.405037
0.473888 0.533750 0.419888
0.560750 0.533750 0.419888
0.683609 0.557853 0.432097
0.804438 0.576492 0.445769
0.923234 0.594861 0.460903
1.000000 0.614000 0.477500
0.145956 0.653359 0.408048
0.261503 0.653359 0.412056
0.377050 0.653359 0.418736
0.492597 0.653359 0.432097
0.588103 0.653359 0.432097
0.683609 0.653359 0.432097
0.804438 0.673715 0.445769
0.923234 0.692069 0.460903
1.000000 0.710500 0.477500
0.169175 0.770938 0.419806
0.283706 0.770938 0.424999
0.398237 0.770938 0.432788
0.512769 0.770938 0.445769
0.609992 0.770938 0.445769
0.707215 0.770938 0.445769
0.804438 0.770938 0.445769
0.923234 0.789277 0.460903
1.000000 0.807000 0.477500
0.193856 0.886484 0.432947
0.307372 0.886484 0.439159
0.420888 0.886484 0.447857
0.534403 0.886484 0.460903
0.631611 0.886484 0.460903
0.728819 0.886484 0.460903
0.826027 0.886484 0.460903
0.923234 0.886484 0.460903
1.000000 0.903500 0.477500
0.220000 1.000000 0.447500
0.332500 1.000000 0.454643
0.445000 1.000000 0.464167
0.557500 1.000000 0.477500
0.654000 1.000000 0.477500
0.750500 1.000000 0.477500
0.847000 1.000000 0.477500
0.943500 1.000000 0.477500
1.000000 1.000000 0.477500
0.124200 0.097200 0.506750
0.233338 0.097200 0.506750
0.342475 0.097200 0.506750
0.451613 0.097200 0.506750
0.560750 0.097200 0.506750
0.683609 0.115706 0.515579
0.804438 0.135675 0.525683
0.923234 0.157106 0.537144
1.000000 0.180000 0.550000
0.124200 0.206337 0.506750
0.240763 0.213763 0.506750
0.347425 0.213763 0.506750
0.454087 0.213763 0.506750
0.560750 0.213763 0.506750
0.683609 0.231253 0.517583
0.804438 0.250206 0.529145
0.923234 0.270622 0.541803
1.000000 0.292500 0.555714
0.124200 0.315475 0.506750
0.240763 0.320425 0.506750
0.357325 0.330325 0.506750
0.459038 0.330325 0.506750
0.560750 0.330325 0.506750
0.683609 0.346800 0.520923
0.804438 0.364738 0.534338
0.923234 0.384138 0.548326
1.000000 0.405000 0.563333
0.124200 0.424612 0.506750
0.240763 0.427087 0.506750
0.357325 0.432038 0.506750
0.473888 0.446887 0.506750
0.560750 0.446887 0.506750
0.683609 0.462347 0.527603
0.804438 0.479269 0.542992
0.923234 0.497653 0.558111
1.000000 0.517500 0.574000
0.124200 0.533750 0.506750
0.240763 0.533750 0.506750
0.357325 0.533750 0.506750
0.473888 0.533750 0.506750
0.560750 0.533750 0.506750
0.683609 0.577894 0.547644
0.804438 0.593800 0.560300
0.923234 0.611169 0.574419
1.000000 0.630000 0.590000
0.145956 0.653359 0.515579
0.261503 0.653359 0.517583
0.377050 0.653359 0.520923
0.492597 0.653359 0.527603
0.608144 0.653359 0.547644
0.683609 0.653359 0.547644
0.804438 0.682369 0.560300
0.923234 0.702941 0.574419
1.000000 0.722500 0.590000
0.169175 0.770938 0.525683
0.283706 0.770938 0.529145
0.398237 0.770938 0.534338
0.512769 0.770938 0.542992
0.627300 0.770938 0.560300
0.715869 0.770938 0.560300
0.804438 0.770938 0.560300
0.923234 0.794712 0.574419
1.000000 0.815000 0.590000
0.193856 0.886484 0.537144
0.307372 0.886484 0.541803
0.420888 0.886484 0.548326
0.534403 0.886484 0.558111
0.647919 0.886484 0.574419
0.739691 0.886484 0.574419
0.831463 0.886484 0.574419
0.923234 0.886484 0.574419
1.000000 0.907500 0.590000
0.220000 1.000000 0.550000
0.332500 1.000000 0.555714
0.445000 1.000000 0.563333
0.557500 1.000000 0.574000
0.670000 1.000000 0.590000
0.762500 1.000000 0.590000
0.855000 1.000000 0.590000
0.947500 1.000000 0.590000
1.000000 1.000000 0.590000
0.145956 0.115706 0.623109
0.253487 0.115706 0.623109
0.361017 0.115706 0.623109
0.468548 0.115706 0.623109
0.576079 0.115706 0.623109
0.683609 0.115706 0.623109
0.804438 0.135675 0.631560
0.923234 0.157106 0.641341
1.000000 0.180000 0.652500
0.145956 0.223237 0.623109
0.261503 0.231253 0.623109
0.367030 0.231253 0.623109
0.472556 0.231253 0.623109
0.578083 0.231253 0.623109
0.683609 0.231253 0.623109
0.804438 0.250206 0.633291
0.923234 0.270622 0.644447
1.000000 0.292500 0.656786
0.145956 0.330768 0.623109
0.261503 0.336780 0.623109
0.377050 0.346800 0.623109
0.479236 0.346800 0.623109
0.581423 0.346800 0.623109
0.683609 0.346800 0.623109
0.804438 0.364738 0.635888
0.923234 0.384138 0.648796
1.000000 0.405000 0.662500
0.145956 0.438298 0.623109
0.261503 0.442306 0.623109
0.377050 0.448986 0.623109
0.492597 0.462347 0.623109
0.588103 0.462347 0.623109
0.683609 0.462347 0.623109
0.804438 0.479269 0.640215
0.923234 0.497653 0.655319
1.000000 0.517500 0.670500
0.145956 0.545829 0.623109
0.261503 0.547833 0.623109
0.377050 0.551173 0.623109
0.492597 0.557853 0.623109
0.608144 0.577894 0.623109
0.683609 0.577894 0.623109
0.804438 0.593800 0.648869
0.923234 0.611169 0.666191
1.000000 0.630000 0.682500
0.145956 0.653359 0.623109
0.261503 0.653359 0.623109
0.377050 0.653359 0.623109
0.492597 0.653359 0.623109
0.608144 0.653359 0.623109
0.683609 0.653359 0.623109
0.804438 0.708331 0.674831
0.923234 0.724684 0.687934
1.000000 0.742500 0.702500
0.169175 0.770938 0.631560
0.283706 0.770938 0.633291
0.398237 0.770938 0.635888
0.512769 0.770938 0.640215
0.627300 0.770938 0.648869
0.741831 0.770938 0.674831
0.804438 0.770938 0.674831
0.923234 0.805584 0.687934
1.000000 0.828333 0.702500
0.193856 0.886484 0.641341
0.307372 0.886484 0.644447
0.420888 0.886484 0.648796
0.534403 0.886484 0.655319
0.647919 0.886484 0.666191
0.761434 0.886484 0.687934
0.842334 0.886484 0.687934
0.923234 0.886484 0.687934
1.000000 0.914167 0.702500
0.220000 1.000000 0.652500
0.332500 1.000000 0.656786
0.445000 1.000000 0.662500
0.557500 1.000000 0.670500
0.670000 1.000000 0.682500
0.782500 1.000000 0.702500
0.868333 1.000000 0.702500
0.954167 1.000000 0.702500
1.000000 1.000000 0.702500
0.169175 0.135675 0.737437
0.275052 0.135675 0.737437
0.380929 0.135675 0.737437
0.486806 0.135675 0.737437
0.592683 0.135675 0.737437
0.698560 0.135675 0.737437
0.804438 0.135675 0.737437
0.923234 0.157106 0.745538
1.000000 0.180000 0.755000
0.169175 0.241552 0.737437
0.283706 0.250206 0.737437
0.387852 0.250206 0.737437
0.491999 0.250206 0.737437
0.596145 0.250206 0.737437
0.700291 0.250206 0.737437
0.804438 0.250206 0.737437
0.923234 0.270622 0.747091
1.000000 0.292500 0.757857
0.169175 0.347429 0.737437
0.283706 0.354353 0.737437
0.398237 0.364738 0.737437
0.499788 0.364738 0.737437
0.601337 0.364738 0.737437
0.702887 0.364738 0.737437
0.804438 0.364738 0.737437
0.923234 0.384138 0.749265
1.000000 0.405000 0.761667
0.169175 0.453306 0.737437
0.283706 0.458499 0.737437
0.398237 0.466287 0.737437
0.512769 0.479269 0.737437
0.609992 0.479269 0.737437
0.707215 0.479269 0.737437
0.804438 0.479269 0.737437
0.923234 0.497653 0.752527
1.000000 0.517500 0.767000
0.169175 0.559183 0.737437
0.283706 0.562645 0.737437
0.398237 0.567837 0.737437
0.512769 0.576492 0.737437
0.627300 0.593800 0.737437
0.715869 0.593800 0.737437
0.804438 0.593800 0.737437
0.923234 0.611169 0.757963
1.000000 0.630000 0.775000
0.169175 0.665060 0.737437
0.283706 0.666791 0.737437
0.398237 0.669388 0.737437
0.512769 0.673715 0.737437
0.627300 0.682369 0.737437
0.741831 0.708331 0.737437
0.804438 0.708331 0.737437
0.923234 0.724684 0.768834
1.000000 0.742500 0.788333
0.169175 0.770938 0.737437
0.283706 0.770938 0.737437
0.398237 0.770938 0.737437
0.512769 0.770938 0.737437
0.627300 0.770938 0.737437
0.741831 0.770938 0.737437
0.804438 0.770938 0.737437
0.923234 0.838200 0.801450
1.000000 0.855000 0.815000
0.193856 0.886484 0.745538
0.307372 0.886484 0.747091
0.420888 0.886484 0.749265
0.534403 0.886484 0.752527
0.647919 0.886484 0.757963
0.761434 0.886484 0.768834
0.874950 0.886484 0.801450
0.923234 0.886484 0.801450
1.000000 0.927500 0.815000
0.220000 1.000000 0.755000
0.332500 1.000000 0.757857
0.445000 1.000000 0.761667
0.557500 1.000000 0.767000
0.670000 1.000000 0.775000
0.782500 1.000000 0.788333
0.895000 1.000000 0.815000
0.967500 1.000000 0.815000
1.000000 1.000000 0.815000
0.193856 0.157106 0.849734
0.298053 0.157106 0.849734
0.402250 0.157106 0.849734
0.506447 0.157106 0.849734
0.610644 0.157106 0.849734
0.714841 0.157106 0.849734
0.819037 0.157106 0.849734
0.923234 0.157106 0.849734
1.000000 0.180000 0.857500
0.193856 0.261303 0.849734
0.307372 0.270622 0.849734
0.410016 0.270622 0.849734
0.512659 0.270622 0.849734
0.615303 0.270622 0.849734
0.717947 0.270622 0.849734
0.820591 0.270622 0.849734
0.923234 0.270622 0.849734
1.000000 0.292500 0.858929
0.193856 0.365500 0.849734
0.307372 0.373266 0.849734
0.420888 0.384138 0.849734
0.521357 0.384138 0.849734
0.621826 0.384138 0.849734
0.722296 0.384138 0.849734
0.822765 0.384138 0.849734
0.923234 0.384138 0.849734
1.000000 0.405000 0.860833
0.193856 0.469697 0.849734
0.307372 0.475909 0.849734
0.420888 0.484607 0.849734
0.534403 0.497653 0.849734
0.631611 0.497653 0.849734
0.728819 0.497653 0.849734
0.826027 0.497653 0.849734
0.923234 0.497653 0.849734
1.000000 0.517500 0.863500
0.193856 0.573894 0.849734
0.307372 0.578553 0.849734
0.420888 0.585076 0.849734
0.534403 0.594861 0.849734
0.647919 0.611169 0.849734
0.739691 0.611169 0.849734
0.831463 0.611169 0.849734
0.923234 0.611169 0.849734
1.000000 0.630000 0.867500
0.193856 0.678091 0.849734
0.307372 0.681197 0.849734
0.420888 0.685546 0.849734
0.534403 0.692069 0.849734
0.647919 0.702941 0.849734
0.761434 0.724684 0.849734
0.842334 0.724684 0.849734
0.923234 0.724684 0.849734
1.000000 0.742500 0.874167
0.193856 0.782287 0.849734
0.307372 0.783841 0.849734
0.420888 0.786015 0.849734
0.534403 0.789277 0.849734
0.647919 0.794712 0.849734
0.761434 0.805584 0.849734
0.874950 0.838200 0.849734
0.923234 0.838200 0.849734
1.000000 0.855000 0.887500
0.193856 0.886484 0.849734
0.307372 0.886484 0.849734
0.420888 0.886484 0.849734
0.534403 0.886484 0.849734
0.647919 0.886484 0.849734
0.761434 0.886484 0.849734
0.874950 0.886484 0.849734
0.923234 0.886484 0.849734
1.000000 0.967500 0.927500
0.220000 1.000000 0.857500
0.332500 1.000000 0.858929
0.445000 1.000000 0.860833
0.557500 1.000000 0.863500
0.670000 1.000000 0.867500
0.782500 1.000000 0.874167
0.895000 1.000000 0.887500
1.000000 1.000000 0.927500
1.000000 1.000000 0.927500
0.220000 0.180000 0.960000
0.322500 0.180000 0.960000
0.425000 0.180000 0.960000
0.527500 0.180000 0.960000
0.630000 0.180000 0.960000
0.732500 0.180000 0.960000
0.835000 0.180000 0.960000
0.937500 0.180000 0.960000
1.000000 0.180000 0.960000
0.220000 0.282500 0.960000
0.332500 0.292500 0.960000
0.433571 0.292500 0.960000
0.534643 0.292500 0.960000
0.635714 0.292500 0.960000
0.736786 0.292500 0.960000
0.837857 0.292500 0.960000
0.938929 0.292500 0.960000
1.000000 0.292500 0.960000
0.220000 0.385000 0.960000
0.332500 0.393571 0.960000
0.445000 0.405000 0.960000
0.544167 0.405000 0.960000
0.643333 0.405000 0.960000
0.742500 0.405000 0.960000
0.841667 0.405000 0.960000
0.940833 0.405000 0.960000
1.000000 0.405000 0.960000
0.220000 0.487500 0.960000
0.332500 0.494643 0.960000
0.445000 0.504167 0.960000
0.557500 0.517500 0.960000
0.654000 0.517500 0.960000
0.750500 0.517500 0.960000
0.847000 0.517500 0.960000
0.943500 0.517500 0.960000
1.000000 0.517500 0.960000
0.220000 0.590000 0.960000
0.332500 0.595714 0.960000
0.445000 0.603333 0.960000
0.557500 0.614000 0.960000
0.670000 0.630000 0.960000
0.762500 0.630000 0.960000
0.855000 0.630000 0.960000
0.947500 0.630000 0.960000
1.000000 0.630000 0.960000
0.220000 0.692500 0.960000
0.332500 0.696786 0.960000
0.445000 0.702500 0.960000
0.557500 0.710500 0.960000
0.670000 0.722500 0.960000
0.782500 0.742500 0.960000
0.868333 0.742500 0.960000
0.954167 0.742500 0.960000
1.000000 0.742500 0.960000
0.220000 0.795000 0.960000
0.332500 0.797857 0.960000
0.445000 0.801667 0.960000
0.557500 0.807000 0.960000
0.670000 0.815000 0.960000
0.782500 0.828333 0.960000
0.895000 0.855000 0.960000
0.967500 0.855000 0.960000
1.000000 0.855000 0.960000
0.220000 0.897500 0.960000
0.332500 0.898929 0.960000
0.445000 0.900833 0.960000
0.557500 0.903500 0.960000
0.670000 0.907500 0.960000
0.782500 0.914167 0.960000
0.895000 0.927500 0.960000
1.000000 0.967500 0.960000
1.000000 0.967500 0.960000
0.220000 1.000000 0.960000
0.332500 1.000000 0.960000
0.445000 1.000000 0.960000
0.557500 1.000000 0.960000
0.670000 1.000000 0.960000
0.782500 1.000000 0.960000
0.895000 1.000000 0.960000
1.000000 1.000000 0.960000
1.000000 1.000000 0.960000
