luts/original/expired-warmth.cube
TITLE "Expired Warmth"
LUT_3D_SIZE 33
DOMAIN_MIN 0.0 0.0 0.0
DOMAIN_MAX 1.0 1.0 1.0
0.049000 0.035000 0.021000
0.081937 0.040827 0.026014
0.114746 0.043945 0.028320
0.147429 0.047155 0.030718
0.179984 0.050456 0.033206
0.212413 0.053849 0.035786
0.244715 0.057333 0.038458
0.276890 0.060908 0.041221
0.308937 0.064575 0.044075
0.340858 0.068333 0.047021
0.372652 0.072183 0.050058
0.404319 0.076124 0.053186
0.435859 0.080156 0.056406
0.467272 0.084280 0.059718
0.498559 0.088495 0.063120
0.529718 0.092802 0.066614
0.560750 0.097200 0.070200
0.591655 0.101689 0.073877
0.622434 0.106270 0.077645
0.653085 0.110943 0.081505
0.683609 0.115706 0.085456
0.714007 0.120561 0.089499
0.744277 0.125508 0.093633
0.774421 0.130546 0.097858
0.804438 0.135675 0.102175
0.834327 0.140896 0.106583
0.864090 0.146208 0.111083
0.893726 0.151611 0.115674
0.923234 0.157106 0.120356
0.952616 0.162693 0.125130
0.981871 0.168370 0.129995
0.999365 0.174139 0.134952
1.000000 0.180000 0.140000
0.055639 0.067124 0.026014
0.081937 0.067124 0.026014
0.114746 0.071533 0.028320
0.147429 0.075100 0.030718
0.179984 0.078526 0.033206
0.212413 0.081949 0.035786
0.244715 0.085417 0.038458
0.276890 0.088950 0.041221
0.308937 0.092558 0.044075
0.340858 0.096246 0.047021
0.372652 0.100017 0.050058
0.404319 0.103875 0.053186
0.435859 0.107819 0.056406
0.467272 0.111852 0.059718
0.498559 0.115973 0.063120
0.529718 0.120184 0.066614
0.560750 0.124484 0.070200
0.591655 0.128875 0.073877
0.622434 0.133356 0.077645
0.653085 0.137927 0.081505
0.683609 0.142589 0.085456
0.714007 0.147341 0.089499
0.744277 0.152185 0.093633
0.774421 0.157119 0.097858
0.804438 0.162144 0.102175
0.834327 0.167260 0.106583
0.864090 0.172468 0.111083
0.893726 0.177766 0.115674
0.923234 0.183155 0.120356
0.952616 0.188636 0.125130
0.981871 0.194208 0.129995
0.999365 0.199871 0.134952
1.000000 0.205625 0.140000
0.059570 0.099121 0.028320
0.087158 0.099121 0.028320
0.114746 0.099121 0.028320
0.147429 0.103046 0.030718
0.179984 0.106595 0.033206
0.212413 0.110050 0.035786
0.244715 0.113502 0.038458
0.276890 0.116992 0.041221
0.308937 0.120541 0.044075
0.340858 0.124158 0.047021
0.372652 0.127852 0.050058
0.404319 0.131625 0.053186
0.435859 0.135482 0.056406
0.467272 0.139423 0.059718
0.498559 0.143451 0.063120
0.529718 0.147566 0.066614
0.560750 0.151769 0.070200
0.591655 0.156060 0.073877
0.622434 0.160441 0.077645
0.653085 0.164912 0.081505
0.683609 0.169472 0.085456
0.714007 0.174122 0.089499
0.744277 0.178862 0.093633
0.774421 0.183692 0.097858
0.804438 0.188614 0.102175
0.834327 0.193625 0.106583
0.864090 0.198728 0.111083
0.893726 0.203921 0.115674
0.923234 0.209205 0.120356
0.952616 0.214580 0.125130
0.981871 0.220045 0.129995
0.999365 0.225602 0.134952
1.000000 0.231250 0.140000
0.063593 0.130991 0.030718
0.091538 0.130991 0.030718
0.119483 0.130991 0.030718
0.147429 0.130991 0.030718
0.179984 0.134665 0.033206
0.212413 0.138150 0.035786
0.244715 0.141586 0.038458
0.276890 0.145034 0.041221
0.308937 0.148523 0.044075
0.340858 0.152071 0.047021
0.372652 0.155686 0.050058
0.404319 0.159376 0.053186
0.435859 0.163145 0.056406
0.467272 0.166995 0.059718
0.498559 0.170929 0.063120
0.529718 0.174948 0.066614
0.560750 0.179053 0.070200
0.591655 0.183246 0.073877
0.622434 0.187527 0.077645
0.653085 0.191896 0.081505
0.683609 0.196354 0.085456
0.714007 0.200902 0.089499
0.744277 0.205539 0.093633
0.774421 0.210266 0.097858
0.804438 0.215083 0.102175
0.834327 0.219990 0.106583
0.864090 0.224987 0.111083
0.893726 0.230075 0.115674
0.923234 0.235254 0.120356
0.952616 0.240523 0.125130
0.981871 0.245883 0.129995
0.999365 0.251334 0.134952
1.000000 0.256875 0.140000
0.067706 0.162734 0.033206
0.095776 0.162734 0.033206
0.123845 0.162734 0.033206
0.151915 0.162734 0.033206
0.179984 0.162734 0.033206
0.212413 0.166250 0.035786
0.244715 0.169671 0.038458
0.276890 0.173076 0.041221
0.308937 0.176506 0.044075
0.340858 0.179983 0.047021
0.372652 0.183521 0.050058
0.404319 0.187127 0.053186
0.435859 0.190807 0.056406
0.467272 0.194566 0.059718
0.498559 0.198406 0.063120
0.529718 0.202330 0.066614
0.560750 0.206337 0.070200
0.591655 0.210431 0.073877
0.622434 0.214612 0.077645
0.653085 0.218880 0.081505
0.683609 0.223237 0.085456
0.714007 0.227682 0.089499
0.744277 0.232216 0.093633
0.774421 0.236839 0.097858
0.804438 0.241552 0.102175
0.834327 0.246355 0.106583
0.864090 0.251247 0.111083
0.893726 0.256230 0.115674
0.923234 0.261303 0.120356
0.952616 0.266467 0.125130
0.981871 0.271720 0.129995
0.999365 0.277065 0.134952
1.000000 0.282500 0.140000
0.071911 0.194351 0.035786
0.100012 0.194351 0.035786
0.128112 0.194351 0.035786
0.156212 0.194351 0.035786
0.184313 0.194351 0.035786
0.212413 0.194351 0.035786
0.244715 0.197755 0.038458
0.276890 0.201118 0.041221
0.308937 0.204489 0.044075
0.340858 0.207896 0.047021
0.372652 0.211355 0.050058
0.404319 0.214877 0.053186
0.435859 0.218470 0.056406
0.467272 0.222138 0.059718
0.498559 0.225884 0.063120
0.529718 0.229711 0.066614
0.560750 0.233622 0.070200
0.591655 0.237617 0.073877
0.622434 0.241698 0.077645
0.653085 0.245865 0.081505
0.683609 0.250120 0.085456
0.714007 0.254462 0.089499
0.744277 0.258893 0.093633
0.774421 0.263413 0.097858
0.804438 0.268021 0.102175
0.834327 0.272720 0.106583
0.864090 0.277507 0.111083
0.893726 0.282385 0.115674
0.923234 0.287352 0.120356
0.952616 0.292410 0.125130
0.981871 0.297558 0.129995
0.999365 0.302796 0.134952
1.000000 0.308125 0.140000
0.076208 0.225840 0.038458
0.104292 0.225840 0.038458
0.132377 0.225840 0.038458
0.160461 0.225840 0.038458
0.188546 0.225840 0.038458
0.216630 0.225840 0.038458
0.244715 0.225840 0.038458
0.276890 0.229160 0.041221
0.308937 0.232472 0.044075
0.340858 0.235808 0.047021
0.372652 0.239190 0.050058
0.404319 0.242628 0.053186
0.435859 0.246133 0.056406
0.467272 0.249709 0.059718
0.498559 0.253362 0.063120
0.529718 0.257093 0.066614
0.560750 0.260906 0.070200
0.591655 0.264802 0.073877
0.622434 0.268783 0.077645
0.653085 0.272849 0.081505
0.683609 0.277002 0.085456
0.714007 0.281242 0.089499
0.744277 0.285570 0.093633
0.774421 0.289986 0.097858
0.804438 0.294491 0.102175
0.834327 0.299084 0.106583
0.864090 0.303767 0.111083
0.893726 0.308540 0.115674
0.923234 0.313402 0.120356
0.952616 0.318354 0.125130
0.981871 0.323395 0.129995
0.999365 0.328528 0.134952
1.000000 0.333750 0.140000
0.080596 0.257202 0.041221
0.108638 0.257202 0.041221
0.136680 0.257202 0.041221
0.164722 0.257202 0.041221
0.192764 0.257202 0.041221
0.220806 0.257202 0.041221
0.248848 0.257202 0.041221
0.276890 0.257202 0.041221
0.308937 0.260455 0.044075
0.340858 0.263721 0.047021
0.372652 0.267024 0.050058
0.404319 0.270379 0.053186
0.435859 0.273796 0.056406
0.467272 0.277281 0.059718
0.498559 0.280839 0.063120
0.529718 0.284475 0.066614
0.560750 0.288191 0.070200
0.591655 0.291988 0.073877
0.622434 0.295869 0.077645
0.653085 0.299834 0.081505
0.683609 0.303885 0.085456
0.714007 0.308022 0.089499
0.744277 0.312247 0.093633
0.774421 0.316559 0.097858
0.804438 0.320960 0.102175
0.834327 0.325449 0.106583
0.864090 0.330027 0.111083
0.893726 0.334694 0.115674
0.923234 0.339451 0.120356
0.952616 0.344297 0.125130
0.981871 0.349233 0.129995
0.999365 0.354259 0.134952
1.000000 0.359375 0.140000
0.085075 0.288437 0.044075
0.113058 0.288437 0.044075
0.141041 0.288437 0.044075
0.169023 0.288437 0.044075
0.197006 0.288437 0.044075
0.224989 0.288437 0.044075
0.252972 0.288437 0.044075
0.280955 0.288437 0.044075
0.308937 0.288437 0.044075
0.340858 0.291633 0.047021
0.372652 0.294858 0.050058
0.404319 0.298130 0.053186
0.435859 0.301458 0.056406
0.467272 0.304852 0.059718
0.498559 0.308317 0.063120
0.529718 0.311857 0.066614
0.560750 0.315475 0.070200
0.591655 0.319173 0.073877
0.622434 0.322954 0.077645
0.653085 0.326818 0.081505
0.683609 0.330768 0.085456
0.714007 0.334802 0.089499
0.744277 0.338924 0.093633
0.774421 0.343133 0.097858
0.804438 0.347429 0.102175
0.834327 0.351814 0.106583
0.864090 0.356287 0.111083
0.893726 0.360849 0.115674
0.923234 0.365500 0.120356
0.952616 0.370240 0.125130
0.981871 0.375071 0.129995
0.999365 0.379990 0.134952
1.000000 0.385000 0.140000
0.089646 0.319546 0.047021
0.117558 0.319546 0.047021
0.145471 0.319546 0.047021
0.173383 0.319546 0.047021
0.201296 0.319546 0.047021
0.229208 0.319546 0.047021
0.257121 0.319546 0.047021
0.285033 0.319546 0.047021
0.312946 0.319546 0.047021
0.340858 0.319546 0.047021
0.372652 0.322693 0.050058
0.404319 0.325880 0.053186
0.435859 0.329121 0.056406
0.467272 0.332424 0.059718
0.498559 0.335795 0.063120
0.529718 0.339239 0.066614
0.560750 0.342759 0.070200
0.591655 0.346359 0.073877
0.622434 0.350039 0.077645
0.653085 0.353803 0.081505
0.683609 0.357650 0.085456
0.714007 0.361583 0.089499
0.744277 0.365601 0.093633
0.774421 0.369706 0.097858
0.804438 0.373898 0.102175
0.834327 0.378179 0.106583
0.864090 0.382547 0.111083
0.893726 0.387004 0.115674
0.923234 0.391549 0.120356
0.952616 0.396184 0.125130
0.981871 0.400908 0.129995
0.999365 0.405722 0.134952
1.000000 0.410625 0.140000
0.094308 0.350527 0.050058
0.122142 0.350527 0.050058
0.149977 0.350527 0.050058
0.177811 0.350527 0.050058
0.205646 0.350527 0.050058
0.233480 0.350527 0.050058
0.261315 0.350527 0.050058
0.289149 0.350527 0.050058
0.316983 0.350527 0.050058
0.344818 0.350527 0.050058
0.372652 0.350527 0.050058
0.404319 0.353631 0.053186
0.435859 0.356784 0.056406
0.467272 0.359995 0.059718
0.498559 0.363273 0.063120
0.529718 0.366621 0.066614
0.560750 0.370044 0.070200
0.591655 0.373544 0.073877
0.622434 0.377125 0.077645
0.653085 0.380787 0.081505
0.683609 0.384533 0.085456
0.714007 0.388363 0.089499
0.744277 0.392278 0.093633
0.774421 0.396279 0.097858
0.804438 0.400368 0.102175
0.834327 0.404543 0.106583
0.864090 0.408807 0.111083
0.893726 0.413158 0.115674
0.923234 0.417598 0.120356
0.952616 0.422127 0.125130
0.981871 0.426746 0.129995
0.999365 0.431453 0.134952
1.000000 0.436250 0.140000
0.099061 0.381382 0.053186
0.126812 0.381382 0.053186
0.154563 0.381382 0.053186
0.182314 0.381382 0.053186
0.210064 0.381382 0.053186
0.237815 0.381382 0.053186
0.265566 0.381382 0.053186
0.293316 0.381382 0.053186
0.321067 0.381382 0.053186
0.348818 0.381382 0.053186
0.376569 0.381382 0.053186
0.404319 0.381382 0.053186
0.435859 0.384447 0.056406
0.467272 0.387567 0.059718
0.498559 0.390750 0.063120
0.529718 0.394003 0.066614
0.560750 0.397328 0.070200
0.591655 0.400730 0.073877
0.622434 0.404210 0.077645
0.653085 0.407772 0.081505
0.683609 0.411415 0.085456
0.714007 0.415143 0.089499
0.744277 0.418955 0.093633
0.774421 0.422853 0.097858
0.804438 0.426837 0.102175
0.834327 0.430908 0.106583
0.864090 0.435067 0.111083
0.893726 0.439313 0.115674
0.923234 0.443648 0.120356
0.952616 0.448071 0.125130
0.981871 0.452583 0.129995
0.999365 0.457184 0.134952
1.000000 0.461875 0.140000
0.103906 0.412109 0.056406
0.131569 0.412109 0.056406
0.159232 0.412109 0.056406
0.186895 0.412109 0.056406
0.214557 0.412109 0.056406
0.242220 0.412109 0.056406
0.269883 0.412109 0.056406
0.297546 0.412109 0.056406
0.325208 0.412109 0.056406
0.352871 0.412109 0.056406
0.380534 0.412109 0.056406
0.408197 0.412109 0.056406
0.435859 0.412109 0.056406
0.467272 0.415138 0.059718
0.498559 0.418228 0.063120
0.529718 0.421385 0.066614
0.560750 0.424612 0.070200
0.591655 0.427915 0.073877
0.622434 0.431296 0.077645
0.653085 0.434756 0.081505
0.683609 0.438298 0.085456
0.714007 0.441923 0.089499
0.744277 0.445632 0.093633
0.774421 0.449426 0.097858
0.804438 0.453306 0.102175
0.834327 0.457273 0.106583
0.864090 0.461326 0.111083
0.893726 0.465468 0.115674
0.923234 0.469697 0.120356
0.952616 0.474014 0.125130
0.981871 0.478421 0.129995
0.999365 0.482916 0.134952
1.000000 0.487500 0.140000
0.108843 0.442710 0.059718
0.136414 0.442710 0.059718
0.163986 0.442710 0.059718
0.191557 0.442710 0.059718
0.219129 0.442710 0.059718
0.246700 0.442710 0.059718
0.274272 0.442710 0.059718
0.301843 0.442710 0.059718
0.329415 0.442710 0.059718
0.356986 0.442710 0.059718
0.384558 0.442710 0.059718
0.412129 0.442710 0.059718
0.439701 0.442710 0.059718
0.467272 0.442710 0.059718
0.498559 0.445706 0.063120
0.529718 0.448766 0.066614
0.560750 0.451897 0.070200
0.591655 0.455101 0.073877
0.622434 0.458381 0.077645
0.653085 0.461741 0.081505
0.683609 0.465181 0.085456
0.714007 0.468703 0.089499
0.744277 0.472309 0.093633
0.774421 0.476000 0.097858
0.804438 0.479776 0.102175
0.834327 0.483638 0.106583
0.864090 0.487586 0.111083
0.893726 0.491622 0.115674
0.923234 0.495746 0.120356
0.952616 0.499958 0.125130
0.981871 0.504258 0.129995
0.999365 0.508647 0.134952
1.000000 0.513125 0.140000
0.113870 0.473184 0.063120
0.141348 0.473184 0.063120
0.168826 0.473184 0.063120
0.196304 0.473184 0.063120
0.223781 0.473184 0.063120
0.251259 0.473184 0.063120
0.278737 0.473184 0.063120
0.306214 0.473184 0.063120
0.333692 0.473184 0.063120
0.361170 0.473184 0.063120
0.388648 0.473184 0.063120
0.416125 0.473184 0.063120
0.443603 0.473184 0.063120
0.471081 0.473184 0.063120
0.498559 0.473184 0.063120
0.529718 0.476148 0.066614
0.560750 0.479181 0.070200
0.591655 0.482286 0.073877
0.622434 0.485467 0.077645
0.653085 0.488725 0.081505
0.683609 0.492063 0.085456
0.714007 0.495483 0.089499
0.744277 0.498986 0.093633
0.774421 0.502573 0.097858
0.804438 0.506245 0.102175
0.834327 0.510002 0.106583
0.864090 0.513846 0.111083
0.893726 0.517777 0.115674
0.923234 0.521795 0.120356
0.952616 0.525901 0.125130
0.981871 0.530096 0.129995
0.999365 0.534378 0.134952
1.000000 0.538750 0.140000
0.118989 0.503530 0.066614
0.146371 0.503530 0.066614
0.173753 0.503530 0.066614
0.201135 0.503530 0.066614
0.228517 0.503530 0.066614
0.255899 0.503530 0.066614
0.283281 0.503530 0.066614
0.310663 0.503530 0.066614
0.338045 0.503530 0.066614
0.365426 0.503530 0.066614
0.392808 0.503530 0.066614
0.420190 0.503530 0.066614
0.447572 0.503530 0.066614
0.474954 0.503530 0.066614
0.502336 0.503530 0.066614
0.529718 0.503530 0.066614
0.560750 0.506466 0.070200
0.591655 0.509472 0.073877
0.622434 0.512552 0.077645
0.653085 0.515710 0.081505
0.683609 0.518946 0.085456
0.714007 0.522263 0.089499
0.744277 0.525663 0.093633
0.774421 0.529146 0.097858
0.804438 0.532714 0.102175
0.834327 0.536367 0.106583
0.864090 0.540106 0.111083
0.893726 0.543932 0.115674
0.923234 0.547845 0.120356
0.952616 0.551845 0.125130
0.981871 0.555933 0.129995
0.999365 0.560110 0.134952
1.000000 0.564375 0.140000
0.124200 0.533750 0.070200
0.151484 0.533750 0.070200
0.178769 0.533750 0.070200
0.206053 0.533750 0.070200
0.233338 0.533750 0.070200
0.260622 0.533750 0.070200
0.287906 0.533750 0.070200
0.315191 0.533750 0.070200
0.342475 0.533750 0.070200
0.369759 0.533750 0.070200
0.397044 0.533750 0.070200
0.424328 0.533750 0.070200
0.451613 0.533750 0.070200
0.478897 0.533750 0.070200
0.506181 0.533750 0.070200
0.533466 0.533750 0.070200
0.560750 0.533750 0.070200
0.591655 0.536657 0.073877
0.622434 0.539638 0.077645
0.653085 0.542694 0.081505
0.683609 0.545829 0.085456
0.714007 0.549044 0.089499
0.744277 0.552340 0.093633
0.774421 0.555720 0.097858
0.804438 0.559183 0.102175
0.834327 0.562732 0.106583
0.864090 0.566366 0.111083
0.893726 0.570086 0.115674
0.923234 0.573894 0.120356
0.952616 0.577788 0.125130
0.981871 0.581771 0.129995
0.999365 0.585841 0.134952
1.000000 0.590000 0.140000
0.129502 0.563843 0.073877
0.156687 0.563843 0.073877
0.183873 0.563843 0.073877
0.211058 0.563843 0.073877
0.238244 0.563843 0.073877
0.265429 0.563843 0.073877
0.292615 0.563843 0.073877
0.319800 0.563843 0.073877
0.346986 0.563843 0.073877
0.374171 0.563843 0.073877
0.401357 0.563843 0.073877
0.428542 0.563843 0.073877
0.455728 0.563843 0.073877
0.482913 0.563843 0.073877
0.510099 0.563843 0.073877
0.537284 0.563843 0.073877
0.564470 0.563843 0.073877
0.591655 0.563843 0.073877
0.622434 0.566723 0.077645
0.653085 0.569679 0.081505
0.683609 0.572711 0.085456
0.714007 0.575824 0.089499
0.744277 0.579017 0.093633
0.774421 0.582293 0.097858
0.804438 0.585653 0.102175
0.834327 0.589097 0.106583
0.864090 0.592626 0.111083
0.893726 0.596241 0.115674
0.923234 0.599943 0.120356
0.952616 0.603732 0.125130
0.981871 0.607608 0.129995
0.999365 0.611573 0.134952
1.000000 0.615625 0.140000
0.134895 0.593809 0.077645
0.161981 0.593809 0.077645
0.189066 0.593809 0.077645
0.216152 0.593809 0.077645
0.243237 0.593809 0.077645
0.270323 0.593809 0.077645
0.297408 0.593809 0.077645
0.324494 0.593809 0.077645
0.351579 0.593809 0.077645
0.378664 0.593809 0.077645
0.405750 0.593809 0.077645
0.432835 0.593809 0.077645
0.459921 0.593809 0.077645
0.487006 0.593809 0.077645
0.514092 0.593809 0.077645
0.541177 0.593809 0.077645
0.568263 0.593809 0.077645
0.595348 0.593809 0.077645
0.622434 0.593809 0.077645
0.653085 0.596663 0.081505
0.683609 0.599594 0.085456
0.714007 0.602604 0.089499
0.744277 0.605694 0.093633
0.774421 0.608867 0.097858
0.804438 0.612122 0.102175
0.834327 0.615461 0.106583
0.864090 0.618886 0.111083
0.893726 0.622396 0.115674
0.923234 0.625992 0.120356
0.952616 0.629675 0.125130
0.981871 0.633446 0.129995
0.999365 0.637304 0.134952
1.000000 0.641250 0.140000
0.140380 0.623647 0.081505
0.167365 0.623647 0.081505
0.194349 0.623647 0.081505
0.221333 0.623647 0.081505
0.248318 0.623647 0.081505
0.275302 0.623647 0.081505
0.302287 0.623647 0.081505
0.329271 0.623647 0.081505
0.356256 0.623647 0.081505
0.383240 0.623647 0.081505
0.410225 0.623647 0.081505
0.437209 0.623647 0.081505
0.464194 0.623647 0.081505
0.491178 0.623647 0.081505
0.518163 0.623647 0.081505
0.545147 0.623647 0.081505
0.572132 0.623647 0.081505
0.599116 0.623647 0.081505
0.626100 0.623647 0.081505
0.653085 0.623647 0.081505
0.683609 0.626477 0.085456
0.714007 0.629384 0.089499
0.744277 0.632371 0.093633
0.774421 0.635440 0.097858
0.804438 0.638591 0.102175
0.834327 0.641826 0.106583
0.864090 0.645146 0.111083
0.893726 0.648551 0.115674
0.923234 0.652041 0.120356
0.952616 0.655619 0.125130
0.981871 0.659283 0.129995
0.999365 0.663035 0.134952
1.000000 0.666875 0.140000
0.145956 0.653359 0.085456
0.172839 0.653359 0.085456
0.199722 0.653359 0.085456
0.226604 0.653359 0.085456
0.253487 0.653359 0.085456
0.280370 0.653359 0.085456
0.307252 0.653359 0.085456
0.334135 0.653359 0.085456
0.361017 0.653359 0.085456
0.387900 0.653359 0.085456
0.414783 0.653359 0.085456
0.441665 0.653359 0.085456
0.468548 0.653359 0.085456
0.495431 0.653359 0.085456
0.522313 0.653359 0.085456
0.549196 0.653359 0.085456
0.576079 0.653359 0.085456
0.602961 0.653359 0.085456
0.629844 0.653359 0.085456
0.656727 0.653359 0.085456
0.683609 0.653359 0.085456
0.714007 0.656164 0.089499
0.744277 0.659048 0.093633
0.774421 0.662013 0.097858
0.804438 0.665060 0.102175
0.834327 0.668191 0.106583
0.864090 0.671406 0.111083
0.893726 0.674705 0.115674
0.923234 0.678091 0.120356
0.952616 0.681562 0.125130
0.981871 0.685121 0.129995
0.999365 0.688767 0.134952
1.000000 0.692500 0.140000
0.151624 0.682944 0.089499
0.178404 0.682944 0.089499
0.205184 0.682944 0.089499
0.231964 0.682944 0.089499
0.258744 0.682944 0.089499
0.285525 0.682944 0.089499
0.312305 0.682944 0.089499
0.339085 0.682944 0.089499
0.365865 0.682944 0.089499
0.392645 0.682944 0.089499
0.419425 0.682944 0.089499
0.446205 0.682944 0.089499
0.472986 0.682944 0.089499
0.499766 0.682944 0.089499
0.526546 0.682944 0.089499
0.553326 0.682944 0.089499
0.580106 0.682944 0.089499
0.606886 0.682944 0.089499
0.633666 0.682944 0.089499
0.660447 0.682944 0.089499
0.687227 0.682944 0.089499
0.714007 0.682944 0.089499
0.744277 0.685725 0.093633
0.774421 0.688587 0.097858
0.804438 0.691530 0.102175
0.834327 0.694556 0.106583
0.864090 0.697665 0.111083
0.893726 0.700860 0.115674
0.923234 0.704140 0.120356
0.952616 0.707506 0.125130
0.981871 0.710958 0.129995
0.999365 0.714498 0.134952
1.000000 0.718125 0.140000
0.157383 0.712402 0.093633
0.184060 0.712402 0.093633
0.210737 0.712402 0.093633
0.237414 0.712402 0.093633
0.264091 0.712402 0.093633
0.290768 0.712402 0.093633
0.317445 0.712402 0.093633
0.344122 0.712402 0.093633
0.370799 0.712402 0.093633
0.397476 0.712402 0.093633
0.424153 0.712402 0.093633
0.450830 0.712402 0.093633
0.477507 0.712402 0.093633
0.504184 0.712402 0.093633
0.530861 0.712402 0.093633
0.557538 0.712402 0.093633
0.584215 0.712402 0.093633
0.610892 0.712402 0.093633
0.637569 0.712402 0.093633
0.664246 0.712402 0.093633
0.690923 0.712402 0.093633
0.717600 0.712402 0.093633
0.744277 0.712402 0.093633
0.774421 0.715160 0.097858
0.804438 0.717999 0.102175
0.834327 0.720920 0.106583
0.864090 0.723925 0.111083
0.893726 0.727015 0.115674
0.923234 0.730189 0.120356
0.952616 0.733449 0.125130
0.981871 0.736796 0.129995
0.999365 0.740229 0.134952
1.000000 0.743750 0.140000
0.163233 0.741733 0.097858
0.189807 0.741733 0.097858
0.216380 0.741733 0.097858
0.242953 0.741733 0.097858
0.269527 0.741733 0.097858
0.296100 0.741733 0.097858
0.322673 0.741733 0.097858
0.349247 0.741733 0.097858
0.375820 0.741733 0.097858
0.402394 0.741733 0.097858
0.428967 0.741733 0.097858
0.455540 0.741733 0.097858
0.482114 0.741733 0.097858
0.508687 0.741733 0.097858
0.535260 0.741733 0.097858
0.561834 0.741733 0.097858
0.588407 0.741733 0.097858
0.614981 0.741733 0.097858
0.641554 0.741733 0.097858
0.668127 0.741733 0.097858
0.694701 0.741733 0.097858
0.721274 0.741733 0.097858
0.747847 0.741733 0.097858
0.774421 0.741733 0.097858
0.804438 0.744468 0.102175
0.834327 0.747285 0.106583
0.864090 0.750185 0.111083
0.893726 0.753169 0.115674
0.923234 0.756238 0.120356
0.952616 0.759393 0.125130
0.981871 0.762633 0.129995
0.999365 0.765961 0.134952
1.000000 0.769375 0.140000
0.169175 0.770938 0.102175
0.195644 0.770938 0.102175
0.222114 0.770938 0.102175
0.248583 0.770938 0.102175
0.275052 0.770938 0.102175
0.301521 0.770938 0.102175
0.327991 0.770938 0.102175
0.354460 0.770938 0.102175
0.380929 0.770938 0.102175
0.407398 0.770938 0.102175
0.433868 0.770938 0.102175
0.460337 0.770938 0.102175
0.486806 0.770938 0.102175
0.513276 0.770938 0.102175
0.539745 0.770938 0.102175
0.566214 0.770938 0.102175
0.592683 0.770938 0.102175
0.619153 0.770938 0.102175
0.645622 0.770938 0.102175
0.672091 0.770938 0.102175
0.698560 0.770938 0.102175
0.725030 0.770938 0.102175
0.751499 0.770938 0.102175
0.777968 0.770938 0.102175
0.804438 0.770938 0.102175
0.834327 0.773650 0.106583
0.864090 0.776445 0.111083
0.893726 0.779324 0.115674
0.923234 0.782287 0.120356
0.952616 0.785336 0.125130
0.981871 0.788471 0.129995
0.999365 0.791692 0.134952
1.000000 0.795000 0.140000
0.175208 0.800015 0.106583
0.201573 0.800015 0.106583
0.227938 0.800015 0.106583
0.254302 0.800015 0.106583
0.280667 0.800015 0.106583
0.307032 0.800015 0.106583
0.333397 0.800015 0.106583
0.359762 0.800015 0.106583
0.386126 0.800015 0.106583
0.412491 0.800015 0.106583
0.438856 0.800015 0.106583
0.465221 0.800015 0.106583
0.491585 0.800015 0.106583
0.517950 0.800015 0.106583
0.544315 0.800015 0.106583
0.570680 0.800015 0.106583
0.597044 0.800015 0.106583
0.623409 0.800015 0.106583
0.649774 0.800015 0.106583
0.676139 0.800015 0.106583
0.702503 0.800015 0.106583
0.728868 0.800015 0.106583
0.755233 0.800015 0.106583
0.781598 0.800015 0.106583
0.807962 0.800015 0.106583
0.834327 0.800015 0.106583
0.864090 0.802705 0.111083
0.893726 0.805479 0.115674
0.923234 0.808337 0.120356
0.952616 0.811280 0.125130
0.981871 0.814308 0.129995
0.999365 0.817423 0.134952
1.000000 0.820625 0.140000
0.181333 0.828965 0.111083
0.207593 0.828965 0.111083
0.233853 0.828965 0.111083
0.260112 0.828965 0.111083
0.286372 0.828965 0.111083
0.312632 0.828965 0.111083
0.338892 0.828965 0.111083
0.365152 0.828965 0.111083
0.391412 0.828965 0.111083
0.417672 0.828965 0.111083
0.443932 0.828965 0.111083
0.470192 0.828965 0.111083
0.496451 0.828965 0.111083
0.522711 0.828965 0.111083
0.548971 0.828965 0.111083
0.575231 0.828965 0.111083
0.601491 0.828965 0.111083
0.627751 0.828965 0.111083
0.654011 0.828965 0.111083
0.680271 0.828965 0.111083
0.706531 0.828965 0.111083
0.732790 0.828965 0.111083
0.759050 0.828965 0.111083
0.785310 0.828965 0.111083
0.811570 0.828965 0.111083
0.837830 0.828965 0.111083
0.864090 0.828965 0.111083
