luts/original/faded-memory.cube
TITLE "Faded Memory"
LUT_3D_SIZE 5
DOMAIN_MIN 0.0 0.0 0.0
DOMAIN_MAX 1.0 1.0 1.0
0.052500 0.049000 0.045500
0.308937 0.089944 0.084819
0.554000 0.132975 0.126225
0.787687 0.182994 0.174619
1.000000 0.240000 0.230000
0.095069 0.303813 0.084819
0.308937 0.303813 0.084819
0.554000 0.340113 0.126225
0.787687 0.381767 0.174619
1.000000 0.430000 0.230000
0.139725 0.547250 0.126225
0.346862 0.547250 0.126225
0.554000 0.547250 0.126225
0.787687 0.580540 0.174619
1.000000 0.620000 0.230000
0.191369 0.779312 0.174619
0.390142 0.779312 0.174619
0.588915 0.779312 0.174619
0.787687 0.779312 0.174619
1.000000 0.810000 0.230000
0.250000 1.000000 0.230000
0.440000 1.000000 0.230000
0.630000 1.000000 0.230000
0.820000 1.000000 0.230000
1.000000 1.000000 0.230000
0.095069 0.089944 0.298687
0.308937 0.089944 0.298687
0.554000 0.132975 0.333362
0.787687 0.182994 0.373392
1.000000 0.240000 0.420000
0.095069 0.303813 0.298687
0.308937 0.303813 0.298687
0.554000 0.359350 0.352600
0.787687 0.403681 0.395306
1.000000 0.455000 0.445000
0.139725 0.547250 0.333362
0.366100 0.547250 0.352600
0.554000 0.547250 0.352600
0.787687 0.591497 0.395306
1.000000 0.636667 0.445000
0.191369 0.779312 0.373392
0.412056 0.779312 0.395306
0.599872 0.779312 0.395306
0.787687 0.779312 0.395306
1.000000 0.818333 0.445000
0.250000 1.000000 0.420000
0.465000 1.000000 0.445000
0.646667 1.000000 0.445000
0.828333 1.000000 0.445000
1.000000 1.000000 0.445000
0.139725 0.132975 0.540500
0.346862 0.132975 0.540500
0.554000 0.132975 0.540500
0.787687 0.182994 0.572165
1.000000 0.240000 0.610000
0.139725 0.340113 0.540500
0.366100 0.359350 0.540500
0.554000 0.359350 0.540500
0.787687 0.403681 0.583122
1.000000 0.455000 0.626667
0.139725 0.547250 0.540500
0.366100 0.547250 0.540500
0.554000 0.547250 0.540500
0.787687 0.624369 0.615994
1.000000 0.670000 0.660000
0.191369 0.779312 0.572165
0.412056 0.779312 0.583122
0.632744 0.779312 0.615994
0.787687 0.779312 0.615994
1.000000 0.835000 0.660000
0.250000 1.000000 0.610000
0.465000 1.000000 0.626667
0.680000 1.000000 0.660000
0.845000 1.000000 0.660000
1.000000 1.000000 0.660000
0.191369 0.182994 0.770938
0.390142 0.182994 0.770938
0.588915 0.182994 0.770938
0.787687 0.182994 0.770938
1.000000 0.240000 0.800000
0.191369 0.381767 0.770938
0.412056 0.403681 0.770938
0.599872 0.403681 0.770938
0.787687 0.403681 0.770938
1.000000 0.455000 0.808333
0.191369 0.580540 0.770938
0.412056 0.591497 0.770938
0.632744 0.624369 0.770938
0.787687 0.624369 0.770938
1.000000 0.670000 0.825000
0.191369 0.779312 0.770938
0.412056 0.779312 0.770938
0.632744 0.779312 0.770938
0.787687 0.779312 0.770938
1.000000 0.885000 0.875000
0.250000 1.000000 0.800000
0.465000 1.000000 0.808333
0.680000 1.000000 0.825000
0.895000 1.000000 0.875000
1.000000 1.000000 0.875000
0.250000 0.240000 0.990000
0.440000 0.240000 0.990000
0.630000 0.240000 0.990000
0.820000 0.240000 0.990000
1.000000 0.240000 0.990000
0.250000 0.430000 0.990000
0.465000 0.455000 0.990000
0.646667 0.455000 0.990000
0.828333 0.455000 0.990000
1.000000 0.455000 0.990000
0.250000 0.620000 0.990000
0.465000 0.636667 0.990000
0.680000 0.670000 0.990000
0.845000 0.670000 0.990000
1.000000 0.670000 0.990000
0.250000 0.810000 0.990000
0.465000 0.818333 0.990000
0.680000 0.835000 0.990000
0.895000 0.885000 0.990000
1.000000 0.885000 0.990000
0.250000 1.000000 0.990000
0.465000 1.000000 0.990000
0.680000 1.000000 0.990000
0.895000 1.000000 0.990000
1.000000 1.000000 0.990000
