luts/original/faded-memory.cube
TITLE "Faded Memory"
LUT_3D_SIZE 9
DOMAIN_MIN 0.0 0.0 0.0
DOMAIN_MAX 1.0 1.0 1.0
0.052500 0.049000 0.045500
0.182141 0.071048 0.066736
0.308937 0.089944 0.084819
0.432891 0.110586 0.104648
0.554000 0.132975 0.126225
0.672266 0.157111 0.149548
0.787687 0.182994 0.174619
0.900266 0.210623 0.201436
1.000000 0.240000 0.230000
0.075361 0.177828 0.066736
0.182141 0.177828 0.066736
0.308937 0.196878 0.084819
0.432891 0.216042 0.104648
0.554000 0.236544 0.126225
0.672266 0.258629 0.149548
0.787687 0.282380 0.174619
0.900266 0.307831 0.201436
1.000000 0.335000 0.230000
0.095069 0.303813 0.084819
0.202003 0.303813 0.084819
0.308937 0.303813 0.084819
0.432891 0.321497 0.104648
0.554000 0.340113 0.126225
0.672266 0.360148 0.149548
0.787687 0.381767 0.174619
0.900266 0.405039 0.201436
1.000000 0.430000 0.230000
0.116523 0.426953 0.104648
0.221979 0.426953 0.104648
0.327435 0.426953 0.104648
0.432891 0.426953 0.104648
0.554000 0.443681 0.126225
0.672266 0.461666 0.149548
0.787687 0.481153 0.174619
0.900266 0.502247 0.201436
1.000000 0.525000 0.230000
0.139725 0.547250 0.126225
0.243294 0.547250 0.126225
0.346862 0.547250 0.126225
0.450431 0.547250 0.126225
0.554000 0.547250 0.126225
0.672266 0.563185 0.149548
0.787687 0.580540 0.174619
0.900266 0.599455 0.201436
1.000000 0.620000 0.230000
0.164673 0.664703 0.149548
0.266192 0.664703 0.149548
0.367710 0.664703 0.149548
0.469229 0.664703 0.149548
0.570747 0.664703 0.149548
0.672266 0.664703 0.149548
0.787687 0.679926 0.174619
0.900266 0.696662 0.201436
1.000000 0.715000 0.230000
0.191369 0.779312 0.174619
0.290755 0.779312 0.174619
0.390142 0.779312 0.174619
0.489528 0.779312 0.174619
0.588915 0.779312 0.174619
0.688301 0.779312 0.174619
0.787687 0.779312 0.174619
0.900266 0.793870 0.201436
1.000000 0.810000 0.230000
0.219811 0.891078 0.201436
0.317019 0.891078 0.201436
0.414227 0.891078 0.201436
0.511434 0.891078 0.201436
0.608642 0.891078 0.201436
0.705850 0.891078 0.201436
0.803058 0.891078 0.201436
0.900266 0.891078 0.201436
1.000000 0.905000 0.230000
0.250000 1.000000 0.230000
0.345000 1.000000 0.230000
0.440000 1.000000 0.230000
0.535000 1.000000 0.230000
0.630000 1.000000 0.230000
0.725000 1.000000 0.230000
0.820000 1.000000 0.230000
0.915000 1.000000 0.230000
1.000000 1.000000 0.230000
0.075361 0.071048 0.173516
0.182141 0.071048 0.173516
0.308937 0.089944 0.191753
0.432891 0.110586 0.210104
0.554000 0.132975 0.229794
0.672266 0.157111 0.251067
0.787687 0.182994 0.274005
0.900266 0.210623 0.298644
1.000000 0.240000 0.325000
0.075361 0.177828 0.173516
0.182141 0.177828 0.173516
0.308937 0.205975 0.200850
0.432891 0.225195 0.219258
0.554000 0.246163 0.239413
0.672266 0.268877 0.261314
0.787687 0.293337 0.284963
0.900266 0.319545 0.310358
1.000000 0.347500 0.337500
0.095069 0.303813 0.191753
0.211100 0.303813 0.200850
0.308937 0.303813 0.200850
0.432891 0.326074 0.219258
0.554000 0.346525 0.239413
0.672266 0.367833 0.261314
0.787687 0.390532 0.284963
0.900266 0.414801 0.310358
1.000000 0.440714 0.337500
0.116523 0.426953 0.210104
0.231133 0.426953 0.219258
0.332012 0.426953 0.219258
0.432891 0.426953 0.219258
0.554000 0.446887 0.239413
0.672266 0.466790 0.261314
0.787687 0.487727 0.284963
0.900266 0.510056 0.310358
1.000000 0.533929 0.337500
0.139725 0.547250 0.229794
0.252912 0.547250 0.239413
0.353275 0.547250 0.239413
0.453638 0.547250 0.239413
0.554000 0.547250 0.239413
0.672266 0.565746 0.261314
0.787687 0.584922 0.284963
0.900266 0.605312 0.310358
1.000000 0.627143 0.337500
0.164673 0.664703 0.251067
0.276439 0.664703 0.261314
0.375396 0.664703 0.261314
0.474352 0.664703 0.261314
0.573309 0.664703 0.261314
0.672266 0.664703 0.261314
0.787687 0.682118 0.284963
0.900266 0.700567 0.310358
1.000000 0.720357 0.337500
0.191369 0.779312 0.274005
0.301713 0.779312 0.284963
0.398908 0.779312 0.284963
0.496103 0.779312 0.284963
0.593297 0.779312 0.284963
0.690493 0.779312 0.284963
0.787687 0.779312 0.284963
0.900266 0.795823 0.310358
1.000000 0.813571 0.337500
0.219811 0.891078 0.298644
0.328733 0.891078 0.310358
0.423988 0.891078 0.310358
0.519244 0.891078 0.310358
0.614499 0.891078 0.310358
0.709755 0.891078 0.310358
0.805010 0.891078 0.310358
0.900266 0.891078 0.310358
1.000000 0.906786 0.337500
0.250000 1.000000 0.325000
0.357500 1.000000 0.337500
0.450714 1.000000 0.337500
0.543929 1.000000 0.337500
0.637143 1.000000 0.337500
0.730357 1.000000 0.337500
0.823571 1.000000 0.337500
0.916786 1.000000 0.337500
1.000000 1.000000 0.337500
0.095069 0.089944 0.298687
0.202003 0.089944 0.298687
0.308937 0.089944 0.298687
0.432891 0.110586 0.315560
0.554000 0.132975 0.333362
0.672266 0.157111 0.352585
0.787687 0.182994 0.373392
0.900266 0.210623 0.395852
1.000000 0.240000 0.420000
0.095069 0.196878 0.298687
0.211100 0.205975 0.298687
0.308937 0.205975 0.298687
0.432891 0.225195 0.320137
0.554000 0.246163 0.339775
0.672266 0.268877 0.360271
0.787687 0.293337 0.382158
0.900266 0.319545 0.405613
1.000000 0.347500 0.430714
0.095069 0.303813 0.298687
0.211100 0.303813 0.298687
0.308937 0.303813 0.298687
0.432891 0.339805 0.333867
0.554000 0.359350 0.352600
0.672266 0.380642 0.373080
0.787687 0.403681 0.395306
0.900266 0.428467 0.419280
1.000000 0.455000 0.445000
0.116523 0.426953 0.315560
0.231133 0.426953 0.320137
0.345742 0.426953 0.333867
0.432891 0.426953 0.333867
0.554000 0.453300 0.352600
0.672266 0.475329 0.373080
0.787687 0.497589 0.395306
0.900266 0.520989 0.419280
1.000000 0.545833 0.445000
0.139725 0.547250 0.333362
0.252912 0.547250 0.339775
0.366100 0.547250 0.352600
0.460050 0.547250 0.352600
0.554000 0.547250 0.352600
0.672266 0.570016 0.373080
0.787687 0.591497 0.395306
0.900266 0.613512 0.419280
1.000000 0.636667 0.445000
0.164673 0.664703 0.352585
0.276439 0.664703 0.360271
0.388205 0.664703 0.373080
0.482892 0.664703 0.373080
0.577579 0.664703 0.373080
0.672266 0.664703 0.373080
0.787687 0.685405 0.395306
0.900266 0.706034 0.419280
1.000000 0.727500 0.445000
0.191369 0.779312 0.373392
0.301713 0.779312 0.382158
0.412056 0.779312 0.395306
0.505964 0.779312 0.395306
0.599872 0.779312 0.395306
0.693780 0.779312 0.395306
0.787687 0.779312 0.395306
0.900266 0.798556 0.419280
1.000000 0.818333 0.445000
0.219811 0.891078 0.395852
0.328733 0.891078 0.405613
0.437655 0.891078 0.419280
0.530177 0.891078 0.419280
0.622699 0.891078 0.419280
0.715221 0.891078 0.419280
0.807743 0.891078 0.419280
0.900266 0.891078 0.419280
1.000000 0.909167 0.445000
0.250000 1.000000 0.420000
0.357500 1.000000 0.430714
0.465000 1.000000 0.445000
0.555833 1.000000 0.445000
0.646667 1.000000 0.445000
0.737500 1.000000 0.445000
0.828333 1.000000 0.445000
0.919167 1.000000 0.445000
1.000000 1.000000 0.445000
0.116523 0.110586 0.421016
0.221979 0.110586 0.421016
0.327435 0.110586 0.421016
0.432891 0.110586 0.421016
0.554000 0.132975 0.436931
0.672266 0.157111 0.454104
0.787687 0.182994 0.472778
0.900266 0.210623 0.493059
1.000000 0.240000 0.515000
0.116523 0.216042 0.421016
0.231133 0.225195 0.421016
0.332012 0.225195 0.421016
0.432891 0.225195 0.421016
0.554000 0.246163 0.440138
0.672266 0.268877 0.459227
0.787687 0.293337 0.479353
0.900266 0.319545 0.500869
1.000000 0.347500 0.523929
0.116523 0.321497 0.421016
0.231133 0.326074 0.421016
0.345742 0.339805 0.421016
0.432891 0.339805 0.421016
0.554000 0.359350 0.446550
0.672266 0.380642 0.467767
0.787687 0.403681 0.489214
0.900266 0.428467 0.511802
1.000000 0.455000 0.535833
0.116523 0.426953 0.421016
0.231133 0.426953 0.421016
0.345742 0.426953 0.421016
0.432891 0.426953 0.421016
0.554000 0.472537 0.465788
0.672266 0.492408 0.484845
0.787687 0.514025 0.505650
0.900266 0.537389 0.528202
1.000000 0.562500 0.552500
0.139725 0.547250 0.436931
0.252912 0.547250 0.440138
0.366100 0.547250 0.446550
0.479288 0.547250 0.465788
0.554000 0.547250 0.465788
0.672266 0.578555 0.484845
0.787687 0.602454 0.505650
0.900266 0.625811 0.528202
1.000000 0.650000 0.552500
0.164673 0.664703 0.454104
0.276439 0.664703 0.459227
0.388205 0.664703 0.467767
0.499970 0.664703 0.484845
0.586118 0.664703 0.484845
0.672266 0.664703 0.484845
0.787687 0.690883 0.505650
0.900266 0.714234 0.528202
1.000000 0.737500 0.552500
0.191369 0.779312 0.472778
0.301713 0.779312 0.479353
0.412056 0.779312 0.489214
0.522400 0.779312 0.505650
0.610829 0.779312 0.505650
0.699258 0.779312 0.505650
0.787687 0.779312 0.505650
0.900266 0.802656 0.528202
1.000000 0.825000 0.552500
0.219811 0.891078 0.493059
0.328733 0.891078 0.500869
0.437655 0.891078 0.511802
0.546577 0.891078 0.528202
0.634999 0.891078 0.528202
0.723421 0.891078 0.528202
0.811843 0.891078 0.528202
0.900266 0.891078 0.528202
1.000000 0.912500 0.552500
0.250000 1.000000 0.515000
0.357500 1.000000 0.523929
0.465000 1.000000 0.535833
0.572500 1.000000 0.552500
0.660000 1.000000 0.552500
0.747500 1.000000 0.552500
0.835000 1.000000 0.552500
0.922500 1.000000 0.552500
1.000000 1.000000 0.552500
0.139725 0.132975 0.540500
0.243294 0.132975 0.540500
0.346862 0.132975 0.540500
0.450431 0.132975 0.540500
0.554000 0.132975 0.540500
0.672266 0.157111 0.555622
0.787687 0.182994 0.572165
0.900266 0.210623 0.590267
1.000000 0.240000 0.610000
0.139725 0.236544 0.540500
0.252912 0.246163 0.540500
0.353275 0.246163 0.540500
0.453638 0.246163 0.540500
0.554000 0.246163 0.540500
0.672266 0.268877 0.558184
0.787687 0.293337 0.576548
0.900266 0.319545 0.596124
1.000000 0.347500 0.617143
0.139725 0.340113 0.540500
0.252912 0.346525 0.540500
0.366100 0.359350 0.540500
0.460050 0.359350 0.540500
0.554000 0.359350 0.540500
0.672266 0.380642 0.562454
0.787687 0.403681 0.583122
0.900266 0.428467 0.604324
1.000000 0.455000 0.626667
0.139725 0.443681 0.540500
0.252912 0.446887 0.540500
0.366100 0.453300 0.540500
0.479288 0.472537 0.540500
0.554000 0.472537 0.540500
0.672266 0.492408 0.570993
0.787687 0.514025 0.594079
0.900266 0.537389 0.616624
1.000000 0.562500 0.640000
0.139725 0.547250 0.540500
0.252912 0.547250 0.540500
0.366100 0.547250 0.540500
0.479288 0.547250 0.540500
0.554000 0.547250 0.540500
0.672266 0.604173 0.596611
0.787687 0.624369 0.615994
0.900266 0.646311 0.637123
1.000000 0.670000 0.660000
0.164673 0.664703 0.555622
0.276439 0.664703 0.558184
0.388205 0.664703 0.562454
0.499970 0.664703 0.570993
0.611736 0.664703 0.596611
0.672266 0.664703 0.596611
0.787687 0.701841 0.615994
0.900266 0.727900 0.637123
1.000000 0.752500 0.660000
0.191369 0.779312 0.572165
0.301713 0.779312 0.576548
0.412056 0.779312 0.583122
0.522400 0.779312 0.594079
0.632744 0.779312 0.615994
0.710216 0.779312 0.615994
0.787687 0.779312 0.615994
0.900266 0.809489 0.637123
1.000000 0.835000 0.660000
0.219811 0.891078 0.590267
0.328733 0.891078 0.596124
0.437655 0.891078 0.604324
0.546577 0.891078 0.616624
0.655498 0.891078 0.637123
0.737087 0.891078 0.637123
0.818677 0.891078 0.637123
0.900266 0.891078 0.637123
1.000000 0.917500 0.660000
0.250000 1.000000 0.610000
0.357500 1.000000 0.617143
0.465000 1.000000 0.626667
0.572500 1.000000 0.640000
0.680000 1.000000 0.660000
0.762500 1.000000 0.660000
0.845000 1.000000 0.660000
0.927500 1.000000 0.660000
1.000000 1.000000 0.660000
0.164673 0.157111 0.657141
0.266192 0.157111 0.657141
0.367710 0.157111 0.657141
0.469229 0.157111 0.657141
0.570747 0.157111 0.657141
0.672266 0.157111 0.657141
0.787687 0.182994 0.671551
0.900266 0.210623 0.687475
1.000000 0.240000 0.705000
0.164673 0.258629 0.657141
0.276439 0.268877 0.657141
0.375396 0.268877 0.657141
0.474352 0.268877 0.657141
0.573309 0.268877 0.657141
0.672266 0.268877 0.657141
0.787687 0.293337 0.673742
0.900266 0.319545 0.691380
1.000000 0.347500 0.710357
0.164673 0.360148 0.657141
0.276439 0.367833 0.657141
0.388205 0.380642 0.657141
0.482892 0.380642 0.657141
0.577579 0.380642 0.657141
0.672266 0.380642 0.657141
0.787687 0.403681 0.677030
0.900266 0.428467 0.696846
1.000000 0.455000 0.717500
0.164673 0.461666 0.657141
0.276439 0.466790 0.657141
0.388205 0.475329 0.657141
0.499970 0.492408 0.657141
0.586118 0.492408 0.657141
0.672266 0.492408 0.657141
0.787687 0.514025 0.682508
0.900266 0.537389 0.705046
1.000000 0.562500 0.727500
0.164673 0.563185 0.657141
0.276439 0.565746 0.657141
0.388205 0.570016 0.657141
0.499970 0.578555 0.657141
0.611736 0.604173 0.657141
0.672266 0.604173 0.657141
0.787687 0.624369 0.693466
0.900266 0.646311 0.718713
1.000000 0.670000 0.742500
0.164673 0.664703 0.657141
0.276439 0.664703 0.657141
0.388205 0.664703 0.657141
0.499970 0.664703 0.657141
0.611736 0.664703 0.657141
0.672266 0.664703 0.657141
0.787687 0.734712 0.726337
0.900266 0.755233 0.746045
1.000000 0.777500 0.767500
0.191369 0.779312 0.671551
0.301713 0.779312 0.673742
0.412056 0.779312 0.677030
0.522400 0.779312 0.682508
0.632744 0.779312 0.693466
0.743087 0.779312 0.726337
0.787687 0.779312 0.726337
0.900266 0.823155 0.746045
1.000000 0.851667 0.767500
0.219811 0.891078 0.687475
0.328733 0.891078 0.691380
0.437655 0.891078 0.696846
0.546577 0.891078 0.705046
0.655498 0.891078 0.718713
0.764420 0.891078 0.746045
0.832343 0.891078 0.746045
0.900266 0.891078 0.746045
1.000000 0.925833 0.767500
0.250000 1.000000 0.705000
0.357500 1.000000 0.710357
0.465000 1.000000 0.717500
0.572500 1.000000 0.727500
0.680000 1.000000 0.742500
0.787500 1.000000 0.767500
0.861667 1.000000 0.767500
0.935833 1.000000 0.767500
1.000000 1.000000 0.767500
0.191369 0.182994 0.770938
0.290755 0.182994 0.770938
0.390142 0.182994 0.770938
0.489528 0.182994 0.770938
0.588915 0.182994 0.770938
0.688301 0.182994 0.770938
0.787687 0.182994 0.770938
0.900266 0.210623 0.784683
1.000000 0.240000 0.800000
0.191369 0.282380 0.770938
0.301713 0.293337 0.770938
0.398908 0.293337 0.770938
0.496103 0.293337 0.770938
0.593297 0.293337 0.770938
0.690493 0.293337 0.770938
0.787687 0.293337 0.770938
0.900266 0.319545 0.786635
1.000000 0.347500 0.803571
0.191369 0.381767 0.770938
0.301713 0.390532 0.770938
0.412056 0.403681 0.770938
0.505964 0.403681 0.770938
0.599872 0.403681 0.770938
0.693780 0.403681 0.770938
0.787687 0.403681 0.770938
0.900266 0.428467 0.789368
1.000000 0.455000 0.808333
0.191369 0.481153 0.770938
0.301713 0.487727 0.770938
0.412056 0.497589 0.770938
0.522400 0.514025 0.770938
0.610829 0.514025 0.770938
0.699258 0.514025 0.770938
0.787687 0.514025 0.770938
0.900266 0.537389 0.793468
1.000000 0.562500 0.815000
0.191369 0.580540 0.770938
0.301713 0.584922 0.770938
0.412056 0.591497 0.770938
0.522400 0.602454 0.770938
0.632744 0.624369 0.770938
0.710216 0.624369 0.770938
0.787687 0.624369 0.770938
0.900266 0.646311 0.800302
1.000000 0.670000 0.825000
0.191369 0.679926 0.770938
0.301713 0.682118 0.770938
0.412056 0.685405 0.770938
0.522400 0.690883 0.770938
0.632744 0.701841 0.770938
0.743087 0.734712 0.770938
0.787687 0.734712 0.770938
0.900266 0.755233 0.813968
1.000000 0.777500 0.841667
0.191369 0.779312 0.770938
0.301713 0.779312 0.770938
0.412056 0.779312 0.770938
0.522400 0.779312 0.770938
0.632744 0.779312 0.770938
0.743087 0.779312 0.770938
0.787687 0.779312 0.770938
0.900266 0.864155 0.854967
1.000000 0.885000 0.875000
0.219811 0.891078 0.784683
0.328733 0.891078 0.786635
0.437655 0.891078 0.789368
0.546577 0.891078 0.793468
0.655498 0.891078 0.800302
0.764420 0.891078 0.813968
0.873342 0.891078 0.854967
0.900266 0.891078 0.854967
1.000000 0.942500 0.875000
0.250000 1.000000 0.800000
0.357500 1.000000 0.803571
0.465000 1.000000 0.808333
0.572500 1.000000 0.815000
0.680000 1.000000 0.825000
0.787500 1.000000 0.841667
0.895000 1.000000 0.875000
0.952500 1.000000 0.875000
1.000000 1.000000 0.875000
0.219811 0.210623 0.881891
0.317019 0.210623 0.881891
0.414227 0.210623 0.881891
0.511434 0.210623 0.881891
0.608642 0.210623 0.881891
0.705850 0.210623 0.881891
0.803058 0.210623 0.881891
0.900266 0.210623 0.881891
1.000000 0.240000 0.895000
0.219811 0.307831 0.881891
0.328733 0.319545 0.881891
0.423988 0.319545 0.881891
0.519244 0.319545 0.881891
0.614499 0.319545 0.881891
0.709755 0.319545 0.881891
0.805010 0.319545 0.881891
0.900266 0.319545 0.881891
1.000000 0.347500 0.896786
0.219811 0.405039 0.881891
0.328733 0.414801 0.881891
0.437655 0.428467 0.881891
0.530177 0.428467 0.881891
0.622699 0.428467 0.881891
0.715221 0.428467 0.881891
0.807743 0.428467 0.881891
0.900266 0.428467 0.881891
1.000000 0.455000 0.899167
0.219811 0.502247 0.881891
0.328733 0.510056 0.881891
0.437655 0.520989 0.881891
0.546577 0.537389 0.881891
0.634999 0.537389 0.881891
0.723421 0.537389 0.881891
0.811843 0.537389 0.881891
0.900266 0.537389 0.881891
1.000000 0.562500 0.902500
0.219811 0.599455 0.881891
0.328733 0.605312 0.881891
0.437655 0.613512 0.881891
0.546577 0.625811 0.881891
0.655498 0.646311 0.881891
0.737087 0.646311 0.881891
0.818677 0.646311 0.881891
0.900266 0.646311 0.881891
1.000000 0.670000 0.907500
0.219811 0.696662 0.881891
0.328733 0.700567 0.881891
0.437655 0.706034 0.881891
0.546577 0.714234 0.881891
0.655498 0.727900 0.881891
0.764420 0.755233 0.881891
0.832343 0.755233 0.881891
0.900266 0.755233 0.881891
1.000000 0.777500 0.915833
0.219811 0.793870 0.881891
0.328733 0.795823 0.881891
0.437655 0.798556 0.881891
0.546577 0.802656 0.881891
0.655498 0.809489 0.881891
0.764420 0.823155 0.881891
0.873342 0.864155 0.881891
0.900266 0.864155 0.881891
1.000000 0.885000 0.932500
0.219811 0.891078 0.881891
0.328733 0.891078 0.881891
0.437655 0.891078 0.881891
0.546577 0.891078 0.881891
0.655498 0.891078 0.881891
0.764420 0.891078 0.881891
0.873342 0.891078 0.881891
0.900266 0.891078 0.881891
1.000000 0.992500 0.982500
0.250000 1.000000 0.895000
0.357500 1.000000 0.896786
0.465000 1.000000 0.899167
0.572500 1.000000 0.902500
0.680000 1.000000 0.907500
0.787500 1.000000 0.915833
0.895000 1.000000 0.932500
1.000000 1.000000 0.982500
1.000000 1.000000 0.982500
0.250000 0.240000 0.990000
0.345000 0.240000 0.990000
0.440000 0.240000 0.990000
0.535000 0.240000 0.990000
0.630000 0.240000 0.990000
0.725000 0.240000 0.990000
0.820000 0.240000 0.990000
0.915000 0.240000 0.990000
1.000000 0.240000 0.990000
0.250000 0.335000 0.990000
0.357500 0.347500 0.990000
0.450714 0.347500 0.990000
0.543929 0.347500 0.990000
0.637143 0.347500 0.990000
0.730357 0.347500 0.990000
0.823571 0.347500 0.990000
0.916786 0.347500 0.990000
1.000000 0.347500 0.990000
0.250000 0.430000 0.990000
0.357500 0.440714 0.990000
0.465000 0.455000 0.990000
0.555833 0.455000 0.990000
0.646667 0.455000 0.990000
0.737500 0.455000 0.990000
0.828333 0.455000 0.990000
0.919167 0.455000 0.990000
1.000000 0.455000 0.990000
0.250000 0.525000 0.990000
0.357500 0.533929 0.990000
0.465000 0.545833 0.990000
0.572500 0.562500 0.990000
0.660000 0.562500 0.990000
0.747500 0.562500 0.990000
0.835000 0.562500 0.990000
0.922500 0.562500 0.990000
1.000000 0.562500 0.990000
0.250000 0.620000 0.990000
0.357500 0.627143 0.990000
0.465000 0.636667 0.990000
0.572500 0.650000 0.990000
0.680000 0.670000 0.990000
0.762500 0.670000 0.990000
0.845000 0.670000 0.990000
0.927500 0.670000 0.990000
1.000000 0.670000 0.990000
0.250000 0.715000 0.990000
0.357500 0.720357 0.990000
0.465000 0.727500 0.990000
0.572500 0.737500 0.990000
0.680000 0.752500 0.990000
0.787500 0.777500 0.990000
0.861667 0.777500 0.990000
0.935833 0.777500 0.990000
1.000000 0.777500 0.990000
0.250000 0.810000 0.990000
0.357500 0.813571 0.990000
0.465000 0.818333 0.990000
0.572500 0.825000 0.990000
0.680000 0.835000 0.990000
0.787500 0.851667 0.990000
0.895000 0.885000 0.990000
0.952500 0.885000 0.990000
1.000000 0.885000 0.990000
0.250000 0.905000 0.990000
0.357500 0.906786 0.990000
0.465000 0.909167 0.990000
0.572500 0.912500 0.990000
0.680000 0.917500 0.990000
0.787500 0.925833 0.990000
0.895000 0.942500 0.990000
1.000000 0.992500 0.990000
1.000000 0.992500 0.990000
0.250000 1.000000 0.990000
0.357500 1.000000 0.990000
0.465000 1.000000 0.990000
0.572500 1.000000 0.990000
0.680000 1.000000 0.990000
0.787500 1.000000 0.990000
0.895000 1.000000 0.990000
1.000000 1.000000 0.990000
1.000000 1.000000 0.990000
