luts/original/faded-memory.cube
TITLE "Faded Memory"
LUT_3D_SIZE 33
DOMAIN_MIN 0.0 0.0 0.0
DOMAIN_MAX 1.0 1.0 1.0
0.052500 0.049000 0.045500
0.085177 0.058023 0.054320
0.117676 0.062256 0.058350
0.149997 0.066598 0.062488
0.182141 0.071048 0.066736
0.214106 0.075608 0.071093
0.245895 0.080278 0.075559
0.277505 0.085056 0.080134
0.308937 0.089944 0.084819
0.340192 0.094941 0.089612
0.371270 0.100046 0.094515
0.402169 0.105262 0.099527
0.432891 0.110586 0.104648
0.463435 0.116019 0.109879
0.493801 0.121562 0.115218
0.523989 0.127214 0.120667
0.554000 0.132975 0.126225
0.583833 0.138845 0.131892
0.613488 0.144825 0.137668
0.642966 0.150913 0.143554
0.672266 0.157111 0.149548
0.701388 0.163418 0.155652
0.730332 0.169834 0.161865
0.759099 0.176359 0.168187
0.787687 0.182994 0.174619
0.816099 0.189737 0.181159
0.844332 0.196590 0.187809
0.872388 0.203552 0.194568
0.900266 0.210623 0.201436
0.927966 0.217804 0.208413
0.955488 0.225093 0.215500
0.982833 0.232492 0.222695
1.000000 0.240000 0.230000
0.061726 0.081474 0.054320
0.085177 0.081474 0.054320
0.117676 0.088013 0.058350
0.149997 0.093028 0.062488
0.182141 0.097743 0.066736
0.214106 0.102405 0.071093
0.245895 0.107094 0.075559
0.277505 0.111846 0.080134
0.308937 0.116677 0.084819
0.340192 0.121599 0.089612
0.371270 0.126616 0.094515
0.402169 0.131732 0.099527
0.432891 0.136950 0.104648
0.463435 0.142271 0.109879
0.493801 0.147697 0.115218
0.523989 0.153229 0.120667
0.554000 0.158867 0.126225
0.583833 0.164612 0.131892
0.613488 0.170464 0.137668
0.642966 0.176423 0.143554
0.672266 0.182491 0.149548
0.701388 0.188666 0.155652
0.730332 0.194949 0.161865
0.759099 0.201340 0.168187
0.787687 0.207840 0.174619
0.816099 0.214449 0.181159
0.844332 0.221166 0.187809
0.872388 0.227991 0.194568
0.900266 0.234925 0.201436
0.927966 0.241968 0.208413
0.955488 0.249120 0.215500
0.982833 0.256381 0.222695
1.000000 0.263750 0.230000
0.066162 0.113770 0.058350
0.091919 0.113770 0.058350
0.117676 0.113770 0.058350
0.149997 0.119458 0.062488
0.182141 0.124438 0.066736
0.214106 0.129201 0.071093
0.245895 0.133910 0.075559
0.277505 0.138635 0.080134
0.308937 0.143411 0.084819
0.340192 0.148257 0.089612
0.371270 0.153185 0.094515
0.402169 0.158202 0.099527
0.432891 0.163314 0.104648
0.463435 0.168523 0.109879
0.493801 0.173833 0.115218
0.523989 0.179244 0.120667
0.554000 0.184759 0.126225
0.583833 0.190379 0.131892
0.613488 0.196103 0.137668
0.642966 0.201934 0.143554
0.672266 0.207870 0.149548
0.701388 0.213914 0.155652
0.730332 0.220064 0.161865
0.759099 0.226322 0.168187
0.787687 0.232687 0.174619
0.816099 0.239160 0.181159
0.844332 0.245741 0.187809
0.872388 0.252430 0.194568
0.900266 0.259227 0.201436
0.927966 0.266133 0.208413
0.955488 0.273147 0.215500
0.982833 0.280269 0.222695
1.000000 0.287500 0.230000
0.070707 0.145888 0.062488
0.097137 0.145888 0.062488
0.123567 0.145888 0.062488
0.149997 0.145888 0.062488
0.182141 0.151133 0.066736
0.214106 0.155998 0.071093
0.245895 0.160727 0.075559
0.277505 0.165425 0.080134
0.308937 0.170145 0.084819
0.340192 0.174915 0.089612
0.371270 0.179754 0.094515
0.402169 0.184672 0.099527
0.432891 0.189678 0.104648
0.463435 0.194775 0.109879
0.493801 0.199968 0.115218
0.523989 0.205260 0.120667
0.554000 0.210652 0.126225
0.583833 0.216145 0.131892
0.613488 0.221743 0.137668
0.642966 0.227444 0.143554
0.672266 0.233250 0.149548
0.701388 0.239161 0.155652
0.730332 0.245179 0.161865
0.759099 0.251303 0.168187
0.787687 0.257534 0.174619
0.816099 0.263871 0.181159
0.844332 0.270316 0.187809
0.872388 0.276869 0.194568
0.900266 0.283529 0.201436
0.927966 0.290297 0.208413
0.955488 0.297173 0.215500
0.982833 0.304158 0.222695
1.000000 0.311250 0.230000
0.075361 0.177828 0.066736
0.102056 0.177828 0.066736
0.128751 0.177828 0.066736
0.155446 0.177828 0.066736
0.182141 0.177828 0.066736
0.214106 0.182794 0.071093
0.245895 0.187543 0.075559
0.277505 0.192214 0.080134
0.308937 0.196878 0.084819
0.340192 0.201573 0.089612
0.371270 0.206323 0.094515
0.402169 0.211143 0.099527
0.432891 0.216042 0.104648
0.463435 0.221027 0.109879
0.493801 0.226104 0.115218
0.523989 0.231275 0.120667
0.554000 0.236544 0.126225
0.583833 0.241912 0.131892
0.613488 0.247382 0.137668
0.642966 0.252954 0.143554
0.672266 0.258629 0.149548
0.701388 0.264409 0.155652
0.730332 0.270294 0.161865
0.759099 0.276284 0.168187
0.787687 0.282380 0.174619
0.816099 0.288583 0.181159
0.844332 0.294892 0.187809
0.872388 0.301308 0.194568
0.900266 0.307831 0.201436
0.927966 0.314462 0.208413
0.955488 0.321200 0.215500
0.982833 0.328046 0.222695
1.000000 0.335000 0.230000
0.080124 0.209591 0.071093
0.106921 0.209591 0.071093
0.133717 0.209591 0.071093
0.160514 0.209591 0.071093
0.187310 0.209591 0.071093
0.214106 0.209591 0.071093
0.245895 0.214359 0.075559
0.277505 0.219004 0.080134
0.308937 0.223612 0.084819
0.340192 0.228231 0.089612
0.371270 0.232892 0.094515
0.402169 0.237613 0.099527
0.432891 0.242406 0.104648
0.463435 0.247279 0.109879
0.493801 0.252239 0.115218
0.523989 0.257290 0.120667
0.554000 0.262436 0.126225
0.583833 0.267679 0.131892
0.613488 0.273021 0.137668
0.642966 0.278464 0.143554
0.672266 0.284009 0.149548
0.701388 0.289657 0.155652
0.730332 0.295409 0.161865
0.759099 0.301265 0.168187
0.787687 0.307227 0.174619
0.816099 0.313294 0.181159
0.844332 0.319467 0.187809
0.872388 0.325747 0.194568
0.900266 0.332133 0.201436
0.927966 0.338626 0.208413
0.955488 0.345227 0.215500
0.982833 0.351935 0.222695
1.000000 0.358750 0.230000
0.084996 0.241176 0.075559
0.111813 0.241176 0.075559
0.138629 0.241176 0.075559
0.165446 0.241176 0.075559
0.192262 0.241176 0.075559
0.219078 0.241176 0.075559
0.245895 0.241176 0.075559
0.277505 0.245793 0.080134
0.308937 0.250345 0.084819
0.340192 0.254890 0.089612
0.371270 0.259462 0.094515
0.402169 0.264083 0.099527
0.432891 0.268770 0.104648
0.463435 0.273531 0.109879
0.493801 0.278374 0.115218
0.523989 0.283305 0.120667
0.554000 0.288328 0.126225
0.583833 0.293446 0.131892
0.613488 0.298660 0.137668
0.642966 0.303974 0.143554
0.672266 0.309389 0.149548
0.701388 0.314905 0.155652
0.730332 0.320524 0.161865
0.759099 0.326246 0.168187
0.787687 0.332073 0.174619
0.816099 0.338005 0.181159
0.844332 0.344043 0.187809
0.872388 0.350186 0.194568
0.900266 0.356435 0.201436
0.927966 0.362791 0.208413
0.955488 0.369254 0.215500
0.982833 0.375823 0.222695
1.000000 0.382500 0.230000
0.089978 0.272583 0.080134
0.116768 0.272583 0.080134
0.143557 0.272583 0.080134
0.170347 0.272583 0.080134
0.197136 0.272583 0.080134
0.223926 0.272583 0.080134
0.250715 0.272583 0.080134
0.277505 0.272583 0.080134
0.308937 0.277079 0.084819
0.340192 0.281548 0.089612
0.371270 0.286031 0.094515
0.402169 0.290554 0.099527
0.432891 0.295133 0.104648
0.463435 0.299783 0.109879
0.493801 0.304510 0.115218
0.523989 0.309321 0.120667
0.554000 0.314220 0.126225
0.583833 0.319212 0.131892
0.613488 0.324300 0.137668
0.642966 0.329484 0.143554
0.672266 0.334768 0.149548
0.701388 0.340153 0.155652
0.730332 0.345639 0.161865
0.759099 0.351228 0.168187
0.787687 0.356920 0.174619
0.816099 0.362717 0.181159
0.844332 0.368618 0.187809
0.872388 0.374625 0.194568
0.900266 0.380737 0.201436
0.927966 0.386956 0.208413
0.955488 0.393280 0.215500
0.982833 0.399712 0.222695
1.000000 0.406250 0.230000
0.095069 0.303813 0.084819
0.121802 0.303813 0.084819
0.148536 0.303813 0.084819
0.175270 0.303813 0.084819
0.202003 0.303813 0.084819
0.228737 0.303813 0.084819
0.255470 0.303813 0.084819
0.282204 0.303813 0.084819
0.308937 0.303813 0.084819
0.340192 0.308206 0.089612
0.371270 0.312600 0.094515
0.402169 0.317024 0.099527
0.432891 0.321497 0.104648
0.463435 0.326035 0.109879
0.493801 0.330645 0.115218
0.523989 0.335336 0.120667
0.554000 0.340113 0.126225
0.583833 0.344979 0.131892
0.613488 0.349939 0.137668
0.642966 0.354995 0.143554
0.672266 0.360148 0.149548
0.701388 0.365400 0.155652
0.730332 0.370754 0.161865
0.759099 0.376209 0.168187
0.787687 0.381767 0.174619
0.816099 0.387428 0.181159
0.844332 0.393193 0.187809
0.872388 0.399064 0.194568
0.900266 0.405039 0.201436
0.927966 0.411120 0.208413
0.955488 0.417307 0.215500
0.982833 0.423600 0.222695
1.000000 0.430000 0.230000
0.100269 0.334864 0.089612
0.126927 0.334864 0.089612
0.153585 0.334864 0.089612
0.180243 0.334864 0.089612
0.206901 0.334864 0.089612
0.233560 0.334864 0.089612
0.260218 0.334864 0.089612
0.286876 0.334864 0.089612
0.313534 0.334864 0.089612
0.340192 0.334864 0.089612
0.371270 0.339169 0.094515
0.402169 0.343494 0.099527
0.432891 0.347861 0.104648
0.463435 0.352286 0.109879
0.493801 0.356780 0.115218
0.523989 0.361351 0.120667
0.554000 0.366005 0.126225
0.583833 0.370746 0.131892
0.613488 0.375578 0.137668
0.642966 0.380505 0.143554
0.672266 0.385527 0.149548
0.701388 0.390648 0.155652
0.730332 0.395869 0.161865
0.759099 0.401190 0.168187
0.787687 0.406613 0.174619
0.816099 0.412139 0.181159
0.844332 0.417769 0.187809
0.872388 0.423503 0.194568
0.900266 0.429341 0.201436
0.927966 0.435285 0.208413
0.955488 0.441334 0.215500
0.982833 0.447489 0.222695
1.000000 0.453750 0.230000
0.105578 0.365738 0.094515
0.132147 0.365738 0.094515
0.158716 0.365738 0.094515
0.185285 0.365738 0.094515
0.211854 0.365738 0.094515
0.238424 0.365738 0.094515
0.264993 0.365738 0.094515
0.291562 0.365738 0.094515
0.318131 0.365738 0.094515
0.344700 0.365738 0.094515
0.371270 0.365738 0.094515
0.402169 0.369964 0.099527
0.432891 0.374225 0.104648
0.463435 0.378538 0.109879
0.493801 0.382916 0.115218
0.523989 0.387366 0.120667
0.554000 0.391897 0.126225
0.583833 0.396513 0.131892
0.613488 0.401218 0.137668
0.642966 0.406015 0.143554
0.672266 0.410907 0.149548
0.701388 0.415896 0.155652
0.730332 0.420984 0.161865
0.759099 0.426171 0.168187
0.787687 0.431460 0.174619
0.816099 0.436851 0.181159
0.844332 0.442344 0.187809
0.872388 0.447942 0.194568
0.900266 0.453643 0.201436
0.927966 0.459449 0.208413
0.955488 0.465360 0.215500
0.982833 0.471377 0.222695
1.000000 0.477500 0.230000
0.110996 0.396435 0.099527
0.137466 0.396435 0.099527
0.163937 0.396435 0.099527
0.190407 0.396435 0.099527
0.216877 0.396435 0.099527
0.243347 0.396435 0.099527
0.269818 0.396435 0.099527
0.296288 0.396435 0.099527
0.322758 0.396435 0.099527
0.349228 0.396435 0.099527
0.375699 0.396435 0.099527
0.402169 0.396435 0.099527
0.432891 0.400589 0.104648
0.463435 0.404790 0.109879
0.493801 0.409051 0.115218
0.523989 0.413381 0.120667
0.554000 0.417789 0.126225
0.583833 0.422279 0.131892
0.613488 0.426857 0.137668
0.642966 0.431525 0.143554
0.672266 0.436287 0.149548
0.701388 0.441144 0.155652
0.730332 0.446099 0.161865
0.759099 0.451152 0.168187
0.787687 0.456307 0.174619
0.816099 0.461562 0.181159
0.844332 0.466920 0.187809
0.872388 0.472380 0.194568
0.900266 0.477945 0.201436
0.927966 0.483614 0.208413
0.955488 0.489387 0.215500
0.982833 0.495266 0.222695
1.000000 0.501250 0.230000
0.116523 0.426953 0.104648
0.142887 0.426953 0.104648
0.169251 0.426953 0.104648
0.195615 0.426953 0.104648
0.221979 0.426953 0.104648
0.248343 0.426953 0.104648
0.274707 0.426953 0.104648
0.301071 0.426953 0.104648
0.327435 0.426953 0.104648
0.353799 0.426953 0.104648
0.380163 0.426953 0.104648
0.406527 0.426953 0.104648
0.432891 0.426953 0.104648
0.463435 0.431042 0.109879
0.493801 0.435186 0.115218
0.523989 0.439397 0.120667
0.554000 0.443681 0.126225
0.583833 0.448046 0.131892
0.613488 0.452496 0.137668
0.642966 0.457035 0.143554
0.672266 0.461666 0.149548
0.701388 0.466392 0.155652
0.730332 0.471214 0.161865
0.759099 0.476134 0.168187
0.787687 0.481153 0.174619
0.816099 0.486273 0.181159
0.844332 0.491495 0.187809
0.872388 0.496819 0.194568
0.900266 0.502247 0.201436
0.927966 0.507778 0.208413
0.955488 0.513414 0.215500
0.982833 0.519154 0.222695
1.000000 0.525000 0.230000
0.122160 0.457294 0.109879
0.148412 0.457294 0.109879
0.174664 0.457294 0.109879
0.200916 0.457294 0.109879
0.227168 0.457294 0.109879
0.253419 0.457294 0.109879
0.279671 0.457294 0.109879
0.305923 0.457294 0.109879
0.332175 0.457294 0.109879
0.358427 0.457294 0.109879
0.384679 0.457294 0.109879
0.410931 0.457294 0.109879
0.437183 0.457294 0.109879
0.463435 0.457294 0.109879
0.493801 0.461322 0.115218
0.523989 0.465412 0.120667
0.554000 0.469573 0.126225
0.583833 0.473813 0.131892
0.613488 0.478136 0.137668
0.642966 0.482545 0.143554
0.672266 0.487046 0.149548
0.701388 0.491640 0.155652
0.730332 0.496329 0.161865
0.759099 0.501115 0.168187
0.787687 0.506000 0.174619
0.816099 0.510985 0.181159
0.844332 0.516070 0.187809
0.872388 0.521258 0.194568
0.900266 0.526549 0.201436
0.927966 0.531943 0.208413
0.955488 0.537441 0.215500
0.982833 0.543043 0.222695
1.000000 0.548750 0.230000
0.127906 0.487457 0.115218
0.154041 0.487457 0.115218
0.180177 0.487457 0.115218
0.206312 0.487457 0.115218
0.232447 0.487457 0.115218
0.258583 0.487457 0.115218
0.284718 0.487457 0.115218
0.310853 0.487457 0.115218
0.336989 0.487457 0.115218
0.363124 0.487457 0.115218
0.389259 0.487457 0.115218
0.415395 0.487457 0.115218
0.441530 0.487457 0.115218
0.467665 0.487457 0.115218
0.493801 0.487457 0.115218
0.523989 0.491427 0.120667
0.554000 0.495466 0.126225
0.583833 0.499580 0.131892
0.613488 0.503775 0.137668
0.642966 0.508056 0.143554
0.672266 0.512425 0.149548
0.701388 0.516887 0.155652
0.730332 0.521444 0.161865
0.759099 0.526096 0.168187
0.787687 0.530846 0.174619
0.816099 0.535696 0.181159
0.844332 0.540646 0.187809
0.872388 0.545697 0.194568
0.900266 0.550851 0.201436
0.927966 0.556107 0.208413
0.955488 0.561467 0.215500
0.982833 0.566931 0.222695
1.000000 0.572500 0.230000
0.133761 0.517442 0.120667
0.159776 0.517442 0.120667
0.185791 0.517442 0.120667
0.211807 0.517442 0.120667
0.237822 0.517442 0.120667
0.263837 0.517442 0.120667
0.289852 0.517442 0.120667
0.315867 0.517442 0.120667
0.341883 0.517442 0.120667
0.367898 0.517442 0.120667
0.393913 0.517442 0.120667
0.419928 0.517442 0.120667
0.445944 0.517442 0.120667
0.471959 0.517442 0.120667
0.497974 0.517442 0.120667
0.523989 0.517442 0.120667
0.554000 0.521358 0.126225
0.583833 0.525346 0.131892
0.613488 0.529414 0.137668
0.642966 0.533566 0.143554
0.672266 0.537805 0.149548
0.701388 0.542135 0.155652
0.730332 0.546558 0.161865
0.759099 0.551077 0.168187
0.787687 0.555693 0.174619
0.816099 0.560407 0.181159
0.844332 0.565221 0.187809
0.872388 0.570136 0.194568
0.900266 0.575153 0.201436
0.927966 0.580272 0.208413
0.955488 0.585494 0.215500
0.982833 0.590820 0.222695
1.000000 0.596250 0.230000
0.139725 0.547250 0.126225
0.165617 0.547250 0.126225
0.191509 0.547250 0.126225
0.217402 0.547250 0.126225
0.243294 0.547250 0.126225
0.269186 0.547250 0.126225
0.295078 0.547250 0.126225
0.320970 0.547250 0.126225
0.346862 0.547250 0.126225
0.372755 0.547250 0.126225
0.398647 0.547250 0.126225
0.424539 0.547250 0.126225
0.450431 0.547250 0.126225
0.476323 0.547250 0.126225
0.502216 0.547250 0.126225
0.528108 0.547250 0.126225
0.554000 0.547250 0.126225
0.583833 0.551113 0.131892
0.613488 0.555053 0.137668
0.642966 0.559076 0.143554
0.672266 0.563185 0.149548
0.701388 0.567383 0.155652
0.730332 0.571673 0.161865
0.759099 0.576058 0.168187
0.787687 0.580540 0.174619
0.816099 0.585119 0.181159
0.844332 0.589797 0.187809
0.872388 0.594575 0.194568
0.900266 0.599455 0.201436
0.927966 0.604436 0.208413
0.955488 0.609521 0.215500
0.982833 0.614708 0.222695
1.000000 0.620000 0.230000
0.145798 0.576880 0.131892
0.171565 0.576880 0.131892
0.197332 0.576880 0.131892
0.223099 0.576880 0.131892
0.248865 0.576880 0.131892
0.274632 0.576880 0.131892
0.300399 0.576880 0.131892
0.326166 0.576880 0.131892
0.351932 0.576880 0.131892
0.377699 0.576880 0.131892
0.403466 0.576880 0.131892
0.429233 0.576880 0.131892
0.454999 0.576880 0.131892
0.480766 0.576880 0.131892
0.506533 0.576880 0.131892
0.532300 0.576880 0.131892
0.558066 0.576880 0.131892
0.583833 0.576880 0.131892
0.613488 0.580693 0.137668
0.642966 0.584586 0.143554
0.672266 0.588564 0.149548
0.701388 0.592631 0.155652
0.730332 0.596788 0.161865
0.759099 0.601040 0.168187
0.787687 0.605386 0.174619
0.816099 0.609830 0.181159
0.844332 0.614372 0.187809
0.872388 0.619014 0.194568
0.900266 0.623757 0.201436
0.927966 0.628601 0.208413
0.955488 0.633547 0.215500
0.982833 0.638597 0.222695
1.000000 0.643750 0.230000
0.151981 0.606332 0.137668
0.177620 0.606332 0.137668
0.203259 0.606332 0.137668
0.228899 0.606332 0.137668
0.254538 0.606332 0.137668
0.280177 0.606332 0.137668
0.305817 0.606332 0.137668
0.331456 0.606332 0.137668
0.357095 0.606332 0.137668
0.382735 0.606332 0.137668
0.408374 0.606332 0.137668
0.434013 0.606332 0.137668
0.459652 0.606332 0.137668
0.485292 0.606332 0.137668
0.510931 0.606332 0.137668
0.536570 0.606332 0.137668
0.562210 0.606332 0.137668
0.587849 0.606332 0.137668
0.613488 0.606332 0.137668
0.642966 0.610096 0.143554
0.672266 0.613944 0.149548
0.701388 0.617879 0.155652
0.730332 0.621903 0.161865
0.759099 0.626021 0.168187
0.787687 0.630233 0.174619
0.816099 0.634541 0.181159
0.844332 0.638948 0.187809
0.872388 0.643453 0.194568
0.900266 0.648059 0.201436
0.927966 0.652765 0.208413
0.955488 0.657574 0.215500
0.982833 0.662485 0.222695
1.000000 0.667500 0.230000
0.158273 0.635606 0.143554
0.183783 0.635606 0.143554
0.209293 0.635606 0.143554
0.234803 0.635606 0.143554
0.260313 0.635606 0.143554
0.285823 0.635606 0.143554
0.311334 0.635606 0.143554
0.336844 0.635606 0.143554
0.362354 0.635606 0.143554
0.387864 0.635606 0.143554
0.413374 0.635606 0.143554
0.438884 0.635606 0.143554
0.464395 0.635606 0.143554
0.489905 0.635606 0.143554
0.515415 0.635606 0.143554
0.540925 0.635606 0.143554
0.566435 0.635606 0.143554
0.591945 0.635606 0.143554
0.617456 0.635606 0.143554
0.642966 0.635606 0.143554
0.672266 0.639324 0.149548
0.701388 0.643126 0.155652
0.730332 0.647018 0.161865
0.759099 0.651002 0.168187
0.787687 0.655079 0.174619
0.816099 0.659253 0.181159
0.844332 0.663523 0.187809
0.872388 0.667892 0.194568
0.900266 0.672361 0.201436
0.927966 0.676930 0.208413
0.955488 0.681601 0.215500
0.982833 0.686374 0.222695
1.000000 0.691250 0.230000
0.164673 0.664703 0.149548
0.190053 0.664703 0.149548
0.215433 0.664703 0.149548
0.240812 0.664703 0.149548
0.266192 0.664703 0.149548
0.291571 0.664703 0.149548
0.316951 0.664703 0.149548
0.342331 0.664703 0.149548
0.367710 0.664703 0.149548
0.393090 0.664703 0.149548
0.418470 0.664703 0.149548
0.443849 0.664703 0.149548
0.469229 0.664703 0.149548
0.494608 0.664703 0.149548
0.519988 0.664703 0.149548
0.545368 0.664703 0.149548
0.570747 0.664703 0.149548
0.596127 0.664703 0.149548
0.621506 0.664703 0.149548
0.646886 0.664703 0.149548
0.672266 0.664703 0.149548
0.701388 0.668374 0.155652
0.730332 0.672133 0.161865
0.759099 0.675983 0.168187
0.787687 0.679926 0.174619
0.816099 0.683964 0.181159
0.844332 0.688098 0.187809
0.872388 0.692331 0.194568
0.900266 0.696662 0.201436
0.927966 0.701094 0.208413
0.955488 0.705628 0.215500
0.982833 0.710262 0.222695
1.000000 0.715000 0.230000
0.171183 0.693622 0.155652
0.196431 0.693622 0.155652
0.221679 0.693622 0.155652
0.246927 0.693622 0.155652
0.272175 0.693622 0.155652
0.297423 0.693622 0.155652
0.322670 0.693622 0.155652
0.347918 0.693622 0.155652
0.373166 0.693622 0.155652
0.398414 0.693622 0.155652
0.423662 0.693622 0.155652
0.448909 0.693622 0.155652
0.474157 0.693622 0.155652
0.499405 0.693622 0.155652
0.524653 0.693622 0.155652
0.549901 0.693622 0.155652
0.575149 0.693622 0.155652
0.600396 0.693622 0.155652
0.625644 0.693622 0.155652
0.650892 0.693622 0.155652
0.676140 0.693622 0.155652
0.701388 0.693622 0.155652
0.730332 0.697248 0.161865
0.759099 0.700964 0.168187
0.787687 0.704773 0.174619
0.816099 0.708675 0.181159
0.844332 0.712674 0.187809
0.872388 0.716770 0.194568
0.900266 0.720964 0.201436
0.927966 0.725259 0.208413
0.955488 0.729654 0.215500
0.982833 0.734151 0.222695
1.000000 0.738750 0.230000
0.177803 0.722363 0.161865
0.202918 0.722363 0.161865
0.228033 0.722363 0.161865
0.253148 0.722363 0.161865
0.278263 0.722363 0.161865
0.303378 0.722363 0.161865
0.328493 0.722363 0.161865
0.353608 0.722363 0.161865
0.378722 0.722363 0.161865
0.403837 0.722363 0.161865
0.428952 0.722363 0.161865
0.454067 0.722363 0.161865
0.479182 0.722363 0.161865
0.504297 0.722363 0.161865
0.529412 0.722363 0.161865
0.554527 0.722363 0.161865
0.579642 0.722363 0.161865
0.604757 0.722363 0.161865
0.629872 0.722363 0.161865
0.654987 0.722363 0.161865
0.680102 0.722363 0.161865
0.705217 0.722363 0.161865
0.730332 0.722363 0.161865
0.759099 0.725946 0.168187
0.787687 0.729619 0.174619
0.816099 0.733387 0.181159
0.844332 0.737249 0.187809
0.872388 0.741209 0.194568
0.900266 0.745266 0.201436
0.927966 0.749424 0.208413
0.955488 0.753681 0.215500
0.982833 0.758039 0.222695
1.000000 0.762500 0.230000
0.184531 0.750927 0.168187
0.209512 0.750927 0.168187
0.234494 0.750927 0.168187
0.259475 0.750927 0.168187
0.284456 0.750927 0.168187
0.309437 0.750927 0.168187
0.334418 0.750927 0.168187
0.359400 0.750927 0.168187
0.384381 0.750927 0.168187
0.409362 0.750927 0.168187
0.434343 0.750927 0.168187
0.459324 0.750927 0.168187
0.484306 0.750927 0.168187
0.509287 0.750927 0.168187
0.534268 0.750927 0.168187
0.559249 0.750927 0.168187
0.584230 0.750927 0.168187
0.609211 0.750927 0.168187
0.634193 0.750927 0.168187
0.659174 0.750927 0.168187
0.684155 0.750927 0.168187
0.709136 0.750927 0.168187
0.734117 0.750927 0.168187
0.759099 0.750927 0.168187
0.787687 0.754466 0.174619
0.816099 0.758098 0.181159
0.844332 0.761825 0.187809
0.872388 0.765648 0.194568
0.900266 0.769568 0.201436
0.927966 0.773588 0.208413
0.955488 0.777708 0.215500
0.982833 0.781928 0.222695
1.000000 0.786250 0.230000
0.191369 0.779312 0.174619
0.216215 0.779312 0.174619
0.241062 0.779312 0.174619
0.265909 0.779312 0.174619
0.290755 0.779312 0.174619
0.315602 0.779312 0.174619
0.340448 0.779312 0.174619
0.365295 0.779312 0.174619
0.390142 0.779312 0.174619
0.414988 0.779312 0.174619
0.439835 0.779312 0.174619
0.464682 0.779312 0.174619
0.489528 0.779312 0.174619
0.514375 0.779312 0.174619
0.539221 0.779312 0.174619
0.564068 0.779312 0.174619
0.588915 0.779312 0.174619
0.613761 0.779312 0.174619
0.638608 0.779312 0.174619
0.663454 0.779312 0.174619
0.688301 0.779312 0.174619
0.713148 0.779312 0.174619
0.737994 0.779312 0.174619
0.762841 0.779312 0.174619
0.787687 0.779312 0.174619
0.816099 0.782809 0.181159
0.844332 0.786400 0.187809
0.872388 0.790087 0.194568
0.900266 0.793870 0.201436
0.927966 0.797753 0.208413
0.955488 0.801734 0.215500
0.982833 0.805817 0.222695
1.000000 0.810000 0.230000
0.198316 0.807521 0.181159
0.223027 0.807521 0.181159
0.247738 0.807521 0.181159
0.272449 0.807521 0.181159
0.297161 0.807521 0.181159
0.321872 0.807521 0.181159
0.346583 0.807521 0.181159
0.371295 0.807521 0.181159
0.396006 0.807521 0.181159
0.420717 0.807521 0.181159
0.445429 0.807521 0.181159
0.470140 0.807521 0.181159
0.494851 0.807521 0.181159
0.519563 0.807521 0.181159
0.544274 0.807521 0.181159
0.568985 0.807521 0.181159
0.593697 0.807521 0.181159
0.618408 0.807521 0.181159
0.643119 0.807521 0.181159
0.667831 0.807521 0.181159
0.692542 0.807521 0.181159
0.717253 0.807521 0.181159
0.741965 0.807521 0.181159
0.766676 0.807521 0.181159
0.791387 0.807521 0.181159
0.816099 0.807521 0.181159
0.844332 0.810975 0.187809
0.872388 0.814525 0.194568
0.900266 0.818172 0.201436
0.927966 0.821917 0.208413
0.955488 0.825761 0.215500
0.982833 0.829705 0.222695
1.000000 0.833750 0.230000
0.205371 0.835551 0.187809
0.229947 0.835551 0.187809
0.254522 0.835551 0.187809
0.279098 0.835551 0.187809
0.303673 0.835551 0.187809
0.328249 0.835551 0.187809
0.352824 0.835551 0.187809
0.377399 0.835551 0.187809
0.401975 0.835551 0.187809
0.426550 0.835551 0.187809
0.451126 0.835551 0.187809
0.475701 0.835551 0.187809
0.500276 0.835551 0.187809
0.524852 0.835551 0.187809
0.549427 0.835551 0.187809
0.574003 0.835551 0.187809
0.598578 0.835551 0.187809
0.623153 0.835551 0.187809
0.647729 0.835551 0.187809
0.672304 0.835551 0.187809
0.696880 0.835551 0.187809
0.721455 0.835551 0.187809
0.746030 0.835551 0.187809
0.770606 0.835551 0.187809
0.795181 0.835551 0.187809
0.819757 0.835551 0.187809
0.844332 0.835551 0.187809
