luts/original/fashion-gold.cube
TITLE "Fashion Gold"
LUT_3D_SIZE 9
DOMAIN_MIN 0.0 0.0 0.0
DOMAIN_MAX 1.0 1.0 1.0
0.020963 0.002834 0.002834
0.150715 0.001763 0.001763
0.280423 0.000042 0.000042
0.410089 0.000000 0.000000
0.539711 0.000000 0.000000
0.669290 0.000000 0.000000
0.798826 0.000000 0.000000
0.928318 0.000000 0.000000
1.000000 0.000000 0.000000
0.024403 0.128881 0.002147
0.150329 0.128087 0.001389
0.279965 0.126808 0.000000
0.409558 0.126432 0.000000
0.539107 0.126218 0.000000
0.668614 0.126074 0.000000
0.798077 0.125969 0.000000
0.927497 0.125886 0.000000
1.000000 0.125879 0.000000
0.026604 0.254154 0.000186
0.153454 0.254018 0.000054
0.279507 0.253235 0.000000
0.409027 0.252553 0.000000
0.538504 0.252161 0.000000
0.667938 0.251898 0.000000
0.797328 0.251704 0.000000
0.926675 0.251551 0.000000
1.000000 0.251531 0.000000
0.030258 0.379282 0.000000
0.156612 0.379124 0.000000
0.282861 0.378966 0.000000
0.408496 0.378361 0.000000
0.537900 0.377830 0.000000
0.667261 0.377472 0.000000
0.796579 0.377205 0.000000
0.925854 0.376993 0.000000
1.000000 0.376957 0.000000
0.034176 0.504264 0.000000
0.160180 0.504085 0.000000
0.286093 0.503906 0.000000
0.411917 0.503726 0.000000
0.537297 0.503224 0.000000
0.666585 0.502795 0.000000
0.795831 0.502472 0.000000
0.925033 0.502214 0.000000
1.000000 0.502158 0.000000
0.038141 0.629102 0.000000
0.163905 0.628901 0.000000
0.289588 0.628700 0.000000
0.415192 0.628499 0.000000
0.540715 0.628298 0.000000
0.665909 0.627867 0.000000
0.795082 0.627505 0.000000
0.924211 0.627212 0.000000
1.000000 0.627135 0.000000
0.042128 0.753794 0.000000
0.167708 0.753571 0.000000
0.293214 0.753348 0.000000
0.418646 0.753126 0.000000
0.544004 0.752903 0.000000
0.669288 0.752681 0.000000
0.794333 0.752305 0.000000
0.923390 0.751989 0.000000
1.000000 0.751887 0.000000
0.046128 0.878340 0.000000
0.171557 0.878096 0.000000
0.296915 0.877852 0.000000
0.422204 0.877608 0.000000
0.547423 0.877364 0.000000
0.672573 0.877119 0.000000
0.797652 0.876875 0.000000
0.922569 0.876543 0.000000
1.000000 0.876416 0.000000
0.050137 1.000000 0.000000
0.175434 1.000000 0.000000
0.300665 1.000000 0.000000
0.425828 1.000000 0.000000
0.550925 1.000000 0.000000
0.675955 1.000000 0.000000
0.800919 1.000000 0.000000
0.925816 1.000000 0.000000
1.000000 1.000000 0.000000
0.025440 0.003146 0.107681
0.150691 0.001741 0.106202
0.280395 0.000015 0.100579
0.410056 0.000000 0.096260
0.539674 0.000000 0.092058
0.669249 0.000000 0.087903
0.798780 0.000000 0.083772
0.928268 0.000000 0.079657
1.000000 0.000000 0.075591
0.023687 0.128858 0.106140
0.150306 0.127555 0.104804
0.279937 0.125624 0.098945
0.409526 0.123225 0.092435
0.539071 0.120213 0.085274
0.668573 0.116564 0.077461
0.798032 0.112271 0.068997
0.927447 0.107330 0.059882
1.000000 0.103560 0.051926
0.025784 0.254126 0.100030
0.152917 0.253990 0.099402
0.279479 0.252803 0.098501
0.408995 0.250457 0.091920
0.538467 0.247594 0.084688
0.667897 0.244129 0.076805
0.797283 0.240036 0.068271
0.926626 0.235306 0.059085
1.000000 0.231745 0.051032
0.027130 0.379250 0.093279
0.154245 0.379092 0.092602
0.281922 0.378934 0.092449
0.408464 0.377679 0.091405
0.537864 0.374965 0.084103
0.667221 0.371685 0.076149
0.796534 0.367794 0.067544
0.925804 0.363275 0.058288
1.000000 0.359922 0.050138
0.027726 0.504228 0.085796
0.154963 0.504049 0.085052
0.282800 0.503869 0.084878
0.410633 0.503690 0.084704
0.537260 0.502327 0.083518
0.666544 0.499233 0.075493
0.795785 0.495545 0.066818
0.924983 0.491237 0.057491
1.000000 0.488091 0.049244
0.027572 0.629061 0.077569
0.154976 0.628860 0.076752
0.283027 0.628659 0.076557
0.411076 0.628458 0.076362
0.539122 0.628257 0.076167
0.665868 0.626772 0.074838
0.795037 0.623287 0.066092
0.924162 0.619192 0.056695
1.000000 0.616253 0.048350
0.026667 0.753748 0.068594
0.154259 0.753526 0.067701
0.282550 0.753303 0.067485
0.410838 0.753081 0.067269
0.539124 0.752858 0.067054
0.667408 0.752635 0.066838
0.794288 0.751022 0.065365
0.923340 0.747139 0.055898
1.000000 0.744406 0.047456
0.025012 0.878291 0.058871
0.152801 0.878046 0.057900
0.281345 0.877802 0.057663
0.409886 0.877558 0.057427
0.538426 0.877314 0.057190
0.666962 0.877070 0.056953
0.795497 0.876826 0.056716
0.922519 0.875079 0.055101
1.000000 0.872552 0.046562
0.022688 1.000000 0.048479
0.150674 1.000000 0.047422
0.279470 1.000000 0.047156
0.408265 1.000000 0.046890
0.537057 1.000000 0.046625
0.665847 1.000000 0.046359
0.794634 1.000000 0.046093
0.923420 1.000000 0.045827
1.000000 1.000000 0.045668
0.028203 0.001772 0.229372
0.155083 0.001640 0.229235
0.280349 0.000000 0.227524
0.410003 0.000000 0.222814
0.539613 0.000000 0.218382
0.669181 0.000000 0.214074
0.798705 0.000000 0.209832
0.928186 0.000000 0.205630
1.000000 0.000000 0.201558
0.026952 0.127933 0.228913
0.153958 0.126195 0.228777
0.279891 0.124525 0.225932
0.409472 0.122071 0.219312
0.539010 0.118965 0.212208
0.668504 0.115207 0.204506
0.797956 0.110798 0.196177
0.927364 0.105739 0.187209
1.000000 0.101836 0.179427
0.025739 0.254080 0.227464
0.150607 0.253944 0.225678
0.279433 0.251444 0.223456
0.408941 0.248266 0.216868
0.538406 0.244990 0.209629
0.667828 0.241179 0.201739
0.797207 0.236761 0.193197
0.926543 0.231712 0.184004
1.000000 0.227831 0.175942
0.027078 0.379196 0.220844
0.151925 0.379038 0.218400
0.280656 0.378881 0.217397
0.408410 0.377016 0.216353
0.520792 0.374133 0.227474
0.648184 0.372022 0.223096
0.796458 0.365249 0.192471
0.925721 0.360334 0.183208
1.000000 0.356652 0.175048
0.027667 0.504167 0.213584
0.152493 0.503988 0.210781
0.280732 0.503808 0.209819
0.409820 0.503629 0.209645
0.537199 0.501844 0.208458
0.647812 0.498890 0.222735
0.795710 0.493727 0.191745
0.924900 0.488947 0.182411
1.000000 0.485462 0.174154
0.027506 0.628992 0.205611
0.152311 0.628792 0.202480
0.280477 0.628591 0.201491
0.409481 0.628390 0.201296
0.538482 0.628189 0.201101
0.665800 0.626366 0.199771
0.794961 0.622196 0.191018
0.924079 0.617552 0.181614
1.000000 0.614262 0.173260
0.026594 0.753673 0.196905
0.151378 0.753450 0.193452
0.279606 0.753228 0.192412
0.408692 0.753005 0.192196
0.537775 0.752782 0.191980
0.666855 0.752560 0.191764
0.794212 0.750656 0.190292
0.923257 0.746149 0.180817
1.000000 0.743052 0.172366
0.024932 0.878208 0.187459
0.149695 0.877963 0.183684
0.278043 0.877719 0.182583
0.407285 0.877475 0.182346
0.536524 0.877231 0.182109
0.665761 0.876987 0.181873
0.794995 0.876743 0.181636
0.922436 0.874737 0.180021
1.000000 0.871831 0.171472
0.022597 1.000000 0.177347
0.147332 1.000000 0.173243
0.275826 1.000000 0.172066
0.405257 1.000000 0.171800
0.534685 1.000000 0.171534
0.664109 1.000000 0.171269
0.793531 1.000000 0.171003
0.922950 1.000000 0.170737
1.000000 1.000000 0.170578
0.030570 0.000000 0.351048
0.157691 0.000000 0.350890
0.284690 0.000000 0.350732
0.409949 0.000000 0.349336
0.539552 0.000000 0.344679
0.669112 0.000000 0.340221
0.798629 0.000000 0.335869
0.928103 0.000000 0.331580
1.000000 0.000000 0.327502
0.028947 0.125880 0.350517
0.155279 0.124106 0.350359
0.283834 0.123953 0.350201
0.409418 0.122019 0.347473
0.538949 0.118905 0.340470
0.668436 0.115141 0.332959
0.797880 0.110725 0.324859
0.927281 0.105658 0.316142
1.000000 0.101745 0.308656
0.028432 0.253056 0.349986
0.153279 0.251553 0.349828
0.282072 0.248438 0.349670
0.408888 0.246504 0.345115
0.538345 0.243320 0.337389
0.667760 0.239485 0.329401
0.797132 0.234999 0.320886
0.926460 0.229861 0.311775
1.000000 0.225851 0.303875
0.027026 0.379143 0.348408
0.151873 0.378985 0.347598
0.276720 0.378827 0.344610
0.408357 0.374829 0.341301
0.537742 0.370236 0.333985
0.667084 0.366035 0.326017
0.796383 0.361403 0.317398
0.925639 0.356201 0.308127
1.000000 0.352196 0.299957
0.027608 0.504106 0.341371
0.152434 0.503927 0.339661
0.277260 0.503747 0.336040
0.407933 0.503568 0.334586
0.537139 0.500891 0.333399
0.647774 0.497736 0.347699
0.775099 0.495046 0.342919
0.902399 0.492156 0.337782
1.000000 0.481888 0.299063
0.027439 0.628924 0.333652
0.152244 0.628723 0.331383
0.277049 0.628522 0.327523
0.406614 0.628321 0.326229
0.537364 0.628120 0.326035
0.665732 0.625719 0.324705
0.774687 0.622565 0.342520
0.901948 0.619646 0.337344
1.000000 0.611566 0.298169
0.026520 0.753597 0.325216
0.151305 0.753375 0.322497
0.276089 0.753152 0.318391
0.405327 0.752929 0.317123
0.535676 0.752707 0.316907
0.666021 0.752484 0.316691
0.794137 0.750139 0.315219
0.901496 0.747130 0.336905
1.000000 0.741228 0.297275
0.024851 0.878125 0.316047
0.149614 0.877881 0.312926
0.274378 0.877636 0.308555
0.403539 0.877392 0.307266
0.533796 0.877148 0.307029
0.664051 0.876904 0.306792
0.794302 0.876660 0.306555
0.922353 0.874287 0.304940
1.000000 0.870876 0.296381
0.022507 1.000000 0.306214
0.147241 1.000000 0.302711
0.271976 1.000000 0.298050
0.401166 1.000000 0.296710
0.531465 1.000000 0.296444
0.661761 1.000000 0.296178
0.792052 1.000000 0.295913
0.922339 1.000000 0.295647
1.000000 1.000000 0.295487
0.034468 0.000000 0.472709
0.161192 0.000000 0.472530
0.287817 0.000000 0.472350
0.414342 0.000000 0.472171
0.539491 0.000000 0.470948
0.669044 0.000000 0.466342
0.798553 0.000000 0.461882
0.928020 0.000000 0.457508
1.000000 0.000000 0.453423
0.030317 0.123309 0.472106
0.156571 0.121393 0.471926
0.284965 0.121219 0.471747
0.413354 0.121045 0.471567
0.538888 0.118846 0.468731
0.668368 0.115075 0.461410
0.797805 0.110652 0.453540
0.927198 0.105578 0.445074
1.000000 0.101655 0.437883
0.029732 0.250617 0.471502
0.154558 0.248335 0.471323
0.281699 0.245634 0.471143
0.412307 0.245460 0.470964
0.538285 0.243261 0.467027
0.667692 0.239419 0.458882
0.797056 0.234926 0.450416
0.926377 0.229781 0.441446
1.000000 0.225761 0.433823
0.029147 0.377914 0.470899
0.153973 0.376947 0.470719
0.278799 0.374669 0.470540
0.409782 0.369875 0.470360
0.537681 0.367676 0.463749
0.667016 0.363763 0.454811
0.796307 0.359199 0.445895
0.925556 0.353984 0.436542
1.000000 0.349867 0.428495
0.027549 0.504045 0.469157
0.152375 0.503866 0.468540
0.277201 0.503686 0.467377
0.402027 0.503507 0.462937
0.537078 0.497709 0.458340
0.666340 0.491534 0.450295
0.795559 0.486360 0.441598
0.924734 0.480883 0.432250
1.000000 0.476720 0.423973
0.027373 0.628856 0.461693
0.152178 0.628655 0.460286
0.276983 0.628454 0.457951
0.401788 0.628253 0.452948
0.534748 0.628052 0.450968
0.665664 0.624429 0.449639
0.774645 0.621062 0.467479
0.901902 0.617749 0.462299
1.000000 0.607678 0.423079
0.026447 0.753522 0.453525
0.151231 0.753299 0.451541
0.276015 0.753076 0.448577
0.400799 0.752854 0.443506
0.531891 0.752631 0.441834
0.664555 0.752409 0.441618
0.794061 0.749305 0.440146
0.901450 0.746005 0.461861
1.000000 0.738614 0.422185
0.024771 0.878042 0.444633
0.149534 0.877798 0.442167
0.274297 0.877553 0.438734
0.399060 0.877309 0.433529
0.529513 0.877065 0.431949
0.661384 0.876821 0.431712
0.793250 0.876577 0.431475
0.922270 0.873645 0.429860
1.000000 0.869527 0.421291
0.022417 1.000000 0.435081
0.147151 1.000000 0.432177
0.271885 1.000000 0.428331
0.396620 1.000000 0.422928
0.526822 1.000000 0.421354
0.658385 1.000000 0.421088
0.789942 1.000000 0.420822
0.921492 1.000000 0.420557
1.000000 1.000000 0.420397
0.038436 0.000000 0.594356
0.164933 0.000000 0.594155
0.291343 0.000000 0.593954
0.417665 0.000000 0.593753
0.543900 0.000000 0.593552
0.668976 0.000000 0.592438
0.798478 0.000000 0.587871
0.927937 0.000000 0.583413
1.000000 0.000000 0.579321
0.031064 0.120143 0.593680
0.157340 0.118057 0.593479
0.285819 0.117862 0.593278
0.414294 0.117667 0.593077
0.542766 0.117472 0.592876
0.668300 0.115009 0.589860
0.797729 0.110579 0.582221
0.927115 0.105497 0.574005
1.000000 0.101565 0.567110
0.030409 0.247632 0.593003
0.155214 0.244879 0.592803
0.282051 0.242206 0.592602
0.411932 0.242011 0.592401
0.541810 0.241816 0.592200
0.667624 0.239353 0.588361
0.796980 0.234852 0.579945
0.926294 0.229701 0.571116
1.000000 0.225671 0.563770
0.029753 0.375112 0.592327
0.154558 0.373342 0.592126
0.279363 0.370147 0.591925
0.407463 0.366356 0.591724
0.540502 0.366161 0.591523
0.666948 0.363697 0.586177
0.796232 0.359126 0.576771
0.925473 0.353904 0.567287
1.000000 0.349777 0.559451
0.029097 0.502581 0.591651
0.153902 0.501793 0.591450
0.278707 0.500471 0.591249
0.403512 0.497280 0.591048
0.537087 0.490505 0.590847
0.666271 0.488041 0.581836
0.795483 0.483400 0.571577
0.924651 0.478107 0.561688
1.000000 0.473883 0.553418
0.027307 0.628788 0.589732
0.152112 0.628587 0.589187
0.276917 0.628386 0.588376
0.401722 0.628185 0.586803
0.526527 0.627984 0.580658
0.665595 0.620084 0.574573
0.794734 0.612159 0.565798
0.923830 0.605965 0.556373
1.000000 0.601543 0.547989
0.026374 0.753446 0.581834
0.151158 0.753223 0.580584
0.275942 0.753001 0.578763
0.400726 0.752778 0.575712
0.525510 0.752556 0.569125
0.661102 0.752333 0.566544
0.793986 0.747630 0.565072
0.901405 0.744111 0.586817
1.000000 0.734509 0.547095
0.024690 0.877959 0.573219
0.149454 0.877715 0.571406
0.274217 0.877471 0.568911
0.398980 0.877226 0.565166
0.523743 0.876982 0.558728
0.656563 0.876738 0.556631
0.791391 0.876494 0.556394
0.922187 0.872602 0.554779
1.000000 0.867437 0.546201
0.022327 1.000000 0.563946
0.147061 1.000000 0.561643
0.271795 1.000000 0.558611
0.396529 1.000000 0.554376
0.521264 1.000000 0.547935
0.653073 1.000000 0.545998
0.786642 1.000000 0.545732
0.920199 1.000000 0.545466
1.000000 1.000000 0.545307
0.042437 0.000000 0.715988
0.168785 0.000000 0.715765
0.295054 0.000000 0.715543
0.421243 0.000000 0.715320
0.547353 0.000000 0.715097
0.673384 0.000000 0.714875
0.798402 0.000000 0.713836
0.927854 0.000000 0.709297
1.000000 0.000000 0.705196
0.031188 0.116367 0.715239
0.157519 0.114097 0.715016
0.286170 0.113881 0.714794
0.414817 0.113665 0.714571
0.543462 0.113449 0.714349
0.672104 0.113234 0.714126
0.797654 0.110505 0.710900
0.927033 0.105417 0.702936
1.000000 0.101475 0.696336
0.030462 0.244057 0.714490
0.155246 0.240910 0.714268
0.282004 0.238155 0.714045
0.411720 0.237939 0.713823
0.541433 0.237723 0.713600
0.671142 0.237507 0.713377
0.796905 0.234779 0.709473
0.926211 0.229620 0.700785
1.000000 0.225581 0.693716
0.029736 0.371739 0.713742
0.154520 0.369406 0.713519
0.279304 0.365755 0.713296
0.406816 0.362213 0.713074
0.538419 0.361997 0.712851
0.670015 0.361781 0.712629
0.796156 0.359053 0.707646
0.925390 0.353823 0.698030
1.000000 0.349687 0.690404
0.029009 0.499411 0.712993
0.153793 0.497892 0.712770
0.278577 0.495563 0.712548
0.403362 0.491318 0.712325
0.532572 0.486271 0.712103
0.668417 0.486055 0.711880
0.795407 0.483326 0.704922
0.924568 0.478027 0.694138
1.000000 0.473793 0.685884
0.028283 0.627075 0.712244
0.153067 0.626367 0.712022
0.277851 0.625356 0.711799
0.402635 0.623627 0.711576
0.527419 0.619387 0.711354
0.663989 0.610329 0.711131
0.794659 0.607600 0.699375
0.923747 0.602230 0.687687
1.000000 0.597899 0.678945
0.026300 0.753370 0.710142
0.151085 0.753148 0.709626
0.275869 0.752925 0.708947
0.400653 0.752703 0.707916
0.525437 0.752480 0.705876
0.650221 0.752258 0.697775
0.793910 0.741954 0.689999
0.922926 0.732112 0.680496
1.000000 0.727038 0.672005
0.024610 0.877876 0.701804
0.149373 0.877632 0.700645
0.274136 0.877388 0.699088
0.398899 0.877144 0.696802
0.523663 0.876899 0.692945
0.648426 0.876655 0.684572
0.786994 0.876411 0.681314
0.922104 0.870493 0.679699
1.000000 0.863676 0.671111
0.022236 1.000000 0.692811
0.146971 1.000000 0.691107
0.271705 1.000000 0.688890
0.396439 1.000000 0.685823
0.521173 1.000000 0.681199
0.645908 1.000000 0.673222
0.780663 1.000000 0.670642
0.917904 1.000000 0.670376
1.000000 1.000000 0.670217
0.046455 0.000000 0.837605
0.172698 0.000000 0.837361
0.298866 0.000000 0.837117
0.424961 0.000000 0.836873
0.550981 0.000000 0.836628
0.676928 0.000000 0.836384
0.802801 0.000000 0.836140
0.927771 0.000000 0.835157
1.000000 0.000000 0.831049
0.030688 0.111973 0.836784
0.157091 0.109514 0.836540
0.285953 0.109277 0.836295
0.414813 0.109040 0.836051
0.543669 0.108803 0.835807
0.672523 0.108566 0.835563
0.801375 0.108330 0.835319
0.926950 0.105336 0.831865
1.000000 0.101384 0.825561
0.029891 0.239875 0.835962
0.154654 0.236364 0.835718
0.281412 0.233480 0.835474
0.411158 0.233243 0.835230
0.540901 0.233006 0.834986
0.670640 0.232770 0.834742
0.800377 0.232533 0.834497
0.926128 0.229540 0.830453
1.000000 0.225490 0.823660
0.029095 0.367769 0.835141
0.153858 0.364971 0.834897
0.278621 0.360956 0.834653
0.405928 0.357447 0.834409
0.537050 0.357210 0.834164
0.668167 0.356973 0.833920
0.799280 0.356736 0.833676
0.925307 0.353743 0.828773
1.000000 0.349596 0.821356
0.028298 0.495655 0.834320
0.153061 0.493568 0.834075
0.277824 0.490604 0.833831
0.402587 0.485939 0.833587
0.530869 0.481413 0.833343
0.664423 0.481176 0.833099
0.797972 0.480939 0.832855
0.924486 0.477946 0.826587
1.000000 0.473702 0.818348
0.027501 0.623533 0.833498
0.152264 0.622156 0.833254
0.277027 0.620240 0.833010
0.401791 0.617278 0.832766
0.526554 0.611846 0.832522
0.657026 0.605379 0.832277
0.796055 0.605143 0.832033
0.923664 0.602150 0.823263
1.000000 0.597808 0.813929
0.026704 0.751403 0.832677
0.151468 0.750735 0.832433
0.276231 0.749864 0.832189
0.400994 0.748602 0.831944
0.525757 0.746415 0.831700
0.650520 0.740988 0.831456
0.790486 0.729346 0.831212
0.922843 0.726353 0.816366
1.000000 0.721914 0.805984
0.024530 0.877793 0.830389
0.149293 0.877549 0.829883
0.274056 0.877305 0.829264
0.398819 0.877061 0.828436
0.523582 0.876816 0.827160
0.648345 0.876572 0.824594
0.773109 0.876328 0.814286
0.922021 0.863320 0.804619
1.000000 0.854642 0.796020
0.022146 1.000000 0.821675
0.146880 1.000000 0.820571
0.271615 1.000000 0.819167
0.396349 1.000000 0.817267
0.521083 1.000000 0.814461
0.645817 1.000000 0.809698
0.770552 1.000000 0.799312
0.912457 1.000000 0.795286
1.000000 1.000000 0.795126
0.050485 0.000000 0.959208
0.176647 0.000000 0.958942
0.302740 0.000000 0.958676
0.428763 0.000000 0.958411
0.554715 0.000000 0.958145
0.680598 0.000000 0.957879
0.806411 0.000000 0.957613
0.932154 0.000000 0.957348
1.000000 0.000000 0.956878
0.029564 0.106960 0.958314
0.156049 0.104307 0.958048
0.285144 0.104049 0.957782
0.414237 0.103791 0.957517
0.543327 0.103533 0.957251
0.672415 0.103276 0.956985
0.801501 0.103018 0.956719
0.930584 0.102760 0.956454
1.000000 0.101294 0.954785
0.028697 0.235080 0.957420
0.153439 0.231218 0.957154
0.280232 0.228182 0.956888
0.410099 0.227924 0.956623
0.539962 0.227666 0.956357
0.669823 0.227408 0.956091
0.799681 0.227151 0.955825
0.929536 0.226893 0.955560
1.000000 0.225400 0.953603
0.027830 0.363192 0.956526
0.152572 0.359976 0.956260
0.277314 0.355624 0.955994
0.404550 0.352057 0.955729
0.535523 0.351799 0.955463
0.666492 0.351541 0.955197
0.797458 0.351283 0.954931
0.928420 0.351026 0.954666
1.000000 0.349506 0.952307
0.026963 0.491297 0.955632
0.151705 0.488724 0.955366
0.276447 0.485264 0.955100
0.401190 0.480282 0.954835
0.529114 0.475932 0.954569
0.661807 0.475674 0.954303
0.794497 0.475416 0.954037
0.927182 0.475158 0.953772
1.000000 0.473612 0.950809
0.026096 0.619395 0.954738
0.150838 0.617464 0.954472
0.275580 0.614893 0.954206
0.400322 0.611225 0.953941
0.525065 0.605429 0.953675
0.654207 0.599807 0.953409
0.789946 0.599549 0.953143
0.925679 0.599291 0.952878
1.000000 0.597718 0.948908
0.025228 0.747485 0.953844
0.149971 0.746195 0.953578
0.274713 0.744512 0.953312
0.399455 0.742155 0.953047
0.524197 0.738489 0.952781
0.648940 0.731733 0.952515
0.780824 0.723682 0.952249
0.923414 0.723424 0.951984
1.000000 0.721824 0.946001
0.024361 0.875567 0.952950
0.149104 0.874918 0.952684
0.273846 0.874121 0.952418
0.398588 0.873072 0.952153
0.523330 0.871532 0.951887
0.648072 0.868835 0.951621
0.772815 0.862085 0.951355
0.916579 0.847557 0.951090
1.000000 0.845930 0.939065
0.022056 1.000000 0.950539
0.146790 1.000000 0.950033
0.271524 1.000000 0.949442
0.396259 1.000000 0.948710
0.520993 1.000000 0.947718
0.645727 1.000000 0.946169
0.770461 1.000000 0.943013
0.895196 1.000000 0.930222
1.000000 1.000000 0.920036
