luts/original/fashion-gold.cube
TITLE "Fashion Gold"
LUT_3D_SIZE 33
DOMAIN_MIN 0.0 0.0 0.0
DOMAIN_MAX 1.0 1.0 1.0
0.020963 0.002834 0.002834
0.053405 0.002627 0.002627
0.085844 0.002380 0.002380
0.118281 0.002092 0.002092
0.150715 0.001763 0.001763
0.183146 0.001394 0.001394
0.215574 0.000984 0.000984
0.248000 0.000533 0.000533
0.280423 0.000042 0.000042
0.312844 0.000000 0.000000
0.345261 0.000000 0.000000
0.377676 0.000000 0.000000
0.410089 0.000000 0.000000
0.442498 0.000000 0.000000
0.474905 0.000000 0.000000
0.507309 0.000000 0.000000
0.539711 0.000000 0.000000
0.572110 0.000000 0.000000
0.604506 0.000000 0.000000
0.636899 0.000000 0.000000
0.669290 0.000000 0.000000
0.701678 0.000000 0.000000
0.734063 0.000000 0.000000
0.766446 0.000000 0.000000
0.798826 0.000000 0.000000
0.831203 0.000000 0.000000
0.863577 0.000000 0.000000
0.895949 0.000000 0.000000
0.928318 0.000000 0.000000
0.960685 0.000000 0.000000
0.993048 0.000000 0.000000
0.999365 0.000000 0.000000
1.000000 0.000000 0.000000
0.022097 0.034582 0.002918
0.053322 0.034185 0.002547
0.085757 0.033943 0.002295
0.118189 0.033664 0.002003
0.150618 0.033346 0.001670
0.183045 0.032989 0.001296
0.215469 0.032591 0.000882
0.247890 0.032154 0.000426
0.280309 0.031738 0.000000
0.312724 0.031706 0.000000
0.345138 0.031679 0.000000
0.377548 0.031657 0.000000
0.409956 0.031637 0.000000
0.442361 0.031620 0.000000
0.474763 0.031605 0.000000
0.507163 0.031592 0.000000
0.539560 0.031580 0.000000
0.571954 0.031569 0.000000
0.604346 0.031559 0.000000
0.636735 0.031550 0.000000
0.669121 0.031542 0.000000
0.701504 0.031534 0.000000
0.733885 0.031527 0.000000
0.766263 0.031520 0.000000
0.798638 0.031514 0.000000
0.831011 0.031508 0.000000
0.863381 0.031503 0.000000
0.895748 0.031497 0.000000
0.928113 0.031492 0.000000
0.960475 0.031488 0.000000
0.992834 0.031483 0.000000
0.999365 0.031486 0.000000
1.000000 0.031491 0.000000
0.023053 0.066190 0.002847
0.054445 0.065919 0.002602
0.085669 0.065504 0.002211
0.118097 0.065234 0.001914
0.150522 0.064927 0.001576
0.182944 0.064582 0.001198
0.215363 0.064198 0.000779
0.247780 0.063773 0.000320
0.280194 0.063452 0.000000
0.312605 0.063390 0.000000
0.345014 0.063338 0.000000
0.377420 0.063293 0.000000
0.409823 0.063255 0.000000
0.442224 0.063222 0.000000
0.474621 0.063193 0.000000
0.507017 0.063167 0.000000
0.539409 0.063143 0.000000
0.571799 0.063122 0.000000
0.604186 0.063102 0.000000
0.636570 0.063085 0.000000
0.668952 0.063068 0.000000
0.701331 0.063053 0.000000
0.733707 0.063039 0.000000
0.766080 0.063026 0.000000
0.798451 0.063014 0.000000
0.830819 0.063002 0.000000
0.863185 0.062991 0.000000
0.895548 0.062981 0.000000
0.927908 0.062971 0.000000
0.960265 0.062962 0.000000
0.992620 0.062953 0.000000
0.999365 0.062958 0.000000
1.000000 0.062968 0.000000
0.023745 0.097540 0.002521
0.055391 0.097513 0.002494
0.086782 0.097236 0.002237
0.118005 0.096803 0.001825
0.150425 0.096508 0.001483
0.182843 0.096175 0.001100
0.215258 0.095804 0.000677
0.247670 0.095392 0.000213
0.280079 0.095142 0.000000
0.312486 0.095051 0.000000
0.344890 0.094974 0.000000
0.377292 0.094909 0.000000
0.409690 0.094854 0.000000
0.442086 0.094805 0.000000
0.474480 0.094762 0.000000
0.506870 0.094723 0.000000
0.539258 0.094689 0.000000
0.571643 0.094658 0.000000
0.604026 0.094629 0.000000
0.636406 0.094603 0.000000
0.668783 0.094579 0.000000
0.701157 0.094557 0.000000
0.733529 0.094536 0.000000
0.765898 0.094517 0.000000
0.798264 0.094499 0.000000
0.830628 0.094482 0.000000
0.862989 0.094465 0.000000
0.895347 0.094450 0.000000
0.927702 0.094436 0.000000
0.960055 0.094422 0.000000
0.992405 0.094409 0.000000
0.999365 0.094416 0.000000
1.000000 0.094430 0.000000
0.024403 0.128881 0.002147
0.056059 0.128852 0.002120
0.087713 0.128824 0.002092
0.119108 0.128538 0.001822
0.150329 0.128087 0.001389
0.182742 0.127767 0.001002
0.215152 0.127408 0.000575
0.247560 0.127011 0.000106
0.279965 0.126808 0.000000
0.312367 0.126689 0.000000
0.344767 0.126590 0.000000
0.377164 0.126505 0.000000
0.409558 0.126432 0.000000
0.441949 0.126369 0.000000
0.474338 0.126313 0.000000
0.506724 0.126263 0.000000
0.539107 0.126218 0.000000
0.571488 0.126177 0.000000
0.603866 0.126140 0.000000
0.636241 0.126106 0.000000
0.668614 0.126074 0.000000
0.700984 0.126045 0.000000
0.733351 0.126018 0.000000
0.765715 0.125993 0.000000
0.798077 0.125969 0.000000
0.830436 0.125947 0.000000
0.862792 0.125926 0.000000
0.895146 0.125905 0.000000
0.927497 0.125886 0.000000
0.959845 0.125868 0.000000
0.992191 0.125851 0.000000
0.999365 0.125861 0.000000
1.000000 0.125879 0.000000
0.025021 0.160213 0.001727
0.056688 0.160183 0.001698
0.088356 0.160153 0.001669
0.120022 0.160123 0.001640
0.151421 0.159827 0.001357
0.182641 0.159358 0.000905
0.215047 0.159012 0.000472
0.247450 0.158628 0.000000
0.279850 0.158451 0.000000
0.312248 0.158305 0.000000
0.344643 0.158184 0.000000
0.377035 0.158081 0.000000
0.409425 0.157992 0.000000
0.441812 0.157914 0.000000
0.474196 0.157845 0.000000
0.506578 0.157784 0.000000
0.538956 0.157729 0.000000
0.571333 0.157679 0.000000
0.603706 0.157634 0.000000
0.636077 0.157592 0.000000
0.668445 0.157554 0.000000
0.700810 0.157518 0.000000
0.733173 0.157485 0.000000
0.765532 0.157454 0.000000
0.797890 0.157425 0.000000
0.830244 0.157397 0.000000
0.862596 0.157371 0.000000
0.894945 0.157347 0.000000
0.927292 0.157323 0.000000
0.959635 0.157301 0.000000
0.991976 0.157280 0.000000
0.999365 0.157291 0.000000
1.000000 0.157313 0.000000
0.025594 0.191536 0.001260
0.057276 0.191504 0.001230
0.088957 0.191473 0.001200
0.120639 0.191442 0.001169
0.152319 0.191410 0.001139
0.183723 0.191103 0.000843
0.214941 0.190616 0.000370
0.247340 0.190277 0.000000
0.279736 0.190069 0.000000
0.312129 0.189899 0.000000
0.344519 0.189757 0.000000
0.376907 0.189636 0.000000
0.409292 0.189532 0.000000
0.441675 0.189440 0.000000
0.474054 0.189360 0.000000
0.506431 0.189288 0.000000
0.538806 0.189223 0.000000
0.571177 0.189165 0.000000
0.603546 0.189112 0.000000
0.635912 0.189063 0.000000
0.668276 0.189018 0.000000
0.700636 0.188976 0.000000
0.732994 0.188937 0.000000
0.765350 0.188900 0.000000
0.797702 0.188866 0.000000
0.830052 0.188834 0.000000
0.862400 0.188803 0.000000
0.894744 0.188774 0.000000
0.927086 0.188746 0.000000
0.959425 0.188720 0.000000
0.991762 0.188695 0.000000
0.999365 0.188708 0.000000
1.000000 0.188733 0.000000
0.026122 0.222850 0.000747
0.057819 0.222817 0.000715
0.089516 0.222784 0.000683
0.121212 0.222751 0.000651
0.152908 0.222719 0.000620
0.184604 0.222686 0.000588
0.216013 0.222367 0.000279
0.247230 0.221901 0.000000
0.279621 0.221664 0.000000
0.312010 0.221470 0.000000
0.344396 0.221308 0.000000
0.376779 0.221171 0.000000
0.409160 0.221052 0.000000
0.441537 0.220948 0.000000
0.473913 0.220856 0.000000
0.506285 0.220774 0.000000
0.538655 0.220701 0.000000
0.571022 0.220634 0.000000
0.603386 0.220573 0.000000
0.635748 0.220517 0.000000
0.668107 0.220466 0.000000
0.700463 0.220418 0.000000
0.732816 0.220373 0.000000
0.765167 0.220331 0.000000
0.797515 0.220292 0.000000
0.829861 0.220255 0.000000
0.862203 0.220220 0.000000
0.894544 0.220187 0.000000
0.926881 0.220156 0.000000
0.959215 0.220125 0.000000
0.991547 0.220097 0.000000
0.999365 0.220111 0.000000
1.000000 0.220139 0.000000
0.026604 0.254154 0.000186
0.058317 0.254120 0.000153
0.090030 0.254086 0.000120
0.121742 0.254052 0.000087
0.153454 0.254018 0.000054
0.185165 0.253984 0.000021
0.216877 0.253950 0.000000
0.248291 0.253643 0.000000
0.279507 0.253235 0.000000
0.311891 0.253019 0.000000
0.344272 0.252839 0.000000
0.376651 0.252685 0.000000
0.409027 0.252553 0.000000
0.441400 0.252437 0.000000
0.473771 0.252334 0.000000
0.506139 0.252243 0.000000
0.538504 0.252161 0.000000
0.570866 0.252086 0.000000
0.603226 0.252018 0.000000
0.635583 0.251956 0.000000
0.667938 0.251898 0.000000
0.700289 0.251845 0.000000
0.732638 0.251795 0.000000
0.764985 0.251748 0.000000
0.797328 0.251704 0.000000
0.829669 0.251663 0.000000
0.862007 0.251623 0.000000
0.894343 0.251586 0.000000
0.926675 0.251551 0.000000
0.959006 0.251517 0.000000
0.991333 0.251485 0.000000
0.999365 0.251500 0.000000
1.000000 0.251531 0.000000
0.027387 0.285450 0.000000
0.059094 0.285414 0.000000
0.090792 0.285379 0.000000
0.122483 0.285344 0.000000
0.154166 0.285308 0.000000
0.185841 0.285273 0.000000
0.217508 0.285237 0.000000
0.249167 0.285202 0.000000
0.280557 0.284922 0.000000
0.311772 0.284545 0.000000
0.344149 0.284348 0.000000
0.376523 0.284179 0.000000
0.408894 0.284034 0.000000
0.441263 0.283907 0.000000
0.473629 0.283794 0.000000
0.505992 0.283694 0.000000
0.538353 0.283604 0.000000
0.570711 0.283522 0.000000
0.603066 0.283447 0.000000
0.635419 0.283378 0.000000
0.667769 0.283315 0.000000
0.700116 0.283256 0.000000
0.732460 0.283201 0.000000
0.764802 0.283150 0.000000
0.797141 0.283101 0.000000
0.829477 0.283056 0.000000
0.861811 0.283012 0.000000
0.894142 0.282971 0.000000
0.926470 0.282932 0.000000
0.958796 0.282895 0.000000
0.991119 0.282859 0.000000
0.999365 0.282875 0.000000
1.000000 0.282909 0.000000
0.028334 0.316736 0.000000
0.059998 0.316699 0.000000
0.091655 0.316663 0.000000
0.123304 0.316626 0.000000
0.154946 0.316589 0.000000
0.186581 0.316552 0.000000
0.218208 0.316516 0.000000
0.249828 0.316479 0.000000
0.281441 0.316442 0.000000
0.312812 0.316184 0.000000
0.344025 0.315835 0.000000
0.376395 0.315653 0.000000
0.408761 0.315496 0.000000
0.441126 0.315358 0.000000
0.473487 0.315236 0.000000
0.505846 0.315127 0.000000
0.538202 0.315030 0.000000
0.570556 0.314941 0.000000
0.602906 0.314860 0.000000
0.635254 0.314785 0.000000
0.667599 0.314716 0.000000
0.699942 0.314652 0.000000
0.732282 0.314593 0.000000
0.764619 0.314537 0.000000
0.796954 0.314484 0.000000
0.829286 0.314434 0.000000
0.861615 0.314387 0.000000
0.893941 0.314342 0.000000
0.926265 0.314300 0.000000
0.958586 0.314259 0.000000
0.990904 0.314220 0.000000
0.999365 0.314236 0.000000
1.000000 0.314272 0.000000
0.029292 0.348014 0.000000
0.060921 0.347976 0.000000
0.092542 0.347937 0.000000
0.124157 0.347899 0.000000
0.155765 0.347861 0.000000
0.187366 0.347823 0.000000
0.218960 0.347785 0.000000
0.250547 0.347747 0.000000
0.282127 0.347709 0.000000
0.313700 0.347671 0.000000
0.345055 0.347432 0.000000
0.376266 0.347106 0.000000
0.408629 0.346938 0.000000
0.440988 0.346790 0.000000
0.473345 0.346660 0.000000
0.505700 0.346543 0.000000
0.538051 0.346438 0.000000
0.570400 0.346343 0.000000
0.602746 0.346256 0.000000
0.635090 0.346176 0.000000
0.667431 0.346102 0.000000
0.699769 0.346033 0.000000
0.732104 0.345969 0.000000
0.764437 0.345909 0.000000
0.796767 0.345852 0.000000
0.829094 0.345798 0.000000
0.861418 0.345748 0.000000
0.893740 0.345699 0.000000
0.926059 0.345653 0.000000
0.958376 0.345610 0.000000
0.990690 0.345567 0.000000
0.999365 0.345584 0.000000
1.000000 0.345622 0.000000
0.030258 0.379282 0.000000
0.061857 0.379243 0.000000
0.093448 0.379203 0.000000
0.125034 0.379164 0.000000
0.156612 0.379124 0.000000
0.188184 0.379085 0.000000
0.219749 0.379045 0.000000
0.251308 0.379006 0.000000
0.282861 0.378966 0.000000
0.314406 0.378927 0.000000
0.345945 0.378887 0.000000
0.377286 0.378665 0.000000
0.408496 0.378361 0.000000
0.440851 0.378204 0.000000
0.473204 0.378065 0.000000
0.505553 0.377941 0.000000
0.537900 0.377830 0.000000
0.570245 0.377728 0.000000
0.602586 0.377636 0.000000
0.634925 0.377551 0.000000
0.667261 0.377472 0.000000
0.699595 0.377398 0.000000
0.731926 0.377330 0.000000
0.764254 0.377266 0.000000
0.796579 0.377205 0.000000
0.828902 0.377148 0.000000
0.861222 0.377094 0.000000
0.893539 0.377042 0.000000
0.925854 0.376993 0.000000
0.958166 0.376946 0.000000
0.990475 0.376901 0.000000
0.999365 0.376917 0.000000
1.000000 0.376957 0.000000
0.031231 0.410541 0.000000
0.062803 0.410500 0.000000
0.094369 0.410460 0.000000
0.125928 0.410419 0.000000
0.157481 0.410378 0.000000
0.189028 0.410337 0.000000
0.220569 0.410296 0.000000
0.252103 0.410256 0.000000
0.283631 0.410215 0.000000
0.315153 0.410174 0.000000
0.346668 0.410133 0.000000
0.378177 0.410092 0.000000
0.409505 0.409884 0.000000
0.440714 0.409599 0.000000
0.473062 0.409453 0.000000
0.505407 0.409322 0.000000
0.537750 0.409204 0.000000
0.570089 0.409097 0.000000
0.602426 0.408999 0.000000
0.634761 0.408909 0.000000
0.667092 0.408826 0.000000
0.699421 0.408748 0.000000
0.731748 0.408676 0.000000
0.764071 0.408608 0.000000
0.796392 0.408544 0.000000
0.828710 0.408483 0.000000
0.861026 0.408426 0.000000
0.893339 0.408371 0.000000
0.925649 0.408319 0.000000
0.957956 0.408269 0.000000
0.990261 0.408221 0.000000
0.999365 0.408237 0.000000
1.000000 0.408279 0.000000
0.032209 0.441791 0.000000
0.063758 0.441749 0.000000
0.095301 0.441707 0.000000
0.126837 0.441665 0.000000
0.158368 0.441623 0.000000
0.189892 0.441581 0.000000
0.221411 0.441538 0.000000
0.252924 0.441496 0.000000
0.284430 0.441454 0.000000
0.315931 0.441412 0.000000
0.347425 0.441370 0.000000
0.378914 0.441328 0.000000
0.410396 0.441286 0.000000
0.441712 0.441090 0.000000
0.472920 0.440822 0.000000
0.505261 0.440685 0.000000
0.537599 0.440561 0.000000
0.569934 0.440449 0.000000
0.602266 0.440347 0.000000
0.634596 0.440252 0.000000
0.666923 0.440165 0.000000
0.699248 0.440083 0.000000
0.731570 0.440007 0.000000
0.763889 0.439935 0.000000
0.796205 0.439868 0.000000
0.828519 0.439804 0.000000
0.860830 0.439744 0.000000
0.893138 0.439686 0.000000
0.925443 0.439631 0.000000
0.957746 0.439579 0.000000
0.990047 0.439528 0.000000
0.999365 0.439543 0.000000
1.000000 0.439586 0.000000
0.033191 0.473032 0.000000
0.064719 0.472989 0.000000
0.096241 0.472945 0.000000
0.127758 0.472902 0.000000
0.159268 0.472858 0.000000
0.190773 0.472815 0.000000
0.222272 0.472771 0.000000
0.253765 0.472728 0.000000
0.285252 0.472684 0.000000
0.316734 0.472641 0.000000
0.348210 0.472597 0.000000
0.379680 0.472554 0.000000
0.411144 0.472510 0.000000
0.442602 0.472467 0.000000
0.473908 0.472282 0.000000
0.505114 0.472030 0.000000
0.537448 0.471902 0.000000
0.569779 0.471785 0.000000
0.602107 0.471677 0.000000
0.634432 0.471579 0.000000
0.666754 0.471487 0.000000
0.699074 0.471402 0.000000
0.731392 0.471323 0.000000
0.763706 0.471248 0.000000
0.796018 0.471177 0.000000
0.828327 0.471111 0.000000
0.860633 0.471047 0.000000
0.892937 0.470987 0.000000
0.925238 0.470929 0.000000
0.957536 0.470874 0.000000
0.989832 0.470821 0.000000
0.999365 0.470836 0.000000
1.000000 0.470879 0.000000
0.034176 0.504264 0.000000
0.065686 0.504220 0.000000
0.097189 0.504175 0.000000
0.128687 0.504130 0.000000
0.160180 0.504085 0.000000
0.191667 0.504040 0.000000
0.223148 0.503995 0.000000
0.254623 0.503951 0.000000
0.286093 0.503906 0.000000
0.317558 0.503861 0.000000
0.349017 0.503816 0.000000
0.380470 0.503771 0.000000
0.411917 0.503726 0.000000
0.443359 0.503681 0.000000
0.474796 0.503637 0.000000
0.506092 0.503462 0.000000
0.537297 0.503224 0.000000
0.569623 0.503103 0.000000
0.601947 0.502992 0.000000
0.634267 0.502890 0.000000
0.666585 0.502795 0.000000
0.698901 0.502706 0.000000
0.731213 0.502623 0.000000
0.763523 0.502546 0.000000
0.795831 0.502472 0.000000
0.828135 0.502403 0.000000
0.860437 0.502337 0.000000
0.892736 0.502274 0.000000
0.925033 0.502214 0.000000
0.957327 0.502156 0.000000
0.989618 0.502101 0.000000
0.999365 0.502114 0.000000
1.000000 0.502158 0.000000
0.035164 0.535487 0.000000
0.066657 0.535441 0.000000
0.098143 0.535395 0.000000
0.129625 0.535349 0.000000
0.161101 0.535303 0.000000
0.192571 0.535256 0.000000
0.224036 0.535210 0.000000
0.255496 0.535164 0.000000
0.286950 0.535118 0.000000
0.318399 0.535072 0.000000
0.349842 0.535025 0.000000
0.381280 0.534979 0.000000
0.412712 0.534933 0.000000
0.444139 0.534887 0.000000
0.475561 0.534841 0.000000
0.506977 0.534794 0.000000
0.538264 0.534629 0.000000
0.569468 0.534405 0.000000
0.601787 0.534290 0.000000
0.634103 0.534185 0.000000
0.666416 0.534086 0.000000
0.698727 0.533995 0.000000
0.731035 0.533909 0.000000
0.763341 0.533829 0.000000
0.795644 0.533753 0.000000
0.827944 0.533680 0.000000
0.860241 0.533612 0.000000
0.892536 0.533547 0.000000
0.924827 0.533484 0.000000
0.957117 0.533424 0.000000
0.989403 0.533367 0.000000
0.999365 0.533379 0.000000
1.000000 0.533423 0.000000
0.036155 0.566701 0.000000
0.067631 0.566654 0.000000
0.099102 0.566606 0.000000
0.130568 0.566559 0.000000
0.162029 0.566511 0.000000
0.193485 0.566463 0.000000
0.224935 0.566416 0.000000
0.256379 0.566368 0.000000
0.287819 0.566321 0.000000
0.319253 0.566273 0.000000
0.350682 0.566226 0.000000
0.382106 0.566178 0.000000
0.413524 0.566131 0.000000
0.444938 0.566083 0.000000
0.476345 0.566036 0.000000
0.507748 0.565988 0.000000
0.539145 0.565940 0.000000
0.570424 0.565784 0.000000
0.601627 0.565572 0.000000
0.633938 0.565463 0.000000
0.666247 0.565362 0.000000
0.698554 0.565268 0.000000
0.730857 0.565180 0.000000
0.763158 0.565097 0.000000
0.795456 0.565018 0.000000
0.827752 0.564944 0.000000
0.860045 0.564873 0.000000
0.892335 0.564805 0.000000
0.924622 0.564741 0.000000
0.956907 0.564679 0.000000
0.989189 0.564619 0.000000
0.999365 0.564630 0.000000
1.000000 0.564675 0.000000
0.037147 0.597906 0.000000
0.068609 0.597857 0.000000
0.100066 0.597808 0.000000
0.131518 0.597759 0.000000
0.162964 0.597710 0.000000
0.194406 0.597661 0.000000
0.225842 0.597613 0.000000
0.257273 0.597564 0.000000
0.288699 0.597515 0.000000
0.320120 0.597466 0.000000
0.351536 0.597417 0.000000
0.382946 0.597368 0.000000
0.414352 0.597319 0.000000
0.445752 0.597270 0.000000
0.477147 0.597221 0.000000
0.508537 0.597173 0.000000
0.539922 0.597124 0.000000
0.571302 0.597075 0.000000
0.602573 0.596926 0.000000
0.633774 0.596726 0.000000
0.666078 0.596623 0.000000
0.698380 0.596526 0.000000
0.730679 0.596435 0.000000
0.762975 0.596350 0.000000
0.795269 0.596269 0.000000
0.827560 0.596192 0.000000
0.859848 0.596120 0.000000
0.892134 0.596050 0.000000
0.924417 0.595983 0.000000
0.956697 0.595919 0.000000
0.988974 0.595858 0.000000
0.999365 0.595868 0.000000
1.000000 0.595912 0.000000
0.038141 0.629102 0.000000
0.069589 0.629051 0.000000
0.101033 0.629001 0.000000
0.132471 0.628951 0.000000
0.163905 0.628901 0.000000
0.195333 0.628850 0.000000
0.226757 0.628800 0.000000
0.258175 0.628750 0.000000
0.289588 0.628700 0.000000
0.320997 0.628649 0.000000
0.352400 0.628599 0.000000
0.383798 0.628549 0.000000
0.415192 0.628499 0.000000
0.446580 0.628448 0.000000
0.477963 0.628398 0.000000
0.509341 0.628348 0.000000
0.540715 0.628298 0.000000
0.572083 0.628248 0.000000
0.603446 0.628197 0.000000
0.634710 0.628055 0.000000
0.665909 0.627867 0.000000
0.698207 0.627769 0.000000
0.730501 0.627676 0.000000
0.762793 0.627588 0.000000
0.795082 0.627505 0.000000
0.827368 0.627427 0.000000
0.859652 0.627352 0.000000
0.891933 0.627281 0.000000
0.924211 0.627212 0.000000
0.956487 0.627146 0.000000
0.988760 0.627083 0.000000
0.999365 0.627091 0.000000
1.000000 0.627135 0.000000
0.039136 0.660288 0.000000
0.070572 0.660237 0.000000
0.102003 0.660185 0.000000
0.133429 0.660133 0.000000
0.164850 0.660082 0.000000
0.196266 0.660030 0.000000
0.227678 0.659979 0.000000
0.259084 0.659927 0.000000
0.290486 0.659876 0.000000
0.321882 0.659824 0.000000
0.353274 0.659772 0.000000
0.384661 0.659721 0.000000
0.416042 0.659669 0.000000
0.447419 0.659618 0.000000
0.478791 0.659566 0.000000
0.510159 0.659514 0.000000
0.541521 0.659463 0.000000
0.572878 0.659411 0.000000
0.604230 0.659360 0.000000
0.635578 0.659308 0.000000
0.666835 0.659173 0.000000
0.698033 0.658996 0.000000
0.730323 0.658901 0.000000
0.762610 0.658812 0.000000
0.794895 0.658727 0.000000
0.827177 0.658647 0.000000
0.859456 0.658570 0.000000
0.891732 0.658497 0.000000
0.924006 0.658427 0.000000
0.956277 0.658360 0.000000
0.988546 0.658295 0.000000
0.999365 0.658301 0.000000
1.000000 0.658344 0.000000
0.040132 0.691466 0.000000
0.071556 0.691413 0.000000
0.102975 0.691360 0.000000
0.134390 0.691307 0.000000
0.165799 0.691254 0.000000
0.197204 0.691201 0.000000
0.228604 0.691148 0.000000
0.259999 0.691095 0.000000
0.291389 0.691042 0.000000
0.322775 0.690989 0.000000
0.354156 0.690936 0.000000
0.385532 0.690883 0.000000
0.416903 0.690831 0.000000
0.448269 0.690778 0.000000
0.479630 0.690725 0.000000
0.510987 0.690672 0.000000
0.542339 0.690619 0.000000
0.573686 0.690566 0.000000
0.605028 0.690513 0.000000
0.636365 0.690460 0.000000
0.667698 0.690407 0.000000
0.698948 0.690278 0.000000
0.730145 0.690111 0.000000
0.762428 0.690020 0.000000
0.794708 0.689934 0.000000
0.826985 0.689852 0.000000
0.859260 0.689774 0.000000
0.891532 0.689700 0.000000
0.923801 0.689628 0.000000
0.956067 0.689559 0.000000
0.988331 0.689493 0.000000
0.999365 0.689498 0.000000
1.000000 0.689539 0.000000
0.041130 0.722634 0.000000
0.072542 0.722580 0.000000
0.103950 0.722526 0.000000
0.135354 0.722471 0.000000
0.166752 0.722417 0.000000
0.198146 0.722363 0.000000
0.229535 0.722309 0.000000
0.260920 0.722254 0.000000
0.292299 0.722200 0.000000
0.323674 0.722146 0.000000
0.355045 0.722091 0.000000
0.386410 0.722037 0.000000
0.417771 0.721983 0.000000
0.449127 0.721928 0.000000
0.480478 0.721874 0.000000
0.511825 0.721820 0.000000
0.543167 0.721766 0.000000
0.574504 0.721711 0.000000
0.605837 0.721657 0.000000
0.637164 0.721603 0.000000
0.668487 0.721548 0.000000
0.699806 0.721494 0.000000
0.731049 0.721371 0.000000
0.762245 0.721214 0.000000
0.794520 0.721127 0.000000
0.826793 0.721044 0.000000
0.859063 0.720964 0.000000
0.891331 0.720888 0.000000
0.923595 0.720815 0.000000
0.955857 0.720745 0.000000
0.988117 0.720677 0.000000
0.999365 0.720680 0.000000
1.000000 0.720720 0.000000
0.042128 0.753794 0.000000
0.073530 0.753738 0.000000
0.104927 0.753682 0.000000
0.136320 0.753627 0.000000
0.167708 0.753571 0.000000
0.199092 0.753515 0.000000
0.230471 0.753460 0.000000
0.261845 0.753404 0.000000
0.293214 0.753348 0.000000
0.324579 0.753293 0.000000
0.355940 0.753237 0.000000
0.387295 0.753182 0.000000
0.418646 0.753126 0.000000
0.449993 0.753070 0.000000
0.481335 0.753015 0.000000
0.512672 0.752959 0.000000
0.544004 0.752903 0.000000
0.575332 0.752848 0.000000
0.606655 0.752792 0.000000
0.637974 0.752736 0.000000
0.669288 0.752681 0.000000
0.700597 0.752625 0.000000
0.731902 0.752569 0.000000
0.763139 0.752453 0.000000
0.794333 0.752305 0.000000
0.826602 0.752220 0.000000
0.858867 0.752140 0.000000
0.891130 0.752063 0.000000
0.923390 0.751989 0.000000
0.955648 0.751917 0.000000
0.987902 0.751848 0.000000
0.999365 0.751849 0.000000
1.000000 0.751887 0.000000
0.043127 0.784944 0.000000
0.074519 0.784887 0.000000
0.105906 0.784830 0.000000
0.137289 0.784773 0.000000
0.168667 0.784716 0.000000
0.200041 0.784659 0.000000
0.231410 0.784602 0.000000
0.262774 0.784545 0.000000
0.294134 0.784488 0.000000
0.325489 0.784431 0.000000
0.356840 0.784374 0.000000
0.388186 0.784317 0.000000
0.419528 0.784260 0.000000
0.450865 0.784203 0.000000
0.482198 0.784146 0.000000
0.513526 0.784089 0.000000
0.544849 0.784032 0.000000
0.576168 0.783975 0.000000
0.607482 0.783918 0.000000
0.638792 0.783861 0.000000
0.670097 0.783804 0.000000
0.701398 0.783747 0.000000
0.732694 0.783690 0.000000
0.763986 0.783633 0.000000
0.795217 0.783522 0.000000
0.826410 0.783383 0.000000
0.858671 0.783301 0.000000
0.890929 0.783223 0.000000
0.923185 0.783148 0.000000
0.955438 0.783076 0.000000
0.987688 0.783006 0.000000
0.999365 0.783004 0.000000
1.000000 0.783040 0.000000
0.044127 0.816085 0.000000
0.075509 0.816027 0.000000
0.106886 0.815968 0.000000
0.138260 0.815910 0.000000
0.169628 0.815852 0.000000
0.200992 0.815793 0.000000
0.232352 0.815735 0.000000
0.263707 0.815677 0.000000
0.295058 0.815618 0.000000
0.326404 0.815560 0.000000
0.357745 0.815502 0.000000
0.389083 0.815443 0.000000
0.420415 0.815385 0.000000
0.451744 0.815327 0.000000
0.483067 0.815268 0.000000
0.514386 0.815210 0.000000
0.545701 0.815152 0.000000
0.577011 0.815093 0.000000
0.608317 0.815035 0.000000
0.639619 0.814977 0.000000
0.670915 0.814918 0.000000
0.702208 0.814860 0.000000
0.733495 0.814802 0.000000
0.764779 0.814743 0.000000
0.796058 0.814685 0.000000
0.827283 0.814579 0.000000
0.858474 0.814448 0.000000
