luts/original/fashion-gold.cube
TITLE "Fashion Gold"
LUT_3D_SIZE 5
DOMAIN_MIN 0.0 0.0 0.0
DOMAIN_MAX 1.0 1.0 1.0
0.020963 0.002834 0.002834
0.280423 0.000042 0.000042
0.539711 0.000000 0.000000
0.798826 0.000000 0.000000
1.000000 0.000000 0.000000
0.026604 0.254154 0.000186
0.279507 0.253235 0.000000
0.538504 0.252161 0.000000
0.797328 0.251704 0.000000
1.000000 0.251531 0.000000
0.034176 0.504264 0.000000
0.286093 0.503906 0.000000
0.537297 0.503224 0.000000
0.795831 0.502472 0.000000
1.000000 0.502158 0.000000
0.042128 0.753794 0.000000
0.293214 0.753348 0.000000
0.544004 0.752903 0.000000
0.794333 0.752305 0.000000
1.000000 0.751887 0.000000
0.050137 1.000000 0.000000
0.300665 1.000000 0.000000
0.550925 1.000000 0.000000
0.800919 1.000000 0.000000
1.000000 1.000000 0.000000
0.028203 0.001772 0.229372
0.280349 0.000000 0.227524
0.539613 0.000000 0.218382
0.798705 0.000000 0.209832
1.000000 0.000000 0.201558
0.025739 0.254080 0.227464
0.279433 0.251444 0.223456
0.538406 0.244990 0.209629
0.797207 0.236761 0.193197
1.000000 0.227831 0.175942
0.027667 0.504167 0.213584
0.280732 0.503808 0.209819
0.537199 0.501844 0.208458
0.795710 0.493727 0.191745
1.000000 0.485462 0.174154
0.026594 0.753673 0.196905
0.279606 0.753228 0.192412
0.537775 0.752782 0.191980
0.794212 0.750656 0.190292
1.000000 0.743052 0.172366
0.022597 1.000000 0.177347
0.275826 1.000000 0.172066
0.534685 1.000000 0.171534
0.793531 1.000000 0.171003
1.000000 1.000000 0.170578
0.034468 0.000000 0.472709
0.287817 0.000000 0.472350
0.539491 0.000000 0.470948
0.798553 0.000000 0.461882
1.000000 0.000000 0.453423
0.029732 0.250617 0.471502
0.281699 0.245634 0.471143
0.538285 0.243261 0.467027
0.797056 0.234926 0.450416
1.000000 0.225761 0.433823
0.027549 0.504045 0.469157
0.277201 0.503686 0.467377
0.537078 0.497709 0.458340
0.795559 0.486360 0.441598
1.000000 0.476720 0.423973
0.026447 0.753522 0.453525
0.276015 0.753076 0.448577
0.531891 0.752631 0.441834
0.794061 0.749305 0.440146
1.000000 0.738614 0.422185
0.022417 1.000000 0.435081
0.271885 1.000000 0.428331
0.526822 1.000000 0.421354
0.789942 1.000000 0.420822
1.000000 1.000000 0.420397
0.042437 0.000000 0.715988
0.295054 0.000000 0.715543
0.547353 0.000000 0.715097
0.798402 0.000000 0.713836
1.000000 0.000000 0.705196
0.030462 0.244057 0.714490
0.282004 0.238155 0.714045
0.541433 0.237723 0.713600
0.796905 0.234779 0.709473
1.000000 0.225581 0.693716
0.029009 0.499411 0.712993
0.278577 0.495563 0.712548
0.532572 0.486271 0.712103
0.795407 0.483326 0.704922
1.000000 0.473793 0.685884
0.026300 0.753370 0.710142
0.275869 0.752925 0.708947
0.525437 0.752480 0.705876
0.793910 0.741954 0.689999
1.000000 0.727038 0.672005
0.022236 1.000000 0.692811
0.271705 1.000000 0.688890
0.521173 1.000000 0.681199
0.780663 1.000000 0.670642
1.000000 1.000000 0.670217
0.050485 0.000000 0.959208
0.302740 0.000000 0.958676
0.554715 0.000000 0.958145
0.806411 0.000000 0.957613
1.000000 0.000000 0.956878
0.028697 0.235080 0.957420
0.280232 0.228182 0.956888
0.539962 0.227666 0.956357
0.799681 0.227151 0.955825
1.000000 0.225400 0.953603
0.026963 0.491297 0.955632
0.276447 0.485264 0.955100
0.529114 0.475932 0.954569
0.794497 0.475416 0.954037
1.000000 0.473612 0.950809
0.025228 0.747485 0.953844
0.274713 0.744512 0.953312
0.524197 0.738489 0.952781
0.780824 0.723682 0.952249
1.000000 0.721824 0.946001
0.022056 1.000000 0.950539
0.271524 1.000000 0.949442
0.520993 1.000000 0.947718
0.770461 1.000000 0.943013
1.000000 1.000000 0.920036
