luts/original/film-memory-gold.cube
TITLE "Film Memory Gold"
LUT_3D_SIZE 5
DOMAIN_MIN 0.0 0.0 0.0
DOMAIN_MAX 1.0 1.0 1.0
0.000000 0.000000 0.000000
0.257688 0.000000 0.000000
0.520250 0.000000 0.000000
0.787687 0.000000 0.000000
1.000000 0.000000 0.000000
0.000000 0.244875 0.000000
0.257688 0.244875 0.000000
0.520250 0.243250 0.000000
0.787687 0.241625 0.000000
1.000000 0.240000 0.000000
0.000000 0.486500 0.000000
0.260125 0.486500 0.000000
0.520250 0.486500 0.000000
0.787687 0.483250 0.000000
1.000000 0.480000 0.000000
0.000000 0.724875 0.000000
0.262563 0.724875 0.000000
0.525125 0.724875 0.000000
0.787687 0.724875 0.000000
1.000000 0.720000 0.000000
0.000000 0.960000 0.000000
0.265000 0.960000 0.000000
0.530000 0.960000 0.000000
0.795000 0.960000 0.000000
1.000000 0.960000 0.000000
0.000000 0.000000 0.226938
0.257688 0.000000 0.226938
0.520250 0.000000 0.219625
0.787687 0.000000 0.212312
1.000000 0.000000 0.205000
0.000000 0.244875 0.226938
0.257688 0.244875 0.226938
0.520250 0.243250 0.219625
0.787687 0.241625 0.212312
1.000000 0.240000 0.205000
0.000000 0.486500 0.219625
0.260125 0.486500 0.219625
0.520250 0.486500 0.219625
0.787687 0.483250 0.212312
1.000000 0.480000 0.205000
0.000000 0.724875 0.212312
0.262563 0.724875 0.212312
0.525125 0.724875 0.212312
0.787687 0.724875 0.212312
1.000000 0.720000 0.205000
0.000000 0.960000 0.205000
0.265000 0.960000 0.205000
0.530000 0.960000 0.205000
0.795000 0.960000 0.205000
1.000000 0.960000 0.205000
0.000000 0.000000 0.439250
0.260125 0.000000 0.439250
0.520250 0.000000 0.439250
0.787687 0.000000 0.424625
1.000000 0.000000 0.410000
0.000000 0.243250 0.439250
0.260125 0.243250 0.439250
0.520250 0.243250 0.439250
0.787687 0.241625 0.424625
1.000000 0.240000 0.410000
0.000000 0.486500 0.439250
0.260125 0.486500 0.439250
0.520250 0.486500 0.439250
0.787687 0.483250 0.424625
1.000000 0.480000 0.410000
0.000000 0.724875 0.424625
0.262563 0.724875 0.424625
0.525125 0.724875 0.424625
0.787687 0.724875 0.424625
1.000000 0.720000 0.410000
0.000000 0.960000 0.410000
0.265000 0.960000 0.410000
0.530000 0.960000 0.410000
0.795000 0.960000 0.410000
1.000000 0.960000 0.410000
0.000000 0.000000 0.636937
0.262563 0.000000 0.636937
0.525125 0.000000 0.636937
0.787687 0.000000 0.636937
1.000000 0.000000 0.615000
0.000000 0.241625 0.636937
0.262563 0.241625 0.636937
0.525125 0.241625 0.636937
0.787687 0.241625 0.636937
1.000000 0.240000 0.615000
0.000000 0.483250 0.636937
0.262563 0.483250 0.636937
0.525125 0.483250 0.636937
0.787687 0.483250 0.636937
1.000000 0.480000 0.615000
0.000000 0.724875 0.636937
0.262563 0.724875 0.636937
0.525125 0.724875 0.636937
0.787687 0.724875 0.636937
1.000000 0.720000 0.615000
0.000000 0.960000 0.615000
0.265000 0.960000 0.615000
0.530000 0.960000 0.615000
0.795000 0.960000 0.615000
1.000000 0.960000 0.615000
0.000000 0.000000 0.820000
0.265000 0.000000 0.820000
0.530000 0.000000 0.820000
0.795000 0.000000 0.820000
1.000000 0.000000 0.820000
0.000000 0.240000 0.820000
0.265000 0.240000 0.820000
0.530000 0.240000 0.820000
0.795000 0.240000 0.820000
1.000000 0.240000 0.820000
0.000000 0.480000 0.820000
0.265000 0.480000 0.820000
0.530000 0.480000 0.820000
0.795000 0.480000 0.820000
1.000000 0.480000 0.820000
0.000000 0.720000 0.820000
0.265000 0.720000 0.820000
0.530000 0.720000 0.820000
0.795000 0.720000 0.820000
1.000000 0.720000 0.820000
0.000000 0.960000 0.820000
0.265000 0.960000 0.820000
0.530000 0.960000 0.820000
0.795000 0.960000 0.820000
1.000000 0.960000 0.820000
