luts/original/film-memory-gold.cube
TITLE "Film Memory Gold"
LUT_3D_SIZE 9
DOMAIN_MIN 0.0 0.0 0.0
DOMAIN_MAX 1.0 1.0 1.0
0.000000 0.000000 0.000000
0.128234 0.000000 0.000000
0.257688 0.000000 0.000000
0.388359 0.000000 0.000000
0.520250 0.000000 0.000000
0.653359 0.000000 0.000000
0.787687 0.000000 0.000000
0.923234 0.000000 0.000000
1.000000 0.000000 0.000000
0.000000 0.122844 0.000000
0.128234 0.122844 0.000000
0.257688 0.122438 0.000000
0.388359 0.122031 0.000000
0.520250 0.121625 0.000000
0.653359 0.121219 0.000000
0.787687 0.120812 0.000000
0.923234 0.120406 0.000000
1.000000 0.120000 0.000000
0.000000 0.244875 0.000000
0.128844 0.244875 0.000000
0.257688 0.244875 0.000000
0.388359 0.244062 0.000000
0.520250 0.243250 0.000000
0.653359 0.242438 0.000000
0.787687 0.241625 0.000000
0.923234 0.240812 0.000000
1.000000 0.240000 0.000000
0.000000 0.366094 0.000000
0.129453 0.366094 0.000000
0.258906 0.366094 0.000000
0.388359 0.366094 0.000000
0.520250 0.364875 0.000000
0.653359 0.363656 0.000000
0.787687 0.362437 0.000000
0.923234 0.361219 0.000000
1.000000 0.360000 0.000000
0.000000 0.486500 0.000000
0.130063 0.486500 0.000000
0.260125 0.486500 0.000000
0.390188 0.486500 0.000000
0.520250 0.486500 0.000000
0.653359 0.484875 0.000000
0.787687 0.483250 0.000000
0.923234 0.481625 0.000000
1.000000 0.480000 0.000000
0.000000 0.606094 0.000000
0.130672 0.606094 0.000000
0.261344 0.606094 0.000000
0.392016 0.606094 0.000000
0.522687 0.606094 0.000000
0.653359 0.606094 0.000000
0.787687 0.604062 0.000000
0.923234 0.602031 0.000000
1.000000 0.600000 0.000000
0.000000 0.724875 0.000000
0.131281 0.724875 0.000000
0.262563 0.724875 0.000000
0.393844 0.724875 0.000000
0.525125 0.724875 0.000000
0.656406 0.724875 0.000000
0.787687 0.724875 0.000000
0.923234 0.722438 0.000000
1.000000 0.720000 0.000000
0.000000 0.842844 0.000000
0.131891 0.842844 0.000000
0.263781 0.842844 0.000000
0.395672 0.842844 0.000000
0.527563 0.842844 0.000000
0.659453 0.842844 0.000000
0.791344 0.842844 0.000000
0.923234 0.842844 0.000000
1.000000 0.840000 0.000000
0.000000 0.960000 0.000000
0.132500 0.960000 0.000000
0.265000 0.960000 0.000000
0.397500 0.960000 0.000000
0.530000 0.960000 0.000000
0.662500 0.960000 0.000000
0.795000 0.960000 0.000000
0.927500 0.960000 0.000000
1.000000 0.960000 0.000000
0.000000 0.000000 0.115297
0.128234 0.000000 0.115297
0.257688 0.000000 0.113469
0.388359 0.000000 0.111641
0.520250 0.000000 0.109812
0.653359 0.000000 0.107984
0.787687 0.000000 0.106156
0.923234 0.000000 0.104328
1.000000 0.000000 0.102500
0.000000 0.122844 0.115297
0.128234 0.122844 0.115297
0.257688 0.122438 0.113469
0.388359 0.122031 0.111641
0.520250 0.121625 0.109812
0.653359 0.121219 0.107984
0.787687 0.120812 0.106156
0.923234 0.120406 0.104328
1.000000 0.120000 0.102500
0.000000 0.244875 0.113469
0.128844 0.244875 0.113469
0.257688 0.244875 0.113469
0.388359 0.244062 0.111641
0.520250 0.243250 0.109812
0.653359 0.242438 0.107984
0.787687 0.241625 0.106156
0.923234 0.240812 0.104328
1.000000 0.240000 0.102500
0.000000 0.366094 0.111641
0.129453 0.366094 0.111641
0.258906 0.366094 0.111641
0.388359 0.366094 0.111641
0.520250 0.364875 0.109812
0.653359 0.363656 0.107984
0.787687 0.362437 0.106156
0.923234 0.361219 0.104328
1.000000 0.360000 0.102500
0.000000 0.486500 0.109812
0.130063 0.486500 0.109812
0.260125 0.486500 0.109812
0.390188 0.486500 0.109812
0.520250 0.486500 0.109812
0.653359 0.484875 0.107984
0.787687 0.483250 0.106156
0.923234 0.481625 0.104328
1.000000 0.480000 0.102500
0.000000 0.606094 0.107984
0.130672 0.606094 0.107984
0.261344 0.606094 0.107984
0.392016 0.606094 0.107984
0.522687 0.606094 0.107984
0.653359 0.606094 0.107984
0.787687 0.604062 0.106156
0.923234 0.602031 0.104328
1.000000 0.600000 0.102500
0.000000 0.724875 0.106156
0.131281 0.724875 0.106156
0.262563 0.724875 0.106156
0.393844 0.724875 0.106156
0.525125 0.724875 0.106156
0.656406 0.724875 0.106156
0.787687 0.724875 0.106156
0.923234 0.722438 0.104328
1.000000 0.720000 0.102500
0.000000 0.842844 0.104328
0.131891 0.842844 0.104328
0.263781 0.842844 0.104328
0.395672 0.842844 0.104328
0.527563 0.842844 0.104328
0.659453 0.842844 0.104328
0.791344 0.842844 0.104328
0.923234 0.842844 0.104328
1.000000 0.840000 0.102500
0.000000 0.960000 0.102500
0.132500 0.960000 0.102500
0.265000 0.960000 0.102500
0.397500 0.960000 0.102500
0.530000 0.960000 0.102500
0.662500 0.960000 0.102500
0.795000 0.960000 0.102500
0.927500 0.960000 0.102500
1.000000 0.960000 0.102500
0.000000 0.000000 0.226938
0.128844 0.000000 0.226938
0.257688 0.000000 0.226938
0.388359 0.000000 0.223281
0.520250 0.000000 0.219625
0.653359 0.000000 0.215969
0.787687 0.000000 0.212312
0.923234 0.000000 0.208656
1.000000 0.000000 0.205000
0.000000 0.122438 0.226938
0.128844 0.122438 0.226938
0.257688 0.122438 0.226938
0.388359 0.122031 0.223281
0.520250 0.121625 0.219625
0.653359 0.121219 0.215969
0.787687 0.120812 0.212312
0.923234 0.120406 0.208656
1.000000 0.120000 0.205000
0.000000 0.244875 0.226938
0.128844 0.244875 0.226938
0.257688 0.244875 0.226938
0.388359 0.244062 0.223281
0.520250 0.243250 0.219625
0.653359 0.242438 0.215969
0.787687 0.241625 0.212312
0.923234 0.240812 0.208656
1.000000 0.240000 0.205000
0.000000 0.366094 0.223281
0.129453 0.366094 0.223281
0.258906 0.366094 0.223281
0.388359 0.366094 0.223281
0.520250 0.364875 0.219625
0.653359 0.363656 0.215969
0.787687 0.362437 0.212312
0.923234 0.361219 0.208656
1.000000 0.360000 0.205000
0.000000 0.486500 0.219625
0.130063 0.486500 0.219625
0.260125 0.486500 0.219625
0.390188 0.486500 0.219625
0.520250 0.486500 0.219625
0.653359 0.484875 0.215969
0.787687 0.483250 0.212312
0.923234 0.481625 0.208656
1.000000 0.480000 0.205000
0.000000 0.606094 0.215969
0.130672 0.606094 0.215969
0.261344 0.606094 0.215969
0.392016 0.606094 0.215969
0.522687 0.606094 0.215969
0.653359 0.606094 0.215969
0.787687 0.604062 0.212312
0.923234 0.602031 0.208656
1.000000 0.600000 0.205000
0.000000 0.724875 0.212312
0.131281 0.724875 0.212312
0.262563 0.724875 0.212312
0.393844 0.724875 0.212312
0.525125 0.724875 0.212312
0.656406 0.724875 0.212312
0.787687 0.724875 0.212312
0.923234 0.722438 0.208656
1.000000 0.720000 0.205000
0.000000 0.842844 0.208656
0.131891 0.842844 0.208656
0.263781 0.842844 0.208656
0.395672 0.842844 0.208656
0.527563 0.842844 0.208656
0.659453 0.842844 0.208656
0.791344 0.842844 0.208656
0.923234 0.842844 0.208656
1.000000 0.840000 0.205000
0.000000 0.960000 0.205000
0.132500 0.960000 0.205000
0.265000 0.960000 0.205000
0.397500 0.960000 0.205000
0.530000 0.960000 0.205000
0.662500 0.960000 0.205000
0.795000 0.960000 0.205000
0.927500 0.960000 0.205000
1.000000 0.960000 0.205000
0.000000 0.000000 0.334922
0.129453 0.000000 0.334922
0.258906 0.000000 0.334922
0.388359 0.000000 0.334922
0.520250 0.000000 0.329437
0.653359 0.000000 0.323953
0.787687 0.000000 0.318469
0.923234 0.000000 0.312984
1.000000 0.000000 0.307500
0.000000 0.122031 0.334922
0.129453 0.122031 0.334922
0.258906 0.122031 0.334922
0.388359 0.122031 0.334922
0.520250 0.121625 0.329437
0.653359 0.121219 0.323953
0.787687 0.120812 0.318469
0.923234 0.120406 0.312984
1.000000 0.120000 0.307500
0.000000 0.244062 0.334922
0.129453 0.244062 0.334922
0.258906 0.244062 0.334922
0.388359 0.244062 0.334922
0.520250 0.243250 0.329437
0.653359 0.242438 0.323953
0.787687 0.241625 0.318469
0.923234 0.240812 0.312984
1.000000 0.240000 0.307500
0.000000 0.366094 0.334922
0.129453 0.366094 0.334922
0.258906 0.366094 0.334922
0.388359 0.366094 0.334922
0.520250 0.364875 0.329437
0.653359 0.363656 0.323953
0.787687 0.362437 0.318469
0.923234 0.361219 0.312984
1.000000 0.360000 0.307500
0.000000 0.486500 0.329437
0.130063 0.486500 0.329437
0.260125 0.486500 0.329437
0.390188 0.486500 0.329437
0.520250 0.486500 0.329437
0.653359 0.484875 0.323953
0.787687 0.483250 0.318469
0.923234 0.481625 0.312984
1.000000 0.480000 0.307500
0.000000 0.606094 0.323953
0.130672 0.606094 0.323953
0.261344 0.606094 0.323953
0.392016 0.606094 0.323953
0.522687 0.606094 0.323953
0.653359 0.606094 0.323953
0.787687 0.604062 0.318469
0.923234 0.602031 0.312984
1.000000 0.600000 0.307500
0.000000 0.724875 0.318469
0.131281 0.724875 0.318469
0.262563 0.724875 0.318469
0.393844 0.724875 0.318469
0.525125 0.724875 0.318469
0.656406 0.724875 0.318469
0.787687 0.724875 0.318469
0.923234 0.722438 0.312984
1.000000 0.720000 0.307500
0.000000 0.842844 0.312984
0.131891 0.842844 0.312984
0.263781 0.842844 0.312984
0.395672 0.842844 0.312984
0.527563 0.842844 0.312984
0.659453 0.842844 0.312984
0.791344 0.842844 0.312984
0.923234 0.842844 0.312984
1.000000 0.840000 0.307500
0.000000 0.960000 0.307500
0.132500 0.960000 0.307500
0.265000 0.960000 0.307500
0.397500 0.960000 0.307500
0.530000 0.960000 0.307500
0.662500 0.960000 0.307500
0.795000 0.960000 0.307500
0.927500 0.960000 0.307500
1.000000 0.960000 0.307500
0.000000 0.000000 0.439250
0.130063 0.000000 0.439250
0.260125 0.000000 0.439250
0.390188 0.000000 0.439250
0.520250 0.000000 0.439250
0.653359 0.000000 0.431937
0.787687 0.000000 0.424625
0.923234 0.000000 0.417312
1.000000 0.000000 0.410000
0.000000 0.121625 0.439250
0.130063 0.121625 0.439250
0.260125 0.121625 0.439250
0.390188 0.121625 0.439250
0.520250 0.121625 0.439250
0.653359 0.121219 0.431937
0.787687 0.120812 0.424625
0.923234 0.120406 0.417312
1.000000 0.120000 0.410000
0.000000 0.243250 0.439250
0.130063 0.243250 0.439250
0.260125 0.243250 0.439250
0.390188 0.243250 0.439250
0.520250 0.243250 0.439250
0.653359 0.242438 0.431937
0.787687 0.241625 0.424625
0.923234 0.240812 0.417312
1.000000 0.240000 0.410000
0.000000 0.364875 0.439250
0.130063 0.364875 0.439250
0.260125 0.364875 0.439250
0.390188 0.364875 0.439250
0.520250 0.364875 0.439250
0.653359 0.363656 0.431937
0.787687 0.362437 0.424625
0.923234 0.361219 0.417312
1.000000 0.360000 0.410000
0.000000 0.486500 0.439250
0.130063 0.486500 0.439250
0.260125 0.486500 0.439250
0.390188 0.486500 0.439250
0.520250 0.486500 0.439250
0.653359 0.484875 0.431937
0.787687 0.483250 0.424625
0.923234 0.481625 0.417312
1.000000 0.480000 0.410000
0.000000 0.606094 0.431937
0.130672 0.606094 0.431937
0.261344 0.606094 0.431937
0.392016 0.606094 0.431937
0.522687 0.606094 0.431937
0.653359 0.606094 0.431937
0.787687 0.604062 0.424625
0.923234 0.602031 0.417312
1.000000 0.600000 0.410000
0.000000 0.724875 0.424625
0.131281 0.724875 0.424625
0.262563 0.724875 0.424625
0.393844 0.724875 0.424625
0.525125 0.724875 0.424625
0.656406 0.724875 0.424625
0.787687 0.724875 0.424625
0.923234 0.722438 0.417312
1.000000 0.720000 0.410000
0.000000 0.842844 0.417312
0.131891 0.842844 0.417312
0.263781 0.842844 0.417312
0.395672 0.842844 0.417312
0.527563 0.842844 0.417312
0.659453 0.842844 0.417312
0.791344 0.842844 0.417312
0.923234 0.842844 0.417312
1.000000 0.840000 0.410000
0.000000 0.960000 0.410000
0.132500 0.960000 0.410000
0.265000 0.960000 0.410000
0.397500 0.960000 0.410000
0.530000 0.960000 0.410000
0.662500 0.960000 0.410000
0.795000 0.960000 0.410000
0.927500 0.960000 0.410000
1.000000 0.960000 0.410000
0.000000 0.000000 0.539922
0.130672 0.000000 0.539922
0.261344 0.000000 0.539922
0.392016 0.000000 0.539922
0.522687 0.000000 0.539922
0.653359 0.000000 0.539922
0.787687 0.000000 0.530781
0.923234 0.000000 0.521641
1.000000 0.000000 0.512500
0.000000 0.121219 0.539922
0.130672 0.121219 0.539922
0.261344 0.121219 0.539922
0.392016 0.121219 0.539922
0.522687 0.121219 0.539922
0.653359 0.121219 0.539922
0.787687 0.120812 0.530781
0.923234 0.120406 0.521641
1.000000 0.120000 0.512500
0.000000 0.242438 0.539922
0.130672 0.242438 0.539922
0.261344 0.242438 0.539922
0.392016 0.242438 0.539922
0.522687 0.242438 0.539922
0.653359 0.242438 0.539922
0.787687 0.241625 0.530781
0.923234 0.240812 0.521641
1.000000 0.240000 0.512500
0.000000 0.363656 0.539922
0.130672 0.363656 0.539922
0.261344 0.363656 0.539922
0.392016 0.363656 0.539922
0.522687 0.363656 0.539922
0.653359 0.363656 0.539922
0.787687 0.362437 0.530781
0.923234 0.361219 0.521641
1.000000 0.360000 0.512500
0.000000 0.484875 0.539922
0.130672 0.484875 0.539922
0.261344 0.484875 0.539922
0.392016 0.484875 0.539922
0.522687 0.484875 0.539922
0.653359 0.484875 0.539922
0.787687 0.483250 0.530781
0.923234 0.481625 0.521641
1.000000 0.480000 0.512500
0.000000 0.606094 0.539922
0.130672 0.606094 0.539922
0.261344 0.606094 0.539922
0.392016 0.606094 0.539922
0.522687 0.606094 0.539922
0.653359 0.606094 0.539922
0.787687 0.604062 0.530781
0.923234 0.602031 0.521641
1.000000 0.600000 0.512500
0.000000 0.724875 0.530781
0.131281 0.724875 0.530781
0.262563 0.724875 0.530781
0.393844 0.724875 0.530781
0.525125 0.724875 0.530781
0.656406 0.724875 0.530781
0.787687 0.724875 0.530781
0.923234 0.722438 0.521641
1.000000 0.720000 0.512500
0.000000 0.842844 0.521641
0.131891 0.842844 0.521641
0.263781 0.842844 0.521641
0.395672 0.842844 0.521641
0.527563 0.842844 0.521641
0.659453 0.842844 0.521641
0.791344 0.842844 0.521641
0.923234 0.842844 0.521641
1.000000 0.840000 0.512500
0.000000 0.960000 0.512500
0.132500 0.960000 0.512500
0.265000 0.960000 0.512500
0.397500 0.960000 0.512500
0.530000 0.960000 0.512500
0.662500 0.960000 0.512500
0.795000 0.960000 0.512500
0.927500 0.960000 0.512500
1.000000 0.960000 0.512500
0.000000 0.000000 0.636937
0.131281 0.000000 0.636937
0.262563 0.000000 0.636937
0.393844 0.000000 0.636937
0.525125 0.000000 0.636937
0.656406 0.000000 0.636937
0.787687 0.000000 0.636937
0.923234 0.000000 0.625969
1.000000 0.000000 0.615000
0.000000 0.120812 0.636937
0.131281 0.120812 0.636937
0.262563 0.120812 0.636937
0.393844 0.120812 0.636937
0.525125 0.120812 0.636937
0.656406 0.120812 0.636937
0.787687 0.120812 0.636937
0.923234 0.120406 0.625969
1.000000 0.120000 0.615000
0.000000 0.241625 0.636937
0.131281 0.241625 0.636937
0.262563 0.241625 0.636937
0.393844 0.241625 0.636937
0.525125 0.241625 0.636937
0.656406 0.241625 0.636937
0.787687 0.241625 0.636937
0.923234 0.240812 0.625969
1.000000 0.240000 0.615000
0.000000 0.362437 0.636937
0.131281 0.362437 0.636937
0.262563 0.362437 0.636937
0.393844 0.362437 0.636937
0.525125 0.362437 0.636937
0.656406 0.362437 0.636937
0.787687 0.362437 0.636937
0.923234 0.361219 0.625969
1.000000 0.360000 0.615000
0.000000 0.483250 0.636937
0.131281 0.483250 0.636937
0.262563 0.483250 0.636937
0.393844 0.483250 0.636937
0.525125 0.483250 0.636937
0.656406 0.483250 0.636937
0.787687 0.483250 0.636937
0.923234 0.481625 0.625969
1.000000 0.480000 0.615000
0.000000 0.604062 0.636937
0.131281 0.604062 0.636937
0.262563 0.604062 0.636937
0.393844 0.604062 0.636937
0.525125 0.604062 0.636937
0.656406 0.604062 0.636937
0.787687 0.604062 0.636937
0.923234 0.602031 0.625969
1.000000 0.600000 0.615000
0.000000 0.724875 0.636937
0.131281 0.724875 0.636937
0.262563 0.724875 0.636937
0.393844 0.724875 0.636937
0.525125 0.724875 0.636937
0.656406 0.724875 0.636937
0.787687 0.724875 0.636937
0.923234 0.722438 0.625969
1.000000 0.720000 0.615000
0.000000 0.842844 0.625969
0.131891 0.842844 0.625969
0.263781 0.842844 0.625969
0.395672 0.842844 0.625969
0.527563 0.842844 0.625969
0.659453 0.842844 0.625969
0.791344 0.842844 0.625969
0.923234 0.842844 0.625969
1.000000 0.840000 0.615000
0.000000 0.960000 0.615000
0.132500 0.960000 0.615000
0.265000 0.960000 0.615000
0.397500 0.960000 0.615000
0.530000 0.960000 0.615000
0.662500 0.960000 0.615000
0.795000 0.960000 0.615000
0.927500 0.960000 0.615000
1.000000 0.960000 0.615000
0.000000 0.000000 0.730297
0.131891 0.000000 0.730297
0.263781 0.000000 0.730297
0.395672 0.000000 0.730297
0.527563 0.000000 0.730297
0.659453 0.000000 0.730297
0.791344 0.000000 0.730297
0.923234 0.000000 0.730297
1.000000 0.000000 0.717500
0.000000 0.120406 0.730297
0.131891 0.120406 0.730297
0.263781 0.120406 0.730297
0.395672 0.120406 0.730297
0.527563 0.120406 0.730297
0.659453 0.120406 0.730297
0.791344 0.120406 0.730297
0.923234 0.120406 0.730297
1.000000 0.120000 0.717500
0.000000 0.240812 0.730297
0.131891 0.240812 0.730297
0.263781 0.240812 0.730297
0.395672 0.240812 0.730297
0.527563 0.240812 0.730297
0.659453 0.240812 0.730297
0.791344 0.240812 0.730297
0.923234 0.240812 0.730297
1.000000 0.240000 0.717500
0.000000 0.361219 0.730297
0.131891 0.361219 0.730297
0.263781 0.361219 0.730297
0.395672 0.361219 0.730297
0.527563 0.361219 0.730297
0.659453 0.361219 0.730297
0.791344 0.361219 0.730297
0.923234 0.361219 0.730297
1.000000 0.360000 0.717500
0.000000 0.481625 0.730297
0.131891 0.481625 0.730297
0.263781 0.481625 0.730297
0.395672 0.481625 0.730297
0.527563 0.481625 0.730297
0.659453 0.481625 0.730297
0.791344 0.481625 0.730297
0.923234 0.481625 0.730297
1.000000 0.480000 0.717500
0.000000 0.602031 0.730297
0.131891 0.602031 0.730297
0.263781 0.602031 0.730297
0.395672 0.602031 0.730297
0.527563 0.602031 0.730297
0.659453 0.602031 0.730297
0.791344 0.602031 0.730297
0.923234 0.602031 0.730297
1.000000 0.600000 0.717500
0.000000 0.722438 0.730297
0.131891 0.722438 0.730297
0.263781 0.722438 0.730297
0.395672 0.722438 0.730297
0.527563 0.722438 0.730297
0.659453 0.722438 0.730297
0.791344 0.722438 0.730297
0.923234 0.722438 0.730297
1.000000 0.720000 0.717500
0.000000 0.842844 0.730297
0.131891 0.842844 0.730297
0.263781 0.842844 0.730297
0.395672 0.842844 0.730297
0.527563 0.842844 0.730297
0.659453 0.842844 0.730297
0.791344 0.842844 0.730297
0.923234 0.842844 0.730297
1.000000 0.840000 0.717500
0.000000 0.960000 0.717500
0.132500 0.960000 0.717500
0.265000 0.960000 0.717500
0.397500 0.960000 0.717500
0.530000 0.960000 0.717500
0.662500 0.960000 0.717500
0.795000 0.960000 0.717500
0.927500 0.960000 0.717500
1.000000 0.960000 0.717500
0.000000 0.000000 0.820000
0.132500 0.000000 0.820000
0.265000 0.000000 0.820000
0.397500 0.000000 0.820000
0.530000 0.000000 0.820000
0.662500 0.000000 0.820000
0.795000 0.000000 0.820000
0.927500 0.000000 0.820000
1.000000 0.000000 0.820000
0.000000 0.120000 0.820000
0.132500 0.120000 0.820000
0.265000 0.120000 0.820000
0.397500 0.120000 0.820000
0.530000 0.120000 0.820000
0.662500 0.120000 0.820000
0.795000 0.120000 0.820000
0.927500 0.120000 0.820000
1.000000 0.120000 0.820000
0.000000 0.240000 0.820000
0.132500 0.240000 0.820000
0.265000 0.240000 0.820000
0.397500 0.240000 0.820000
0.530000 0.240000 0.820000
0.662500 0.240000 0.820000
0.795000 0.240000 0.820000
0.927500 0.240000 0.820000
1.000000 0.240000 0.820000
0.000000 0.360000 0.820000
0.132500 0.360000 0.820000
0.265000 0.360000 0.820000
0.397500 0.360000 0.820000
0.530000 0.360000 0.820000
0.662500 0.360000 0.820000
0.795000 0.360000 0.820000
0.927500 0.360000 0.820000
1.000000 0.360000 0.820000
0.000000 0.480000 0.820000
0.132500 0.480000 0.820000
0.265000 0.480000 0.820000
0.397500 0.480000 0.820000
0.530000 0.480000 0.820000
0.662500 0.480000 0.820000
0.795000 0.480000 0.820000
0.927500 0.480000 0.820000
1.000000 0.480000 0.820000
0.000000 0.600000 0.820000
0.132500 0.600000 0.820000
0.265000 0.600000 0.820000
0.397500 0.600000 0.820000
0.530000 0.600000 0.820000
0.662500 0.600000 0.820000
0.795000 0.600000 0.820000
0.927500 0.600000 0.820000
1.000000 0.600000 0.820000
0.000000 0.720000 0.820000
0.132500 0.720000 0.820000
0.265000 0.720000 0.820000
0.397500 0.720000 0.820000
0.530000 0.720000 0.820000
0.662500 0.720000 0.820000
0.795000 0.720000 0.820000
0.927500 0.720000 0.820000
1.000000 0.720000 0.820000
0.000000 0.840000 0.820000
0.132500 0.840000 0.820000
0.265000 0.840000 0.820000
0.397500 0.840000 0.820000
0.530000 0.840000 0.820000
0.662500 0.840000 0.820000
0.795000 0.840000 0.820000
0.927500 0.840000 0.820000
1.000000 0.840000 0.820000
0.000000 0.960000 0.820000
0.132500 0.960000 0.820000
0.265000 0.960000 0.820000
0.397500 0.960000 0.820000
0.530000 0.960000 0.820000
0.662500 0.960000 0.820000
0.795000 0.960000 0.820000
0.927500 0.960000 0.820000
1.000000 0.960000 0.820000
