luts/original/film-memory-gold.cube
TITLE "Film Memory Gold"
LUT_3D_SIZE 33
DOMAIN_MIN 0.0 0.0 0.0
DOMAIN_MAX 1.0 1.0 1.0
0.000000 0.000000 0.000000
0.031944 0.000000 0.000000
0.063965 0.000000 0.000000
0.096062 0.000000 0.000000
0.128234 0.000000 0.000000
0.160483 0.000000 0.000000
0.192809 0.000000 0.000000
0.225210 0.000000 0.000000
0.257688 0.000000 0.000000
0.290241 0.000000 0.000000
0.322871 0.000000 0.000000
0.355577 0.000000 0.000000
0.388359 0.000000 0.000000
0.421218 0.000000 0.000000
0.454152 0.000000 0.000000
0.487163 0.000000 0.000000
0.520250 0.000000 0.000000
0.553413 0.000000 0.000000
0.586652 0.000000 0.000000
0.619968 0.000000 0.000000
0.653359 0.000000 0.000000
0.686827 0.000000 0.000000
0.720371 0.000000 0.000000
0.753991 0.000000 0.000000
0.787687 0.000000 0.000000
0.821460 0.000000 0.000000
0.855309 0.000000 0.000000
0.889233 0.000000 0.000000
0.923234 0.000000 0.000000
0.957312 0.000000 0.000000
0.991465 0.000000 0.000000
1.000000 0.000000 0.000000
1.000000 0.000000 0.000000
0.000000 0.030787 0.000000
0.031944 0.030787 0.000000
0.063965 0.030762 0.000000
0.096062 0.030736 0.000000
0.128234 0.030711 0.000000
0.160483 0.030686 0.000000
0.192809 0.030660 0.000000
0.225210 0.030635 0.000000
0.257688 0.030609 0.000000
0.290241 0.030584 0.000000
0.322871 0.030559 0.000000
0.355577 0.030533 0.000000
0.388359 0.030508 0.000000
0.421218 0.030482 0.000000
0.454152 0.030457 0.000000
0.487163 0.030432 0.000000
0.520250 0.030406 0.000000
0.553413 0.030381 0.000000
0.586652 0.030355 0.000000
0.619968 0.030330 0.000000
0.653359 0.030305 0.000000
0.686827 0.030279 0.000000
0.720371 0.030254 0.000000
0.753991 0.030229 0.000000
0.787687 0.030203 0.000000
0.821460 0.030178 0.000000
0.855309 0.030152 0.000000
0.889233 0.030127 0.000000
0.923234 0.030102 0.000000
0.957312 0.030076 0.000000
0.991465 0.030051 0.000000
1.000000 0.030025 0.000000
1.000000 0.030000 0.000000
0.000000 0.061523 0.000000
0.031982 0.061523 0.000000
0.063965 0.061523 0.000000
0.096062 0.061473 0.000000
0.128234 0.061422 0.000000
0.160483 0.061371 0.000000
0.192809 0.061320 0.000000
0.225210 0.061270 0.000000
0.257688 0.061219 0.000000
0.290241 0.061168 0.000000
0.322871 0.061117 0.000000
0.355577 0.061066 0.000000
0.388359 0.061016 0.000000
0.421218 0.060965 0.000000
0.454152 0.060914 0.000000
0.487163 0.060863 0.000000
0.520250 0.060812 0.000000
0.553413 0.060762 0.000000
0.586652 0.060711 0.000000
0.619968 0.060660 0.000000
0.653359 0.060609 0.000000
0.686827 0.060559 0.000000
0.720371 0.060508 0.000000
0.753991 0.060457 0.000000
0.787687 0.060406 0.000000
0.821460 0.060355 0.000000
0.855309 0.060305 0.000000
0.889233 0.060254 0.000000
0.923234 0.060203 0.000000
0.957312 0.060152 0.000000
0.991465 0.060102 0.000000
1.000000 0.060051 0.000000
1.000000 0.060000 0.000000
0.000000 0.092209 0.000000
0.032021 0.092209 0.000000
0.064041 0.092209 0.000000
0.096062 0.092209 0.000000
0.128234 0.092133 0.000000
0.160483 0.092057 0.000000
0.192809 0.091980 0.000000
0.225210 0.091904 0.000000
0.257688 0.091828 0.000000
0.290241 0.091752 0.000000
0.322871 0.091676 0.000000
0.355577 0.091600 0.000000
0.388359 0.091523 0.000000
0.421218 0.091447 0.000000
0.454152 0.091371 0.000000
0.487163 0.091295 0.000000
0.520250 0.091219 0.000000
0.553413 0.091143 0.000000
0.586652 0.091066 0.000000
0.619968 0.090990 0.000000
0.653359 0.090914 0.000000
0.686827 0.090838 0.000000
0.720371 0.090762 0.000000
0.753991 0.090686 0.000000
0.787687 0.090609 0.000000
0.821460 0.090533 0.000000
0.855309 0.090457 0.000000
0.889233 0.090381 0.000000
0.923234 0.090305 0.000000
0.957312 0.090229 0.000000
0.991465 0.090152 0.000000
1.000000 0.090076 0.000000
1.000000 0.090000 0.000000
0.000000 0.122844 0.000000
0.032059 0.122844 0.000000
0.064117 0.122844 0.000000
0.096176 0.122844 0.000000
0.128234 0.122844 0.000000
0.160483 0.122742 0.000000
0.192809 0.122641 0.000000
0.225210 0.122539 0.000000
0.257688 0.122438 0.000000
0.290241 0.122336 0.000000
0.322871 0.122234 0.000000
0.355577 0.122133 0.000000
0.388359 0.122031 0.000000
0.421218 0.121930 0.000000
0.454152 0.121828 0.000000
0.487163 0.121727 0.000000
0.520250 0.121625 0.000000
0.553413 0.121523 0.000000
0.586652 0.121422 0.000000
0.619968 0.121320 0.000000
0.653359 0.121219 0.000000
0.686827 0.121117 0.000000
0.720371 0.121016 0.000000
0.753991 0.120914 0.000000
0.787687 0.120812 0.000000
0.821460 0.120711 0.000000
0.855309 0.120609 0.000000
0.889233 0.120508 0.000000
0.923234 0.120406 0.000000
0.957312 0.120305 0.000000
0.991465 0.120203 0.000000
1.000000 0.120102 0.000000
1.000000 0.120000 0.000000
0.000000 0.153428 0.000000
0.032097 0.153428 0.000000
0.064193 0.153428 0.000000
0.096290 0.153428 0.000000
0.128387 0.153428 0.000000
0.160483 0.153428 0.000000
0.192809 0.153301 0.000000
0.225210 0.153174 0.000000
0.257688 0.153047 0.000000
0.290241 0.152920 0.000000
0.322871 0.152793 0.000000
0.355577 0.152666 0.000000
0.388359 0.152539 0.000000
0.421218 0.152412 0.000000
0.454152 0.152285 0.000000
0.487163 0.152158 0.000000
0.520250 0.152031 0.000000
0.553413 0.151904 0.000000
0.586652 0.151777 0.000000
0.619968 0.151650 0.000000
0.653359 0.151523 0.000000
0.686827 0.151396 0.000000
0.720371 0.151270 0.000000
0.753991 0.151143 0.000000
0.787687 0.151016 0.000000
0.821460 0.150889 0.000000
0.855309 0.150762 0.000000
0.889233 0.150635 0.000000
0.923234 0.150508 0.000000
0.957312 0.150381 0.000000
0.991465 0.150254 0.000000
1.000000 0.150127 0.000000
1.000000 0.150000 0.000000
0.000000 0.183961 0.000000
0.032135 0.183961 0.000000
0.064270 0.183961 0.000000
0.096404 0.183961 0.000000
0.128539 0.183961 0.000000
0.160674 0.183961 0.000000
0.192809 0.183961 0.000000
0.225210 0.183809 0.000000
0.257688 0.183656 0.000000
0.290241 0.183504 0.000000
0.322871 0.183352 0.000000
0.355577 0.183199 0.000000
0.388359 0.183047 0.000000
0.421218 0.182895 0.000000
0.454152 0.182742 0.000000
0.487163 0.182590 0.000000
0.520250 0.182437 0.000000
0.553413 0.182285 0.000000
0.586652 0.182133 0.000000
0.619968 0.181980 0.000000
0.653359 0.181828 0.000000
0.686827 0.181676 0.000000
0.720371 0.181523 0.000000
0.753991 0.181371 0.000000
0.787687 0.181219 0.000000
0.821460 0.181066 0.000000
0.855309 0.180914 0.000000
0.889233 0.180762 0.000000
0.923234 0.180609 0.000000
0.957312 0.180457 0.000000
0.991465 0.180305 0.000000
1.000000 0.180152 0.000000
1.000000 0.180000 0.000000
0.000000 0.214443 0.000000
0.032173 0.214443 0.000000
0.064346 0.214443 0.000000
0.096519 0.214443 0.000000
0.128691 0.214443 0.000000
0.160864 0.214443 0.000000
0.193037 0.214443 0.000000
0.225210 0.214443 0.000000
0.257688 0.214266 0.000000
0.290241 0.214088 0.000000
0.322871 0.213910 0.000000
0.355577 0.213732 0.000000
0.388359 0.213555 0.000000
0.421218 0.213377 0.000000
0.454152 0.213199 0.000000
0.487163 0.213021 0.000000
0.520250 0.212844 0.000000
0.553413 0.212666 0.000000
0.586652 0.212488 0.000000
0.619968 0.212311 0.000000
0.653359 0.212133 0.000000
0.686827 0.211955 0.000000
0.720371 0.211777 0.000000
0.753991 0.211600 0.000000
0.787687 0.211422 0.000000
0.821460 0.211244 0.000000
0.855309 0.211066 0.000000
0.889233 0.210889 0.000000
0.923234 0.210711 0.000000
0.957312 0.210533 0.000000
0.991465 0.210355 0.000000
1.000000 0.210178 0.000000
1.000000 0.210000 0.000000
0.000000 0.244875 0.000000
0.032211 0.244875 0.000000
0.064422 0.244875 0.000000
0.096633 0.244875 0.000000
0.128844 0.244875 0.000000
0.161055 0.244875 0.000000
0.193266 0.244875 0.000000
0.225477 0.244875 0.000000
0.257688 0.244875 0.000000
0.290241 0.244672 0.000000
0.322871 0.244469 0.000000
0.355577 0.244266 0.000000
0.388359 0.244062 0.000000
0.421218 0.243859 0.000000
0.454152 0.243656 0.000000
0.487163 0.243453 0.000000
0.520250 0.243250 0.000000
0.553413 0.243047 0.000000
0.586652 0.242844 0.000000
0.619968 0.242641 0.000000
0.653359 0.242438 0.000000
0.686827 0.242234 0.000000
0.720371 0.242031 0.000000
0.753991 0.241828 0.000000
0.787687 0.241625 0.000000
0.821460 0.241422 0.000000
0.855309 0.241219 0.000000
0.889233 0.241016 0.000000
0.923234 0.240812 0.000000
0.957312 0.240609 0.000000
0.991465 0.240406 0.000000
1.000000 0.240203 0.000000
1.000000 0.240000 0.000000
0.000000 0.275256 0.000000
0.032249 0.275256 0.000000
0.064498 0.275256 0.000000
0.096747 0.275256 0.000000
0.128996 0.275256 0.000000
0.161245 0.275256 0.000000
0.193494 0.275256 0.000000
0.225743 0.275256 0.000000
0.257992 0.275256 0.000000
0.290241 0.275256 0.000000
0.322871 0.275027 0.000000
0.355577 0.274799 0.000000
0.388359 0.274570 0.000000
0.421218 0.274342 0.000000
0.454152 0.274113 0.000000
0.487163 0.273885 0.000000
0.520250 0.273656 0.000000
0.553413 0.273428 0.000000
0.586652 0.273199 0.000000
0.619968 0.272971 0.000000
0.653359 0.272742 0.000000
0.686827 0.272514 0.000000
0.720371 0.272285 0.000000
0.753991 0.272057 0.000000
0.787687 0.271828 0.000000
0.821460 0.271600 0.000000
0.855309 0.271371 0.000000
0.889233 0.271143 0.000000
0.923234 0.270914 0.000000
0.957312 0.270686 0.000000
0.991465 0.270457 0.000000
1.000000 0.270229 0.000000
1.000000 0.270000 0.000000
0.000000 0.305586 0.000000
0.032287 0.305586 0.000000
0.064574 0.305586 0.000000
0.096861 0.305586 0.000000
0.129148 0.305586 0.000000
0.161436 0.305586 0.000000
0.193723 0.305586 0.000000
0.226010 0.305586 0.000000
0.258297 0.305586 0.000000
0.290584 0.305586 0.000000
0.322871 0.305586 0.000000
0.355577 0.305332 0.000000
0.388359 0.305078 0.000000
0.421218 0.304824 0.000000
0.454152 0.304570 0.000000
0.487163 0.304316 0.000000
0.520250 0.304063 0.000000
0.553413 0.303809 0.000000
0.586652 0.303555 0.000000
0.619968 0.303301 0.000000
0.653359 0.303047 0.000000
0.686827 0.302793 0.000000
0.720371 0.302539 0.000000
0.753991 0.302285 0.000000
0.787687 0.302031 0.000000
0.821460 0.301777 0.000000
0.855309 0.301523 0.000000
0.889233 0.301270 0.000000
0.923234 0.301016 0.000000
0.957312 0.300762 0.000000
0.991465 0.300508 0.000000
1.000000 0.300254 0.000000
1.000000 0.300000 0.000000
0.000000 0.335865 0.000000
0.032325 0.335865 0.000000
0.064650 0.335865 0.000000
0.096976 0.335865 0.000000
0.129301 0.335865 0.000000
0.161626 0.335865 0.000000
0.193951 0.335865 0.000000
0.226276 0.335865 0.000000
0.258602 0.335865 0.000000
0.290927 0.335865 0.000000
0.323252 0.335865 0.000000
0.355577 0.335865 0.000000
0.388359 0.335586 0.000000
0.421218 0.335307 0.000000
0.454152 0.335027 0.000000
0.487163 0.334748 0.000000
0.520250 0.334469 0.000000
0.553413 0.334189 0.000000
0.586652 0.333910 0.000000
0.619968 0.333631 0.000000
0.653359 0.333352 0.000000
0.686827 0.333072 0.000000
0.720371 0.332793 0.000000
0.753991 0.332514 0.000000
0.787687 0.332234 0.000000
0.821460 0.331955 0.000000
0.855309 0.331676 0.000000
0.889233 0.331396 0.000000
0.923234 0.331117 0.000000
0.957312 0.330838 0.000000
0.991465 0.330559 0.000000
1.000000 0.330279 0.000000
1.000000 0.330000 0.000000
0.000000 0.366094 0.000000
0.032363 0.366094 0.000000
0.064727 0.366094 0.000000
0.097090 0.366094 0.000000
0.129453 0.366094 0.000000
0.161816 0.366094 0.000000
0.194180 0.366094 0.000000
0.226543 0.366094 0.000000
0.258906 0.366094 0.000000
0.291270 0.366094 0.000000
0.323633 0.366094 0.000000
0.355996 0.366094 0.000000
0.388359 0.366094 0.000000
0.421218 0.365789 0.000000
0.454152 0.365484 0.000000
0.487163 0.365180 0.000000
0.520250 0.364875 0.000000
0.553413 0.364570 0.000000
0.586652 0.364266 0.000000
0.619968 0.363961 0.000000
0.653359 0.363656 0.000000
0.686827 0.363352 0.000000
0.720371 0.363047 0.000000
0.753991 0.362742 0.000000
0.787687 0.362437 0.000000
0.821460 0.362133 0.000000
0.855309 0.361828 0.000000
0.889233 0.361523 0.000000
0.923234 0.361219 0.000000
0.957312 0.360914 0.000000
0.991465 0.360609 0.000000
1.000000 0.360305 0.000000
1.000000 0.360000 0.000000
0.000000 0.396271 0.000000
0.032401 0.396271 0.000000
0.064803 0.396271 0.000000
0.097204 0.396271 0.000000
0.129605 0.396271 0.000000
0.162007 0.396271 0.000000
0.194408 0.396271 0.000000
0.226810 0.396271 0.000000
0.259211 0.396271 0.000000
0.291612 0.396271 0.000000
0.324014 0.396271 0.000000
0.356415 0.396271 0.000000
0.388816 0.396271 0.000000
0.421218 0.396271 0.000000
0.454152 0.395941 0.000000
0.487163 0.395611 0.000000
0.520250 0.395281 0.000000
0.553413 0.394951 0.000000
0.586652 0.394621 0.000000
0.619968 0.394291 0.000000
0.653359 0.393961 0.000000
0.686827 0.393631 0.000000
0.720371 0.393301 0.000000
0.753991 0.392971 0.000000
0.787687 0.392641 0.000000
0.821460 0.392311 0.000000
0.855309 0.391980 0.000000
0.889233 0.391650 0.000000
0.923234 0.391320 0.000000
0.957312 0.390990 0.000000
0.991465 0.390660 0.000000
1.000000 0.390330 0.000000
1.000000 0.390000 0.000000
0.000000 0.426398 0.000000
0.032439 0.426398 0.000000
0.064879 0.426398 0.000000
0.097318 0.426398 0.000000
0.129758 0.426398 0.000000
0.162197 0.426398 0.000000
0.194637 0.426398 0.000000
0.227076 0.426398 0.000000
0.259516 0.426398 0.000000
0.291955 0.426398 0.000000
0.324395 0.426398 0.000000
0.356834 0.426398 0.000000
0.389273 0.426398 0.000000
0.421713 0.426398 0.000000
0.454152 0.426398 0.000000
0.487163 0.426043 0.000000
0.520250 0.425687 0.000000
0.553413 0.425332 0.000000
0.586652 0.424977 0.000000
0.619968 0.424621 0.000000
0.653359 0.424266 0.000000
0.686827 0.423910 0.000000
0.720371 0.423555 0.000000
0.753991 0.423199 0.000000
0.787687 0.422844 0.000000
0.821460 0.422488 0.000000
0.855309 0.422133 0.000000
0.889233 0.421777 0.000000
0.923234 0.421422 0.000000
0.957312 0.421066 0.000000
0.991465 0.420711 0.000000
1.000000 0.420355 0.000000
1.000000 0.420000 0.000000
0.000000 0.456475 0.000000
0.032478 0.456475 0.000000
0.064955 0.456475 0.000000
0.097433 0.456475 0.000000
0.129910 0.456475 0.000000
0.162388 0.456475 0.000000
0.194865 0.456475 0.000000
0.227343 0.456475 0.000000
0.259820 0.456475 0.000000
0.292298 0.456475 0.000000
0.324775 0.456475 0.000000
0.357253 0.456475 0.000000
0.389730 0.456475 0.000000
0.422208 0.456475 0.000000
0.454686 0.456475 0.000000
0.487163 0.456475 0.000000
0.520250 0.456094 0.000000
0.553413 0.455713 0.000000
0.586652 0.455332 0.000000
0.619968 0.454951 0.000000
0.653359 0.454570 0.000000
0.686827 0.454189 0.000000
0.720371 0.453809 0.000000
0.753991 0.453428 0.000000
0.787687 0.453047 0.000000
0.821460 0.452666 0.000000
0.855309 0.452285 0.000000
0.889233 0.451904 0.000000
0.923234 0.451523 0.000000
0.957312 0.451143 0.000000
0.991465 0.450762 0.000000
1.000000 0.450381 0.000000
1.000000 0.450000 0.000000
0.000000 0.486500 0.000000
0.032516 0.486500 0.000000
0.065031 0.486500 0.000000
0.097547 0.486500 0.000000
0.130063 0.486500 0.000000
0.162578 0.486500 0.000000
0.195094 0.486500 0.000000
0.227609 0.486500 0.000000
0.260125 0.486500 0.000000
0.292641 0.486500 0.000000
0.325156 0.486500 0.000000
0.357672 0.486500 0.000000
0.390188 0.486500 0.000000
0.422703 0.486500 0.000000
0.455219 0.486500 0.000000
0.487734 0.486500 0.000000
0.520250 0.486500 0.000000
0.553413 0.486094 0.000000
0.586652 0.485687 0.000000
0.619968 0.485281 0.000000
0.653359 0.484875 0.000000
0.686827 0.484469 0.000000
0.720371 0.484063 0.000000
0.753991 0.483656 0.000000
0.787687 0.483250 0.000000
0.821460 0.482844 0.000000
0.855309 0.482437 0.000000
0.889233 0.482031 0.000000
0.923234 0.481625 0.000000
0.957312 0.481219 0.000000
0.991465 0.480812 0.000000
1.000000 0.480406 0.000000
1.000000 0.480000 0.000000
0.000000 0.516475 0.000000
0.032554 0.516475 0.000000
0.065107 0.516475 0.000000
0.097661 0.516475 0.000000
0.130215 0.516475 0.000000
0.162769 0.516475 0.000000
0.195322 0.516475 0.000000
0.227876 0.516475 0.000000
0.260430 0.516475 0.000000
0.292983 0.516475 0.000000
0.325537 0.516475 0.000000
0.358091 0.516475 0.000000
0.390645 0.516475 0.000000
0.423198 0.516475 0.000000
0.455752 0.516475 0.000000
0.488306 0.516475 0.000000
0.520859 0.516475 0.000000
0.553413 0.516475 0.000000
0.586652 0.516043 0.000000
0.619968 0.515611 0.000000
0.653359 0.515180 0.000000
0.686827 0.514748 0.000000
0.720371 0.514316 0.000000
0.753991 0.513885 0.000000
0.787687 0.513453 0.000000
0.821460 0.513021 0.000000
0.855309 0.512590 0.000000
0.889233 0.512158 0.000000
0.923234 0.511727 0.000000
0.957312 0.511295 0.000000
0.991465 0.510863 0.000000
1.000000 0.510432 0.000000
1.000000 0.510000 0.000000
0.000000 0.546398 0.000000
0.032592 0.546398 0.000000
0.065184 0.546398 0.000000
0.097775 0.546398 0.000000
0.130367 0.546398 0.000000
0.162959 0.546398 0.000000
0.195551 0.546398 0.000000
0.228143 0.546398 0.000000
0.260734 0.546398 0.000000
0.293326 0.546398 0.000000
0.325918 0.546398 0.000000
0.358510 0.546398 0.000000
0.391102 0.546398 0.000000
0.423693 0.546398 0.000000
0.456285 0.546398 0.000000
0.488877 0.546398 0.000000
0.521469 0.546398 0.000000
0.554061 0.546398 0.000000
0.586652 0.546398 0.000000
0.619968 0.545941 0.000000
0.653359 0.545484 0.000000
0.686827 0.545027 0.000000
0.720371 0.544570 0.000000
0.753991 0.544113 0.000000
0.787687 0.543656 0.000000
0.821460 0.543199 0.000000
0.855309 0.542742 0.000000
0.889233 0.542285 0.000000
0.923234 0.541828 0.000000
0.957312 0.541371 0.000000
0.991465 0.540914 0.000000
1.000000 0.540457 0.000000
1.000000 0.540000 0.000000
0.000000 0.576271 0.000000
0.032630 0.576271 0.000000
0.065260 0.576271 0.000000
0.097890 0.576271 0.000000
0.130520 0.576271 0.000000
0.163149 0.576271 0.000000
0.195779 0.576271 0.000000
0.228409 0.576271 0.000000
0.261039 0.576271 0.000000
0.293669 0.576271 0.000000
0.326299 0.576271 0.000000
0.358929 0.576271 0.000000
0.391559 0.576271 0.000000
0.424188 0.576271 0.000000
0.456818 0.576271 0.000000
0.489448 0.576271 0.000000
0.522078 0.576271 0.000000
0.554708 0.576271 0.000000
0.587338 0.576271 0.000000
0.619968 0.576271 0.000000
0.653359 0.575789 0.000000
0.686827 0.575307 0.000000
0.720371 0.574824 0.000000
0.753991 0.574342 0.000000
0.787687 0.573859 0.000000
0.821460 0.573377 0.000000
0.855309 0.572895 0.000000
0.889233 0.572412 0.000000
0.923234 0.571930 0.000000
0.957312 0.571447 0.000000
0.991465 0.570965 0.000000
1.000000 0.570482 0.000000
1.000000 0.570000 0.000000
0.000000 0.606094 0.000000
0.032668 0.606094 0.000000
0.065336 0.606094 0.000000
0.098004 0.606094 0.000000
0.130672 0.606094 0.000000
0.163340 0.606094 0.000000
0.196008 0.606094 0.000000
0.228676 0.606094 0.000000
0.261344 0.606094 0.000000
0.294012 0.606094 0.000000
0.326680 0.606094 0.000000
0.359348 0.606094 0.000000
0.392016 0.606094 0.000000
0.424684 0.606094 0.000000
0.457352 0.606094 0.000000
0.490020 0.606094 0.000000
0.522687 0.606094 0.000000
0.555355 0.606094 0.000000
0.588023 0.606094 0.000000
0.620691 0.606094 0.000000
0.653359 0.606094 0.000000
0.686827 0.605586 0.000000
0.720371 0.605078 0.000000
0.753991 0.604570 0.000000
0.787687 0.604062 0.000000
0.821460 0.603555 0.000000
0.855309 0.603047 0.000000
0.889233 0.602539 0.000000
0.923234 0.602031 0.000000
0.957312 0.601523 0.000000
0.991465 0.601016 0.000000
1.000000 0.600508 0.000000
1.000000 0.600000 0.000000
0.000000 0.635865 0.000000
0.032706 0.635865 0.000000
0.065412 0.635865 0.000000
0.098118 0.635865 0.000000
0.130824 0.635865 0.000000
0.163530 0.635865 0.000000
0.196236 0.635865 0.000000
0.228942 0.635865 0.000000
0.261648 0.635865 0.000000
0.294354 0.635865 0.000000
0.327061 0.635865 0.000000
0.359767 0.635865 0.000000
0.392473 0.635865 0.000000
0.425179 0.635865 0.000000
0.457885 0.635865 0.000000
0.490591 0.635865 0.000000
0.523297 0.635865 0.000000
0.556003 0.635865 0.000000
0.588709 0.635865 0.000000
0.621415 0.635865 0.000000
0.654121 0.635865 0.000000
0.686827 0.635865 0.000000
0.720371 0.635332 0.000000
0.753991 0.634799 0.000000
0.787687 0.634266 0.000000
0.821460 0.633732 0.000000
0.855309 0.633199 0.000000
0.889233 0.632666 0.000000
0.923234 0.632133 0.000000
0.957312 0.631600 0.000000
0.991465 0.631066 0.000000
1.000000 0.630533 0.000000
1.000000 0.630000 0.000000
0.000000 0.665586 0.000000
0.032744 0.665586 0.000000
0.065488 0.665586 0.000000
0.098232 0.665586 0.000000
0.130977 0.665586 0.000000
0.163721 0.665586 0.000000
0.196465 0.665586 0.000000
0.229209 0.665586 0.000000
0.261953 0.665586 0.000000
0.294697 0.665586 0.000000
0.327441 0.665586 0.000000
0.360186 0.665586 0.000000
0.392930 0.665586 0.000000
0.425674 0.665586 0.000000
0.458418 0.665586 0.000000
0.491162 0.665586 0.000000
0.523906 0.665586 0.000000
0.556650 0.665586 0.000000
0.589395 0.665586 0.000000
0.622139 0.665586 0.000000
0.654883 0.665586 0.000000
0.687627 0.665586 0.000000
0.720371 0.665586 0.000000
0.753991 0.665027 0.000000
0.787687 0.664469 0.000000
0.821460 0.663910 0.000000
0.855309 0.663352 0.000000
0.889233 0.662793 0.000000
0.923234 0.662234 0.000000
0.957312 0.661676 0.000000
0.991465 0.661117 0.000000
1.000000 0.660559 0.000000
1.000000 0.660000 0.000000
0.000000 0.695256 0.000000
0.032782 0.695256 0.000000
0.065564 0.695256 0.000000
0.098347 0.695256 0.000000
0.131129 0.695256 0.000000
0.163911 0.695256 0.000000
0.196693 0.695256 0.000000
0.229476 0.695256 0.000000
0.262258 0.695256 0.000000
0.295040 0.695256 0.000000
0.327822 0.695256 0.000000
0.360604 0.695256 0.000000
0.393387 0.695256 0.000000
0.426169 0.695256 0.000000
0.458951 0.695256 0.000000
0.491733 0.695256 0.000000
0.524516 0.695256 0.000000
0.557298 0.695256 0.000000
0.590080 0.695256 0.000000
0.622862 0.695256 0.000000
0.655645 0.695256 0.000000
0.688427 0.695256 0.000000
0.721209 0.695256 0.000000
0.753991 0.695256 0.000000
0.787687 0.694672 0.000000
0.821460 0.694088 0.000000
0.855309 0.693504 0.000000
0.889233 0.692920 0.000000
0.923234 0.692336 0.000000
0.957312 0.691752 0.000000
0.991465 0.691168 0.000000
1.000000 0.690584 0.000000
1.000000 0.690000 0.000000
0.000000 0.724875 0.000000
0.032820 0.724875 0.000000
0.065641 0.724875 0.000000
0.098461 0.724875 0.000000
0.131281 0.724875 0.000000
0.164102 0.724875 0.000000
0.196922 0.724875 0.000000
0.229742 0.724875 0.000000
0.262563 0.724875 0.000000
0.295383 0.724875 0.000000
0.328203 0.724875 0.000000
0.361023 0.724875 0.000000
0.393844 0.724875 0.000000
0.426664 0.724875 0.000000
0.459484 0.724875 0.000000
0.492305 0.724875 0.000000
0.525125 0.724875 0.000000
0.557945 0.724875 0.000000
0.590766 0.724875 0.000000
0.623586 0.724875 0.000000
0.656406 0.724875 0.000000
0.689227 0.724875 0.000000
0.722047 0.724875 0.000000
0.754867 0.724875 0.000000
0.787687 0.724875 0.000000
0.821460 0.724266 0.000000
0.855309 0.723656 0.000000
0.889233 0.723047 0.000000
0.923234 0.722438 0.000000
0.957312 0.721828 0.000000
0.991465 0.721219 0.000000
1.000000 0.720609 0.000000
1.000000 0.720000 0.000000
0.000000 0.754443 0.000000
0.032858 0.754443 0.000000
0.065717 0.754443 0.000000
0.098575 0.754443 0.000000
0.131434 0.754443 0.000000
0.164292 0.754443 0.000000
0.197150 0.754443 0.000000
0.230009 0.754443 0.000000
0.262867 0.754443 0.000000
0.295726 0.754443 0.000000
0.328584 0.754443 0.000000
0.361442 0.754443 0.000000
0.394301 0.754443 0.000000
0.427159 0.754443 0.000000
0.460018 0.754443 0.000000
0.492876 0.754443 0.000000
0.525734 0.754443 0.000000
0.558593 0.754443 0.000000
0.591451 0.754443 0.000000
0.624310 0.754443 0.000000
0.657168 0.754443 0.000000
0.690026 0.754443 0.000000
0.722885 0.754443 0.000000
0.755743 0.754443 0.000000
0.788602 0.754443 0.000000
0.821460 0.754443 0.000000
0.855309 0.753809 0.000000
0.889233 0.753174 0.000000
0.923234 0.752539 0.000000
0.957312 0.751904 0.000000
0.991465 0.751270 0.000000
1.000000 0.750635 0.000000
1.000000 0.750000 0.000000
0.000000 0.783961 0.000000
0.032896 0.783961 0.000000
0.065793 0.783961 0.000000
0.098689 0.783961 0.000000
0.131586 0.783961 0.000000
0.164482 0.783961 0.000000
0.197379 0.783961 0.000000
0.230275 0.783961 0.000000
0.263172 0.783961 0.000000
0.296068 0.783961 0.000000
0.328965 0.783961 0.000000
0.361861 0.783961 0.000000
0.394758 0.783961 0.000000
0.427654 0.783961 0.000000
0.460551 0.783961 0.000000
0.493447 0.783961 0.000000
0.526344 0.783961 0.000000
0.559240 0.783961 0.000000
0.592137 0.783961 0.000000
0.625033 0.783961 0.000000
0.657930 0.783961 0.000000
0.690826 0.783961 0.000000
0.723723 0.783961 0.000000
0.756619 0.783961 0.000000
0.789516 0.783961 0.000000
0.822412 0.783961 0.000000
0.855309 0.783961 0.000000
