luts/original/flash-raw.cube
TITLE "Flash Raw"
LUT_3D_SIZE 9
DOMAIN_MIN 0.0 0.0 0.0
DOMAIN_MAX 1.0 1.0 1.0
0.000613 0.000000 0.000000
0.133841 0.000000 0.000000
0.270116 0.000000 0.000000
0.409438 0.000000 0.000000
0.551806 0.000000 0.000000
0.697222 0.000000 0.000000
0.845684 0.000000 0.000000
0.989844 0.000000 0.000000
1.000000 0.000000 0.000000
0.000755 0.121442 0.000000
0.133841 0.121442 0.000000
0.270116 0.120772 0.000000
0.409438 0.120102 0.000000
0.551806 0.119431 0.000000
0.697222 0.118761 0.000000
0.845684 0.118091 0.000000
0.989844 0.117420 0.000000
1.000000 0.116750 0.000000
0.000897 0.255381 0.000000
0.135506 0.255381 0.000000
0.270116 0.255381 0.000000
0.409438 0.256234 0.000000
0.551806 0.257087 0.000000
0.697222 0.257941 0.000000
0.845684 0.258794 0.000000
0.989844 0.259647 0.000000
1.000000 0.260500 0.000000
0.001039 0.392367 0.000000
0.137172 0.392367 0.000000
0.273305 0.392367 0.000000
0.409438 0.392367 0.000000
0.551806 0.394744 0.000000
0.697222 0.397120 0.000000
0.845684 0.399497 0.000000
0.989844 0.401873 0.000000
1.000000 0.404250 0.000000
0.001181 0.532400 0.000000
0.138838 0.532400 0.000000
0.276494 0.532400 0.000000
0.414150 0.532400 0.000000
0.551806 0.532400 0.000000
0.697222 0.536300 0.000000
0.845684 0.540200 0.000000
0.989844 0.544100 0.000000
1.000000 0.548000 0.000000
0.001323 0.675480 0.000000
0.140503 0.675480 0.000000
0.279683 0.675480 0.000000
0.418862 0.675480 0.000000
0.558042 0.675480 0.000000
0.697222 0.675480 0.000000
0.845684 0.680903 0.000000
0.989844 0.686327 0.000000
1.000000 0.691750 0.000000
0.001466 0.821606 0.000000
0.142169 0.821606 0.000000
0.282872 0.821606 0.000000
0.423575 0.821606 0.000000
0.564278 0.821606 0.000000
0.704981 0.821606 0.000000
0.845684 0.821606 0.000000
0.989844 0.828553 0.000000
1.000000 0.835500 0.000000
0.001608 0.970780 0.000000
0.143834 0.970780 0.000000
0.286061 0.970780 0.000000
0.428288 0.970780 0.000000
0.570514 0.970780 0.000000
0.712741 0.970780 0.000000
0.854967 0.970780 0.000000
0.989844 0.970780 0.000000
1.000000 0.979250 0.000000
0.001750 1.000000 0.000000
0.145500 1.000000 0.000000
0.289250 1.000000 0.000000
0.433000 1.000000 0.000000
0.576750 1.000000 0.000000
0.720500 1.000000 0.000000
0.864250 1.000000 0.000000
1.000000 1.000000 0.000000
1.000000 1.000000 0.000000
0.000755 0.000000 0.109044
0.133841 0.000000 0.109044
0.270116 0.000000 0.106037
0.409438 0.000000 0.103031
0.551806 0.000000 0.100025
0.697222 0.000000 0.097019
0.845684 0.000000 0.094012
0.989844 0.000000 0.091006
1.000000 0.000000 0.088000
0.000000 0.121442 0.108855
0.133841 0.119874 0.105906
0.270116 0.114419 0.098625
0.409438 0.108318 0.090177
0.551806 0.101111 0.080560
0.697222 0.092755 0.069775
0.845684 0.083241 0.057822
0.989844 0.072931 0.045069
1.000000 0.068326 0.038000
0.000000 0.255381 0.105440
0.131056 0.255381 0.099362
0.270116 0.254322 0.098625
0.409438 0.249807 0.090177
0.551806 0.244492 0.080560
0.697222 0.238127 0.069775
0.845684 0.230646 0.057822
0.989844 0.222398 0.045069
1.000000 0.219957 0.038000
0.000000 0.392367 0.102215
0.127353 0.392367 0.091030
0.268941 0.392367 0.091030
0.409438 0.391296 0.090177
0.551806 0.387874 0.080560
0.697222 0.383498 0.069775
0.845684 0.378051 0.057822
0.989844 0.371865 0.045069
1.000000 0.371588 0.038000
0.000000 0.532400 0.099030
0.122654 0.532400 0.081530
0.266090 0.532400 0.081530
0.409526 0.532400 0.081530
0.551806 0.531255 0.080560
0.697222 0.528870 0.069775
0.845684 0.525456 0.057822
0.989844 0.521333 0.045069
1.000000 0.523219 0.038000
0.000000 0.675480 0.095861
0.116837 0.675480 0.070862
0.262245 0.675480 0.070862
0.407652 0.675480 0.070862
0.553060 0.675480 0.070862
0.697222 0.674241 0.069775
0.845684 0.672861 0.057822
0.989844 0.670800 0.045069
1.000000 0.674850 0.038000
0.000000 0.821606 0.092698
0.109873 0.821606 0.059026
0.257305 0.821606 0.059026
0.404736 0.821606 0.059026
0.552167 0.821606 0.059026
0.699599 0.821606 0.059026
0.845684 0.820266 0.057822
0.989844 0.820267 0.045069
1.000000 0.826481 0.038000
0.000000 0.970780 0.089540
0.101752 0.970780 0.046022
0.251234 0.970780 0.046022
0.400716 0.970780 0.046022
0.550199 0.970780 0.046022
0.699681 0.970780 0.046022
0.849163 0.970780 0.046022
0.989844 0.969734 0.045069
1.000000 0.978112 0.038000
0.000000 1.000000 0.086401
0.098652 1.000000 0.038000
0.250283 1.000000 0.038000
0.401914 1.000000 0.038000
0.553545 1.000000 0.038000
0.705177 1.000000 0.038000
0.856808 1.000000 0.038000
1.000000 1.000000 0.038000
1.000000 1.000000 0.038000
0.000897 0.000000 0.240647
0.135506 0.000000 0.240647
0.270116 0.000000 0.240647
0.409438 0.000000 0.239164
0.551806 0.000000 0.237681
0.697222 0.000000 0.236198
0.845684 0.000000 0.234716
0.989844 0.000000 0.233233
1.000000 0.000000 0.231750
0.000000 0.120323 0.240647
0.131052 0.114833 0.240647
0.270116 0.113360 0.238176
0.409438 0.107247 0.230984
0.551806 0.099966 0.223082
0.697222 0.091517 0.214144
0.845684 0.081900 0.204093
0.989844 0.071483 0.193276
1.000000 0.066750 0.188260
0.000000 0.255381 0.240547
0.128831 0.255381 0.238978
0.270116 0.251675 0.233235
0.409438 0.245216 0.226309
0.551806 0.239244 0.218216
0.697222 0.232299 0.208955
0.845684 0.224248 0.198525
0.989844 0.215428 0.187295
1.000000 0.212371 0.181750
0.000000 0.392367 0.238719
0.125171 0.392367 0.231163
0.265304 0.392367 0.227163
0.409438 0.390531 0.226309
0.551806 0.385011 0.218216
0.697222 0.379492 0.208955
0.845684 0.373177 0.198525
0.989844 0.366251 0.187295
1.000000 0.365477 0.181750
0.000000 0.532400 0.236997
0.120343 0.532400 0.223149
0.261361 0.532400 0.219186
0.407425 0.532400 0.219186
0.551806 0.530778 0.218216
0.697222 0.526685 0.208955
0.845684 0.522105 0.198525
0.989844 0.517073 0.187295
1.000000 0.518582 0.181750
0.000000 0.675480 0.235316
0.114346 0.675480 0.214172
0.256796 0.675480 0.210042
0.404149 0.675480 0.210042
0.551503 0.675480 0.210042
0.697222 0.673877 0.208955
0.845684 0.671033 0.198525
0.989844 0.667895 0.187295
1.000000 0.671688 0.181750
0.000000 0.821606 0.233654
0.107182 0.821606 0.204102
0.251217 0.821606 0.199729
0.400251 0.821606 0.199729
0.549284 0.821606 0.199729
0.698317 0.821606 0.199729
0.845684 0.819961 0.198525
0.989844 0.818717 0.187295
1.000000 0.824794 0.181750
0.000000 0.970780 0.232003
0.098850 0.970780 0.192902
0.244537 0.970780 0.188249
0.395414 0.970780 0.188249
0.546292 0.970780 0.188249
0.697169 0.970780 0.188249
0.848047 0.970780 0.188249
0.989844 0.969539 0.187295
1.000000 0.977900 0.181750
0.000000 1.000000 0.230403
0.095500 1.000000 0.186797
0.242992 1.000000 0.181750
0.396098 1.000000 0.181750
0.549204 1.000000 0.181750
0.702309 1.000000 0.181750
0.855415 1.000000 0.181750
1.000000 1.000000 0.181750
1.000000 1.000000 0.181750
0.001039 0.000000 0.375297
0.137172 0.000000 0.375297
0.273305 0.000000 0.375297
0.409438 0.000000 0.375297
0.551806 0.000000 0.375338
0.697222 0.000000 0.375378
0.845684 0.000000 0.375419
0.989844 0.000000 0.375459
1.000000 0.000000 0.375500
0.000000 0.119382 0.375297
0.127263 0.108954 0.375297
0.269589 0.108954 0.375297
0.409438 0.107247 0.372960
0.551806 0.099966 0.366821
0.697222 0.091517 0.359810
0.845684 0.081900 0.351756
0.989844 0.071483 0.342979
1.000000 0.066750 0.340148
0.000000 0.255915 0.375297
0.126024 0.250661 0.375297
0.264944 0.245087 0.375297
0.409438 0.243380 0.371012
0.551806 0.237622 0.362950
0.697222 0.230697 0.354945
0.845684 0.222603 0.346122
0.989844 0.213709 0.336666
1.000000 0.210500 0.333276
0.000000 0.392367 0.375223
0.125171 0.392367 0.373963
0.261304 0.392367 0.372297
0.409438 0.385940 0.362442
0.551806 0.378059 0.355872
0.697222 0.372147 0.348134
0.845684 0.365435 0.339228
0.989844 0.358051 0.329522
1.000000 0.356552 0.325500
0.000000 0.532400 0.374964
0.120343 0.532400 0.367411
0.257999 0.532400 0.363007
0.401820 0.532400 0.356842
0.551806 0.529619 0.355872
0.697222 0.522678 0.348134
0.845684 0.516783 0.339228
0.989844 0.510851 0.329522
1.000000 0.511811 0.325500
0.000000 0.675480 0.374772
0.114346 0.675480 0.360235
0.253526 0.675480 0.354826
0.397461 0.675480 0.349221
0.548531 0.675480 0.349221
0.697222 0.673209 0.348134
0.845684 0.668130 0.339228
0.989844 0.663652 0.329522
1.000000 0.667070 0.325500
0.000000 0.821606 0.374610
0.107182 0.821606 0.352094
0.247885 0.821606 0.345956
0.392962 0.821606 0.340432
0.544598 0.821606 0.340432
0.696235 0.821606 0.340432
0.845684 0.819477 0.339228
0.989844 0.816453 0.329522
1.000000 0.822329 0.325500
0.000000 0.970780 0.374466
0.098850 0.970780 0.342885
0.241077 0.970780 0.336098
0.387587 0.970780 0.330475
0.540525 0.970780 0.330475
0.693462 0.970780 0.330475
0.846399 0.970780 0.330475
0.989844 0.969253 0.329522
1.000000 0.977589 0.325500
0.000000 1.000000 0.374405
0.095500 1.000000 0.338958
0.239250 1.000000 0.331568
0.387604 1.000000 0.325500
0.542863 1.000000 0.325500
0.698122 1.000000 0.325500
0.853381 1.000000 0.325500
1.000000 1.000000 0.325500
1.000000 1.000000 0.325500
0.001181 0.000000 0.512994
0.138838 0.000000 0.512994
0.276494 0.000000 0.512994
0.414150 0.000000 0.512994
0.551806 0.000000 0.512994
0.697222 0.000000 0.514558
0.845684 0.000000 0.516122
0.989844 0.000000 0.517686
1.000000 0.000000 0.519250
0.000000 0.118512 0.512994
0.122565 0.101907 0.512994
0.266480 0.101907 0.512994
0.410395 0.101907 0.512994
0.551806 0.099966 0.510561
0.697222 0.091517 0.505477
0.845684 0.081900 0.499419
0.989844 0.071483 0.492682
1.000000 0.066750 0.492035
0.000000 0.256497 0.512994
0.121313 0.244955 0.512994
0.260916 0.239563 0.512994
0.408308 0.239563 0.512994
0.551806 0.237622 0.509455
0.697222 0.230697 0.502639
0.845684 0.222603 0.495442
0.989844 0.213709 0.487822
1.000000 0.210500 0.486745
0.000000 0.394481 0.512994
0.121313 0.389352 0.512994
0.258969 0.385981 0.512994
0.401006 0.377219 0.512994
0.551806 0.375278 0.506505
0.697222 0.369876 0.497221
0.845684 0.363306 0.488979
0.989844 0.355936 0.480616
1.000000 0.354250 0.478902
0.000000 0.532400 0.512932
0.120343 0.532400 0.511673
0.257999 0.532400 0.510939
0.395655 0.532400 0.508370
0.551806 0.522667 0.493528
0.697222 0.512948 0.487314
0.845684 0.507025 0.479931
0.989844 0.500910 0.471748
1.000000 0.500990 0.469250
0.000000 0.675480 0.514227
0.114346 0.675480 0.506298
0.253526 0.675480 0.503348
0.392706 0.675480 0.497120
0.540604 0.675480 0.488401
0.697222 0.671588 0.487314
0.845684 0.662808 0.479931
0.989844 0.656872 0.471748
1.000000 0.659691 0.469250
0.000000 0.821606 0.515566
0.107182 0.821606 0.500086
0.247885 0.821606 0.495867
0.388588 0.821606 0.488632
0.535653 0.821606 0.481135
0.692259 0.821606 0.481135
0.845684 0.818590 0.479931
0.989844 0.812835 0.471748
1.000000 0.818391 0.469250
0.000000 0.970780 0.516929
0.098850 0.970780 0.492867
0.241077 0.970780 0.487696
0.383303 0.970780 0.479804
0.531153 0.970780 0.472702
0.687437 0.970780 0.472702
0.843721 0.970780 0.472702
0.989844 0.968797 0.471748
1.000000 0.977092 0.469250
0.000000 1.000000 0.518407
0.095500 1.000000 0.491120
0.239250 1.000000 0.485430
0.383000 1.000000 0.476856
0.532730 1.000000 0.469250
0.691431 1.000000 0.469250
0.850131 1.000000 0.469250
1.000000 1.000000 0.469250
1.000000 1.000000 0.469250
0.001323 0.000000 0.653737
0.140503 0.000000 0.653737
0.279683 0.000000 0.653737
0.418862 0.000000 0.653737
0.558042 0.000000 0.653737
0.697222 0.000000 0.653737
0.845684 0.000000 0.656825
0.989844 0.000000 0.659913
1.000000 0.000000 0.663000
0.000000 0.117668 0.653737
0.116753 0.093691 0.653737
0.262530 0.093691 0.653737
0.408307 0.093691 0.653737
0.554084 0.093691 0.653737
0.697222 0.091517 0.651143
0.845684 0.081900 0.647081
0.989844 0.071483 0.642385
1.000000 0.066750 0.643923
0.000000 0.257135 0.653737
0.115433 0.238442 0.653737
0.256404 0.232871 0.653737
0.404537 0.232871 0.653737
0.552670 0.232871 0.653737
0.697222 0.230697 0.650332
0.845684 0.222603 0.644762
0.989844 0.213709 0.638978
1.000000 0.210500 0.640214
0.000000 0.396602 0.653737
0.115433 0.384585 0.653737
0.254613 0.379764 0.653737
0.396578 0.372051 0.653737
0.549686 0.372051 0.653737
0.697222 0.369876 0.648784
0.845684 0.363306 0.640992
0.989844 0.355936 0.633927
1.000000 0.354250 0.634716
0.000000 0.536070 0.653737
0.115433 0.530729 0.653737
0.254613 0.528586 0.653737
0.393793 0.523765 0.653737
0.539240 0.511230 0.653737
0.697222 0.509056 0.644656
0.845684 0.504010 0.633795
0.989844 0.498163 0.625663
1.000000 0.498000 0.625721
0.000000 0.675480 0.653682
0.114346 0.675480 0.652361
0.253526 0.675480 0.651869
0.392706 0.675480 0.650831
0.531885 0.675480 0.647198
0.697222 0.661858 0.626494
0.845684 0.649883 0.620635
0.989844 0.644308 0.613975
1.000000 0.646016 0.613000
0.000000 0.821606 0.656522
0.107182 0.821606 0.648078
0.247885 0.821606 0.645777
0.388588 0.821606 0.641831
0.529292 0.821606 0.633501
0.681657 0.821606 0.621838
0.845684 0.816436 0.620635
0.989844 0.806130 0.613975
1.000000 0.811093 0.613000
0.000000 0.970780 0.659392
0.098850 0.970780 0.642850
0.241077 0.970780 0.639295
0.383303 0.970780 0.633869
0.525530 0.970780 0.624568
0.675935 0.970780 0.614928
0.838609 0.970780 0.614928
0.989844 0.967951 0.613975
1.000000 0.976171 0.613000
0.000000 1.000000 0.662409
0.095500 1.000000 0.643281
0.239250 1.000000 0.639293
0.383000 1.000000 0.633282
0.526750 1.000000 0.623189
0.679031 1.000000 0.613000
0.844109 1.000000 0.613000
1.000000 1.000000 0.613000
1.000000 1.000000 0.613000
0.001466 0.000000 0.797528
0.142169 0.000000 0.797528
0.282872 0.000000 0.797528
0.423575 0.000000 0.797528
0.564278 0.000000 0.797528
0.704981 0.000000 0.797528
0.845684 0.000000 0.797528
0.989844 0.000000 0.802139
1.000000 0.000000 0.806750
0.000000 0.116834 0.797528
0.109794 0.084308 0.797528
0.257535 0.084308 0.797528
0.405276 0.084308 0.797528
0.553017 0.084308 0.797528
0.700758 0.084308 0.797528
0.845684 0.081900 0.794744
0.989844 0.071483 0.792088
1.000000 0.066750 0.795810
0.000000 0.257799 0.797528
0.108386 0.230886 0.797528
0.250867 0.225011 0.797528
0.400461 0.225011 0.797528
0.550054 0.225011 0.797528
0.699647 0.225011 0.797528
0.845684 0.222603 0.794081
0.989844 0.213709 0.790134
1.000000 0.210500 0.793684
0.000000 0.398764 0.797528
0.108386 0.378934 0.797528
0.249089 0.373221 0.797528
0.392205 0.365714 0.797528
0.544974 0.365714 0.797528
0.697742 0.365714 0.797528
0.845684 0.363306 0.793004
0.989844 0.355936 0.787238
1.000000 0.354250 0.790531
0.000000 0.539729 0.797528
0.108386 0.526981 0.797528
0.249089 0.523309 0.797528
0.389792 0.516812 0.797528
0.534249 0.506417 0.797528
0.693720 0.506417 0.797528
0.845684 0.504010 0.790948
0.989844 0.498163 0.782499
1.000000 0.498000 0.785373
0.000000 0.680694 0.797528
0.108386 0.675028 0.797528
0.249089 0.673396 0.797528
0.389792 0.670508 0.797528
0.530495 0.664012 0.797528
0.679644 0.647120 0.797528
0.845684 0.644713 0.785465
0.989844 0.640389 0.773340
1.000000 0.641750 0.775404
0.000000 0.821606 0.797478
0.107182 0.821606 0.796070
0.247885 0.821606 0.795687
0.388588 0.821606 0.795029
0.529292 0.821606 0.793641
0.669995 0.821606 0.788781
0.845684 0.803511 0.761338
0.989844 0.789450 0.756202
1.000000 0.792939 0.756750
0.000000 0.970780 0.801855
0.098850 0.970780 0.792832
0.241077 0.970780 0.790893
0.383303 0.970780 0.787933
0.525530 0.970780 0.782860
0.667756 0.970780 0.772150
0.824978 0.970780 0.757155
0.989844 0.965847 0.756202
1.000000 0.973881 0.756750
0.000000 1.000000 0.806411
0.095500 1.000000 0.795442
0.239250 1.000000 0.793155
0.383000 1.000000 0.789709
0.526750 1.000000 0.783921
0.670500 1.000000 0.772179
0.829127 1.000000 0.756750
1.000000 1.000000 0.756750
1.000000 1.000000 0.756750
0.001608 0.000000 0.944366
0.143834 0.000000 0.944366
0.286061 0.000000 0.944366
0.428288 0.000000 0.944366
0.570514 0.000000 0.944366
0.712741 0.000000 0.944366
0.854967 0.000000 0.944366
0.989844 0.000000 0.944366
1.000000 0.000000 0.950500
0.000000 0.116007 0.944366
0.101676 0.073757 0.944366
0.251431 0.073757 0.944366
0.401186 0.073757 0.944366
0.550941 0.073757 0.944366
0.700696 0.073757 0.944366
0.850450 0.073757 0.944366
0.989844 0.071483 0.941791
1.000000 0.066750 0.947698
0.000000 0.258478 0.944366
0.100171 0.222221 0.944366
0.244217 0.215983 0.944366
0.395540 0.215983 0.944366
0.546863 0.215983 0.944366
0.698186 0.215983 0.944366
0.849509 0.215983 0.944366
0.989844 0.213709 0.941291
1.000000 0.210500 0.947153
0.000000 0.400948 0.944366
0.100171 0.372245 0.944366
0.242397 0.365804 0.944366
0.386922 0.358210 0.944366
0.540639 0.358210 0.944366
0.694356 0.358210 0.944366
0.848073 0.358210 0.944366
0.989844 0.355936 0.940549
1.000000 0.354250 0.946346
0.000000 0.543418 0.944366
0.100171 0.522268 0.944366
0.242397 0.517522 0.944366
0.384624 0.510139 0.944366
0.529969 0.500436 0.944366
0.687790 0.500436 0.944366
0.845611 0.500436 0.944366
0.989844 0.498163 0.939335
1.000000 0.498000 0.945024
0.000000 0.685888 0.944366
0.100171 0.672292 0.944366
0.242397 0.669241 0.944366
0.384624 0.664495 0.944366
0.526850 0.656098 0.944366
0.673929 0.642663 0.944366
0.840413 0.642663 0.944366
0.989844 0.640389 0.936989
1.000000 0.641750 0.942471
0.000000 0.828358 0.944366
0.100171 0.822315 0.944366
0.242397 0.820959 0.944366
0.384624 0.818850 0.944366
0.526850 0.815118 0.944366
0.669077 0.806721 0.944366
0.822219 0.784890 0.944366
0.989844 0.782616 0.930542
1.000000 0.785500 0.935454
0.000000 0.970780 0.944318
0.098850 0.970780 0.942814
0.241077 0.970780 0.942491
0.383303 0.970780 0.941998
0.525530 0.970780 0.941152
0.667756 0.970780 0.939367
0.809983 0.970780 0.933120
0.989844 0.951523 0.898428
1.000000 0.958290 0.900500
0.000000 1.000000 0.950413
0.095500 1.000000 0.947604
0.239250 1.000000 0.947018
0.383000 1.000000 0.946135
0.526750 1.000000 0.944652
0.670500 1.000000 0.941645
0.814250 1.000000 0.932268
1.000000 1.000000 0.900500
1.000000 1.000000 0.900500
0.001750 0.000000 1.000000
0.145500 0.000000 1.000000
0.289250 0.000000 1.000000
0.433000 0.000000 1.000000
0.576750 0.000000 1.000000
0.720500 0.000000 1.000000
0.864250 0.000000 1.000000
1.000000 0.000000 1.000000
1.000000 0.000000 1.000000
0.000000 0.115202 1.000000
0.097128 0.066750 1.000000
0.249015 0.066750 1.000000
0.400903 0.066750 1.000000
0.552790 0.066750 1.000000
0.704678 0.066750 1.000000
0.856565 0.066750 1.000000
1.000000 0.066750 1.000000
1.000000 0.066750 1.000000
0.000000 0.259204 1.000000
0.095500 0.217229 1.000000
0.241194 0.210500 1.000000
0.394663 0.210500 1.000000
0.548133 0.210500 1.000000
0.701602 0.210500 1.000000
0.855071 0.210500 1.000000
1.000000 0.210500 1.000000
1.000000 0.210500 1.000000
0.000000 0.403206 1.000000
0.095500 0.369390 1.000000
0.239250 0.362340 1.000000
0.385413 0.354250 1.000000
0.541228 0.354250 1.000000
0.697042 0.354250 1.000000
0.852857 0.354250 1.000000
1.000000 0.354250 1.000000
1.000000 0.354250 1.000000
0.000000 0.547208 1.000000
0.095500 0.521552 1.000000
0.239250 0.516203 1.000000
0.383000 0.508141 1.000000
0.529930 0.498000 1.000000
0.689582 0.498000 1.000000
0.849233 0.498000 1.000000
1.000000 0.498000 1.000000
1.000000 0.498000 1.000000
0.000000 0.691210 1.000000
0.095500 0.673713 1.000000
0.239250 0.670065 1.000000
0.383000 0.664567 1.000000
0.526750 0.655335 1.000000
0.675163 0.641750 1.000000
0.842231 0.641750 1.000000
1.000000 0.641750 1.000000
1.000000 0.641750 1.000000
0.000000 0.835212 1.000000
0.095500 0.825875 1.000000
0.239250 0.823928 1.000000
0.383000 0.820994 1.000000
0.526750 0.816067 1.000000
0.670500 0.806072 1.000000
0.822989 0.785500 1.000000
1.000000 0.785500 1.000000
1.000000 0.785500 1.000000
0.000000 0.979214 1.000000
0.095500 0.978036 1.000000
0.239250 0.977790 1.000000
0.383000 0.977420 1.000000
0.526750 0.976799 1.000000
0.670500 0.975538 1.000000
0.814250 0.971607 1.000000
1.000000 0.929250 1.000000
1.000000 0.929250 1.000000
0.000000 1.000000 1.000000
0.095500 1.000000 1.000000
0.239250 1.000000 1.000000
0.383000 1.000000 1.000000
0.526750 1.000000 1.000000
0.670500 1.000000 1.000000
0.814250 1.000000 1.000000
1.000000 0.950000 0.950000
1.000000 0.950000 0.950000
