luts/original/flash-raw.cube
TITLE "Flash Raw"
LUT_3D_SIZE 33
DOMAIN_MIN 0.0 0.0 0.0
DOMAIN_MAX 1.0 1.0 1.0
0.000613 0.000000 0.000000
0.033634 0.000000 0.000000
0.066846 0.000000 0.000000
0.100248 0.000000 0.000000
0.133841 0.000000 0.000000
0.167624 0.000000 0.000000
0.201597 0.000000 0.000000
0.235761 0.000000 0.000000
0.270116 0.000000 0.000000
0.304660 0.000000 0.000000
0.339396 0.000000 0.000000
0.374321 0.000000 0.000000
0.409438 0.000000 0.000000
0.444744 0.000000 0.000000
0.480241 0.000000 0.000000
0.515928 0.000000 0.000000
0.551806 0.000000 0.000000
0.587875 0.000000 0.000000
0.624133 0.000000 0.000000
0.660582 0.000000 0.000000
0.697222 0.000000 0.000000
0.734052 0.000000 0.000000
0.771072 0.000000 0.000000
0.808283 0.000000 0.000000
0.845684 0.000000 0.000000
0.883276 0.000000 0.000000
0.921058 0.000000 0.000000
0.959031 0.000000 0.000000
0.989844 0.000000 0.000000
0.994287 0.000000 0.000000
0.997461 0.000000 0.000000
0.999365 0.000000 0.000000
1.000000 0.000000 0.000000
0.000648 0.022987 0.000000
0.033634 0.022987 0.000000
0.066846 0.022534 0.000000
0.100248 0.022081 0.000000
0.133841 0.021628 0.000000
0.167624 0.021175 0.000000
0.201597 0.020721 0.000000
0.235761 0.020268 0.000000
0.270116 0.019815 0.000000
0.304660 0.019362 0.000000
0.339396 0.018908 0.000000
0.374321 0.018455 0.000000
0.409438 0.018002 0.000000
0.444744 0.017549 0.000000
0.480241 0.017096 0.000000
0.515928 0.016642 0.000000
0.551806 0.016189 0.000000
0.587875 0.015736 0.000000
0.624133 0.015283 0.000000
0.660582 0.014829 0.000000
0.697222 0.014376 0.000000
0.734052 0.013923 0.000000
0.771072 0.013470 0.000000
0.808283 0.013017 0.000000
0.845684 0.012563 0.000000
0.883276 0.012110 0.000000
0.921058 0.011657 0.000000
0.959031 0.011204 0.000000
0.989844 0.010750 0.000000
0.994287 0.010297 0.000000
0.997461 0.009844 0.000000
0.999365 0.009391 0.000000
1.000000 0.008938 0.000000
0.000684 0.055615 0.000000
0.033765 0.055615 0.000000
0.066846 0.055615 0.000000
0.100248 0.055257 0.000000
0.133841 0.054899 0.000000
0.167624 0.054541 0.000000
0.201597 0.054183 0.000000
0.235761 0.053825 0.000000
0.270116 0.053467 0.000000
0.304660 0.053109 0.000000
0.339396 0.052751 0.000000
0.374321 0.052393 0.000000
0.409438 0.052035 0.000000
0.444744 0.051677 0.000000
0.480241 0.051319 0.000000
0.515928 0.050961 0.000000
0.551806 0.050603 0.000000
0.587875 0.050245 0.000000
0.624133 0.049887 0.000000
0.660582 0.049529 0.000000
0.697222 0.049171 0.000000
0.734052 0.048813 0.000000
0.771072 0.048455 0.000000
0.808283 0.048097 0.000000
0.845684 0.047739 0.000000
0.883276 0.047381 0.000000
0.921058 0.047023 0.000000
0.959031 0.046665 0.000000
0.989844 0.046307 0.000000
0.994287 0.045949 0.000000
0.997461 0.045591 0.000000
0.999365 0.045233 0.000000
1.000000 0.044875 0.000000
0.000719 0.088433 0.000000
0.033895 0.088433 0.000000
0.067072 0.088433 0.000000
0.100248 0.088433 0.000000
0.133841 0.088171 0.000000
0.167624 0.087908 0.000000
0.201597 0.087645 0.000000
0.235761 0.087382 0.000000
0.270116 0.087120 0.000000
0.304660 0.086857 0.000000
0.339396 0.086594 0.000000
0.374321 0.086331 0.000000
0.409438 0.086068 0.000000
0.444744 0.085806 0.000000
0.480241 0.085543 0.000000
0.515928 0.085280 0.000000
0.551806 0.085017 0.000000
0.587875 0.084754 0.000000
0.624133 0.084492 0.000000
0.660582 0.084229 0.000000
0.697222 0.083966 0.000000
0.734052 0.083703 0.000000
0.771072 0.083440 0.000000
0.808283 0.083178 0.000000
0.845684 0.082915 0.000000
0.883276 0.082652 0.000000
0.921058 0.082389 0.000000
0.959031 0.082126 0.000000
0.989844 0.081864 0.000000
0.994287 0.081601 0.000000
0.997461 0.081338 0.000000
0.999365 0.081075 0.000000
1.000000 0.080812 0.000000
0.000755 0.121442 0.000000
0.034026 0.121442 0.000000
0.067298 0.121442 0.000000
0.100569 0.121442 0.000000
0.133841 0.121442 0.000000
0.167624 0.121275 0.000000
0.201597 0.121107 0.000000
0.235761 0.120939 0.000000
0.270116 0.120772 0.000000
0.304660 0.120604 0.000000
0.339396 0.120437 0.000000
0.374321 0.120269 0.000000
0.409438 0.120102 0.000000
0.444744 0.119934 0.000000
0.480241 0.119766 0.000000
0.515928 0.119599 0.000000
0.551806 0.119431 0.000000
0.587875 0.119264 0.000000
0.624133 0.119096 0.000000
0.660582 0.118929 0.000000
0.697222 0.118761 0.000000
0.734052 0.118593 0.000000
0.771072 0.118426 0.000000
0.808283 0.118258 0.000000
0.845684 0.118091 0.000000
0.883276 0.117923 0.000000
0.921058 0.117755 0.000000
0.959031 0.117588 0.000000
0.989844 0.117420 0.000000
0.994287 0.117253 0.000000
0.997461 0.117085 0.000000
0.999365 0.116918 0.000000
1.000000 0.116750 0.000000
0.000790 0.154641 0.000000
0.034157 0.154641 0.000000
0.067524 0.154641 0.000000
0.100890 0.154641 0.000000
0.134257 0.154641 0.000000
0.167624 0.154641 0.000000
0.201597 0.154569 0.000000
0.235761 0.154497 0.000000
0.270116 0.154424 0.000000
0.304660 0.154352 0.000000
0.339396 0.154279 0.000000
0.374321 0.154207 0.000000
0.409438 0.154135 0.000000
0.444744 0.154062 0.000000
0.480241 0.153990 0.000000
0.515928 0.153918 0.000000
0.551806 0.153845 0.000000
0.587875 0.153773 0.000000
0.624133 0.153701 0.000000
0.660582 0.153628 0.000000
0.697222 0.153556 0.000000
0.734052 0.153483 0.000000
0.771072 0.153411 0.000000
0.808283 0.153339 0.000000
0.845684 0.153266 0.000000
0.883276 0.153194 0.000000
0.921058 0.153122 0.000000
0.959031 0.153049 0.000000
0.989844 0.152977 0.000000
0.994287 0.152905 0.000000
0.997461 0.152832 0.000000
0.999365 0.152760 0.000000
1.000000 0.152688 0.000000
0.000826 0.188031 0.000000
0.034288 0.188031 0.000000
0.067750 0.188031 0.000000
0.101212 0.188031 0.000000
0.134673 0.188031 0.000000
0.168135 0.188031 0.000000
0.201597 0.188031 0.000000
0.235761 0.188054 0.000000
0.270116 0.188077 0.000000
0.304660 0.188099 0.000000
0.339396 0.188122 0.000000
0.374321 0.188145 0.000000
0.409438 0.188168 0.000000
0.444744 0.188191 0.000000
0.480241 0.188214 0.000000
0.515928 0.188237 0.000000
0.551806 0.188259 0.000000
0.587875 0.188282 0.000000
0.624133 0.188305 0.000000
0.660582 0.188328 0.000000
0.697222 0.188351 0.000000
0.734052 0.188374 0.000000
0.771072 0.188396 0.000000
0.808283 0.188419 0.000000
0.845684 0.188442 0.000000
0.883276 0.188465 0.000000
0.921058 0.188488 0.000000
0.959031 0.188511 0.000000
0.989844 0.188534 0.000000
0.994287 0.188556 0.000000
0.997461 0.188579 0.000000
0.999365 0.188602 0.000000
1.000000 0.188625 0.000000
0.000861 0.221611 0.000000
0.034418 0.221611 0.000000
0.067976 0.221611 0.000000
0.101533 0.221611 0.000000
0.135090 0.221611 0.000000
0.168647 0.221611 0.000000
0.202204 0.221611 0.000000
0.235761 0.221611 0.000000
0.270116 0.221729 0.000000
0.304660 0.221847 0.000000
0.339396 0.221965 0.000000
0.374321 0.222083 0.000000
0.409438 0.222201 0.000000
0.444744 0.222319 0.000000
0.480241 0.222437 0.000000
0.515928 0.222555 0.000000
0.551806 0.222673 0.000000
0.587875 0.222792 0.000000
0.624133 0.222910 0.000000
0.660582 0.223028 0.000000
0.697222 0.223146 0.000000
0.734052 0.223264 0.000000
0.771072 0.223382 0.000000
0.808283 0.223500 0.000000
0.845684 0.223618 0.000000
0.883276 0.223736 0.000000
0.921058 0.223854 0.000000
0.959031 0.223972 0.000000
0.989844 0.224090 0.000000
0.994287 0.224208 0.000000
0.997461 0.224326 0.000000
0.999365 0.224444 0.000000
1.000000 0.224562 0.000000
0.000897 0.255381 0.000000
0.034549 0.255381 0.000000
0.068202 0.255381 0.000000
0.101854 0.255381 0.000000
0.135506 0.255381 0.000000
0.169159 0.255381 0.000000
0.202811 0.255381 0.000000
0.236463 0.255381 0.000000
0.270116 0.255381 0.000000
0.304660 0.255595 0.000000
0.339396 0.255808 0.000000
0.374321 0.256021 0.000000
0.409438 0.256234 0.000000
0.444744 0.256448 0.000000
0.480241 0.256661 0.000000
0.515928 0.256874 0.000000
0.551806 0.257087 0.000000
0.587875 0.257301 0.000000
0.624133 0.257514 0.000000
0.660582 0.257727 0.000000
0.697222 0.257941 0.000000
0.734052 0.258154 0.000000
0.771072 0.258367 0.000000
0.808283 0.258580 0.000000
0.845684 0.258794 0.000000
0.883276 0.259007 0.000000
0.921058 0.259220 0.000000
0.959031 0.259434 0.000000
0.989844 0.259647 0.000000
0.994287 0.259860 0.000000
0.997461 0.260073 0.000000
0.999365 0.260287 0.000000
1.000000 0.260500 0.000000
0.000932 0.289342 0.000000
0.034680 0.289342 0.000000
0.068428 0.289342 0.000000
0.102175 0.289342 0.000000
0.135923 0.289342 0.000000
0.169670 0.289342 0.000000
0.203418 0.289342 0.000000
0.237165 0.289342 0.000000
0.270913 0.289342 0.000000
0.304660 0.289342 0.000000
0.339396 0.289651 0.000000
0.374321 0.289959 0.000000
0.409438 0.290268 0.000000
0.444744 0.290576 0.000000
0.480241 0.290885 0.000000
0.515928 0.291193 0.000000
0.551806 0.291502 0.000000
0.587875 0.291810 0.000000
0.624133 0.292119 0.000000
0.660582 0.292427 0.000000
0.697222 0.292736 0.000000
0.734052 0.293044 0.000000
0.771072 0.293353 0.000000
0.808283 0.293661 0.000000
0.845684 0.293970 0.000000
0.883276 0.294278 0.000000
0.921058 0.294587 0.000000
0.959031 0.294895 0.000000
0.989844 0.295204 0.000000
0.994287 0.295512 0.000000
0.997461 0.295821 0.000000
0.999365 0.296129 0.000000
1.000000 0.296438 0.000000
0.000968 0.323493 0.000000
0.034811 0.323493 0.000000
0.068654 0.323493 0.000000
0.102496 0.323493 0.000000
0.136339 0.323493 0.000000
0.170182 0.323493 0.000000
0.204025 0.323493 0.000000
0.237867 0.323493 0.000000
0.271710 0.323493 0.000000
0.305553 0.323493 0.000000
0.339396 0.323493 0.000000
0.374321 0.323897 0.000000
0.409438 0.324301 0.000000
0.444744 0.324704 0.000000
0.480241 0.325108 0.000000
0.515928 0.325512 0.000000
0.551806 0.325916 0.000000
0.587875 0.326319 0.000000
0.624133 0.326723 0.000000
0.660582 0.327127 0.000000
0.697222 0.327530 0.000000
0.734052 0.327934 0.000000
0.771072 0.328338 0.000000
0.808283 0.328742 0.000000
0.845684 0.329145 0.000000
0.883276 0.329549 0.000000
0.921058 0.329953 0.000000
0.959031 0.330356 0.000000
0.989844 0.330760 0.000000
0.994287 0.331164 0.000000
0.997461 0.331568 0.000000
0.999365 0.331971 0.000000
1.000000 0.332375 0.000000
0.001004 0.357835 0.000000
0.034942 0.357835 0.000000
0.068879 0.357835 0.000000
0.102817 0.357835 0.000000
0.136755 0.357835 0.000000
0.170693 0.357835 0.000000
0.204631 0.357835 0.000000
0.238569 0.357835 0.000000
0.272507 0.357835 0.000000
0.306445 0.357835 0.000000
0.340383 0.357835 0.000000
0.374321 0.357835 0.000000
0.409438 0.358334 0.000000
0.444744 0.358833 0.000000
0.480241 0.359332 0.000000
0.515928 0.359831 0.000000
0.551806 0.360330 0.000000
0.587875 0.360829 0.000000
0.624133 0.361328 0.000000
0.660582 0.361826 0.000000
0.697222 0.362325 0.000000
0.734052 0.362824 0.000000
0.771072 0.363323 0.000000
0.808283 0.363822 0.000000
0.845684 0.364321 0.000000
0.883276 0.364820 0.000000
0.921058 0.365319 0.000000
0.959031 0.365818 0.000000
0.989844 0.366317 0.000000
0.994287 0.366816 0.000000
0.997461 0.367315 0.000000
0.999365 0.367814 0.000000
1.000000 0.368313 0.000000
0.001039 0.392367 0.000000
0.035072 0.392367 0.000000
0.069105 0.392367 0.000000
0.103139 0.392367 0.000000
0.137172 0.392367 0.000000
0.171205 0.392367 0.000000
0.205238 0.392367 0.000000
0.239271 0.392367 0.000000
0.273305 0.392367 0.000000
0.307338 0.392367 0.000000
0.341371 0.392367 0.000000
0.375404 0.392367 0.000000
0.409438 0.392367 0.000000
0.444744 0.392961 0.000000
0.480241 0.393555 0.000000
0.515928 0.394150 0.000000
0.551806 0.394744 0.000000
0.587875 0.395338 0.000000
0.624133 0.395932 0.000000
0.660582 0.396526 0.000000
0.697222 0.397120 0.000000
0.734052 0.397714 0.000000
0.771072 0.398309 0.000000
0.808283 0.398903 0.000000
0.845684 0.399497 0.000000
0.883276 0.400091 0.000000
0.921058 0.400685 0.000000
0.959031 0.401279 0.000000
0.989844 0.401873 0.000000
0.994287 0.402468 0.000000
0.997461 0.403062 0.000000
0.999365 0.403656 0.000000
1.000000 0.404250 0.000000
0.001075 0.427090 0.000000
0.035203 0.427090 0.000000
0.069331 0.427090 0.000000
0.103460 0.427090 0.000000
0.137588 0.427090 0.000000
0.171717 0.427090 0.000000
0.205845 0.427090 0.000000
0.239974 0.427090 0.000000
0.274102 0.427090 0.000000
0.308230 0.427090 0.000000
0.342359 0.427090 0.000000
0.376487 0.427090 0.000000
0.410616 0.427090 0.000000
0.444744 0.427090 0.000000
0.480241 0.427779 0.000000
0.515928 0.428468 0.000000
0.551806 0.429158 0.000000
0.587875 0.429847 0.000000
0.624133 0.430537 0.000000
0.660582 0.431226 0.000000
0.697222 0.431915 0.000000
0.734052 0.432605 0.000000
0.771072 0.433294 0.000000
0.808283 0.433983 0.000000
0.845684 0.434673 0.000000
0.883276 0.435362 0.000000
0.921058 0.436051 0.000000
0.959031 0.436741 0.000000
0.989844 0.437430 0.000000
0.994287 0.438119 0.000000
0.997461 0.438809 0.000000
0.999365 0.439498 0.000000
1.000000 0.440188 0.000000
0.001110 0.462003 0.000000
0.035334 0.462003 0.000000
0.069557 0.462003 0.000000
0.103781 0.462003 0.000000
0.138005 0.462003 0.000000
0.172228 0.462003 0.000000
0.206452 0.462003 0.000000
0.240676 0.462003 0.000000
0.274899 0.462003 0.000000
0.309123 0.462003 0.000000
0.343346 0.462003 0.000000
0.377570 0.462003 0.000000
0.411794 0.462003 0.000000
0.446017 0.462003 0.000000
0.480241 0.462003 0.000000
0.515928 0.462787 0.000000
0.551806 0.463572 0.000000
0.587875 0.464356 0.000000
0.624133 0.465141 0.000000
0.660582 0.465926 0.000000
0.697222 0.466710 0.000000
0.734052 0.467495 0.000000
0.771072 0.468279 0.000000
0.808283 0.469064 0.000000
0.845684 0.469848 0.000000
0.883276 0.470633 0.000000
0.921058 0.471418 0.000000
0.959031 0.472202 0.000000
0.989844 0.472987 0.000000
0.994287 0.473771 0.000000
0.997461 0.474556 0.000000
0.999365 0.475340 0.000000
1.000000 0.476125 0.000000
0.001146 0.497106 0.000000
0.035465 0.497106 0.000000
0.069783 0.497106 0.000000
0.104102 0.497106 0.000000
0.138421 0.497106 0.000000
0.172740 0.497106 0.000000
0.207059 0.497106 0.000000
0.241378 0.497106 0.000000
0.275696 0.497106 0.000000
0.310015 0.497106 0.000000
0.344334 0.497106 0.000000
0.378653 0.497106 0.000000
0.412972 0.497106 0.000000
0.447291 0.497106 0.000000
0.481610 0.497106 0.000000
0.515928 0.497106 0.000000
0.551806 0.497986 0.000000
0.587875 0.498866 0.000000
0.624133 0.499746 0.000000
0.660582 0.500625 0.000000
0.697222 0.501505 0.000000
0.734052 0.502385 0.000000
0.771072 0.503265 0.000000
0.808283 0.504144 0.000000
0.845684 0.505024 0.000000
0.883276 0.505904 0.000000
0.921058 0.506784 0.000000
0.959031 0.507664 0.000000
0.989844 0.508543 0.000000
0.994287 0.509423 0.000000
0.997461 0.510303 0.000000
0.999365 0.511183 0.000000
1.000000 0.512062 0.000000
0.001181 0.532400 0.000000
0.035595 0.532400 0.000000
0.070009 0.532400 0.000000
0.104423 0.532400 0.000000
0.138838 0.532400 0.000000
0.173252 0.532400 0.000000
0.207666 0.532400 0.000000
0.242080 0.532400 0.000000
0.276494 0.532400 0.000000
0.310908 0.532400 0.000000
0.345322 0.532400 0.000000
0.379736 0.532400 0.000000
0.414150 0.532400 0.000000
0.448564 0.532400 0.000000
0.482978 0.532400 0.000000
0.517392 0.532400 0.000000
0.551806 0.532400 0.000000
0.587875 0.533375 0.000000
0.624133 0.534350 0.000000
0.660582 0.535325 0.000000
0.697222 0.536300 0.000000
0.734052 0.537275 0.000000
0.771072 0.538250 0.000000
0.808283 0.539225 0.000000
0.845684 0.540200 0.000000
0.883276 0.541175 0.000000
0.921058 0.542150 0.000000
0.959031 0.543125 0.000000
0.989844 0.544100 0.000000
0.994287 0.545075 0.000000
0.997461 0.546050 0.000000
0.999365 0.547025 0.000000
1.000000 0.548000 0.000000
0.001217 0.567884 0.000000
0.035726 0.567884 0.000000
0.070235 0.567884 0.000000
0.104745 0.567884 0.000000
0.139254 0.567884 0.000000
0.173763 0.567884 0.000000
0.208272 0.567884 0.000000
0.242782 0.567884 0.000000
0.277291 0.567884 0.000000
0.311800 0.567884 0.000000
0.346310 0.567884 0.000000
0.380819 0.567884 0.000000
0.415328 0.567884 0.000000
0.449837 0.567884 0.000000
0.484347 0.567884 0.000000
0.518856 0.567884 0.000000
0.553365 0.567884 0.000000
0.587875 0.567884 0.000000
0.624133 0.568954 0.000000
0.660582 0.570025 0.000000
0.697222 0.571095 0.000000
0.734052 0.572165 0.000000
0.771072 0.573235 0.000000
0.808283 0.574306 0.000000
0.845684 0.575376 0.000000
0.883276 0.576446 0.000000
0.921058 0.577516 0.000000
0.959031 0.578586 0.000000
0.989844 0.579657 0.000000
0.994287 0.580727 0.000000
0.997461 0.581797 0.000000
0.999365 0.582867 0.000000
1.000000 0.583938 0.000000
0.001252 0.603559 0.000000
0.035857 0.603559 0.000000
0.070461 0.603559 0.000000
0.105066 0.603559 0.000000
0.139670 0.603559 0.000000
0.174275 0.603559 0.000000
0.208879 0.603559 0.000000
0.243484 0.603559 0.000000
0.278088 0.603559 0.000000
0.312693 0.603559 0.000000
0.347297 0.603559 0.000000
0.381902 0.603559 0.000000
0.416506 0.603559 0.000000
0.451111 0.603559 0.000000
0.485715 0.603559 0.000000
0.520320 0.603559 0.000000
0.554924 0.603559 0.000000
0.589529 0.603559 0.000000
0.624133 0.603559 0.000000
0.660582 0.604724 0.000000
0.697222 0.605890 0.000000
0.734052 0.607055 0.000000
0.771072 0.608221 0.000000
0.808283 0.609386 0.000000
0.845684 0.610552 0.000000
0.883276 0.611717 0.000000
0.921058 0.612882 0.000000
0.959031 0.614048 0.000000
0.989844 0.615213 0.000000
0.994287 0.616379 0.000000
0.997461 0.617544 0.000000
0.999365 0.618710 0.000000
1.000000 0.619875 0.000000
0.001288 0.639424 0.000000
0.035988 0.639424 0.000000
0.070687 0.639424 0.000000
0.105387 0.639424 0.000000
0.140087 0.639424 0.000000
0.174786 0.639424 0.000000
0.209486 0.639424 0.000000
0.244186 0.639424 0.000000
0.278886 0.639424 0.000000
0.313585 0.639424 0.000000
0.348285 0.639424 0.000000
0.382985 0.639424 0.000000
0.417684 0.639424 0.000000
0.452384 0.639424 0.000000
0.487084 0.639424 0.000000
0.521783 0.639424 0.000000
0.556483 0.639424 0.000000
0.591183 0.639424 0.000000
0.625883 0.639424 0.000000
0.660582 0.639424 0.000000
0.697222 0.640685 0.000000
0.734052 0.641945 0.000000
0.771072 0.643206 0.000000
0.808283 0.644467 0.000000
0.845684 0.645727 0.000000
0.883276 0.646988 0.000000
0.921058 0.648249 0.000000
0.959031 0.649509 0.000000
0.989844 0.650770 0.000000
0.994287 0.652031 0.000000
0.997461 0.653291 0.000000
0.999365 0.654552 0.000000
1.000000 0.655813 0.000000
0.001323 0.675480 0.000000
0.036118 0.675480 0.000000
0.070913 0.675480 0.000000
0.105708 0.675480 0.000000
0.140503 0.675480 0.000000
0.175298 0.675480 0.000000
0.210093 0.675480 0.000000
0.244888 0.675480 0.000000
0.279683 0.675480 0.000000
0.314478 0.675480 0.000000
0.349273 0.675480 0.000000
0.384068 0.675480 0.000000
0.418862 0.675480 0.000000
0.453657 0.675480 0.000000
0.488452 0.675480 0.000000
0.523247 0.675480 0.000000
0.558042 0.675480 0.000000
0.592837 0.675480 0.000000
0.627632 0.675480 0.000000
0.662427 0.675480 0.000000
0.697222 0.675480 0.000000
0.734052 0.676836 0.000000
0.771072 0.678191 0.000000
0.808283 0.679547 0.000000
0.845684 0.680903 0.000000
0.883276 0.682259 0.000000
0.921058 0.683615 0.000000
0.959031 0.684971 0.000000
0.989844 0.686327 0.000000
0.994287 0.687682 0.000000
0.997461 0.689038 0.000000
0.999365 0.690394 0.000000
1.000000 0.691750 0.000000
0.001359 0.711726 0.000000
0.036249 0.711726 0.000000
0.071139 0.711726 0.000000
0.106029 0.711726 0.000000
0.140920 0.711726 0.000000
0.175810 0.711726 0.000000
0.210700 0.711726 0.000000
0.245590 0.711726 0.000000
0.280480 0.711726 0.000000
0.315370 0.711726 0.000000
0.350260 0.711726 0.000000
0.385150 0.711726 0.000000
0.420041 0.711726 0.000000
0.454931 0.711726 0.000000
0.489821 0.711726 0.000000
0.524711 0.711726 0.000000
0.559601 0.711726 0.000000
0.594491 0.711726 0.000000
0.629381 0.711726 0.000000
0.664272 0.711726 0.000000
0.699162 0.711726 0.000000
0.734052 0.711726 0.000000
0.771072 0.713177 0.000000
0.808283 0.714628 0.000000
0.845684 0.716079 0.000000
0.883276 0.717530 0.000000
0.921058 0.718981 0.000000
0.959031 0.720432 0.000000
0.989844 0.721883 0.000000
0.994287 0.723334 0.000000
0.997461 0.724785 0.000000
0.999365 0.726236 0.000000
1.000000 0.727687 0.000000
0.001395 0.748162 0.000000
0.036380 0.748162 0.000000
0.071365 0.748162 0.000000
0.106351 0.748162 0.000000
0.141336 0.748162 0.000000
0.176321 0.748162 0.000000
0.211307 0.748162 0.000000
0.246292 0.748162 0.000000
0.281277 0.748162 0.000000
0.316263 0.748162 0.000000
0.351248 0.748162 0.000000
0.386233 0.748162 0.000000
0.421219 0.748162 0.000000
0.456204 0.748162 0.000000
0.491189 0.748162 0.000000
0.526175 0.748162 0.000000
0.561160 0.748162 0.000000
0.596146 0.748162 0.000000
0.631131 0.748162 0.000000
0.666116 0.748162 0.000000
0.701102 0.748162 0.000000
0.736087 0.748162 0.000000
0.771072 0.748162 0.000000
0.808283 0.749708 0.000000
0.845684 0.751255 0.000000
0.883276 0.752801 0.000000
0.921058 0.754347 0.000000
0.959031 0.755894 0.000000
0.989844 0.757440 0.000000
0.994287 0.758986 0.000000
0.997461 0.760532 0.000000
0.999365 0.762079 0.000000
1.000000 0.763625 0.000000
0.001430 0.784789 0.000000
0.036511 0.784789 0.000000
0.071591 0.784789 0.000000
0.106672 0.784789 0.000000
0.141752 0.784789 0.000000
0.176833 0.784789 0.000000
0.211913 0.784789 0.000000
0.246994 0.784789 0.000000
0.282075 0.784789 0.000000
0.317155 0.784789 0.000000
0.352236 0.784789 0.000000
0.387316 0.784789 0.000000
0.422397 0.784789 0.000000
0.457477 0.784789 0.000000
0.492558 0.784789 0.000000
0.527639 0.784789 0.000000
0.562719 0.784789 0.000000
0.597800 0.784789 0.000000
0.632880 0.784789 0.000000
0.667961 0.784789 0.000000
0.703041 0.784789 0.000000
0.738122 0.784789 0.000000
0.773203 0.784789 0.000000
0.808283 0.784789 0.000000
0.845684 0.786430 0.000000
0.883276 0.788072 0.000000
0.921058 0.789714 0.000000
0.959031 0.791355 0.000000
0.989844 0.792996 0.000000
0.994287 0.794638 0.000000
0.997461 0.796279 0.000000
0.999365 0.797921 0.000000
1.000000 0.799563 0.000000
0.001466 0.821606 0.000000
0.036641 0.821606 0.000000
0.071817 0.821606 0.000000
0.106993 0.821606 0.000000
0.142169 0.821606 0.000000
0.177345 0.821606 0.000000
0.212520 0.821606 0.000000
0.247696 0.821606 0.000000
0.282872 0.821606 0.000000
0.318048 0.821606 0.000000
0.353223 0.821606 0.000000
0.388399 0.821606 0.000000
0.423575 0.821606 0.000000
0.458751 0.821606 0.000000
0.493927 0.821606 0.000000
0.529102 0.821606 0.000000
0.564278 0.821606 0.000000
0.599454 0.821606 0.000000
0.634630 0.821606 0.000000
0.669805 0.821606 0.000000
0.704981 0.821606 0.000000
0.740157 0.821606 0.000000
0.775333 0.821606 0.000000
0.810509 0.821606 0.000000
0.845684 0.821606 0.000000
0.883276 0.823343 0.000000
0.921058 0.825080 0.000000
0.959031 0.826816 0.000000
0.989844 0.828553 0.000000
0.994287 0.830290 0.000000
0.997461 0.832027 0.000000
0.999365 0.833763 0.000000
1.000000 0.835500 0.000000
0.001501 0.858614 0.000000
0.036772 0.858614 0.000000
0.072043 0.858614 0.000000
0.107314 0.858614 0.000000
0.142585 0.858614 0.000000
0.177856 0.858614 0.000000
0.213127 0.858614 0.000000
0.248398 0.858614 0.000000
0.283669 0.858614 0.000000
0.318940 0.858614 0.000000
0.354211 0.858614 0.000000
0.389482 0.858614 0.000000
0.424753 0.858614 0.000000
0.460024 0.858614 0.000000
0.495295 0.858614 0.000000
0.530566 0.858614 0.000000
0.565837 0.858614 0.000000
0.601108 0.858614 0.000000
0.636379 0.858614 0.000000
0.671650 0.858614 0.000000
0.706921 0.858614 0.000000
0.742192 0.858614 0.000000
0.777463 0.858614 0.000000
0.812734 0.858614 0.000000
0.848005 0.858614 0.000000
0.883276 0.858614 0.000000
0.921058 0.860446 0.000000
0.959031 0.862278 0.000000
0.989844 0.864110 0.000000
0.994287 0.865942 0.000000
0.997461 0.867774 0.000000
0.999365 0.869606 0.000000
1.000000 0.871437 0.000000
0.001537 0.895812 0.000000
0.036903 0.895812 0.000000
0.072269 0.895812 0.000000
0.107635 0.895812 0.000000
0.143002 0.895812 0.000000
0.178368 0.895812 0.000000
0.213734 0.895812 0.000000
0.249100 0.895812 0.000000
0.284466 0.895812 0.000000
0.319833 0.895812 0.000000
0.355199 0.895812 0.000000
0.390565 0.895812 0.000000
0.425931 0.895812 0.000000
0.461297 0.895812 0.000000
0.496664 0.895812 0.000000
0.532030 0.895812 0.000000
0.567396 0.895812 0.000000
0.602762 0.895812 0.000000
0.638129 0.895812 0.000000
0.673495 0.895812 0.000000
0.708861 0.895812 0.000000
0.744227 0.895812 0.000000
0.779593 0.895812 0.000000
0.814960 0.895812 0.000000
0.850326 0.895812 0.000000
0.885692 0.895812 0.000000
0.921058 0.895812 0.000000
