luts/original/flash-raw.cube
TITLE "Flash Raw"
LUT_3D_SIZE 5
DOMAIN_MIN 0.0 0.0 0.0
DOMAIN_MAX 1.0 1.0 1.0
0.000613 0.000000 0.000000
0.270116 0.000000 0.000000
0.551806 0.000000 0.000000
0.845684 0.000000 0.000000
1.000000 0.000000 0.000000
0.000897 0.255381 0.000000
0.270116 0.255381 0.000000
0.551806 0.257087 0.000000
0.845684 0.258794 0.000000
1.000000 0.260500 0.000000
0.001181 0.532400 0.000000
0.276494 0.532400 0.000000
0.551806 0.532400 0.000000
0.845684 0.540200 0.000000
1.000000 0.548000 0.000000
0.001466 0.821606 0.000000
0.282872 0.821606 0.000000
0.564278 0.821606 0.000000
0.845684 0.821606 0.000000
1.000000 0.835500 0.000000
0.001750 1.000000 0.000000
0.289250 1.000000 0.000000
0.576750 1.000000 0.000000
0.864250 1.000000 0.000000
1.000000 1.000000 0.000000
0.000897 0.000000 0.240647
0.270116 0.000000 0.240647
0.551806 0.000000 0.237681
0.845684 0.000000 0.234716
1.000000 0.000000 0.231750
0.000000 0.255381 0.240547
0.270116 0.251675 0.233235
0.551806 0.239244 0.218216
0.845684 0.224248 0.198525
1.000000 0.212371 0.181750
0.000000 0.532400 0.236997
0.261361 0.532400 0.219186
0.551806 0.530778 0.218216
0.845684 0.522105 0.198525
1.000000 0.518582 0.181750
0.000000 0.821606 0.233654
0.251217 0.821606 0.199729
0.549284 0.821606 0.199729
0.845684 0.819961 0.198525
1.000000 0.824794 0.181750
0.000000 1.000000 0.230403
0.242992 1.000000 0.181750
0.549204 1.000000 0.181750
0.855415 1.000000 0.181750
1.000000 1.000000 0.181750
0.001181 0.000000 0.512994
0.276494 0.000000 0.512994
0.551806 0.000000 0.512994
0.845684 0.000000 0.516122
1.000000 0.000000 0.519250
0.000000 0.256497 0.512994
0.260916 0.239563 0.512994
0.551806 0.237622 0.509455
0.845684 0.222603 0.495442
1.000000 0.210500 0.486745
0.000000 0.532400 0.512932
0.257999 0.532400 0.510939
0.551806 0.522667 0.493528
0.845684 0.507025 0.479931
1.000000 0.500990 0.469250
0.000000 0.821606 0.515566
0.247885 0.821606 0.495867
0.535653 0.821606 0.481135
0.845684 0.818590 0.479931
1.000000 0.818391 0.469250
0.000000 1.000000 0.518407
0.239250 1.000000 0.485430
0.532730 1.000000 0.469250
0.850131 1.000000 0.469250
1.000000 1.000000 0.469250
0.001466 0.000000 0.797528
0.282872 0.000000 0.797528
0.564278 0.000000 0.797528
0.845684 0.000000 0.797528
1.000000 0.000000 0.806750
0.000000 0.257799 0.797528
0.250867 0.225011 0.797528
0.550054 0.225011 0.797528
0.845684 0.222603 0.794081
1.000000 0.210500 0.793684
0.000000 0.539729 0.797528
0.249089 0.523309 0.797528
0.534249 0.506417 0.797528
0.845684 0.504010 0.790948
1.000000 0.498000 0.785373
0.000000 0.821606 0.797478
0.247885 0.821606 0.795687
0.529292 0.821606 0.793641
0.845684 0.803511 0.761338
1.000000 0.792939 0.756750
0.000000 1.000000 0.806411
0.239250 1.000000 0.793155
0.526750 1.000000 0.783921
0.829127 1.000000 0.756750
1.000000 1.000000 0.756750
0.001750 0.000000 1.000000
0.289250 0.000000 1.000000
0.576750 0.000000 1.000000
0.864250 0.000000 1.000000
1.000000 0.000000 1.000000
0.000000 0.259204 1.000000
0.241194 0.210500 1.000000
0.548133 0.210500 1.000000
0.855071 0.210500 1.000000
1.000000 0.210500 1.000000
0.000000 0.547208 1.000000
0.239250 0.516203 1.000000
0.529930 0.498000 1.000000
0.849233 0.498000 1.000000
1.000000 0.498000 1.000000
0.000000 0.835212 1.000000
0.239250 0.823928 1.000000
0.526750 0.816067 1.000000
0.822989 0.785500 1.000000
1.000000 0.785500 1.000000
0.000000 1.000000 1.000000
0.239250 1.000000 1.000000
0.526750 1.000000 1.000000
0.814250 1.000000 1.000000
1.000000 0.950000 0.950000
