luts/original/golden-hour-film.cube
TITLE "Golden Hour Film"
LUT_3D_SIZE 5
DOMAIN_MIN 0.0 0.0 0.0
DOMAIN_MAX 1.0 1.0 1.0
0.000000 0.000000 0.000000
0.265375 0.000000 0.000000
0.540500 0.000000 0.000000
0.825375 0.000000 0.000000
1.000000 0.000000 0.000000
0.000000 0.242312 0.000000
0.265375 0.242312 0.000000
0.540500 0.239875 0.000000
0.825375 0.237437 0.000000
1.000000 0.235000 0.000000
0.000000 0.479750 0.000000
0.270250 0.479750 0.000000
0.540500 0.479750 0.000000
0.825375 0.474875 0.000000
1.000000 0.470000 0.000000
0.000000 0.712312 0.000000
0.275125 0.712312 0.000000
0.550250 0.712312 0.000000
0.825375 0.712312 0.000000
1.000000 0.705000 0.000000
0.000000 0.940000 0.000000
0.280000 0.940000 0.000000
0.560000 0.940000 0.000000
0.840000 0.940000 0.000000
1.000000 0.940000 0.000000
0.000000 0.000000 0.221813
0.265375 0.000000 0.221813
0.540500 0.000000 0.212875
0.825375 0.000000 0.203937
1.000000 0.000000 0.195000
0.000000 0.242312 0.221813
0.265375 0.242312 0.221813
0.540500 0.239875 0.212875
0.825375 0.237437 0.203937
1.000000 0.235000 0.195000
0.000000 0.479750 0.212875
0.270250 0.479750 0.212875
0.540500 0.479750 0.212875
0.825375 0.474875 0.203937
1.000000 0.470000 0.195000
0.000000 0.712312 0.203937
0.275125 0.712312 0.203937
0.550250 0.712312 0.203937
0.825375 0.712312 0.203937
1.000000 0.705000 0.195000
0.000000 0.940000 0.195000
0.280000 0.940000 0.195000
0.560000 0.940000 0.195000
0.840000 0.940000 0.195000
1.000000 0.940000 0.195000
0.000000 0.000000 0.425750
0.270250 0.000000 0.425750
0.540500 0.000000 0.425750
0.825375 0.000000 0.407875
1.000000 0.000000 0.390000
0.000000 0.239875 0.425750
0.270250 0.239875 0.425750
0.540500 0.239875 0.425750
0.825375 0.237437 0.407875
1.000000 0.235000 0.390000
0.000000 0.479750 0.425750
0.270250 0.479750 0.425750
0.540500 0.479750 0.425750
0.825375 0.474875 0.407875
1.000000 0.470000 0.390000
0.000000 0.712312 0.407875
0.275125 0.712312 0.407875
0.550250 0.712312 0.407875
0.825375 0.712312 0.407875
1.000000 0.705000 0.390000
0.000000 0.940000 0.390000
0.280000 0.940000 0.390000
0.560000 0.940000 0.390000
0.840000 0.940000 0.390000
1.000000 0.940000 0.390000
0.000000 0.000000 0.611812
0.275125 0.000000 0.611812
0.550250 0.000000 0.611812
0.825375 0.000000 0.611812
1.000000 0.000000 0.585000
0.000000 0.237437 0.611812
0.275125 0.237437 0.611812
0.550250 0.237437 0.611812
0.825375 0.237437 0.611812
1.000000 0.235000 0.585000
0.000000 0.474875 0.611812
0.275125 0.474875 0.611812
0.550250 0.474875 0.611812
0.825375 0.474875 0.611812
1.000000 0.470000 0.585000
0.000000 0.712312 0.611812
0.275125 0.712312 0.611812
0.550250 0.712312 0.611812
0.825375 0.712312 0.611812
1.000000 0.705000 0.585000
0.000000 0.940000 0.585000
0.280000 0.940000 0.585000
0.560000 0.940000 0.585000
0.840000 0.940000 0.585000
1.000000 0.940000 0.585000
0.000000 0.000000 0.780000
0.280000 0.000000 0.780000
0.560000 0.000000 0.780000
0.840000 0.000000 0.780000
1.000000 0.000000 0.780000
0.000000 0.235000 0.780000
0.280000 0.235000 0.780000
0.560000 0.235000 0.780000
0.840000 0.235000 0.780000
1.000000 0.235000 0.780000
0.000000 0.470000 0.780000
0.280000 0.470000 0.780000
0.560000 0.470000 0.780000
0.840000 0.470000 0.780000
1.000000 0.470000 0.780000
0.000000 0.705000 0.780000
0.280000 0.705000 0.780000
0.560000 0.705000 0.780000
0.840000 0.705000 0.780000
1.000000 0.705000 0.780000
0.000000 0.940000 0.780000
0.280000 0.940000 0.780000
0.560000 0.940000 0.780000
0.840000 0.940000 0.780000
1.000000 0.940000 0.780000
