luts/original/golden-studio.cube
TITLE "Golden Studio"
LUT_3D_SIZE 9
DOMAIN_MIN 0.0 0.0 0.0
DOMAIN_MAX 1.0 1.0 1.0
0.033120 0.006964 0.006964
0.165522 0.005613 0.005613
0.297816 0.003144 0.003144
0.430002 0.000000 0.000000
0.562080 0.000000 0.000000
0.694050 0.000000 0.000000
0.825912 0.000000 0.000000
0.957667 0.000000 0.000000
1.000000 0.000000 0.000000
0.038446 0.134657 0.006479
0.164558 0.132693 0.004697
0.296670 0.130470 0.002056
0.428675 0.128402 0.000000
0.560571 0.127921 0.000000
0.692360 0.127594 0.000000
0.824041 0.127350 0.000000
0.955613 0.127156 0.000000
1.000000 0.127220 0.000000
0.041222 0.260331 0.003408
0.169346 0.259990 0.003085
0.295525 0.257751 0.000967
0.427348 0.256059 0.000000
0.559063 0.255181 0.000000
0.690670 0.254580 0.000000
0.822169 0.254129 0.000000
0.953560 0.253769 0.000000
1.000000 0.253863 0.000000
0.043549 0.385642 0.000000
0.171891 0.385247 0.000000
0.299970 0.384853 0.000000
0.426021 0.382971 0.000000
0.557554 0.381779 0.000000
0.688980 0.380958 0.000000
0.820297 0.380338 0.000000
0.951506 0.379839 0.000000
1.000000 0.379932 0.000000
0.048733 0.510589 0.000000
0.176205 0.510141 0.000000
0.303453 0.509692 0.000000
0.430477 0.509244 0.000000
0.556046 0.507715 0.000000
0.687289 0.506728 0.000000
0.818425 0.505976 0.000000
0.949453 0.505365 0.000000
1.000000 0.505431 0.000000
0.054077 0.635174 0.000000
0.180955 0.634671 0.000000
0.307632 0.634169 0.000000
0.434108 0.633667 0.000000
0.560383 0.633164 0.000000
0.685599 0.631890 0.000000
0.816553 0.631043 0.000000
0.947400 0.630349 0.000000
1.000000 0.630364 0.000000
0.059502 0.759395 0.000000
0.185923 0.758839 0.000000
0.312159 0.758282 0.000000
0.438209 0.757726 0.000000
0.564074 0.757169 0.000000
0.689753 0.756613 0.000000
0.814682 0.755540 0.000000
0.945346 0.754789 0.000000
1.000000 0.754736 0.000000
0.064973 0.883253 0.000000
0.191016 0.882643 0.000000
0.316884 0.882032 0.000000
0.442578 0.881422 0.000000
0.568098 0.880812 0.000000
0.693444 0.880201 0.000000
0.818615 0.879591 0.000000
0.943293 0.878685 0.000000
1.000000 0.878549 0.000000
0.070476 1.000000 0.000000
0.196194 1.000000 0.000000
0.321744 1.000000 0.000000
0.447126 1.000000 0.000000
0.572341 1.000000 0.000000
0.697389 1.000000 0.000000
0.822271 1.000000 0.000000
0.946986 1.000000 0.000000
1.000000 1.000000 0.000000
0.040765 0.008540 0.104954
0.165479 0.005572 0.101716
0.297765 0.003095 0.093732
0.429943 0.000000 0.085091
0.562013 0.000000 0.079175
0.693975 0.000000 0.073332
0.825829 0.000000 0.067529
0.957575 0.000000 0.061750
1.000000 0.000000 0.056099
0.037306 0.134614 0.101251
0.164515 0.131992 0.099469
0.296620 0.129315 0.091132
0.428616 0.125719 0.081677
0.560504 0.121059 0.071104
0.692285 0.115303 0.059413
0.823957 0.108440 0.046603
0.955522 0.100466 0.032676
1.000000 0.096124 0.022351
0.039767 0.260280 0.092485
0.168868 0.259940 0.092161
0.295474 0.257306 0.090044
0.427289 0.253853 0.080417
0.558996 0.249427 0.069671
0.690595 0.243945 0.057807
0.822086 0.237374 0.044825
0.953469 0.229704 0.030725
1.000000 0.225601 0.020116
0.041030 0.385583 0.082358
0.170202 0.385188 0.081984
0.299359 0.384794 0.081609
0.425962 0.381944 0.079156
0.557487 0.377759 0.068238
0.688904 0.372553 0.056201
0.820214 0.366278 0.043047
0.951415 0.358913 0.028774
1.000000 0.355046 0.017881
0.040958 0.510522 0.070871
0.170413 0.510074 0.070445
0.299855 0.509625 0.070019
0.429285 0.509177 0.069593
0.555979 0.506054 0.066805
0.687214 0.501128 0.054596
0.818342 0.495150 0.041269
0.949362 0.488093 0.026823
1.000000 0.484459 0.015646
0.039534 0.635099 0.058023
0.169344 0.634596 0.057546
0.299142 0.634094 0.057069
0.428930 0.633591 0.056592
0.558707 0.633089 0.056114
0.685524 0.629671 0.052990
0.816470 0.623993 0.039490
0.947308 0.617244 0.024873
1.000000 0.613840 0.013411
0.036753 0.759312 0.043815
0.166951 0.758756 0.043286
0.297139 0.758199 0.042758
0.427317 0.757643 0.042229
0.557485 0.757086 0.041701
0.687644 0.756530 0.041172
0.814598 0.752804 0.037712
0.945255 0.746366 0.022922
1.000000 0.743190 0.011176
0.032614 0.883162 0.028246
0.163218 0.882551 0.027666
0.293813 0.881941 0.027086
0.424399 0.881331 0.026506
0.554976 0.880720 0.025926
0.685543 0.880110 0.025347
0.816101 0.879499 0.024767
0.943202 0.875459 0.020971
1.000000 0.872509 0.008941
0.027448 1.000000 0.011649
0.158439 1.000000 0.010984
0.289420 1.000000 0.010320
0.420393 1.000000 0.009656
0.551355 1.000000 0.008991
0.682309 1.000000 0.008327
0.813253 1.000000 0.007662
0.944188 1.000000 0.006998
1.000000 1.000000 0.006706
0.045131 0.007220 0.226580
0.172990 0.006512 0.225809
0.297649 0.002986 0.222054
0.429809 0.000000 0.213796
0.561861 0.000000 0.207364
0.693805 0.000000 0.201172
0.825640 0.000000 0.195110
0.957368 0.000000 0.189127
1.000000 0.000000 0.183554
0.042007 0.133721 0.225435
0.171844 0.130424 0.223906
0.296504 0.126897 0.218485
0.428482 0.123113 0.208923
0.560352 0.118210 0.198418
0.692114 0.112188 0.186855
0.823768 0.105049 0.174201
0.955315 0.096791 0.160444
1.000000 0.092125 0.150331
0.039125 0.260164 0.221600
0.165280 0.259824 0.217052
0.295358 0.255146 0.214934
0.427155 0.250481 0.205289
0.558843 0.245333 0.194526
0.690424 0.239239 0.182645
0.821897 0.232099 0.169646
0.953261 0.223877 0.155528
1.000000 0.219237 0.144890
0.040356 0.385449 0.211435
0.165876 0.385054 0.206856
0.297946 0.384660 0.206482
0.425828 0.380653 0.204029
0.525801 0.375096 0.224392
0.653680 0.372359 0.218968
0.820025 0.362128 0.167867
0.951208 0.354107 0.153577
1.000000 0.349732 0.142655
0.040227 0.510370 0.200176
0.165615 0.509922 0.195301
0.296965 0.509473 0.194874
0.428297 0.509025 0.194448
0.555826 0.505046 0.191660
0.652920 0.499542 0.218245
0.818153 0.492121 0.166089
0.949155 0.484304 0.151626
1.000000 0.480183 0.140420
0.038736 0.634928 0.187644
0.164072 0.634426 0.182384
0.295357 0.633923 0.181907
0.426629 0.633421 0.181429
0.557886 0.632918 0.180952
0.685353 0.628794 0.177828
0.816281 0.622077 0.164311
0.947101 0.614467 0.149676
1.000000 0.610593 0.138185
0.035886 0.759123 0.173790
0.161195 0.758566 0.168107
0.292641 0.758010 0.167578
0.424074 0.757454 0.167050
0.555496 0.756897 0.166521
0.686905 0.756341 0.165993
0.814409 0.751997 0.162533
0.945048 0.744597 0.147725
1.000000 0.740960 0.135950
0.031674 0.882955 0.158596
0.156970 0.882344 0.152469
0.288679 0.881734 0.151889
0.420377 0.881123 0.151309
0.552065 0.880513 0.150730
0.683741 0.879903 0.150150
0.815407 0.879292 0.149570
0.942994 0.874693 0.145774
1.000000 0.871286 0.133715
0.026423 1.000000 0.142378
0.151680 1.000000 0.135759
0.283684 1.000000 0.135094
0.415676 1.000000 0.134430
0.547656 1.000000 0.133766
0.679623 1.000000 0.133101
0.811577 1.000000 0.132437
0.943520 1.000000 0.131772
1.000000 1.000000 0.131480
0.048331 0.004526 0.347733
0.176948 0.004152 0.347339
0.305070 0.003332 0.346468
0.429675 0.000000 0.342425
0.561708 0.000000 0.335487
0.693634 0.000000 0.328951
0.825451 0.000000 0.322634
0.957161 0.000000 0.316448
1.000000 0.000000 0.310950
0.044828 0.130537 0.346406
0.173219 0.127891 0.346012
0.303742 0.127071 0.344840
0.428348 0.122985 0.339185
0.560200 0.118065 0.328858
0.691944 0.112026 0.317609
0.823580 0.104869 0.305331
0.955107 0.096594 0.291984
1.000000 0.091899 0.282388
0.043568 0.259386 0.345079
0.168193 0.256439 0.344685
0.302415 0.250810 0.342138
0.427021 0.246725 0.334036
0.558691 0.241632 0.322786
0.690253 0.235420 0.310807
0.821708 0.228091 0.297842
0.953054 0.219644 0.283821
1.000000 0.214664 0.273404
0.040229 0.385315 0.341079
0.164854 0.384920 0.338836
0.291967 0.384526 0.331354
0.425694 0.377298 0.328901
0.557183 0.370411 0.317948
0.688563 0.363627 0.305877
0.819836 0.356056 0.292688
0.951001 0.347505 0.278380
1.000000 0.342557 0.267429
0.040082 0.510218 0.330083
0.164656 0.509769 0.326418
0.290564 0.509321 0.319730
0.426238 0.508872 0.319304
0.555674 0.503231 0.316515
0.652843 0.498008 0.343172
0.780584 0.494471 0.337159
0.908276 0.490602 0.330643
1.000000 0.474432 0.265194
0.038574 0.634757 0.317913
0.163097 0.634255 0.313386
0.288748 0.633753 0.306745
0.422662 0.633250 0.306267
0.556557 0.632748 0.305790
0.685183 0.627463 0.302666
0.779742 0.622446 0.336359
0.907352 0.618559 0.329765
1.000000 0.606248 0.262959
0.035706 0.758934 0.304464
0.160177 0.758378 0.299235
0.285721 0.757821 0.292399
0.419115 0.757265 0.291870
0.552494 0.756708 0.291342
0.685857 0.756152 0.290813
0.814220 0.750890 0.287353
0.906428 0.746498 0.328888
1.000000 0.738005 0.260724
0.031477 0.882747 0.289699
0.155897 0.882137 0.283832
0.281384 0.881527 0.276692
0.414683 0.880916 0.276112
0.547968 0.880306 0.275533
0.681240 0.879695 0.274953
0.814499 0.879085 0.274373
0.942787 0.873707 0.270577
1.000000 0.869704 0.258489
0.026197 1.000000 0.273917
0.150533 1.000000 0.267413
0.275955 1.000000 0.259869
0.409338 1.000000 0.259204
0.542702 1.000000 0.258540
0.676050 1.000000 0.257876
0.809380 1.000000 0.257211
0.942693 1.000000 0.256547
1.000000 1.000000 0.256254
0.050526 0.000782 0.468850
0.179543 0.000356 0.468402
0.308564 0.000000 0.467953
0.437005 0.000000 0.467007
0.561556 0.000000 0.463542
0.693463 0.000000 0.456668
0.825262 0.000000 0.450099
0.956954 0.000000 0.443715
1.000000 0.000000 0.438288
0.046599 0.126678 0.467341
0.174666 0.123923 0.466893
0.305463 0.123497 0.466444
0.435496 0.122565 0.465261
0.560048 0.117920 0.459294
0.691773 0.111864 0.448359
0.823391 0.104690 0.436458
0.954900 0.096397 0.423521
1.000000 0.091674 0.414441
0.045166 0.255499 0.465833
0.169740 0.251034 0.465384
0.300195 0.247064 0.464936
0.433987 0.246132 0.463287
0.558539 0.241487 0.455376
0.690083 0.235258 0.443196
0.821519 0.227912 0.430334
0.952847 0.219447 0.416553
1.000000 0.214439 0.406674
0.043733 0.384268 0.464324
0.168307 0.382599 0.463876
0.292881 0.378154 0.463427
0.432479 0.369699 0.459651
0.557030 0.365054 0.448368
0.688393 0.358653 0.435322
0.819647 0.351133 0.421820
0.950793 0.342496 0.407428
1.000000 0.337204 0.396691
0.039937 0.510065 0.459986
0.164511 0.509617 0.458384
0.289085 0.509169 0.455178
0.417369 0.508720 0.444159
0.555522 0.498446 0.441371
0.686702 0.489105 0.429109
0.817775 0.480600 0.415730
0.948740 0.471510 0.401233
1.000000 0.466219 0.389969
0.038412 0.634587 0.448177
0.162935 0.634084 0.445224
0.287458 0.633582 0.440261
0.413829 0.633080 0.431105
0.553742 0.632577 0.430628
0.685012 0.625039 0.427504
0.779657 0.620467 0.461278
0.907259 0.616077 0.454677
1.000000 0.600074 0.387734
0.035527 0.758745 0.435135
0.159998 0.758189 0.431219
0.284469 0.757632 0.425351
0.410429 0.757076 0.416691
0.547295 0.756519 0.416162
0.684139 0.755963 0.415634
0.814032 0.749195 0.412174
0.906335 0.744952 0.453799
1.000000 0.733842 0.385499
0.031280 0.882540 0.420799
0.155700 0.881930 0.416086
0.280120 0.881319 0.409525
0.405905 0.880709 0.400916
0.541687 0.880098 0.400336
0.677451 0.879488 0.399756
0.813198 0.878878 0.399176
0.942580 0.872344 0.395380
1.000000 0.867524 0.383264
0.025972 1.000000 0.405452
0.150307 1.000000 0.400001
0.274643 1.000000 0.392787
0.400304 1.000000 0.383979
0.535667 1.000000 0.383314
0.671004 1.000000 0.382650
0.806316 1.000000 0.381986
0.941602 1.000000 0.381321
1.000000 1.000000 0.381029
0.055191 0.000000 0.589930
0.184039 0.000000 0.589427
0.312660 0.000000 0.588925
0.441055 0.000000 0.588422
0.568795 0.000000 0.587503
0.693293 0.000000 0.584324
0.825073 0.000000 0.577508
0.956746 0.000000 0.570926
1.000000 0.000000 0.565567
0.047320 0.121854 0.588240
0.175386 0.118905 0.587737
0.306226 0.118428 0.587235
0.437051 0.117950 0.586732
0.567105 0.116906 0.585479
0.691602 0.111702 0.579105
0.823202 0.104510 0.567581
0.954693 0.096200 0.555055
1.000000 0.091448 0.546490
0.045714 0.250834 0.586549
0.170237 0.245612 0.586047
0.299731 0.241822 0.585544
0.433114 0.241345 0.585042
0.565415 0.240300 0.583500
0.689912 0.235096 0.575581
0.821330 0.227732 0.562821
0.952639 0.219250 0.549280
1.000000 0.214213 0.539939
0.044108 0.379771 0.584859
0.168631 0.376494 0.584357
0.293154 0.370266 0.583854
0.426057 0.364739 0.583352
0.563724 0.363694 0.581150
0.688222 0.358491 0.570625
0.819458 0.350954 0.556437
0.950586 0.342299 0.541873
1.000000 0.336978 0.531660
0.042503 0.508664 0.583169
0.167025 0.507317 0.582666
0.291548 0.505072 0.582164
0.416071 0.498866 0.581662
0.562034 0.487089 0.576443
0.686532 0.481885 0.561481
0.817586 0.474176 0.546529
0.948533 0.465348 0.531458
1.000000 0.459743 0.520353
0.038250 0.634416 0.578439
0.162773 0.633914 0.577057
0.287295 0.633411 0.574953
0.411818 0.632909 0.570627
0.541484 0.632406 0.555466
0.684842 0.618592 0.552342
0.815714 0.606561 0.538772
0.946479 0.596254 0.524085
1.000000 0.590508 0.512508
0.035347 0.758556 0.565802
0.159818 0.758000 0.563199
0.284290 0.757443 0.559407
0.408761 0.756887 0.552962
0.535673 0.756330 0.540983
0.680459 0.755774 0.540454
0.813843 0.746078 0.536994
0.906242 0.742476 0.578710
1.000000 0.727446 0.510273
0.031083 0.882333 0.551896
0.155503 0.881722 0.548336
0.279923 0.881112 0.543448
0.404344 0.880502 0.536072
0.530659 0.879891 0.525139
0.670863 0.879281 0.524559
0.811043 0.878670 0.523979
0.942372 0.870241 0.520184
1.000000 0.864240 0.508038
0.025746 1.000000 0.536984
0.150082 1.000000 0.532584
0.274417 1.000000 0.526810
0.398753 1.000000 0.518730
0.524786 1.000000 0.508089
0.663241 1.000000 0.507424
0.801653 1.000000 0.506760
0.940024 1.000000 0.506096
1.000000 1.000000 0.505803
0.060642 0.000000 0.710973
0.189085 0.000000 0.710417
0.317324 0.000000 0.709860
0.445358 0.000000 0.709304
0.573187 0.000000 0.708747
0.700441 0.000000 0.707828
0.824884 0.000000 0.704858
0.956539 0.000000 0.698083
1.000000 0.000000 0.692787
0.046990 0.116012 0.709101
0.175161 0.112836 0.708545
0.306229 0.112308 0.707988
0.437285 0.111779 0.707432
0.568328 0.111250 0.706876
0.698569 0.110094 0.705534
0.823013 0.104331 0.698701
0.954486 0.096003 0.686586
1.000000 0.091223 0.678536
0.045212 0.245223 0.707229
0.169683 0.239374 0.706673
0.298910 0.235529 0.706116
0.431861 0.235001 0.705560
0.564795 0.234472 0.705004
0.696697 0.233316 0.703444
0.821141 0.227553 0.695303
0.952432 0.219053 0.682005
1.000000 0.213988 0.673199
0.043433 0.374395 0.705358
0.167905 0.370097 0.704801
0.292376 0.363200 0.704245
0.423524 0.358223 0.703688
0.559900 0.357694 0.703132
0.694825 0.356537 0.701185
0.819269 0.350774 0.691049
0.950379 0.342102 0.676314
1.000000 0.336753 0.666620
0.041655 0.503530 0.703486
0.166127 0.500772 0.702929
0.290598 0.496485 0.702373
0.415069 0.488231 0.701816
0.550807 0.480916 0.701260
0.692954 0.479759 0.698429
0.817397 0.473996 0.684933
0.948325 0.465151 0.668581
1.000000 0.459518 0.657867
0.039877 0.632625 0.701614
0.164348 0.631398 0.701057
0.288820 0.629706 0.700501
0.413291 0.626805 0.699945
0.537763 0.618575 0.699388
0.691082 0.602981 0.692516
0.815525 0.597218 0.673375
0.946272 0.588201 0.656409
1.000000 0.582283 0.644761
0.035167 0.758367 0.696466
0.159639 0.757811 0.695175
0.284110 0.757254 0.693458
0.408582 0.756698 0.690788
0.533053 0.756141 0.685183
0.664314 0.755585 0.665275
0.813654 0.737734 0.661815
0.944219 0.722782 0.646937
1.000000 0.716160 0.635048
0.030886 0.882125 0.682990
0.155306 0.881515 0.680583
0.279727 0.880905 0.677366
0.404147 0.880294 0.672634
0.528567 0.879684 0.664523
0.656095 0.879073 0.649362
0.806390 0.878463 0.648782
0.942165 0.866348 0.644987
1.000000 0.858552 0.632813
0.025521 1.000000 0.668512
0.149856 1.000000 0.665163
0.274192 1.000000 0.660827
0.398527 1.000000 0.654834
0.522863 1.000000 0.645739
0.649559 1.000000 0.632199
0.793515 1.000000 0.631534
0.937389 1.000000 0.630870
1.000000 1.000000 0.630578
0.066164 0.000000 0.831979
0.194322 0.000000 0.831369
0.322291 0.000000 0.830759
0.450070 0.000000 0.830148
0.577660 0.000000 0.829538
0.705060 0.000000 0.828928
0.831942 0.000000 0.827995
0.956332 0.000000 0.825185
1.000000 0.000000 0.819949
0.045609 0.109136 0.829926
0.173932 0.105717 0.829316
0.305313 0.105137 0.828705
0.436682 0.104557 0.828095
0.568039 0.103977 0.827484
0.699386 0.103398 0.826874
0.829889 0.102129 0.825434
0.954278 0.095807 0.818114
1.000000 0.090997 0.810578
0.043659 0.238613 0.827873
0.168079 0.232175 0.827262
0.297264 0.228186 0.826652
0.430182 0.227607 0.826041
0.563086 0.227027 0.825431
0.695976 0.226447 0.824821
0.827835 0.225178 0.823201
0.952225 0.218856 0.814725
1.000000 0.213762 0.806454
0.041708 0.368055 0.825819
0.166128 0.362942 0.825209
0.290548 0.355508 0.824598
0.421097 0.350656 0.823988
0.556446 0.350076 0.823378
0.691778 0.349496 0.822767
0.825782 0.348227 0.820868
0.950171 0.341905 0.810751
1.000000 0.336527 0.801573
0.039757 0.497462 0.823766
0.164177 0.493666 0.823155
0.288597 0.488229 0.822545
0.413018 0.479441 0.821935
0.546047 0.473125 0.821324
0.685821 0.472545 0.820714
0.823728 0.471276 0.818316
0.948118 0.464954 0.805697
1.000000 0.459292 0.795370
0.037806 0.626834 0.821712
0.162227 0.624349 0.821102
0.286647 0.620898 0.820492
0.411067 0.615474 0.819881
0.535487 0.604930 0.819271
0.674443 0.595595 0.818660
0.821675 0.594326 0.815124
0.946065 0.588004 0.798300
1.000000 0.582057 0.786517
0.035856 0.756171 0.819659
0.160276 0.754989 0.819049
0.284696 0.753513 0.818438
0.409116 0.751436 0.817828
0.533536 0.747799 0.817217
0.657956 0.737282 0.816607
0.819622 0.717375 0.807868
0.944011 0.711053 0.784051
1.000000 0.704822 0.771038
0.030689 0.881918 0.814080
0.155110 0.881308 0.812825
0.279530 0.880697 0.811279
0.403950 0.880087 0.809190
0.528370 0.879477 0.805888
0.652790 0.878866 0.798847
0.785858 0.878256 0.773585
0.941958 0.855874 0.769790
1.000000 0.845777 0.757587
0.025295 1.000000 0.800037
0.149631 1.000000 0.797738
0.273966 1.000000 0.794837
0.398302 1.000000 0.790928
0.522637 1.000000 0.785132
0.646973 1.000000 0.775123
0.775181 1.000000 0.756309
0.931661 1.000000 0.755644
1.000000 1.000000 0.755352
0.071727 0.000000 0.952949
0.199673 0.000000 0.952285
0.327439 0.000000 0.951621
0.455027 0.000000 0.950956
0.582437 0.000000 0.950292
0.709668 0.000000 0.949627
0.836720 0.000000 0.948963
0.963299 0.000000 0.948008
1.000000 0.000000 0.947053
0.043179 0.101219 0.950714
0.171678 0.097547 0.950050
0.303415 0.096916 0.949386
0.435142 0.096285 0.948721
0.566858 0.095654 0.948057
0.698564 0.095023 0.947392
0.830260 0.094392 0.946728
0.961064 0.093010 0.945185
1.000000 0.090771 0.942616
0.041055 0.230981 0.948479
0.165424 0.223970 0.947815
0.294668 0.219793 0.947151
0.427733 0.219162 0.946486
0.560785 0.218531 0.945822
0.693826 0.217900 0.945157
0.826854 0.217268 0.944493
0.958829 0.215887 0.942794
1.000000 0.213536 0.939703
0.038932 0.360711 0.946244
0.163301 0.354879 0.945580
0.287670 0.346930 0.944916
0.417993 0.342039 0.944251
0.552984 0.341407 0.943587
0.687960 0.340776 0.942922
0.822920 0.340145 0.942258
0.956594 0.338764 0.940335
1.000000 0.336301 0.936519
0.036809 0.490409 0.944009
0.161178 0.485750 0.943345
0.285547 0.479455 0.942681
0.409915 0.470257 0.942016
0.541946 0.464284 0.941352
0.679983 0.463653 0.940687
0.817999 0.463022 0.940023
0.954359 0.461641 0.937750
1.000000 0.459066 0.932860
0.034686 0.620074 0.941774
0.159054 0.616583 0.941110
0.283423 0.611934 0.940446
0.407792 0.605231 0.939781
0.532161 0.594335 0.939117
0.667299 0.586530 0.938452
0.810877 0.585899 0.937788
0.952124 0.584517 0.934892
1.000000 0.581831 0.928253
0.032562 0.749707 0.939539
0.156931 0.747378 0.938875
0.281300 0.744368 0.938211
0.405669 0.740148 0.937546
0.530038 0.733460 0.936882
0.654407 0.720362 0.936217
0.796967 0.708775 0.935553
0.949889 0.707394 0.931235
1.000000 0.704596 0.921271
0.030439 0.879307 0.937304
0.154808 0.878136 0.936640
0.279177 0.876756 0.935976
0.403546 0.875008 0.935311
0.527914 0.872507 0.934647
0.652283 0.868053 0.933982
0.776652 0.854985 0.933318
0.947654 0.830271 0.922500
1.000000 0.827361 0.904785
0.025069 1.000000 0.931559
0.149405 1.000000 0.930308
0.273741 1.000000 0.928842
0.398076 1.000000 0.927013
0.522412 1.000000 0.924508
0.646747 1.000000 0.920494
0.771083 1.000000 0.911824
0.906197 1.000000 0.880419
1.000000 1.000000 0.880126
