luts/original/golden-studio.cube
TITLE "Golden Studio"
LUT_3D_SIZE 5
DOMAIN_MIN 0.0 0.0 0.0
DOMAIN_MAX 1.0 1.0 1.0
0.033120 0.006964 0.006964
0.297816 0.003144 0.003144
0.562080 0.000000 0.000000
0.825912 0.000000 0.000000
1.000000 0.000000 0.000000
0.041222 0.260331 0.003408
0.295525 0.257751 0.000967
0.559063 0.255181 0.000000
0.822169 0.254129 0.000000
1.000000 0.253863 0.000000
0.048733 0.510589 0.000000
0.303453 0.509692 0.000000
0.556046 0.507715 0.000000
0.818425 0.505976 0.000000
1.000000 0.505431 0.000000
0.059502 0.759395 0.000000
0.312159 0.758282 0.000000
0.564074 0.757169 0.000000
0.814682 0.755540 0.000000
1.000000 0.754736 0.000000
0.070476 1.000000 0.000000
0.321744 1.000000 0.000000
0.572341 1.000000 0.000000
0.822271 1.000000 0.000000
1.000000 1.000000 0.000000
0.045131 0.007220 0.226580
0.297649 0.002986 0.222054
0.561861 0.000000 0.207364
0.825640 0.000000 0.195110
1.000000 0.000000 0.183554
0.039125 0.260164 0.221600
0.295358 0.255146 0.214934
0.558843 0.245333 0.194526
0.821897 0.232099 0.169646
1.000000 0.219237 0.144890
0.040227 0.510370 0.200176
0.296965 0.509473 0.194874
0.555826 0.505046 0.191660
0.818153 0.492121 0.166089
1.000000 0.480183 0.140420
0.035886 0.759123 0.173790
0.292641 0.758010 0.167578
0.555496 0.756897 0.166521
0.814409 0.751997 0.162533
1.000000 0.740960 0.135950
0.026423 1.000000 0.142378
0.283684 1.000000 0.135094
0.547656 1.000000 0.133766
0.811577 1.000000 0.132437
1.000000 1.000000 0.131480
0.050526 0.000782 0.468850
0.308564 0.000000 0.467953
0.561556 0.000000 0.463542
0.825262 0.000000 0.450099
1.000000 0.000000 0.438288
0.045166 0.255499 0.465833
0.300195 0.247064 0.464936
0.558539 0.241487 0.455376
0.821519 0.227912 0.430334
1.000000 0.214439 0.406674
0.039937 0.510065 0.459986
0.289085 0.509169 0.455178
0.555522 0.498446 0.441371
0.817775 0.480600 0.415730
1.000000 0.466219 0.389969
0.035527 0.758745 0.435135
0.284469 0.757632 0.425351
0.547295 0.756519 0.416162
0.814032 0.749195 0.412174
1.000000 0.733842 0.385499
0.025972 1.000000 0.405452
0.274643 1.000000 0.392787
0.535667 1.000000 0.383314
0.806316 1.000000 0.381986
1.000000 1.000000 0.381029
0.060642 0.000000 0.710973
0.317324 0.000000 0.709860
0.573187 0.000000 0.708747
0.824884 0.000000 0.704858
1.000000 0.000000 0.692787
0.045212 0.245223 0.707229
0.298910 0.235529 0.706116
0.564795 0.234472 0.705004
0.821141 0.227553 0.695303
1.000000 0.213988 0.673199
0.041655 0.503530 0.703486
0.290598 0.496485 0.702373
0.550807 0.480916 0.701260
0.817397 0.473996 0.684933
1.000000 0.459518 0.657867
0.035167 0.758367 0.696466
0.284110 0.757254 0.693458
0.533053 0.756141 0.685183
0.813654 0.737734 0.661815
1.000000 0.716160 0.635048
0.025521 1.000000 0.668512
0.274192 1.000000 0.660827
0.522863 1.000000 0.645739
0.793515 1.000000 0.631534
1.000000 1.000000 0.630578
0.071727 0.000000 0.952949
0.327439 0.000000 0.951621
0.582437 0.000000 0.950292
0.836720 0.000000 0.948963
1.000000 0.000000 0.947053
0.041055 0.230981 0.948479
0.294668 0.219793 0.947151
0.560785 0.218531 0.945822
0.826854 0.217268 0.944493
1.000000 0.213536 0.939703
0.036809 0.490409 0.944009
0.285547 0.479455 0.942681
0.541946 0.464284 0.941352
0.817999 0.463022 0.940023
1.000000 0.459066 0.932860
0.032562 0.749707 0.939539
0.281300 0.744368 0.938211
0.530038 0.733460 0.936882
0.796967 0.708775 0.935553
1.000000 0.704596 0.921271
0.025069 1.000000 0.931559
0.273741 1.000000 0.928842
0.522412 1.000000 0.924508
0.771083 1.000000 0.911824
1.000000 1.000000 0.880126
