luts/original/golden-hour-film.cube
TITLE "Golden Hour Film"
LUT_3D_SIZE 9
DOMAIN_MIN 0.0 0.0 0.0
DOMAIN_MAX 1.0 1.0 1.0
0.000000 0.000000 0.000000
0.131469 0.000000 0.000000
0.265375 0.000000 0.000000
0.401719 0.000000 0.000000
0.540500 0.000000 0.000000
0.681719 0.000000 0.000000
0.825375 0.000000 0.000000
0.971469 0.000000 0.000000
1.000000 0.000000 0.000000
0.000000 0.121766 0.000000
0.131469 0.121766 0.000000
0.265375 0.121156 0.000000
0.401719 0.120547 0.000000
0.540500 0.119937 0.000000
0.681719 0.119328 0.000000
0.825375 0.118719 0.000000
0.971469 0.118109 0.000000
1.000000 0.117500 0.000000
0.000000 0.242312 0.000000
0.132688 0.242312 0.000000
0.265375 0.242312 0.000000
0.401719 0.241094 0.000000
0.540500 0.239875 0.000000
0.681719 0.238656 0.000000
0.825375 0.237437 0.000000
0.971469 0.236219 0.000000
1.000000 0.235000 0.000000
0.000000 0.361641 0.000000
0.133906 0.361641 0.000000
0.267813 0.361641 0.000000
0.401719 0.361641 0.000000
0.540500 0.359812 0.000000
0.681719 0.357984 0.000000
0.825375 0.356156 0.000000
0.971469 0.354328 0.000000
1.000000 0.352500 0.000000
0.000000 0.479750 0.000000
0.135125 0.479750 0.000000
0.270250 0.479750 0.000000
0.405375 0.479750 0.000000
0.540500 0.479750 0.000000
0.681719 0.477312 0.000000
0.825375 0.474875 0.000000
0.971469 0.472437 0.000000
1.000000 0.470000 0.000000
0.000000 0.596641 0.000000
0.136344 0.596641 0.000000
0.272688 0.596641 0.000000
0.409031 0.596641 0.000000
0.545375 0.596641 0.000000
0.681719 0.596641 0.000000
0.825375 0.593594 0.000000
0.971469 0.590547 0.000000
1.000000 0.587500 0.000000
0.000000 0.712312 0.000000
0.137563 0.712312 0.000000
0.275125 0.712312 0.000000
0.412688 0.712312 0.000000
0.550250 0.712312 0.000000
0.687813 0.712312 0.000000
0.825375 0.712312 0.000000
0.971469 0.708656 0.000000
1.000000 0.705000 0.000000
0.000000 0.826766 0.000000
0.138781 0.826766 0.000000
0.277563 0.826766 0.000000
0.416344 0.826766 0.000000
0.555125 0.826766 0.000000
0.693906 0.826766 0.000000
0.832688 0.826766 0.000000
0.971469 0.826766 0.000000
1.000000 0.822500 0.000000
0.000000 0.940000 0.000000
0.140000 0.940000 0.000000
0.280000 0.940000 0.000000
0.420000 0.940000 0.000000
0.560000 0.940000 0.000000
0.700000 0.940000 0.000000
0.840000 0.940000 0.000000
0.980000 0.940000 0.000000
1.000000 0.940000 0.000000
0.000000 0.000000 0.113141
0.131469 0.000000 0.113141
0.265375 0.000000 0.110906
0.401719 0.000000 0.108672
0.540500 0.000000 0.106438
0.681719 0.000000 0.104203
0.825375 0.000000 0.101969
0.971469 0.000000 0.099734
1.000000 0.000000 0.097500
0.000000 0.121766 0.113141
0.131469 0.121766 0.113141
0.265375 0.121156 0.110906
0.401719 0.120547 0.108672
0.540500 0.119937 0.106438
0.681719 0.119328 0.104203
0.825375 0.118719 0.101969
0.971469 0.118109 0.099734
1.000000 0.117500 0.097500
0.000000 0.242312 0.110906
0.132688 0.242312 0.110906
0.265375 0.242312 0.110906
0.401719 0.241094 0.108672
0.540500 0.239875 0.106438
0.681719 0.238656 0.104203
0.825375 0.237437 0.101969
0.971469 0.236219 0.099734
1.000000 0.235000 0.097500
0.000000 0.361641 0.108672
0.133906 0.361641 0.108672
0.267813 0.361641 0.108672
0.401719 0.361641 0.108672
0.540500 0.359812 0.106438
0.681719 0.357984 0.104203
0.825375 0.356156 0.101969
0.971469 0.354328 0.099734
1.000000 0.352500 0.097500
0.000000 0.479750 0.106438
0.135125 0.479750 0.106438
0.270250 0.479750 0.106438
0.405375 0.479750 0.106438
0.540500 0.479750 0.106438
0.681719 0.477312 0.104203
0.825375 0.474875 0.101969
0.971469 0.472437 0.099734
1.000000 0.470000 0.097500
0.000000 0.596641 0.104203
0.136344 0.596641 0.104203
0.272688 0.596641 0.104203
0.409031 0.596641 0.104203
0.545375 0.596641 0.104203
0.681719 0.596641 0.104203
0.825375 0.593594 0.101969
0.971469 0.590547 0.099734
1.000000 0.587500 0.097500
0.000000 0.712312 0.101969
0.137563 0.712312 0.101969
0.275125 0.712312 0.101969
0.412688 0.712312 0.101969
0.550250 0.712312 0.101969
0.687813 0.712312 0.101969
0.825375 0.712312 0.101969
0.971469 0.708656 0.099734
1.000000 0.705000 0.097500
0.000000 0.826766 0.099734
0.138781 0.826766 0.099734
0.277563 0.826766 0.099734
0.416344 0.826766 0.099734
0.555125 0.826766 0.099734
0.693906 0.826766 0.099734
0.832688 0.826766 0.099734
0.971469 0.826766 0.099734
1.000000 0.822500 0.097500
0.000000 0.940000 0.097500
0.140000 0.940000 0.097500
0.280000 0.940000 0.097500
0.420000 0.940000 0.097500
0.560000 0.940000 0.097500
0.700000 0.940000 0.097500
0.840000 0.940000 0.097500
0.980000 0.940000 0.097500
1.000000 0.940000 0.097500
0.000000 0.000000 0.221813
0.132688 0.000000 0.221813
0.265375 0.000000 0.221813
0.401719 0.000000 0.217344
0.540500 0.000000 0.212875
0.681719 0.000000 0.208406
0.825375 0.000000 0.203937
0.971469 0.000000 0.199469
1.000000 0.000000 0.195000
0.000000 0.121156 0.221813
0.132688 0.121156 0.221813
0.265375 0.121156 0.221813
0.401719 0.120547 0.217344
0.540500 0.119937 0.212875
0.681719 0.119328 0.208406
0.825375 0.118719 0.203937
0.971469 0.118109 0.199469
1.000000 0.117500 0.195000
0.000000 0.242312 0.221813
0.132688 0.242312 0.221813
0.265375 0.242312 0.221813
0.401719 0.241094 0.217344
0.540500 0.239875 0.212875
0.681719 0.238656 0.208406
0.825375 0.237437 0.203937
0.971469 0.236219 0.199469
1.000000 0.235000 0.195000
0.000000 0.361641 0.217344
0.133906 0.361641 0.217344
0.267813 0.361641 0.217344
0.401719 0.361641 0.217344
0.540500 0.359812 0.212875
0.681719 0.357984 0.208406
0.825375 0.356156 0.203937
0.971469 0.354328 0.199469
1.000000 0.352500 0.195000
0.000000 0.479750 0.212875
0.135125 0.479750 0.212875
0.270250 0.479750 0.212875
0.405375 0.479750 0.212875
0.540500 0.479750 0.212875
0.681719 0.477312 0.208406
0.825375 0.474875 0.203937
0.971469 0.472437 0.199469
1.000000 0.470000 0.195000
0.000000 0.596641 0.208406
0.136344 0.596641 0.208406
0.272688 0.596641 0.208406
0.409031 0.596641 0.208406
0.545375 0.596641 0.208406
0.681719 0.596641 0.208406
0.825375 0.593594 0.203937
0.971469 0.590547 0.199469
1.000000 0.587500 0.195000
0.000000 0.712312 0.203937
0.137563 0.712312 0.203937
0.275125 0.712312 0.203937
0.412688 0.712312 0.203937
0.550250 0.712312 0.203937
0.687813 0.712312 0.203937
0.825375 0.712312 0.203937
0.971469 0.708656 0.199469
1.000000 0.705000 0.195000
0.000000 0.826766 0.199469
0.138781 0.826766 0.199469
0.277563 0.826766 0.199469
0.416344 0.826766 0.199469
0.555125 0.826766 0.199469
0.693906 0.826766 0.199469
0.832688 0.826766 0.199469
0.971469 0.826766 0.199469
1.000000 0.822500 0.195000
0.000000 0.940000 0.195000
0.140000 0.940000 0.195000
0.280000 0.940000 0.195000
0.420000 0.940000 0.195000
0.560000 0.940000 0.195000
0.700000 0.940000 0.195000
0.840000 0.940000 0.195000
0.980000 0.940000 0.195000
1.000000 0.940000 0.195000
0.000000 0.000000 0.326016
0.133906 0.000000 0.326016
0.267813 0.000000 0.326016
0.401719 0.000000 0.326016
0.540500 0.000000 0.319312
0.681719 0.000000 0.312609
0.825375 0.000000 0.305906
0.971469 0.000000 0.299203
1.000000 0.000000 0.292500
0.000000 0.120547 0.326016
0.133906 0.120547 0.326016
0.267813 0.120547 0.326016
0.401719 0.120547 0.326016
0.540500 0.119937 0.319312
0.681719 0.119328 0.312609
0.825375 0.118719 0.305906
0.971469 0.118109 0.299203
1.000000 0.117500 0.292500
0.000000 0.241094 0.326016
0.133906 0.241094 0.326016
0.267813 0.241094 0.326016
0.401719 0.241094 0.326016
0.540500 0.239875 0.319312
0.681719 0.238656 0.312609
0.825375 0.237437 0.305906
0.971469 0.236219 0.299203
1.000000 0.235000 0.292500
0.000000 0.361641 0.326016
0.133906 0.361641 0.326016
0.267813 0.361641 0.326016
0.401719 0.361641 0.326016
0.540500 0.359812 0.319312
0.681719 0.357984 0.312609
0.825375 0.356156 0.305906
0.971469 0.354328 0.299203
1.000000 0.352500 0.292500
0.000000 0.479750 0.319312
0.135125 0.479750 0.319312
0.270250 0.479750 0.319312
0.405375 0.479750 0.319312
0.540500 0.479750 0.319312
0.681719 0.477312 0.312609
0.825375 0.474875 0.305906
0.971469 0.472437 0.299203
1.000000 0.470000 0.292500
0.000000 0.596641 0.312609
0.136344 0.596641 0.312609
0.272688 0.596641 0.312609
0.409031 0.596641 0.312609
0.545375 0.596641 0.312609
0.681719 0.596641 0.312609
0.825375 0.593594 0.305906
0.971469 0.590547 0.299203
1.000000 0.587500 0.292500
0.000000 0.712312 0.305906
0.137563 0.712312 0.305906
0.275125 0.712312 0.305906
0.412688 0.712312 0.305906
0.550250 0.712312 0.305906
0.687813 0.712312 0.305906
0.825375 0.712312 0.305906
0.971469 0.708656 0.299203
1.000000 0.705000 0.292500
0.000000 0.826766 0.299203
0.138781 0.826766 0.299203
0.277563 0.826766 0.299203
0.416344 0.826766 0.299203
0.555125 0.826766 0.299203
0.693906 0.826766 0.299203
0.832688 0.826766 0.299203
0.971469 0.826766 0.299203
1.000000 0.822500 0.292500
0.000000 0.940000 0.292500
0.140000 0.940000 0.292500
0.280000 0.940000 0.292500
0.420000 0.940000 0.292500
0.560000 0.940000 0.292500
0.700000 0.940000 0.292500
0.840000 0.940000 0.292500
0.980000 0.940000 0.292500
1.000000 0.940000 0.292500
0.000000 0.000000 0.425750
0.135125 0.000000 0.425750
0.270250 0.000000 0.425750
0.405375 0.000000 0.425750
0.540500 0.000000 0.425750
0.681719 0.000000 0.416813
0.825375 0.000000 0.407875
0.971469 0.000000 0.398938
1.000000 0.000000 0.390000
0.000000 0.119937 0.425750
0.135125 0.119937 0.425750
0.270250 0.119937 0.425750
0.405375 0.119937 0.425750
0.540500 0.119937 0.425750
0.681719 0.119328 0.416813
0.825375 0.118719 0.407875
0.971469 0.118109 0.398938
1.000000 0.117500 0.390000
0.000000 0.239875 0.425750
0.135125 0.239875 0.425750
0.270250 0.239875 0.425750
0.405375 0.239875 0.425750
0.540500 0.239875 0.425750
0.681719 0.238656 0.416813
0.825375 0.237437 0.407875
0.971469 0.236219 0.398938
1.000000 0.235000 0.390000
0.000000 0.359812 0.425750
0.135125 0.359812 0.425750
0.270250 0.359812 0.425750
0.405375 0.359812 0.425750
0.540500 0.359812 0.425750
0.681719 0.357984 0.416813
0.825375 0.356156 0.407875
0.971469 0.354328 0.398938
1.000000 0.352500 0.390000
0.000000 0.479750 0.425750
0.135125 0.479750 0.425750
0.270250 0.479750 0.425750
0.405375 0.479750 0.425750
0.540500 0.479750 0.425750
0.681719 0.477312 0.416813
0.825375 0.474875 0.407875
0.971469 0.472437 0.398938
1.000000 0.470000 0.390000
0.000000 0.596641 0.416813
0.136344 0.596641 0.416813
0.272688 0.596641 0.416813
0.409031 0.596641 0.416813
0.545375 0.596641 0.416813
0.681719 0.596641 0.416813
0.825375 0.593594 0.407875
0.971469 0.590547 0.398938
1.000000 0.587500 0.390000
0.000000 0.712312 0.407875
0.137563 0.712312 0.407875
0.275125 0.712312 0.407875
0.412688 0.712312 0.407875
0.550250 0.712312 0.407875
0.687813 0.712312 0.407875
0.825375 0.712312 0.407875
0.971469 0.708656 0.398938
1.000000 0.705000 0.390000
0.000000 0.826766 0.398938
0.138781 0.826766 0.398938
0.277563 0.826766 0.398938
0.416344 0.826766 0.398938
0.555125 0.826766 0.398938
0.693906 0.826766 0.398938
0.832688 0.826766 0.398938
0.971469 0.826766 0.398938
1.000000 0.822500 0.390000
0.000000 0.940000 0.390000
0.140000 0.940000 0.390000
0.280000 0.940000 0.390000
0.420000 0.940000 0.390000
0.560000 0.940000 0.390000
0.700000 0.940000 0.390000
0.840000 0.940000 0.390000
0.980000 0.940000 0.390000
1.000000 0.940000 0.390000
0.000000 0.000000 0.521016
0.136344 0.000000 0.521016
0.272688 0.000000 0.521016
0.409031 0.000000 0.521016
0.545375 0.000000 0.521016
0.681719 0.000000 0.521016
0.825375 0.000000 0.509844
0.971469 0.000000 0.498672
1.000000 0.000000 0.487500
0.000000 0.119328 0.521016
0.136344 0.119328 0.521016
0.272688 0.119328 0.521016
0.409031 0.119328 0.521016
0.545375 0.119328 0.521016
0.681719 0.119328 0.521016
0.825375 0.118719 0.509844
0.971469 0.118109 0.498672
1.000000 0.117500 0.487500
0.000000 0.238656 0.521016
0.136344 0.238656 0.521016
0.272688 0.238656 0.521016
0.409031 0.238656 0.521016
0.545375 0.238656 0.521016
0.681719 0.238656 0.521016
0.825375 0.237437 0.509844
0.971469 0.236219 0.498672
1.000000 0.235000 0.487500
0.000000 0.357984 0.521016
0.136344 0.357984 0.521016
0.272688 0.357984 0.521016
0.409031 0.357984 0.521016
0.545375 0.357984 0.521016
0.681719 0.357984 0.521016
0.825375 0.356156 0.509844
0.971469 0.354328 0.498672
1.000000 0.352500 0.487500
0.000000 0.477312 0.521016
0.136344 0.477312 0.521016
0.272688 0.477312 0.521016
0.409031 0.477312 0.521016
0.545375 0.477312 0.521016
0.681719 0.477312 0.521016
0.825375 0.474875 0.509844
0.971469 0.472437 0.498672
1.000000 0.470000 0.487500
0.000000 0.596641 0.521016
0.136344 0.596641 0.521016
0.272688 0.596641 0.521016
0.409031 0.596641 0.521016
0.545375 0.596641 0.521016
0.681719 0.596641 0.521016
0.825375 0.593594 0.509844
0.971469 0.590547 0.498672
1.000000 0.587500 0.487500
0.000000 0.712312 0.509844
0.137563 0.712312 0.509844
0.275125 0.712312 0.509844
0.412688 0.712312 0.509844
0.550250 0.712312 0.509844
0.687813 0.712312 0.509844
0.825375 0.712312 0.509844
0.971469 0.708656 0.498672
1.000000 0.705000 0.487500
0.000000 0.826766 0.498672
0.138781 0.826766 0.498672
0.277563 0.826766 0.498672
0.416344 0.826766 0.498672
0.555125 0.826766 0.498672
0.693906 0.826766 0.498672
0.832688 0.826766 0.498672
0.971469 0.826766 0.498672
1.000000 0.822500 0.487500
0.000000 0.940000 0.487500
0.140000 0.940000 0.487500
0.280000 0.940000 0.487500
0.420000 0.940000 0.487500
0.560000 0.940000 0.487500
0.700000 0.940000 0.487500
0.840000 0.940000 0.487500
0.980000 0.940000 0.487500
1.000000 0.940000 0.487500
0.000000 0.000000 0.611812
0.137563 0.000000 0.611812
0.275125 0.000000 0.611812
0.412688 0.000000 0.611812
0.550250 0.000000 0.611812
0.687813 0.000000 0.611812
0.825375 0.000000 0.611812
0.971469 0.000000 0.598406
1.000000 0.000000 0.585000
0.000000 0.118719 0.611812
0.137563 0.118719 0.611812
0.275125 0.118719 0.611812
0.412688 0.118719 0.611812
0.550250 0.118719 0.611812
0.687813 0.118719 0.611812
0.825375 0.118719 0.611812
0.971469 0.118109 0.598406
1.000000 0.117500 0.585000
0.000000 0.237437 0.611812
0.137563 0.237437 0.611812
0.275125 0.237437 0.611812
0.412688 0.237437 0.611812
0.550250 0.237437 0.611812
0.687813 0.237437 0.611812
0.825375 0.237437 0.611812
0.971469 0.236219 0.598406
1.000000 0.235000 0.585000
0.000000 0.356156 0.611812
0.137563 0.356156 0.611812
0.275125 0.356156 0.611812
0.412688 0.356156 0.611812
0.550250 0.356156 0.611812
0.687813 0.356156 0.611812
0.825375 0.356156 0.611812
0.971469 0.354328 0.598406
1.000000 0.352500 0.585000
0.000000 0.474875 0.611812
0.137563 0.474875 0.611812
0.275125 0.474875 0.611812
0.412688 0.474875 0.611812
0.550250 0.474875 0.611812
0.687813 0.474875 0.611812
0.825375 0.474875 0.611812
0.971469 0.472437 0.598406
1.000000 0.470000 0.585000
0.000000 0.593594 0.611812
0.137563 0.593594 0.611812
0.275125 0.593594 0.611812
0.412688 0.593594 0.611812
0.550250 0.593594 0.611812
0.687813 0.593594 0.611812
0.825375 0.593594 0.611812
0.971469 0.590547 0.598406
1.000000 0.587500 0.585000
0.000000 0.712312 0.611812
0.137563 0.712312 0.611812
0.275125 0.712312 0.611812
0.412688 0.712312 0.611812
0.550250 0.712312 0.611812
0.687813 0.712312 0.611812
0.825375 0.712312 0.611812
0.971469 0.708656 0.598406
1.000000 0.705000 0.585000
0.000000 0.826766 0.598406
0.138781 0.826766 0.598406
0.277563 0.826766 0.598406
0.416344 0.826766 0.598406
0.555125 0.826766 0.598406
0.693906 0.826766 0.598406
0.832688 0.826766 0.598406
0.971469 0.826766 0.598406
1.000000 0.822500 0.585000
0.000000 0.940000 0.585000
0.140000 0.940000 0.585000
0.280000 0.940000 0.585000
0.420000 0.940000 0.585000
0.560000 0.940000 0.585000
0.700000 0.940000 0.585000
0.840000 0.940000 0.585000
0.980000 0.940000 0.585000
1.000000 0.940000 0.585000
0.000000 0.000000 0.698141
0.138781 0.000000 0.698141
0.277563 0.000000 0.698141
0.416344 0.000000 0.698141
0.555125 0.000000 0.698141
0.693906 0.000000 0.698141
0.832688 0.000000 0.698141
0.971469 0.000000 0.698141
1.000000 0.000000 0.682500
0.000000 0.118109 0.698141
0.138781 0.118109 0.698141
0.277563 0.118109 0.698141
0.416344 0.118109 0.698141
0.555125 0.118109 0.698141
0.693906 0.118109 0.698141
0.832688 0.118109 0.698141
0.971469 0.118109 0.698141
1.000000 0.117500 0.682500
0.000000 0.236219 0.698141
0.138781 0.236219 0.698141
0.277563 0.236219 0.698141
0.416344 0.236219 0.698141
0.555125 0.236219 0.698141
0.693906 0.236219 0.698141
0.832688 0.236219 0.698141
0.971469 0.236219 0.698141
1.000000 0.235000 0.682500
0.000000 0.354328 0.698141
0.138781 0.354328 0.698141
0.277563 0.354328 0.698141
0.416344 0.354328 0.698141
0.555125 0.354328 0.698141
0.693906 0.354328 0.698141
0.832688 0.354328 0.698141
0.971469 0.354328 0.698141
1.000000 0.352500 0.682500
0.000000 0.472437 0.698141
0.138781 0.472437 0.698141
0.277563 0.472437 0.698141
0.416344 0.472437 0.698141
0.555125 0.472437 0.698141
0.693906 0.472437 0.698141
0.832688 0.472437 0.698141
0.971469 0.472437 0.698141
1.000000 0.470000 0.682500
0.000000 0.590547 0.698141
0.138781 0.590547 0.698141
0.277563 0.590547 0.698141
0.416344 0.590547 0.698141
0.555125 0.590547 0.698141
0.693906 0.590547 0.698141
0.832688 0.590547 0.698141
0.971469 0.590547 0.698141
1.000000 0.587500 0.682500
0.000000 0.708656 0.698141
0.138781 0.708656 0.698141
0.277563 0.708656 0.698141
0.416344 0.708656 0.698141
0.555125 0.708656 0.698141
0.693906 0.708656 0.698141
0.832688 0.708656 0.698141
0.971469 0.708656 0.698141
1.000000 0.705000 0.682500
0.000000 0.826766 0.698141
0.138781 0.826766 0.698141
0.277563 0.826766 0.698141
0.416344 0.826766 0.698141
0.555125 0.826766 0.698141
0.693906 0.826766 0.698141
0.832688 0.826766 0.698141
0.971469 0.826766 0.698141
1.000000 0.822500 0.682500
0.000000 0.940000 0.682500
0.140000 0.940000 0.682500
0.280000 0.940000 0.682500
0.420000 0.940000 0.682500
0.560000 0.940000 0.682500
0.700000 0.940000 0.682500
0.840000 0.940000 0.682500
0.980000 0.940000 0.682500
1.000000 0.940000 0.682500
0.000000 0.000000 0.780000
0.140000 0.000000 0.780000
0.280000 0.000000 0.780000
0.420000 0.000000 0.780000
0.560000 0.000000 0.780000
0.700000 0.000000 0.780000
0.840000 0.000000 0.780000
0.980000 0.000000 0.780000
1.000000 0.000000 0.780000
0.000000 0.117500 0.780000
0.140000 0.117500 0.780000
0.280000 0.117500 0.780000
0.420000 0.117500 0.780000
0.560000 0.117500 0.780000
0.700000 0.117500 0.780000
0.840000 0.117500 0.780000
0.980000 0.117500 0.780000
1.000000 0.117500 0.780000
0.000000 0.235000 0.780000
0.140000 0.235000 0.780000
0.280000 0.235000 0.780000
0.420000 0.235000 0.780000
0.560000 0.235000 0.780000
0.700000 0.235000 0.780000
0.840000 0.235000 0.780000
0.980000 0.235000 0.780000
1.000000 0.235000 0.780000
0.000000 0.352500 0.780000
0.140000 0.352500 0.780000
0.280000 0.352500 0.780000
0.420000 0.352500 0.780000
0.560000 0.352500 0.780000
0.700000 0.352500 0.780000
0.840000 0.352500 0.780000
0.980000 0.352500 0.780000
1.000000 0.352500 0.780000
0.000000 0.470000 0.780000
0.140000 0.470000 0.780000
0.280000 0.470000 0.780000
0.420000 0.470000 0.780000
0.560000 0.470000 0.780000
0.700000 0.470000 0.780000
0.840000 0.470000 0.780000
0.980000 0.470000 0.780000
1.000000 0.470000 0.780000
0.000000 0.587500 0.780000
0.140000 0.587500 0.780000
0.280000 0.587500 0.780000
0.420000 0.587500 0.780000
0.560000 0.587500 0.780000
0.700000 0.587500 0.780000
0.840000 0.587500 0.780000
0.980000 0.587500 0.780000
1.000000 0.587500 0.780000
0.000000 0.705000 0.780000
0.140000 0.705000 0.780000
0.280000 0.705000 0.780000
0.420000 0.705000 0.780000
0.560000 0.705000 0.780000
0.700000 0.705000 0.780000
0.840000 0.705000 0.780000
0.980000 0.705000 0.780000
1.000000 0.705000 0.780000
0.000000 0.822500 0.780000
0.140000 0.822500 0.780000
0.280000 0.822500 0.780000
0.420000 0.822500 0.780000
0.560000 0.822500 0.780000
0.700000 0.822500 0.780000
0.840000 0.822500 0.780000
0.980000 0.822500 0.780000
1.000000 0.822500 0.780000
0.000000 0.940000 0.780000
0.140000 0.940000 0.780000
0.280000 0.940000 0.780000
0.420000 0.940000 0.780000
0.560000 0.940000 0.780000
0.700000 0.940000 0.780000
0.840000 0.940000 0.780000
0.980000 0.940000 0.780000
1.000000 0.940000 0.780000
