luts/original/golden-hour-film.cube
TITLE "Golden Hour Film"
LUT_3D_SIZE 33
DOMAIN_MIN 0.0 0.0 0.0
DOMAIN_MAX 1.0 1.0 1.0
0.000000 0.000000 0.000000
0.032639 0.000000 0.000000
0.065430 0.000000 0.000000
0.098373 0.000000 0.000000
0.131469 0.000000 0.000000
0.164717 0.000000 0.000000
0.198117 0.000000 0.000000
0.231670 0.000000 0.000000
0.265375 0.000000 0.000000
0.299232 0.000000 0.000000
0.333242 0.000000 0.000000
0.367404 0.000000 0.000000
0.401719 0.000000 0.000000
0.436186 0.000000 0.000000
0.470805 0.000000 0.000000
0.505576 0.000000 0.000000
0.540500 0.000000 0.000000
0.575576 0.000000 0.000000
0.610805 0.000000 0.000000
0.646186 0.000000 0.000000
0.681719 0.000000 0.000000
0.717404 0.000000 0.000000
0.753242 0.000000 0.000000
0.789232 0.000000 0.000000
0.825375 0.000000 0.000000
0.861670 0.000000 0.000000
0.898117 0.000000 0.000000
0.934717 0.000000 0.000000
0.971469 0.000000 0.000000
1.000000 0.000000 0.000000
1.000000 0.000000 0.000000
1.000000 0.000000 0.000000
1.000000 0.000000 0.000000
0.000000 0.030556 0.000000
0.032639 0.030556 0.000000
0.065430 0.030518 0.000000
0.098373 0.030479 0.000000
0.131469 0.030441 0.000000
0.164717 0.030403 0.000000
0.198117 0.030365 0.000000
0.231670 0.030327 0.000000
0.265375 0.030289 0.000000
0.299232 0.030251 0.000000
0.333242 0.030213 0.000000
0.367404 0.030175 0.000000
0.401719 0.030137 0.000000
0.436186 0.030099 0.000000
0.470805 0.030061 0.000000
0.505576 0.030022 0.000000
0.540500 0.029984 0.000000
0.575576 0.029946 0.000000
0.610805 0.029908 0.000000
0.646186 0.029870 0.000000
0.681719 0.029832 0.000000
0.717404 0.029794 0.000000
0.753242 0.029756 0.000000
0.789232 0.029718 0.000000
0.825375 0.029680 0.000000
0.861670 0.029642 0.000000
0.898117 0.029604 0.000000
0.934717 0.029565 0.000000
0.971469 0.029527 0.000000
1.000000 0.029489 0.000000
1.000000 0.029451 0.000000
1.000000 0.029413 0.000000
1.000000 0.029375 0.000000
0.000000 0.061035 0.000000
0.032715 0.061035 0.000000
0.065430 0.061035 0.000000
0.098373 0.060959 0.000000
0.131469 0.060883 0.000000
0.164717 0.060807 0.000000
0.198117 0.060730 0.000000
0.231670 0.060654 0.000000
0.265375 0.060578 0.000000
0.299232 0.060502 0.000000
0.333242 0.060426 0.000000
0.367404 0.060350 0.000000
0.401719 0.060273 0.000000
0.436186 0.060197 0.000000
0.470805 0.060121 0.000000
0.505576 0.060045 0.000000
0.540500 0.059969 0.000000
0.575576 0.059893 0.000000
0.610805 0.059816 0.000000
0.646186 0.059740 0.000000
0.681719 0.059664 0.000000
0.717404 0.059588 0.000000
0.753242 0.059512 0.000000
0.789232 0.059436 0.000000
0.825375 0.059359 0.000000
0.861670 0.059283 0.000000
0.898117 0.059207 0.000000
0.934717 0.059131 0.000000
0.971469 0.059055 0.000000
1.000000 0.058979 0.000000
1.000000 0.058902 0.000000
1.000000 0.058826 0.000000
1.000000 0.058750 0.000000
0.000000 0.091438 0.000000
0.032791 0.091438 0.000000
0.065582 0.091438 0.000000
0.098373 0.091438 0.000000
0.131469 0.091324 0.000000
0.164717 0.091210 0.000000
0.198117 0.091096 0.000000
0.231670 0.090981 0.000000
0.265375 0.090867 0.000000
0.299232 0.090753 0.000000
0.333242 0.090639 0.000000
0.367404 0.090524 0.000000
0.401719 0.090410 0.000000
0.436186 0.090296 0.000000
0.470805 0.090182 0.000000
0.505576 0.090067 0.000000
0.540500 0.089953 0.000000
0.575576 0.089839 0.000000
0.610805 0.089725 0.000000
0.646186 0.089610 0.000000
0.681719 0.089496 0.000000
0.717404 0.089382 0.000000
0.753242 0.089268 0.000000
0.789232 0.089153 0.000000
0.825375 0.089039 0.000000
0.861670 0.088925 0.000000
0.898117 0.088811 0.000000
0.934717 0.088696 0.000000
0.971469 0.088582 0.000000
1.000000 0.088468 0.000000
1.000000 0.088354 0.000000
1.000000 0.088239 0.000000
1.000000 0.088125 0.000000
0.000000 0.121766 0.000000
0.032867 0.121766 0.000000
0.065734 0.121766 0.000000
0.098602 0.121766 0.000000
0.131469 0.121766 0.000000
0.164717 0.121613 0.000000
0.198117 0.121461 0.000000
0.231670 0.121309 0.000000
0.265375 0.121156 0.000000
0.299232 0.121004 0.000000
0.333242 0.120852 0.000000
0.367404 0.120699 0.000000
0.401719 0.120547 0.000000
0.436186 0.120395 0.000000
0.470805 0.120242 0.000000
0.505576 0.120090 0.000000
0.540500 0.119937 0.000000
0.575576 0.119785 0.000000
0.610805 0.119633 0.000000
0.646186 0.119480 0.000000
0.681719 0.119328 0.000000
0.717404 0.119176 0.000000
0.753242 0.119023 0.000000
0.789232 0.118871 0.000000
0.825375 0.118719 0.000000
0.861670 0.118566 0.000000
0.898117 0.118414 0.000000
0.934717 0.118262 0.000000
0.971469 0.118109 0.000000
1.000000 0.117957 0.000000
1.000000 0.117805 0.000000
1.000000 0.117652 0.000000
1.000000 0.117500 0.000000
0.000000 0.152017 0.000000
0.032943 0.152017 0.000000
0.065887 0.152017 0.000000
0.098830 0.152017 0.000000
0.131773 0.152017 0.000000
0.164717 0.152017 0.000000
0.198117 0.151826 0.000000
0.231670 0.151636 0.000000
0.265375 0.151445 0.000000
0.299232 0.151255 0.000000
0.333242 0.151064 0.000000
0.367404 0.150874 0.000000
0.401719 0.150684 0.000000
0.436186 0.150493 0.000000
0.470805 0.150303 0.000000
0.505576 0.150112 0.000000
0.540500 0.149922 0.000000
0.575576 0.149731 0.000000
0.610805 0.149541 0.000000
0.646186 0.149351 0.000000
0.681719 0.149160 0.000000
0.717404 0.148970 0.000000
0.753242 0.148779 0.000000
0.789232 0.148589 0.000000
0.825375 0.148398 0.000000
0.861670 0.148208 0.000000
0.898117 0.148018 0.000000
0.934717 0.147827 0.000000
0.971469 0.147637 0.000000
1.000000 0.147446 0.000000
1.000000 0.147256 0.000000
1.000000 0.147065 0.000000
1.000000 0.146875 0.000000
0.000000 0.182191 0.000000
0.033020 0.182191 0.000000
0.066039 0.182191 0.000000
0.099059 0.182191 0.000000
0.132078 0.182191 0.000000
0.165098 0.182191 0.000000
0.198117 0.182191 0.000000
0.231670 0.181963 0.000000
0.265375 0.181734 0.000000
0.299232 0.181506 0.000000
0.333242 0.181277 0.000000
0.367404 0.181049 0.000000
0.401719 0.180820 0.000000
0.436186 0.180592 0.000000
0.470805 0.180363 0.000000
0.505576 0.180135 0.000000
0.540500 0.179906 0.000000
0.575576 0.179678 0.000000
0.610805 0.179449 0.000000
0.646186 0.179221 0.000000
0.681719 0.178992 0.000000
0.717404 0.178764 0.000000
0.753242 0.178535 0.000000
0.789232 0.178307 0.000000
0.825375 0.178078 0.000000
0.861670 0.177850 0.000000
0.898117 0.177621 0.000000
0.934717 0.177393 0.000000
0.971469 0.177164 0.000000
1.000000 0.176936 0.000000
1.000000 0.176707 0.000000
1.000000 0.176479 0.000000
1.000000 0.176250 0.000000
0.000000 0.212290 0.000000
0.033096 0.212290 0.000000
0.066191 0.212290 0.000000
0.099287 0.212290 0.000000
0.132383 0.212290 0.000000
0.165479 0.212290 0.000000
0.198574 0.212290 0.000000
0.231670 0.212290 0.000000
0.265375 0.212023 0.000000
0.299232 0.211757 0.000000
0.333242 0.211490 0.000000
0.367404 0.211224 0.000000
0.401719 0.210957 0.000000
0.436186 0.210690 0.000000
0.470805 0.210424 0.000000
0.505576 0.210157 0.000000
0.540500 0.209891 0.000000
0.575576 0.209624 0.000000
0.610805 0.209357 0.000000
0.646186 0.209091 0.000000
0.681719 0.208824 0.000000
0.717404 0.208558 0.000000
0.753242 0.208291 0.000000
0.789232 0.208024 0.000000
0.825375 0.207758 0.000000
0.861670 0.207491 0.000000
0.898117 0.207225 0.000000
0.934717 0.206958 0.000000
0.971469 0.206691 0.000000
1.000000 0.206425 0.000000
1.000000 0.206158 0.000000
1.000000 0.205892 0.000000
1.000000 0.205625 0.000000
0.000000 0.242312 0.000000
0.033172 0.242312 0.000000
0.066344 0.242312 0.000000
0.099516 0.242312 0.000000
0.132688 0.242312 0.000000
0.165859 0.242312 0.000000
0.199031 0.242312 0.000000
0.232203 0.242312 0.000000
0.265375 0.242312 0.000000
0.299232 0.242008 0.000000
0.333242 0.241703 0.000000
0.367404 0.241398 0.000000
0.401719 0.241094 0.000000
0.436186 0.240789 0.000000
0.470805 0.240484 0.000000
0.505576 0.240180 0.000000
0.540500 0.239875 0.000000
0.575576 0.239570 0.000000
0.610805 0.239266 0.000000
0.646186 0.238961 0.000000
0.681719 0.238656 0.000000
0.717404 0.238352 0.000000
0.753242 0.238047 0.000000
0.789232 0.237742 0.000000
0.825375 0.237437 0.000000
0.861670 0.237133 0.000000
0.898117 0.236828 0.000000
0.934717 0.236523 0.000000
0.971469 0.236219 0.000000
1.000000 0.235914 0.000000
1.000000 0.235609 0.000000
1.000000 0.235305 0.000000
1.000000 0.235000 0.000000
0.000000 0.272259 0.000000
0.033248 0.272259 0.000000
0.066496 0.272259 0.000000
0.099744 0.272259 0.000000
0.132992 0.272259 0.000000
0.166240 0.272259 0.000000
0.199488 0.272259 0.000000
0.232736 0.272259 0.000000
0.265984 0.272259 0.000000
0.299232 0.272259 0.000000
0.333242 0.271916 0.000000
0.367404 0.271573 0.000000
0.401719 0.271230 0.000000
0.436186 0.270888 0.000000
0.470805 0.270545 0.000000
0.505576 0.270202 0.000000
0.540500 0.269859 0.000000
0.575576 0.269517 0.000000
0.610805 0.269174 0.000000
0.646186 0.268831 0.000000
0.681719 0.268488 0.000000
0.717404 0.268146 0.000000
0.753242 0.267803 0.000000
0.789232 0.267460 0.000000
0.825375 0.267117 0.000000
0.861670 0.266774 0.000000
0.898117 0.266432 0.000000
0.934717 0.266089 0.000000
0.971469 0.265746 0.000000
1.000000 0.265403 0.000000
1.000000 0.265061 0.000000
1.000000 0.264718 0.000000
1.000000 0.264375 0.000000
0.000000 0.302129 0.000000
0.033324 0.302129 0.000000
0.066648 0.302129 0.000000
0.099973 0.302129 0.000000
0.133297 0.302129 0.000000
0.166621 0.302129 0.000000
0.199945 0.302129 0.000000
0.233270 0.302129 0.000000
0.266594 0.302129 0.000000
0.299918 0.302129 0.000000
0.333242 0.302129 0.000000
0.367404 0.301748 0.000000
0.401719 0.301367 0.000000
0.436186 0.300986 0.000000
0.470805 0.300605 0.000000
0.505576 0.300225 0.000000
0.540500 0.299844 0.000000
0.575576 0.299463 0.000000
0.610805 0.299082 0.000000
0.646186 0.298701 0.000000
0.681719 0.298320 0.000000
0.717404 0.297939 0.000000
0.753242 0.297559 0.000000
0.789232 0.297178 0.000000
0.825375 0.296797 0.000000
0.861670 0.296416 0.000000
0.898117 0.296035 0.000000
0.934717 0.295654 0.000000
0.971469 0.295273 0.000000
1.000000 0.294893 0.000000
1.000000 0.294512 0.000000
1.000000 0.294131 0.000000
1.000000 0.293750 0.000000
0.000000 0.331923 0.000000
0.033400 0.331923 0.000000
0.066801 0.331923 0.000000
0.100201 0.331923 0.000000
0.133602 0.331923 0.000000
0.167002 0.331923 0.000000
0.200402 0.331923 0.000000
0.233803 0.331923 0.000000
0.267203 0.331923 0.000000
0.300604 0.331923 0.000000
0.334004 0.331923 0.000000
0.367404 0.331923 0.000000
0.401719 0.331504 0.000000
0.436186 0.331085 0.000000
0.470805 0.330666 0.000000
0.505576 0.330247 0.000000
0.540500 0.329828 0.000000
0.575576 0.329409 0.000000
0.610805 0.328990 0.000000
0.646186 0.328571 0.000000
0.681719 0.328152 0.000000
0.717404 0.327733 0.000000
0.753242 0.327314 0.000000
0.789232 0.326896 0.000000
0.825375 0.326477 0.000000
0.861670 0.326058 0.000000
0.898117 0.325639 0.000000
0.934717 0.325220 0.000000
0.971469 0.324801 0.000000
1.000000 0.324382 0.000000
1.000000 0.323963 0.000000
1.000000 0.323544 0.000000
1.000000 0.323125 0.000000
0.000000 0.361641 0.000000
0.033477 0.361641 0.000000
0.066953 0.361641 0.000000
0.100430 0.361641 0.000000
0.133906 0.361641 0.000000
0.167383 0.361641 0.000000
0.200859 0.361641 0.000000
0.234336 0.361641 0.000000
0.267813 0.361641 0.000000
0.301289 0.361641 0.000000
0.334766 0.361641 0.000000
0.368242 0.361641 0.000000
0.401719 0.361641 0.000000
0.436186 0.361184 0.000000
0.470805 0.360727 0.000000
0.505576 0.360270 0.000000
0.540500 0.359812 0.000000
0.575576 0.359355 0.000000
0.610805 0.358898 0.000000
0.646186 0.358441 0.000000
0.681719 0.357984 0.000000
0.717404 0.357527 0.000000
0.753242 0.357070 0.000000
0.789232 0.356613 0.000000
0.825375 0.356156 0.000000
0.861670 0.355699 0.000000
0.898117 0.355242 0.000000
0.934717 0.354785 0.000000
0.971469 0.354328 0.000000
1.000000 0.353871 0.000000
1.000000 0.353414 0.000000
1.000000 0.352957 0.000000
1.000000 0.352500 0.000000
0.000000 0.391282 0.000000
0.033553 0.391282 0.000000
0.067105 0.391282 0.000000
0.100658 0.391282 0.000000
0.134211 0.391282 0.000000
0.167764 0.391282 0.000000
0.201316 0.391282 0.000000
0.234869 0.391282 0.000000
0.268422 0.391282 0.000000
0.301975 0.391282 0.000000
0.335527 0.391282 0.000000
0.369080 0.391282 0.000000
0.402633 0.391282 0.000000
0.436186 0.391282 0.000000
0.470805 0.390787 0.000000
0.505576 0.390292 0.000000
0.540500 0.389797 0.000000
0.575576 0.389302 0.000000
0.610805 0.388807 0.000000
0.646186 0.388312 0.000000
0.681719 0.387816 0.000000
0.717404 0.387321 0.000000
0.753242 0.386826 0.000000
0.789232 0.386331 0.000000
0.825375 0.385836 0.000000
0.861670 0.385341 0.000000
0.898117 0.384846 0.000000
0.934717 0.384351 0.000000
0.971469 0.383855 0.000000
1.000000 0.383360 0.000000
1.000000 0.382865 0.000000
1.000000 0.382370 0.000000
1.000000 0.381875 0.000000
0.000000 0.420848 0.000000
0.033629 0.420848 0.000000
0.067258 0.420848 0.000000
0.100887 0.420848 0.000000
0.134516 0.420848 0.000000
0.168145 0.420848 0.000000
0.201773 0.420848 0.000000
0.235402 0.420848 0.000000
0.269031 0.420848 0.000000
0.302660 0.420848 0.000000
0.336289 0.420848 0.000000
0.369918 0.420848 0.000000
0.403547 0.420848 0.000000
0.437176 0.420848 0.000000
0.470805 0.420848 0.000000
0.505576 0.420314 0.000000
0.540500 0.419781 0.000000
0.575576 0.419248 0.000000
0.610805 0.418715 0.000000
0.646186 0.418182 0.000000
0.681719 0.417648 0.000000
0.717404 0.417115 0.000000
0.753242 0.416582 0.000000
0.789232 0.416049 0.000000
0.825375 0.415516 0.000000
0.861670 0.414982 0.000000
0.898117 0.414449 0.000000
0.934717 0.413916 0.000000
0.971469 0.413383 0.000000
1.000000 0.412850 0.000000
1.000000 0.412316 0.000000
1.000000 0.411783 0.000000
1.000000 0.411250 0.000000
0.000000 0.450337 0.000000
0.033705 0.450337 0.000000
0.067410 0.450337 0.000000
0.101115 0.450337 0.000000
0.134820 0.450337 0.000000
0.168525 0.450337 0.000000
0.202230 0.450337 0.000000
0.235936 0.450337 0.000000
0.269641 0.450337 0.000000
0.303346 0.450337 0.000000
0.337051 0.450337 0.000000
0.370756 0.450337 0.000000
0.404461 0.450337 0.000000
0.438166 0.450337 0.000000
0.471871 0.450337 0.000000
0.505576 0.450337 0.000000
0.540500 0.449766 0.000000
0.575576 0.449194 0.000000
0.610805 0.448623 0.000000
0.646186 0.448052 0.000000
0.681719 0.447480 0.000000
0.717404 0.446909 0.000000
0.753242 0.446338 0.000000
0.789232 0.445767 0.000000
0.825375 0.445195 0.000000
0.861670 0.444624 0.000000
0.898117 0.444053 0.000000
0.934717 0.443481 0.000000
0.971469 0.442910 0.000000
1.000000 0.442339 0.000000
1.000000 0.441768 0.000000
1.000000 0.441196 0.000000
1.000000 0.440625 0.000000
0.000000 0.479750 0.000000
0.033781 0.479750 0.000000
0.067562 0.479750 0.000000
0.101344 0.479750 0.000000
0.135125 0.479750 0.000000
0.168906 0.479750 0.000000
0.202688 0.479750 0.000000
0.236469 0.479750 0.000000
0.270250 0.479750 0.000000
0.304031 0.479750 0.000000
0.337813 0.479750 0.000000
0.371594 0.479750 0.000000
0.405375 0.479750 0.000000
0.439156 0.479750 0.000000
0.472938 0.479750 0.000000
0.506719 0.479750 0.000000
0.540500 0.479750 0.000000
0.575576 0.479141 0.000000
0.610805 0.478531 0.000000
0.646186 0.477922 0.000000
0.681719 0.477312 0.000000
0.717404 0.476703 0.000000
0.753242 0.476094 0.000000
0.789232 0.475484 0.000000
0.825375 0.474875 0.000000
0.861670 0.474266 0.000000
0.898117 0.473656 0.000000
0.934717 0.473047 0.000000
0.971469 0.472437 0.000000
1.000000 0.471828 0.000000
1.000000 0.471219 0.000000
1.000000 0.470609 0.000000
1.000000 0.470000 0.000000
0.000000 0.509087 0.000000
0.033857 0.509087 0.000000
0.067715 0.509087 0.000000
0.101572 0.509087 0.000000
0.135430 0.509087 0.000000
0.169287 0.509087 0.000000
0.203145 0.509087 0.000000
0.237002 0.509087 0.000000
0.270859 0.509087 0.000000
0.304717 0.509087 0.000000
0.338574 0.509087 0.000000
0.372432 0.509087 0.000000
0.406289 0.509087 0.000000
0.440146 0.509087 0.000000
0.474004 0.509087 0.000000
0.507861 0.509087 0.000000
0.541719 0.509087 0.000000
0.575576 0.509087 0.000000
0.610805 0.508439 0.000000
0.646186 0.507792 0.000000
0.681719 0.507145 0.000000
0.717404 0.506497 0.000000
0.753242 0.505850 0.000000
0.789232 0.505202 0.000000
0.825375 0.504555 0.000000
0.861670 0.503907 0.000000
0.898117 0.503260 0.000000
0.934717 0.502612 0.000000
0.971469 0.501965 0.000000
1.000000 0.501317 0.000000
1.000000 0.500670 0.000000
1.000000 0.500022 0.000000
1.000000 0.499375 0.000000
0.000000 0.538348 0.000000
0.033934 0.538348 0.000000
0.067867 0.538348 0.000000
0.101801 0.538348 0.000000
0.135734 0.538348 0.000000
0.169668 0.538348 0.000000
0.203602 0.538348 0.000000
0.237535 0.538348 0.000000
0.271469 0.538348 0.000000
0.305402 0.538348 0.000000
0.339336 0.538348 0.000000
0.373270 0.538348 0.000000
0.407203 0.538348 0.000000
0.441137 0.538348 0.000000
0.475070 0.538348 0.000000
0.509004 0.538348 0.000000
0.542938 0.538348 0.000000
0.576871 0.538348 0.000000
0.610805 0.538348 0.000000
0.646186 0.537662 0.000000
0.681719 0.536977 0.000000
0.717404 0.536291 0.000000
0.753242 0.535605 0.000000
0.789232 0.534920 0.000000
0.825375 0.534234 0.000000
0.861670 0.533549 0.000000
0.898117 0.532863 0.000000
0.934717 0.532178 0.000000
0.971469 0.531492 0.000000
1.000000 0.530807 0.000000
1.000000 0.530121 0.000000
1.000000 0.529436 0.000000
1.000000 0.528750 0.000000
0.000000 0.567532 0.000000
0.034010 0.567532 0.000000
0.068020 0.567532 0.000000
0.102029 0.567532 0.000000
0.136039 0.567532 0.000000
0.170049 0.567532 0.000000
0.204059 0.567532 0.000000
0.238068 0.567532 0.000000
0.272078 0.567532 0.000000
0.306088 0.567532 0.000000
0.340098 0.567532 0.000000
0.374107 0.567532 0.000000
0.408117 0.567532 0.000000
0.442127 0.567532 0.000000
0.476137 0.567532 0.000000
0.510146 0.567532 0.000000
0.544156 0.567532 0.000000
0.578166 0.567532 0.000000
0.612176 0.567532 0.000000
0.646186 0.567532 0.000000
0.681719 0.566809 0.000000
0.717404 0.566085 0.000000
0.753242 0.565361 0.000000
0.789232 0.564638 0.000000
0.825375 0.563914 0.000000
0.861670 0.563190 0.000000
0.898117 0.562467 0.000000
0.934717 0.561743 0.000000
0.971469 0.561020 0.000000
1.000000 0.560296 0.000000
1.000000 0.559572 0.000000
1.000000 0.558849 0.000000
1.000000 0.558125 0.000000
0.000000 0.596641 0.000000
0.034086 0.596641 0.000000
0.068172 0.596641 0.000000
0.102258 0.596641 0.000000
0.136344 0.596641 0.000000
0.170430 0.596641 0.000000
0.204516 0.596641 0.000000
0.238602 0.596641 0.000000
0.272688 0.596641 0.000000
0.306773 0.596641 0.000000
0.340859 0.596641 0.000000
0.374945 0.596641 0.000000
0.409031 0.596641 0.000000
0.443117 0.596641 0.000000
0.477203 0.596641 0.000000
0.511289 0.596641 0.000000
0.545375 0.596641 0.000000
0.579461 0.596641 0.000000
0.613547 0.596641 0.000000
0.647633 0.596641 0.000000
0.681719 0.596641 0.000000
0.717404 0.595879 0.000000
0.753242 0.595117 0.000000
0.789232 0.594355 0.000000
0.825375 0.593594 0.000000
0.861670 0.592832 0.000000
0.898117 0.592070 0.000000
0.934717 0.591309 0.000000
0.971469 0.590547 0.000000
1.000000 0.589785 0.000000
1.000000 0.589023 0.000000
1.000000 0.588262 0.000000
1.000000 0.587500 0.000000
0.000000 0.625673 0.000000
0.034162 0.625673 0.000000
0.068324 0.625673 0.000000
0.102486 0.625673 0.000000
0.136648 0.625673 0.000000
0.170811 0.625673 0.000000
0.204973 0.625673 0.000000
0.239135 0.625673 0.000000
0.273297 0.625673 0.000000
0.307459 0.625673 0.000000
0.341621 0.625673 0.000000
0.375783 0.625673 0.000000
0.409945 0.625673 0.000000
0.444107 0.625673 0.000000
0.478270 0.625673 0.000000
0.512432 0.625673 0.000000
0.546594 0.625673 0.000000
0.580756 0.625673 0.000000
0.614918 0.625673 0.000000
0.649080 0.625673 0.000000
0.683242 0.625673 0.000000
0.717404 0.625673 0.000000
0.753242 0.624873 0.000000
0.789232 0.624073 0.000000
0.825375 0.623273 0.000000
0.861670 0.622474 0.000000
0.898117 0.621674 0.000000
0.934717 0.620874 0.000000
0.971469 0.620074 0.000000
1.000000 0.619274 0.000000
1.000000 0.618475 0.000000
1.000000 0.617675 0.000000
1.000000 0.616875 0.000000
0.000000 0.654629 0.000000
0.034238 0.654629 0.000000
0.068477 0.654629 0.000000
0.102715 0.654629 0.000000
0.136953 0.654629 0.000000
0.171191 0.654629 0.000000
0.205430 0.654629 0.000000
0.239668 0.654629 0.000000
0.273906 0.654629 0.000000
0.308145 0.654629 0.000000
0.342383 0.654629 0.000000
0.376621 0.654629 0.000000
0.410859 0.654629 0.000000
0.445098 0.654629 0.000000
0.479336 0.654629 0.000000
0.513574 0.654629 0.000000
0.547813 0.654629 0.000000
0.582051 0.654629 0.000000
0.616289 0.654629 0.000000
0.650527 0.654629 0.000000
0.684766 0.654629 0.000000
0.719004 0.654629 0.000000
0.753242 0.654629 0.000000
0.789232 0.653791 0.000000
0.825375 0.652953 0.000000
0.861670 0.652115 0.000000
0.898117 0.651277 0.000000
0.934717 0.650439 0.000000
0.971469 0.649602 0.000000
1.000000 0.648764 0.000000
1.000000 0.647926 0.000000
1.000000 0.647088 0.000000
1.000000 0.646250 0.000000
0.000000 0.683509 0.000000
0.034314 0.683509 0.000000
0.068629 0.683509 0.000000
0.102943 0.683509 0.000000
0.137258 0.683509 0.000000
0.171572 0.683509 0.000000
0.205887 0.683509 0.000000
0.240201 0.683509 0.000000
0.274516 0.683509 0.000000
0.308830 0.683509 0.000000
0.343145 0.683509 0.000000
0.377459 0.683509 0.000000
0.411773 0.683509 0.000000
0.446088 0.683509 0.000000
0.480402 0.683509 0.000000
0.514717 0.683509 0.000000
0.549031 0.683509 0.000000
0.583346 0.683509 0.000000
0.617660 0.683509 0.000000
0.651975 0.683509 0.000000
0.686289 0.683509 0.000000
0.720604 0.683509 0.000000
0.754918 0.683509 0.000000
0.789232 0.683509 0.000000
0.825375 0.682633 0.000000
0.861670 0.681757 0.000000
0.898117 0.680881 0.000000
0.934717 0.680005 0.000000
0.971469 0.679129 0.000000
1.000000 0.678253 0.000000
1.000000 0.677377 0.000000
1.000000 0.676501 0.000000
1.000000 0.675625 0.000000
0.000000 0.712312 0.000000
0.034391 0.712312 0.000000
0.068781 0.712312 0.000000
0.103172 0.712312 0.000000
0.137563 0.712312 0.000000
0.171953 0.712312 0.000000
0.206344 0.712312 0.000000
0.240734 0.712312 0.000000
0.275125 0.712312 0.000000
0.309516 0.712312 0.000000
0.343906 0.712312 0.000000
0.378297 0.712312 0.000000
0.412688 0.712312 0.000000
0.447078 0.712312 0.000000
0.481469 0.712312 0.000000
0.515859 0.712312 0.000000
0.550250 0.712312 0.000000
0.584641 0.712312 0.000000
0.619031 0.712312 0.000000
0.653422 0.712312 0.000000
0.687813 0.712312 0.000000
0.722203 0.712312 0.000000
0.756594 0.712312 0.000000
0.790984 0.712312 0.000000
0.825375 0.712312 0.000000
0.861670 0.711398 0.000000
0.898117 0.710484 0.000000
0.934717 0.709570 0.000000
0.971469 0.708656 0.000000
1.000000 0.707742 0.000000
1.000000 0.706828 0.000000
1.000000 0.705914 0.000000
1.000000 0.705000 0.000000
0.000000 0.741040 0.000000
0.034467 0.741040 0.000000
0.068934 0.741040 0.000000
0.103400 0.741040 0.000000
0.137867 0.741040 0.000000
0.172334 0.741040 0.000000
0.206801 0.741040 0.000000
0.241268 0.741040 0.000000
0.275734 0.741040 0.000000
0.310201 0.741040 0.000000
0.344668 0.741040 0.000000
0.379135 0.741040 0.000000
0.413602 0.741040 0.000000
0.448068 0.741040 0.000000
0.482535 0.741040 0.000000
0.517002 0.741040 0.000000
0.551469 0.741040 0.000000
0.585936 0.741040 0.000000
0.620402 0.741040 0.000000
0.654869 0.741040 0.000000
0.689336 0.741040 0.000000
0.723803 0.741040 0.000000
0.758270 0.741040 0.000000
0.792736 0.741040 0.000000
0.827203 0.741040 0.000000
0.861670 0.741040 0.000000
0.898117 0.740088 0.000000
0.934717 0.739136 0.000000
0.971469 0.738184 0.000000
1.000000 0.737231 0.000000
1.000000 0.736279 0.000000
1.000000 0.735327 0.000000
1.000000 0.734375 0.000000
0.000000 0.769691 0.000000
0.034543 0.769691 0.000000
0.069086 0.769691 0.000000
0.103629 0.769691 0.000000
0.138172 0.769691 0.000000
0.172715 0.769691 0.000000
0.207258 0.769691 0.000000
0.241801 0.769691 0.000000
0.276344 0.769691 0.000000
0.310887 0.769691 0.000000
0.345430 0.769691 0.000000
0.379973 0.769691 0.000000
0.414516 0.769691 0.000000
0.449059 0.769691 0.000000
0.483602 0.769691 0.000000
0.518145 0.769691 0.000000
0.552687 0.769691 0.000000
0.587230 0.769691 0.000000
0.621773 0.769691 0.000000
0.656316 0.769691 0.000000
0.690859 0.769691 0.000000
0.725402 0.769691 0.000000
0.759945 0.769691 0.000000
0.794488 0.769691 0.000000
0.829031 0.769691 0.000000
0.863574 0.769691 0.000000
0.898117 0.769691 0.000000
