luts/original/gospel-gold-cover.cube
TITLE "Gospel Gold Cover"
LUT_3D_SIZE 33
DOMAIN_MIN 0.0 0.0 0.0
DOMAIN_MAX 1.0 1.0 1.0
0.033138 0.004900 0.004900
0.066262 0.004444 0.004444
0.099381 0.003906 0.003906
0.132494 0.003288 0.003288
0.165602 0.002588 0.002588
0.198704 0.001807 0.001807
0.231801 0.000944 0.000944
0.264893 0.000000 0.000000
0.297979 0.000000 0.000000
0.331060 0.000000 0.000000
0.364136 0.000000 0.000000
0.397206 0.000000 0.000000
0.430270 0.000000 0.000000
0.463329 0.000000 0.000000
0.496383 0.000000 0.000000
0.529432 0.000000 0.000000
0.562475 0.000000 0.000000
0.595512 0.000000 0.000000
0.628545 0.000000 0.000000
0.661571 0.000000 0.000000
0.694593 0.000000 0.000000
0.727609 0.000000 0.000000
0.760620 0.000000 0.000000
0.793625 0.000000 0.000000
0.826625 0.000000 0.000000
0.859619 0.000000 0.000000
0.892608 0.000000 0.000000
0.925592 0.000000 0.000000
0.958570 0.000000 0.000000
0.991543 0.000000 0.000000
0.997461 0.000000 0.000000
0.999365 0.000000 0.000000
1.000000 0.000000 0.000000
0.034896 0.037151 0.005029
0.066097 0.036357 0.004288
0.099206 0.035826 0.003742
0.132311 0.035222 0.003115
0.165409 0.034541 0.002407
0.198503 0.033782 0.001617
0.231591 0.032943 0.000746
0.264673 0.032208 0.000000
0.297750 0.032145 0.000000
0.330822 0.032093 0.000000
0.363888 0.032049 0.000000
0.396949 0.032011 0.000000
0.430005 0.031977 0.000000
0.463055 0.031948 0.000000
0.496100 0.031922 0.000000
0.529139 0.031899 0.000000
0.562173 0.031878 0.000000
0.595202 0.031858 0.000000
0.628225 0.031841 0.000000
0.661242 0.031825 0.000000
0.694255 0.031810 0.000000
0.727262 0.031796 0.000000
0.760263 0.031783 0.000000
0.793260 0.031770 0.000000
0.826250 0.031759 0.000000
0.859236 0.031748 0.000000
0.892216 0.031738 0.000000
0.925190 0.031728 0.000000
0.958159 0.031719 0.000000
0.991123 0.031710 0.000000
0.997461 0.031716 0.000000
0.999365 0.031726 0.000000
1.000000 0.031736 0.000000
0.036636 0.069472 0.005141
0.067834 0.068581 0.004359
0.099032 0.067740 0.003578
0.132127 0.067151 0.002942
0.165216 0.066490 0.002225
0.198301 0.065753 0.001427
0.231380 0.064938 0.000548
0.264453 0.064370 0.000000
0.297521 0.064247 0.000000
0.330584 0.064144 0.000000
0.363641 0.064058 0.000000
0.396693 0.063983 0.000000
0.429739 0.063918 0.000000
0.462780 0.063860 0.000000
0.495816 0.063810 0.000000
0.528846 0.063764 0.000000
0.561871 0.063722 0.000000
0.594891 0.063685 0.000000
0.627905 0.063650 0.000000
0.660913 0.063619 0.000000
0.693917 0.063589 0.000000
0.726915 0.063562 0.000000
0.759907 0.063536 0.000000
0.792894 0.063512 0.000000
0.825876 0.063490 0.000000
0.858852 0.063468 0.000000
0.891823 0.063448 0.000000
0.924789 0.063429 0.000000
0.957749 0.063411 0.000000
0.990703 0.063393 0.000000
0.997461 0.063404 0.000000
0.999365 0.063423 0.000000
1.000000 0.063442 0.000000
0.037804 0.101287 0.004773
0.069552 0.100871 0.004413
0.100748 0.099957 0.003592
0.131943 0.099077 0.002770
0.165024 0.098436 0.002044
0.198099 0.097722 0.001237
0.231169 0.096931 0.000349
0.264233 0.096485 0.000000
0.297292 0.096304 0.000000
0.330346 0.096154 0.000000
0.363394 0.096026 0.000000
0.396437 0.095917 0.000000
0.429474 0.095821 0.000000
0.462506 0.095737 0.000000
0.495533 0.095662 0.000000
0.528554 0.095595 0.000000
0.561570 0.095534 0.000000
0.594580 0.095479 0.000000
0.627585 0.095428 0.000000
0.660585 0.095382 0.000000
0.693579 0.095338 0.000000
0.726568 0.095298 0.000000
0.759551 0.095260 0.000000
0.792529 0.095225 0.000000
0.825502 0.095192 0.000000
0.858469 0.095161 0.000000
0.891431 0.095131 0.000000
0.924387 0.095102 0.000000
0.957338 0.095076 0.000000
0.990284 0.095050 0.000000
0.997461 0.095065 0.000000
0.999365 0.095093 0.000000
1.000000 0.095120 0.000000
0.038581 0.132716 0.004019
0.070699 0.132659 0.003965
0.102446 0.132237 0.003588
0.133638 0.131295 0.002725
0.164831 0.130378 0.001863
0.197897 0.129687 0.001048
0.230958 0.128921 0.000151
0.264013 0.128553 0.000000
0.297063 0.128317 0.000000
0.330107 0.128122 0.000000
0.363147 0.127956 0.000000
0.396180 0.127813 0.000000
0.429209 0.127688 0.000000
0.462231 0.127578 0.000000
0.495249 0.127481 0.000000
0.528261 0.127393 0.000000
0.561268 0.127314 0.000000
0.594269 0.127241 0.000000
0.627265 0.127175 0.000000
0.660256 0.127114 0.000000
0.693241 0.127057 0.000000
0.726220 0.127005 0.000000
0.759195 0.126956 0.000000
0.792164 0.126909 0.000000
0.825127 0.126866 0.000000
0.858085 0.126825 0.000000
0.891038 0.126786 0.000000
0.923985 0.126749 0.000000
0.956927 0.126713 0.000000
0.989864 0.126680 0.000000
0.997461 0.126698 0.000000
0.999365 0.126734 0.000000
1.000000 0.126770 0.000000
0.039298 0.164128 0.003172
0.071430 0.164068 0.003116
0.103561 0.164008 0.003059
0.135315 0.163575 0.002664
0.166505 0.162602 0.001761
0.197695 0.161648 0.000858
0.230747 0.160926 0.000000
0.263793 0.160574 0.000000
0.296834 0.160287 0.000000
0.329869 0.160048 0.000000
0.362899 0.159845 0.000000
0.395924 0.159670 0.000000
0.428943 0.159518 0.000000
0.461957 0.159384 0.000000
0.494965 0.159264 0.000000
0.527968 0.159157 0.000000
0.560966 0.159060 0.000000
0.593958 0.158972 0.000000
0.626945 0.158891 0.000000
0.659927 0.158816 0.000000
0.692903 0.158746 0.000000
0.725873 0.158682 0.000000
0.758839 0.158621 0.000000
0.791798 0.158565 0.000000
0.824753 0.158511 0.000000
0.857702 0.158461 0.000000
0.890646 0.158413 0.000000
0.923584 0.158368 0.000000
0.956517 0.158324 0.000000
0.989444 0.158283 0.000000
0.997461 0.158303 0.000000
0.999365 0.158347 0.000000
1.000000 0.158390 0.000000
0.039938 0.195521 0.002232
0.072092 0.195459 0.002173
0.104245 0.195396 0.002114
0.136396 0.195333 0.002055
0.168161 0.194888 0.001642
0.199349 0.193882 0.000698
0.230536 0.192961 0.000000
0.263573 0.192548 0.000000
0.296605 0.192212 0.000000
0.329631 0.191932 0.000000
0.362652 0.191694 0.000000
0.395668 0.191489 0.000000
0.428678 0.191311 0.000000
0.461682 0.191154 0.000000
0.494682 0.191014 0.000000
0.527676 0.190888 0.000000
0.560664 0.190774 0.000000
0.593647 0.190670 0.000000
0.626625 0.190575 0.000000
0.659598 0.190487 0.000000
0.692565 0.190405 0.000000
0.725526 0.190329 0.000000
0.758482 0.190258 0.000000
0.791433 0.190192 0.000000
0.824378 0.190129 0.000000
0.857318 0.190069 0.000000
0.890253 0.190013 0.000000
0.923182 0.189959 0.000000
0.956106 0.189908 0.000000
0.989024 0.189859 0.000000
0.997461 0.189881 0.000000
0.999365 0.189932 0.000000
1.000000 0.189982 0.000000
0.040494 0.226897 0.001198
0.072674 0.226831 0.001136
0.104852 0.226766 0.001075
0.137029 0.226701 0.001014
0.169205 0.226635 0.000952
0.200984 0.226175 0.000521
0.232168 0.225212 0.000000
0.263353 0.224476 0.000000
0.296376 0.224093 0.000000
0.329393 0.223774 0.000000
0.362405 0.223503 0.000000
0.395411 0.223270 0.000000
0.428412 0.223067 0.000000
0.461408 0.222888 0.000000
0.494398 0.222728 0.000000
0.527383 0.222585 0.000000
0.560363 0.222455 0.000000
0.593337 0.222336 0.000000
0.626305 0.222227 0.000000
0.659269 0.222127 0.000000
0.692227 0.222034 0.000000
0.725179 0.221947 0.000000
0.758126 0.221866 0.000000
0.791068 0.221789 0.000000
0.824004 0.221717 0.000000
0.856935 0.221649 0.000000
0.889861 0.221585 0.000000
0.922781 0.221523 0.000000
0.955695 0.221465 0.000000
0.988605 0.221408 0.000000
0.997461 0.221432 0.000000
0.999365 0.221489 0.000000
1.000000 0.221546 0.000000
0.040963 0.258254 0.000071
0.073171 0.258186 0.000007
0.105402 0.258118 0.000000
0.137621 0.258050 0.000000
0.169823 0.257981 0.000000
0.202007 0.257913 0.000000
0.233783 0.257472 0.000000
0.264965 0.256619 0.000000
0.296147 0.255930 0.000000
0.329155 0.255575 0.000000
0.362158 0.255273 0.000000
0.395155 0.255013 0.000000
0.428147 0.254786 0.000000
0.461134 0.254586 0.000000
0.494115 0.254408 0.000000
0.527090 0.254248 0.000000
0.560061 0.254103 0.000000
0.593026 0.253970 0.000000
0.625986 0.253848 0.000000
0.658940 0.253736 0.000000
0.691889 0.253632 0.000000
0.724832 0.253535 0.000000
0.757770 0.253444 0.000000
0.790703 0.253359 0.000000
0.823630 0.253278 0.000000
0.856552 0.253202 0.000000
0.889468 0.253129 0.000000
0.922379 0.253060 0.000000
0.955285 0.252994 0.000000
0.988185 0.252931 0.000000
0.997461 0.252955 0.000000
0.999365 0.253018 0.000000
1.000000 0.253080 0.000000
0.042186 0.289593 0.000000
0.074336 0.289522 0.000000
0.106470 0.289451 0.000000
0.138589 0.289380 0.000000
0.170692 0.289310 0.000000
0.202780 0.289239 0.000000
0.234851 0.289168 0.000000
0.266558 0.288763 0.000000
0.297737 0.287980 0.000000
0.328917 0.287333 0.000000
0.361910 0.287003 0.000000
0.394899 0.286718 0.000000
0.427882 0.286469 0.000000
0.460859 0.286249 0.000000
0.493831 0.286053 0.000000
0.526798 0.285877 0.000000
0.559759 0.285718 0.000000
0.592715 0.285572 0.000000
0.625666 0.285438 0.000000
0.658611 0.285315 0.000000
0.691550 0.285200 0.000000
0.724485 0.285093 0.000000
0.757414 0.284993 0.000000
0.790337 0.284899 0.000000
0.823255 0.284810 0.000000
0.856168 0.284726 0.000000
0.889075 0.284646 0.000000
0.921977 0.284570 0.000000
0.954874 0.284497 0.000000
0.987765 0.284427 0.000000
0.997461 0.284451 0.000000
0.999365 0.284519 0.000000
1.000000 0.284587 0.000000
0.043504 0.320914 0.000000
0.075570 0.320840 0.000000
0.107622 0.320767 0.000000
0.139659 0.320693 0.000000
0.171681 0.320620 0.000000
0.203689 0.320546 0.000000
0.235681 0.320473 0.000000
0.267660 0.320399 0.000000
0.299310 0.320025 0.000000
0.330487 0.319300 0.000000
0.361663 0.318692 0.000000
0.394642 0.318384 0.000000
0.427616 0.318114 0.000000
0.460585 0.317877 0.000000
0.493548 0.317664 0.000000
0.526505 0.317473 0.000000
0.559457 0.317300 0.000000
0.592404 0.317142 0.000000
0.625346 0.316997 0.000000
0.658282 0.316863 0.000000
0.691212 0.316738 0.000000
0.724138 0.316622 0.000000
0.757057 0.316513 0.000000
0.789972 0.316411 0.000000
0.822881 0.316314 0.000000
0.855785 0.316222 0.000000
0.888683 0.316135 0.000000
0.921576 0.316052 0.000000
0.954463 0.315973 0.000000
0.987345 0.315897 0.000000
0.997461 0.315920 0.000000
0.999365 0.315992 0.000000
1.000000 0.316065 0.000000
0.044855 0.352216 0.000000
0.076851 0.352140 0.000000
0.108833 0.352064 0.000000
0.140802 0.351988 0.000000
0.172756 0.351912 0.000000
0.204697 0.351835 0.000000
0.236624 0.351759 0.000000
0.268537 0.351683 0.000000
0.300436 0.351607 0.000000
0.332038 0.351258 0.000000
0.363212 0.350584 0.000000
0.394386 0.350012 0.000000
0.427351 0.349723 0.000000
0.460310 0.349468 0.000000
0.493264 0.349241 0.000000
0.526213 0.349036 0.000000
0.559156 0.348850 0.000000
0.592093 0.348680 0.000000
0.625026 0.348524 0.000000
0.657953 0.348380 0.000000
0.690874 0.348246 0.000000
0.723791 0.348121 0.000000
0.756701 0.348004 0.000000
0.789607 0.347893 0.000000
0.822507 0.347789 0.000000
0.855401 0.347690 0.000000
0.888290 0.347597 0.000000
0.921174 0.347507 0.000000
0.954053 0.347421 0.000000
0.986926 0.347339 0.000000
0.997461 0.347361 0.000000
0.999365 0.347437 0.000000
1.000000 0.347514 0.000000
0.046231 0.383501 0.000000
0.078167 0.383422 0.000000
0.110090 0.383343 0.000000
0.142000 0.383264 0.000000
0.173897 0.383185 0.000000
0.205780 0.383106 0.000000
0.237650 0.383027 0.000000
0.269508 0.382949 0.000000
0.301352 0.382870 0.000000
0.333182 0.382791 0.000000
0.364743 0.382463 0.000000
0.395914 0.381835 0.000000
0.427085 0.381295 0.000000
0.460036 0.381024 0.000000
0.492980 0.380782 0.000000
0.525920 0.380564 0.000000
0.558854 0.380367 0.000000
0.591783 0.380186 0.000000
0.624706 0.380020 0.000000
0.657624 0.379866 0.000000
0.690536 0.379724 0.000000
0.723443 0.379590 0.000000
0.756345 0.379465 0.000000
0.789241 0.379348 0.000000
0.822132 0.379236 0.000000
0.855018 0.379131 0.000000
0.887898 0.379030 0.000000
0.920773 0.378935 0.000000
0.953642 0.378843 0.000000
0.986506 0.378755 0.000000
0.997461 0.378775 0.000000
0.999365 0.378855 0.000000
1.000000 0.378935 0.000000
0.047627 0.414767 0.000000
0.079511 0.414686 0.000000
0.111382 0.414604 0.000000
0.143241 0.414522 0.000000
0.175087 0.414441 0.000000
0.206921 0.414359 0.000000
0.238742 0.414278 0.000000
0.270550 0.414196 0.000000
0.302346 0.414114 0.000000
0.334130 0.414033 0.000000
0.365900 0.413951 0.000000
0.397424 0.413642 0.000000
0.428593 0.413055 0.000000
0.459761 0.412544 0.000000
0.492697 0.412289 0.000000
0.525627 0.412059 0.000000
0.558552 0.411851 0.000000
0.591472 0.411660 0.000000
0.624386 0.411485 0.000000
0.657295 0.411322 0.000000
0.690198 0.411171 0.000000
0.723096 0.411030 0.000000
0.755989 0.410898 0.000000
0.788876 0.410773 0.000000
0.821758 0.410655 0.000000
0.854634 0.410543 0.000000
0.887505 0.410437 0.000000
0.920371 0.410335 0.000000
0.953231 0.410238 0.000000
0.986086 0.410144 0.000000
0.997461 0.410162 0.000000
0.999365 0.410245 0.000000
1.000000 0.410327 0.000000
0.049038 0.446015 0.000000
0.080876 0.445931 0.000000
0.112701 0.445847 0.000000
0.144515 0.445762 0.000000
0.176317 0.445678 0.000000
0.208106 0.445594 0.000000
0.239884 0.445510 0.000000
0.271649 0.445425 0.000000
0.303403 0.445341 0.000000
0.335144 0.445257 0.000000
0.366874 0.445172 0.000000
0.398591 0.445088 0.000000
0.430082 0.444795 0.000000
0.461248 0.444245 0.000000
0.492413 0.443762 0.000000
0.525335 0.443521 0.000000
0.558251 0.443302 0.000000
0.591161 0.443102 0.000000
0.624066 0.442918 0.000000
0.656966 0.442747 0.000000
0.689860 0.442588 0.000000
0.722749 0.442440 0.000000
0.755633 0.442301 0.000000
0.788511 0.442169 0.000000
0.821384 0.442045 0.000000
0.854251 0.441927 0.000000
0.887113 0.441815 0.000000
0.919969 0.441708 0.000000
0.952821 0.441605 0.000000
0.985666 0.441507 0.000000
0.997461 0.441521 0.000000
0.999365 0.441607 0.000000
1.000000 0.441692 0.000000
0.050461 0.477245 0.000000
0.082257 0.477158 0.000000
0.114042 0.477071 0.000000
0.145816 0.476984 0.000000
0.177578 0.476897 0.000000
0.209328 0.476810 0.000000
0.241067 0.476723 0.000000
0.272794 0.476636 0.000000
0.304509 0.476549 0.000000
0.336213 0.476462 0.000000
0.367905 0.476375 0.000000
0.399586 0.476288 0.000000
0.431255 0.476201 0.000000
0.462716 0.475923 0.000000
0.493879 0.475406 0.000000
0.525042 0.474949 0.000000
0.557949 0.474721 0.000000
0.590850 0.474512 0.000000
0.623746 0.474319 0.000000
0.656637 0.474141 0.000000
0.689522 0.473976 0.000000
0.722402 0.473820 0.000000
0.755277 0.473675 0.000000
0.788146 0.473537 0.000000
0.821009 0.473407 0.000000
0.853867 0.473284 0.000000
0.886720 0.473166 0.000000
0.919568 0.473054 0.000000
0.952410 0.472946 0.000000
0.985246 0.472842 0.000000
0.997461 0.472854 0.000000
0.999365 0.472941 0.000000
1.000000 0.473028 0.000000
0.051894 0.508457 0.000000
0.083653 0.508367 0.000000
0.115401 0.508278 0.000000
0.147138 0.508188 0.000000
0.178864 0.508098 0.000000
0.210579 0.508009 0.000000
0.242282 0.507919 0.000000
0.273975 0.507829 0.000000
0.305656 0.507740 0.000000
0.337326 0.507650 0.000000
0.368984 0.507560 0.000000
0.400632 0.507471 0.000000
0.432268 0.507381 0.000000
0.463893 0.507291 0.000000
0.495326 0.507026 0.000000
0.526487 0.506540 0.000000
0.557647 0.506106 0.000000
0.590539 0.505889 0.000000
0.623426 0.505690 0.000000
0.656308 0.505505 0.000000
0.689184 0.505332 0.000000
0.722055 0.505171 0.000000
0.754920 0.505019 0.000000
0.787780 0.504876 0.000000
0.820635 0.504741 0.000000
0.853484 0.504612 0.000000
0.886328 0.504489 0.000000
0.919166 0.504372 0.000000
0.951999 0.504259 0.000000
0.984827 0.504151 0.000000
0.997461 0.504159 0.000000
0.999365 0.504247 0.000000
1.000000 0.504335 0.000000
0.053334 0.539651 0.000000
0.085060 0.539558 0.000000
0.116775 0.539466 0.000000
0.148479 0.539374 0.000000
0.180172 0.539281 0.000000
0.211854 0.539189 0.000000
0.243526 0.539096 0.000000
0.275186 0.539004 0.000000
0.306836 0.538912 0.000000
0.338474 0.538819 0.000000
0.370102 0.538727 0.000000
0.401719 0.538635 0.000000
0.433325 0.538542 0.000000
0.464921 0.538450 0.000000
0.496505 0.538357 0.000000
0.527913 0.538104 0.000000
0.559071 0.537646 0.000000
0.590229 0.537235 0.000000
0.623107 0.537029 0.000000
0.655979 0.536838 0.000000
0.688846 0.536659 0.000000
0.721708 0.536492 0.000000
0.754564 0.536335 0.000000
0.787415 0.536187 0.000000
0.820260 0.536046 0.000000
0.853101 0.535912 0.000000
0.885935 0.535785 0.000000
0.918765 0.535663 0.000000
0.951588 0.535546 0.000000
0.984407 0.535434 0.000000
0.997461 0.535437 0.000000
0.999365 0.535526 0.000000
1.000000 0.535615 0.000000
0.054782 0.570826 0.000000
0.086477 0.570731 0.000000
0.118161 0.570636 0.000000
0.149834 0.570541 0.000000
0.181497 0.570446 0.000000
0.213149 0.570351 0.000000
0.244791 0.570256 0.000000
0.276423 0.570161 0.000000
0.308043 0.570066 0.000000
0.339653 0.569971 0.000000
0.371253 0.569875 0.000000
0.402842 0.569780 0.000000
0.434420 0.569685 0.000000
0.465988 0.569590 0.000000
0.497545 0.569495 0.000000
0.529092 0.569400 0.000000
0.560477 0.569157 0.000000
0.591632 0.568726 0.000000
0.622787 0.568337 0.000000
0.655650 0.568139 0.000000
0.688508 0.567956 0.000000
0.721361 0.567783 0.000000
0.754208 0.567621 0.000000
0.787050 0.567468 0.000000
0.819886 0.567323 0.000000
0.852717 0.567185 0.000000
0.885543 0.567053 0.000000
0.918363 0.566927 0.000000
0.951178 0.566806 0.000000
0.983987 0.566689 0.000000
0.997461 0.566689 0.000000
0.999365 0.566777 0.000000
1.000000 0.566866 0.000000
0.056235 0.601984 0.000000
0.087901 0.601886 0.000000
0.119557 0.601788 0.000000
0.151202 0.601690 0.000000
0.182837 0.601593 0.000000
0.214462 0.601495 0.000000
0.246076 0.601397 0.000000
0.277680 0.601299 0.000000
0.309274 0.601201 0.000000
0.340858 0.601104 0.000000
0.372431 0.601006 0.000000
0.403994 0.600908 0.000000
0.435546 0.600810 0.000000
0.467089 0.600712 0.000000
0.498621 0.600615 0.000000
0.530142 0.600517 0.000000
0.561654 0.600419 0.000000
0.593017 0.600186 0.000000
0.624169 0.599779 0.000000
0.655321 0.599411 0.000000
0.688170 0.599222 0.000000
0.721014 0.599045 0.000000
0.753852 0.598879 0.000000
0.786684 0.598721 0.000000
0.819512 0.598571 0.000000
0.852334 0.598429 0.000000
0.885150 0.598293 0.000000
0.917961 0.598163 0.000000
0.950767 0.598038 0.000000
0.983567 0.597918 0.000000
0.997461 0.597913 0.000000
0.999365 0.598001 0.000000
1.000000 0.598089 0.000000
0.057694 0.633123 0.000000
0.089333 0.633022 0.000000
0.120962 0.632922 0.000000
0.152581 0.632822 0.000000
0.184189 0.632721 0.000000
0.215788 0.632621 0.000000
0.247377 0.632520 0.000000
0.278956 0.632420 0.000000
0.310525 0.632319 0.000000
0.342083 0.632219 0.000000
0.373632 0.632118 0.000000
0.405171 0.632018 0.000000
0.436699 0.631917 0.000000
0.468218 0.631817 0.000000
0.499726 0.631716 0.000000
0.531224 0.631616 0.000000
0.562713 0.631515 0.000000
0.594191 0.631415 0.000000
0.625533 0.631190 0.000000
0.656682 0.630807 0.000000
0.687832 0.630458 0.000000
0.720666 0.630277 0.000000
0.753495 0.630106 0.000000
0.786319 0.629945 0.000000
0.819137 0.629792 0.000000
0.851950 0.629645 0.000000
0.884758 0.629506 0.000000
0.917560 0.629372 0.000000
0.950356 0.629244 0.000000
0.983148 0.629120 0.000000
0.997461 0.629110 0.000000
0.999365 0.629197 0.000000
1.000000 0.629284 0.000000
0.059156 0.664244 0.000000
0.090770 0.664141 0.000000
0.122374 0.664038 0.000000
0.153968 0.663934 0.000000
0.185553 0.663831 0.000000
0.217127 0.663728 0.000000
0.248692 0.663625 0.000000
0.280247 0.663522 0.000000
0.311792 0.663419 0.000000
0.343328 0.663315 0.000000
0.374853 0.663212 0.000000
0.406369 0.663109 0.000000
0.437875 0.663006 0.000000
0.469371 0.662903 0.000000
0.500857 0.662799 0.000000
0.532333 0.662696 0.000000
0.563800 0.662593 0.000000
0.595257 0.662490 0.000000
0.626704 0.662387 0.000000
0.658026 0.662171 0.000000
0.689173 0.661810 0.000000
0.720319 0.661479 0.000000
0.753139 0.661305 0.000000
0.785954 0.661140 0.000000
0.818763 0.660983 0.000000
0.851567 0.660834 0.000000
0.884365 0.660691 0.000000
0.917158 0.660554 0.000000
0.949946 0.660422 0.000000
0.982728 0.660295 0.000000
0.997461 0.660280 0.000000
0.999365 0.660366 0.000000
1.000000 0.660451 0.000000
0.060622 0.695347 0.000000
0.092212 0.695241 0.000000
0.123793 0.695135 0.000000
0.155364 0.695029 0.000000
0.186925 0.694923 0.000000
0.218477 0.694817 0.000000
0.250019 0.694712 0.000000
0.281552 0.694606 0.000000
0.313075 0.694500 0.000000
0.344588 0.694394 0.000000
0.376092 0.694288 0.000000
0.407586 0.694182 0.000000
0.439070 0.694076 0.000000
0.470545 0.693970 0.000000
0.502010 0.693865 0.000000
0.533466 0.693759 0.000000
0.564912 0.693653 0.000000
0.596348 0.693547 0.000000
0.627775 0.693441 0.000000
0.659192 0.693335 0.000000
0.690495 0.693127 0.000000
0.721639 0.692787 0.000000
0.752783 0.692475 0.000000
0.785589 0.692307 0.000000
0.818389 0.692147 0.000000
0.851183 0.691994 0.000000
0.883973 0.691848 0.000000
0.916757 0.691708 0.000000
0.949535 0.691574 0.000000
0.982308 0.691444 0.000000
0.997461 0.691424 0.000000
0.999365 0.691507 0.000000
1.000000 0.691590 0.000000
0.062091 0.726432 0.000000
0.093659 0.726323 0.000000
0.125217 0.726214 0.000000
0.156766 0.726106 0.000000
0.188306 0.725997 0.000000
0.219836 0.725889 0.000000
0.251357 0.725780 0.000000
0.282868 0.725672 0.000000
0.314370 0.725563 0.000000
0.345862 0.725454 0.000000
0.377345 0.725346 0.000000
0.408819 0.725237 0.000000
0.440283 0.725129 0.000000
0.471737 0.725020 0.000000
0.503182 0.724911 0.000000
0.534618 0.724803 0.000000
0.566045 0.724694 0.000000
0.597461 0.724586 0.000000
0.628869 0.724477 0.000000
0.660267 0.724369 0.000000
0.691655 0.724260 0.000000
0.722940 0.724059 0.000000
0.754082 0.723739 0.000000
0.785223 0.723444 0.000000
0.818014 0.723282 0.000000
0.850800 0.723127 0.000000
0.883580 0.722978 0.000000
0.916355 0.722835 0.000000
0.949124 0.722698 0.000000
0.981888 0.722565 0.000000
0.997461 0.722540 0.000000
0.999365 0.722621 0.000000
1.000000 0.722701 0.000000
0.063562 0.757498 0.000000
0.095109 0.757387 0.000000
0.126646 0.757276 0.000000
0.158174 0.757164 0.000000
0.189693 0.757053 0.000000
0.221203 0.756942 0.000000
0.252703 0.756831 0.000000
0.284194 0.756719 0.000000
0.315676 0.756608 0.000000
0.347148 0.756497 0.000000
0.378612 0.756385 0.000000
0.410066 0.756274 0.000000
0.441510 0.756163 0.000000
0.472946 0.756052 0.000000
0.504372 0.755940 0.000000
0.535789 0.755829 0.000000
0.567196 0.755718 0.000000
0.598594 0.755606 0.000000
0.629983 0.755495 0.000000
0.661363 0.755384 0.000000
0.692734 0.755273 0.000000
0.724095 0.755161 0.000000
0.755363 0.754967 0.000000
0.786501 0.754667 0.000000
0.817640 0.754389 0.000000
0.850416 0.754231 0.000000
0.883188 0.754080 0.000000
0.915953 0.753935 0.000000
0.948714 0.753795 0.000000
0.981469 0.753660 0.000000
0.997461 0.753630 0.000000
0.999365 0.753707 0.000000
1.000000 0.753784 0.000000
0.065036 0.788547 0.000000
0.096563 0.788433 0.000000
0.128080 0.788319 0.000000
0.159588 0.788205 0.000000
0.191087 0.788091 0.000000
0.222577 0.787977 0.000000
0.254058 0.787863 0.000000
0.285529 0.787749 0.000000
0.316992 0.787635 0.000000
0.348445 0.787521 0.000000
0.379890 0.787407 0.000000
0.411325 0.787293 0.000000
0.442751 0.787179 0.000000
0.474168 0.787065 0.000000
0.505576 0.786951 0.000000
0.536974 0.786837 0.000000
0.568364 0.786723 0.000000
0.599744 0.786609 0.000000
0.631116 0.786495 0.000000
0.662478 0.786381 0.000000
0.693831 0.786267 0.000000
0.725175 0.786153 0.000000
0.756510 0.786039 0.000000
0.787761 0.785851 0.000000
0.818897 0.785569 0.000000
0.850033 0.785308 0.000000
0.882795 0.785155 0.000000
0.915552 0.785008 0.000000
0.948303 0.784866 0.000000
0.981049 0.784729 0.000000
0.997461 0.784693 0.000000
0.999365 0.784766 0.000000
1.000000 0.784839 0.000000
0.066513 0.819577 0.000000
0.098020 0.819460 0.000000
0.129518 0.819344 0.000000
0.161006 0.819227 0.000000
0.192486 0.819110 0.000000
0.223958 0.818994 0.000000
0.255420 0.818877 0.000000
0.286873 0.818760 0.000000
0.318317 0.818643 0.000000
0.349752 0.818527 0.000000
0.381178 0.818410 0.000000
0.412595 0.818293 0.000000
0.444003 0.818177 0.000000
0.475403 0.818060 0.000000
0.506793 0.817943 0.000000
0.538174 0.817827 0.000000
0.569546 0.817710 0.000000
0.600910 0.817593 0.000000
0.632264 0.817477 0.000000
0.663610 0.817360 0.000000
0.694946 0.817243 0.000000
0.726273 0.817127 0.000000
0.757592 0.817010 0.000000
0.788901 0.816893 0.000000
0.820136 0.816712 0.000000
0.851269 0.816447 0.000000
0.882403 0.816202 0.000000
