luts/original/gospel-gold-cover.cube
TITLE "Gospel Gold Cover"
LUT_3D_SIZE 5
DOMAIN_MIN 0.0 0.0 0.0
DOMAIN_MAX 1.0 1.0 1.0
0.033138 0.004900 0.004900
0.297979 0.000000 0.000000
0.562475 0.000000 0.000000
0.826625 0.000000 0.000000
1.000000 0.000000 0.000000
0.040963 0.258254 0.000071
0.296147 0.255930 0.000000
0.560061 0.254103 0.000000
0.823630 0.253278 0.000000
1.000000 0.253080 0.000000
0.051894 0.508457 0.000000
0.305656 0.507740 0.000000
0.557647 0.506106 0.000000
0.820635 0.504741 0.000000
1.000000 0.504335 0.000000
0.063562 0.757498 0.000000
0.315676 0.756608 0.000000
0.567196 0.755718 0.000000
0.817640 0.754389 0.000000
1.000000 0.753784 0.000000
0.075405 1.000000 0.000000
0.326408 1.000000 0.000000
0.576876 1.000000 0.000000
0.826809 1.000000 0.000000
1.000000 1.000000 0.000000
0.044978 0.003978 0.221520
0.297850 0.000000 0.216631
0.562304 0.000000 0.202930
0.826413 0.000000 0.190072
1.000000 0.000000 0.177754
0.038387 0.258124 0.216183
0.296017 0.252355 0.208694
0.559890 0.239893 0.184797
0.823418 0.223370 0.155701
1.000000 0.207454 0.126919
0.038164 0.508287 0.191796
0.297046 0.507569 0.186240
0.557477 0.502408 0.182528
0.820423 0.486654 0.152885
1.000000 0.472221 0.123343
0.031974 0.757287 0.161997
0.291069 0.756396 0.155513
0.556748 0.755506 0.154676
0.817428 0.749800 0.150070
1.000000 0.736829 0.119767
0.020124 1.000000 0.126647
0.280024 1.000000 0.119061
0.547195 1.000000 0.117998
0.814319 1.000000 0.116935
1.000000 1.000000 0.116191
0.052896 0.000000 0.462245
0.309918 0.000000 0.461528
0.562060 0.000000 0.457827
0.826111 0.000000 0.444038
1.000000 0.000000 0.431531
0.043242 0.251537 0.459832
0.300195 0.241942 0.459114
0.559647 0.235193 0.447399
0.823116 0.218229 0.418222
1.000000 0.201558 0.390777
0.037935 0.508043 0.453759
0.287261 0.507325 0.447833
0.557233 0.494766 0.432299
0.820121 0.473269 0.402601
1.000000 0.455919 0.372982
0.031690 0.756984 0.425824
0.280853 0.756094 0.414182
0.547555 0.755204 0.404391
0.817126 0.746492 0.399786
1.000000 0.728581 0.369406
0.019763 1.000000 0.392584
0.268700 1.000000 0.377638
0.533362 1.000000 0.367637
0.808428 1.000000 0.366574
1.000000 1.000000 0.365830
0.064553 0.000000 0.702854
0.319927 0.000000 0.701964
0.574641 0.000000 0.701074
0.825808 0.000000 0.697820
1.000000 0.000000 0.685121
0.040805 0.238107 0.699859
0.296079 0.227156 0.698969
0.565569 0.226319 0.698079
0.822813 0.217945 0.686217
1.000000 0.201197 0.660713
0.037990 0.499615 0.696864
0.287153 0.491564 0.695974
0.551056 0.473504 0.695084
0.819818 0.465129 0.674866
1.000000 0.447621 0.643946
0.031406 0.756682 0.689637
0.280569 0.755792 0.686267
0.529732 0.754901 0.675811
0.816824 0.733163 0.649502
1.000000 0.708066 0.619045
0.019402 1.000000 0.658507
0.268339 1.000000 0.649605
0.517276 1.000000 0.631470
0.794010 1.000000 0.616213
1.000000 1.000000 0.615469
0.076487 0.000000 0.943345
0.331072 0.000000 0.942282
0.585082 0.000000 0.941219
0.838518 0.000000 0.940156
1.000000 0.000000 0.938526
0.033383 0.219992 0.939769
0.288642 0.207384 0.938706
0.558472 0.206385 0.937643
0.828255 0.205386 0.936580
1.000000 0.200836 0.930628
0.030022 0.483108 0.936193
0.279023 0.470387 0.935130
0.537914 0.453023 0.934067
0.819833 0.452024 0.933004
1.000000 0.447260 0.924012
0.026660 0.746097 0.932617
0.275661 0.740252 0.931554
0.524662 0.727577 0.930491
0.797562 0.698663 0.929428
1.000000 0.693684 0.911313
0.019041 1.000000 0.924419
0.267978 1.000000 0.921548
0.516915 1.000000 0.916551
0.765852 1.000000 0.900306
1.000000 1.000000 0.865108
