luts/original/gospel-gold-cover.cube
TITLE "Gospel Gold Cover"
LUT_3D_SIZE 9
DOMAIN_MIN 0.0 0.0 0.0
DOMAIN_MAX 1.0 1.0 1.0
0.033138 0.004900 0.004900
0.165602 0.002588 0.002588
0.297979 0.000000 0.000000
0.430270 0.000000 0.000000
0.562475 0.000000 0.000000
0.694593 0.000000 0.000000
0.826625 0.000000 0.000000
0.958570 0.000000 0.000000
1.000000 0.000000 0.000000
0.038581 0.132716 0.004019
0.164831 0.130378 0.001863
0.297063 0.128317 0.000000
0.429209 0.127688 0.000000
0.561268 0.127314 0.000000
0.693241 0.127057 0.000000
0.825127 0.126866 0.000000
0.956927 0.126713 0.000000
1.000000 0.126770 0.000000
0.040963 0.258254 0.000071
0.169823 0.257981 0.000000
0.296147 0.255930 0.000000
0.428147 0.254786 0.000000
0.560061 0.254103 0.000000
0.691889 0.253632 0.000000
0.823630 0.253278 0.000000
0.955285 0.252994 0.000000
1.000000 0.253080 0.000000
0.046231 0.383501 0.000000
0.173897 0.383185 0.000000
0.301352 0.382870 0.000000
0.427085 0.381295 0.000000
0.558854 0.380367 0.000000
0.690536 0.379724 0.000000
0.822132 0.379236 0.000000
0.953642 0.378843 0.000000
1.000000 0.378935 0.000000
0.051894 0.508457 0.000000
0.178864 0.508098 0.000000
0.305656 0.507740 0.000000
0.432268 0.507381 0.000000
0.557647 0.506106 0.000000
0.689184 0.505332 0.000000
0.820635 0.504741 0.000000
0.951999 0.504259 0.000000
1.000000 0.504335 0.000000
0.057694 0.633123 0.000000
0.184189 0.632721 0.000000
0.310525 0.632319 0.000000
0.436699 0.631917 0.000000
0.562713 0.631515 0.000000
0.687832 0.630458 0.000000
0.819137 0.629792 0.000000
0.950356 0.629244 0.000000
1.000000 0.629284 0.000000
0.063562 0.757498 0.000000
0.189693 0.757053 0.000000
0.315676 0.756608 0.000000
0.441510 0.756163 0.000000
0.567196 0.755718 0.000000
0.692734 0.755273 0.000000
0.817640 0.754389 0.000000
0.948714 0.753795 0.000000
1.000000 0.753784 0.000000
0.069471 0.881583 0.000000
0.195299 0.881095 0.000000
0.320989 0.880606 0.000000
0.446538 0.880118 0.000000
0.571949 0.879630 0.000000
0.697219 0.879141 0.000000
0.822351 0.878653 0.000000
0.947071 0.877915 0.000000
1.000000 0.877837 0.000000
0.075405 1.000000 0.000000
0.200974 1.000000 0.000000
0.326408 1.000000 0.000000
0.451709 1.000000 0.000000
0.576876 1.000000 0.000000
0.701909 1.000000 0.000000
0.826809 1.000000 0.000000
0.951576 1.000000 0.000000
1.000000 1.000000 0.000000
0.040800 0.006008 0.100297
0.165571 0.002559 0.096632
0.297942 0.000000 0.088025
0.430227 0.000000 0.081657
0.562426 0.000000 0.075401
0.694538 0.000000 0.069197
0.826564 0.000000 0.063021
0.958504 0.000000 0.056862
1.000000 0.000000 0.050796
0.037565 0.132685 0.096646
0.164800 0.129645 0.094490
0.297026 0.125945 0.084642
0.429166 0.121139 0.073494
0.561219 0.115089 0.061046
0.693186 0.107761 0.047298
0.825067 0.099146 0.032250
0.956861 0.089238 0.015902
1.000000 0.083695 0.003888
0.039496 0.258217 0.086599
0.169341 0.257944 0.086343
0.296110 0.254821 0.083780
0.428104 0.250300 0.072496
0.560012 0.244622 0.059911
0.691834 0.237706 0.046027
0.823569 0.229520 0.030843
0.955218 0.220053 0.014358
1.000000 0.214894 0.002100
0.040189 0.383458 0.075060
0.170217 0.383142 0.074763
0.300230 0.382827 0.074467
0.427042 0.379421 0.071498
0.558805 0.374122 0.058777
0.690482 0.367619 0.044756
0.822072 0.359865 0.029435
0.953576 0.350841 0.012814
1.000000 0.346063 0.000312
0.039432 0.508408 0.062029
0.169853 0.508050 0.061692
0.300261 0.507691 0.061354
0.430658 0.507332 0.061017
0.557598 0.503587 0.057642
0.689130 0.497501 0.043485
0.820574 0.490182 0.028027
0.951933 0.481601 0.011270
1.000000 0.477973 0.000000
0.037198 0.633068 0.047506
0.168084 0.632666 0.047128
0.298960 0.632264 0.046750
0.429825 0.631863 0.046373
0.560680 0.631461 0.045995
0.687777 0.627352 0.042214
0.819077 0.620469 0.026620
0.950290 0.612490 0.010156
1.000000 0.609585 0.000000
0.033478 0.757438 0.031491
0.164864 0.756993 0.031073
0.296240 0.756548 0.030655
0.427606 0.756102 0.030236
0.558963 0.755657 0.029818
0.690310 0.755212 0.029399
0.817579 0.750727 0.025212
0.948647 0.743479 0.010156
1.000000 0.740700 0.000000
0.028271 0.881517 0.013985
0.160174 0.881028 0.013526
0.292068 0.880540 0.013067
0.423954 0.880052 0.012608
0.555830 0.879563 0.012149
0.687698 0.879075 0.011690
0.819557 0.878587 0.011231
0.947005 0.874012 0.010156
1.000000 0.871319 0.000000
0.026464 1.000000 0.000000
0.158692 1.000000 0.000000
0.290772 1.000000 0.000000
0.422704 1.000000 0.000000
0.554487 1.000000 0.000000
0.686123 1.000000 0.000000
0.817611 1.000000 0.000000
0.948951 1.000000 0.000000
1.000000 1.000000 0.000000
0.044978 0.003978 0.221520
0.173122 0.002954 0.220406
0.297850 0.000000 0.216631
0.430120 0.000000 0.209587
0.562304 0.000000 0.202930
0.694402 0.000000 0.196452
0.826413 0.000000 0.190072
0.958338 0.000000 0.183752
1.000000 0.000000 0.177754
0.041555 0.131079 0.220603
0.172206 0.127092 0.218105
0.296933 0.122992 0.212181
0.429058 0.117924 0.200947
0.561097 0.111556 0.188589
0.693050 0.103888 0.174991
0.824916 0.094921 0.160121
0.956695 0.084653 0.143967
1.000000 0.078707 0.132190
0.038387 0.258124 0.216183
0.165850 0.257852 0.211256
0.296017 0.252355 0.208694
0.427997 0.246437 0.197395
0.559890 0.239893 0.184797
0.691697 0.232240 0.170899
0.823418 0.223370 0.155701
0.955052 0.213241 0.139202
1.000000 0.207454 0.126919
0.039022 0.383351 0.204579
0.165455 0.383035 0.199662
0.298795 0.382720 0.199366
0.426935 0.377911 0.196397
0.529342 0.373086 0.216831
0.657673 0.369322 0.209814
0.821921 0.355029 0.154293
0.953410 0.345226 0.137658
1.000000 0.339858 0.125131
0.038164 0.508287 0.191796
0.164421 0.507928 0.186577
0.297046 0.507569 0.186240
0.429653 0.507210 0.185903
0.557477 0.502408 0.182528
0.656997 0.497504 0.209178
0.820423 0.486654 0.152885
0.951767 0.477179 0.136114
1.000000 0.472221 0.123343
0.035815 0.632932 0.177621
0.162038 0.632530 0.172000
0.294655 0.632128 0.171622
0.427259 0.631726 0.171244
0.559850 0.631324 0.170866
0.687641 0.626334 0.167086
0.818926 0.618245 0.151478
0.950124 0.609100 0.134570
1.000000 0.604545 0.121555
0.031974 0.757287 0.161997
0.158212 0.756841 0.155931
0.291069 0.756396 0.155513
0.423914 0.755951 0.155094
0.556748 0.755506 0.154676
0.689570 0.755061 0.154257
0.817428 0.749800 0.150070
0.948482 0.740990 0.133026
1.000000 0.736829 0.119767
0.026642 0.881351 0.144906
0.152918 0.880862 0.138370
0.286129 0.880374 0.137911
0.419329 0.879886 0.137452
0.552519 0.879398 0.136993
0.685698 0.878909 0.136534
0.818867 0.878421 0.136075
0.946839 0.872848 0.131482
1.000000 0.869073 0.117979
0.020124 1.000000 0.126647
0.146421 1.000000 0.119593
0.280024 1.000000 0.119061
0.413616 1.000000 0.118530
0.547195 1.000000 0.117998
0.680763 1.000000 0.117467
0.814319 1.000000 0.116935
0.947864 1.000000 0.116404
1.000000 1.000000 0.116191
0.047430 0.000055 0.341897
0.176940 0.000000 0.341582
0.305329 0.000000 0.340435
0.430013 0.000000 0.337457
0.562182 0.000000 0.330405
0.694265 0.000000 0.323658
0.826262 0.000000 0.317078
0.958172 0.000000 0.310599
1.000000 0.000000 0.304666
0.043589 0.126571 0.340836
0.173131 0.123761 0.340520
0.304267 0.122573 0.338684
0.428951 0.117824 0.332229
0.560975 0.111442 0.320115
0.692913 0.103760 0.306913
0.824764 0.094779 0.292509
0.956529 0.084497 0.276860
1.000000 0.078527 0.265715
0.042591 0.256806 0.339774
0.167294 0.253376 0.339458
0.303205 0.246575 0.335110
0.427890 0.241826 0.326428
0.559768 0.235307 0.313349
0.691561 0.227489 0.299365
0.823267 0.218371 0.284218
0.954887 0.207953 0.267834
1.000000 0.201739 0.255802
0.038921 0.383244 0.335249
0.163624 0.382928 0.332467
0.292933 0.382612 0.324265
0.426828 0.374062 0.321297
0.558562 0.365654 0.308548
0.690209 0.357269 0.294499
0.821769 0.347962 0.279151
0.953244 0.337516 0.262502
1.000000 0.331472 0.249951
0.038050 0.508165 0.322780
0.162713 0.507806 0.318369
0.289962 0.507447 0.311125
0.427545 0.507088 0.310788
0.557355 0.500268 0.307413
0.656928 0.495521 0.334114
0.785136 0.490760 0.326372
0.913301 0.485560 0.317979
1.000000 0.465508 0.248163
0.035687 0.632795 0.309042
0.160309 0.632393 0.303649
0.287145 0.631991 0.296494
0.422825 0.631590 0.296116
0.558486 0.631188 0.295738
0.687504 0.624765 0.291957
0.784387 0.620016 0.325668
0.912479 0.614843 0.317207
1.000000 0.599488 0.246375
0.031832 0.757135 0.293913
0.156414 0.756690 0.287714
0.283110 0.756245 0.280370
0.418256 0.755800 0.279952
0.553386 0.755355 0.279534
0.688502 0.754910 0.279115
0.817277 0.748504 0.274928
0.911658 0.744107 0.316435
1.000000 0.733413 0.244587
0.026486 0.881185 0.277344
0.151027 0.880697 0.270411
0.277678 0.880208 0.262755
0.412765 0.879720 0.262296
0.547840 0.879232 0.261837
0.682901 0.878743 0.261378
0.817950 0.878255 0.260919
0.946673 0.871705 0.256326
1.000000 0.867282 0.242799
0.019944 1.000000 0.259617
0.144412 1.000000 0.251954
0.271036 1.000000 0.243881
0.406268 1.000000 0.243349
0.541485 1.000000 0.242818
0.676684 1.000000 0.242286
0.811868 1.000000 0.241755
0.947035 1.000000 0.241223
1.000000 1.000000 0.241011
0.052896 0.000000 0.462245
0.181513 0.000000 0.461887
0.309918 0.000000 0.461528
0.437419 0.000000 0.460514
0.562060 0.000000 0.457827
0.694129 0.000000 0.450816
0.826111 0.000000 0.444038
0.958006 0.000000 0.437402
1.000000 0.000000 0.431531
0.044376 0.121310 0.461039
0.173512 0.118414 0.460680
0.305615 0.118077 0.460321
0.436212 0.116727 0.458512
0.560854 0.111327 0.451636
0.692777 0.103632 0.438831
0.824613 0.094636 0.424894
0.956363 0.084341 0.409750
1.000000 0.078346 0.399236
0.043242 0.251537 0.459832
0.167905 0.246239 0.459473
0.300195 0.241942 0.459114
0.435005 0.240593 0.456407
0.559647 0.235193 0.447399
0.691424 0.227361 0.433221
0.823116 0.218229 0.418222
0.954721 0.207797 0.402145
1.000000 0.201558 0.390777
0.042107 0.381712 0.458625
0.166770 0.379947 0.458266
0.291433 0.374670 0.457907
0.433799 0.364458 0.451310
0.558440 0.359058 0.439372
0.690072 0.351090 0.424335
0.821618 0.341821 0.408674
0.953078 0.331253 0.391948
1.000000 0.324770 0.379647
0.037935 0.508043 0.453759
0.162598 0.507684 0.451881
0.287261 0.507325 0.447833
0.418813 0.506967 0.435674
0.557233 0.494766 0.432299
0.688720 0.483596 0.418100
0.820121 0.473269 0.402601
0.951435 0.462254 0.385802
1.000000 0.455919 0.372982
0.035559 0.632659 0.440461
0.160181 0.632257 0.436988
0.284803 0.631855 0.430956
0.413019 0.631453 0.420988
0.555589 0.631051 0.420610
0.687368 0.621894 0.416829
0.784312 0.617454 0.450597
0.912396 0.611624 0.442129
1.000000 0.592291 0.371194
0.031690 0.756984 0.425824
0.156272 0.756539 0.421225
0.280853 0.756094 0.414182
0.408360 0.755649 0.404810
0.547555 0.755204 0.404391
0.686729 0.754759 0.403973
0.817126 0.746492 0.399786
0.911575 0.742098 0.441357
1.000000 0.728581 0.369406
0.026330 0.881019 0.409778
0.150871 0.880531 0.404247
0.275412 0.880042 0.396424
0.402648 0.879554 0.387140
0.540653 0.879066 0.386681
0.678643 0.878578 0.386222
0.816615 0.878089 0.385763
0.946507 0.870097 0.381170
1.000000 0.864790 0.367618
0.019763 1.000000 0.392584
0.144232 1.000000 0.386197
0.268700 1.000000 0.377638
0.395792 1.000000 0.368169
0.533362 1.000000 0.367637
0.670907 1.000000 0.367106
0.808428 1.000000 0.366574
0.945925 1.000000 0.366043
1.000000 1.000000 0.365830
0.058666 0.000000 0.582564
0.186766 0.000000 0.582162
0.314684 0.000000 0.581761
0.442418 0.000000 0.581359
0.569394 0.000000 0.580406
0.693992 0.000000 0.577925
0.825960 0.000000 0.570952
0.957840 0.000000 0.564161
1.000000 0.000000 0.558349
0.043918 0.114908 0.581212
0.173077 0.111821 0.580810
0.305249 0.111443 0.580408
0.437406 0.111065 0.580006
0.568042 0.109553 0.578117
0.692640 0.103504 0.570746
0.824462 0.094494 0.557276
0.956198 0.084185 0.542637
1.000000 0.078166 0.532754
0.042647 0.245378 0.579860
0.167269 0.239211 0.579458
0.298292 0.235172 0.579056
0.433566 0.234794 0.578654
0.566690 0.233282 0.576199
0.691288 0.227232 0.567071
0.822965 0.218087 0.552221
0.954555 0.207641 0.536452
1.000000 0.201378 0.525747
0.041376 0.375806 0.578508
0.165998 0.372052 0.578106
0.290620 0.364573 0.577704
0.426170 0.358523 0.577302
0.565338 0.357011 0.573574
0.689936 0.350961 0.561611
0.821467 0.341679 0.545190
0.952912 0.331097 0.528293
1.000000 0.324590 0.516652
0.040105 0.506191 0.577156
0.164727 0.504835 0.576754
0.289349 0.502417 0.576352
0.413971 0.494960 0.575950
0.563985 0.480740 0.566706
0.688584 0.474690 0.551015
0.819970 0.465272 0.533903
0.951270 0.454553 0.516514
1.000000 0.447802 0.503897
0.035430 0.632522 0.571875
0.160053 0.632120 0.570322
0.284675 0.631718 0.567809
0.409297 0.631316 0.562281
0.543490 0.630915 0.545482
0.687231 0.614466 0.541701
0.818472 0.600263 0.526051
0.949627 0.587892 0.509102
1.000000 0.581149 0.496014
0.031548 0.756833 0.557732
0.156130 0.756388 0.554732
0.280711 0.755943 0.550227
0.405293 0.755498 0.542340
0.534623 0.755053 0.529249
0.682929 0.754607 0.528831
0.816975 0.742788 0.524644
0.911492 0.738886 0.566279
1.000000 0.721145 0.494226
0.026174 0.880853 0.542209
0.150715 0.880365 0.538080
0.275256 0.879877 0.532295
0.399797 0.879388 0.523396
0.528066 0.878900 0.511525
0.671235 0.878412 0.511066
0.814382 0.877923 0.510607
0.946341 0.867589 0.506014
1.000000 0.861007 0.492438
0.019583 1.000000 0.525547
0.144051 1.000000 0.520435
0.268520 1.000000 0.513625
0.392988 1.000000 0.503957
0.520809 1.000000 0.492457
0.662011 1.000000 0.491925
0.803174 1.000000 0.491394
0.944298 1.000000 0.490862
1.000000 1.000000 0.490650
0.064553 0.000000 0.702854
0.192323 0.000000 0.702409
0.319927 0.000000 0.701964
0.447367 0.000000 0.701519
0.574641 0.000000 0.701074
0.701253 0.000000 0.700148
0.825808 0.000000 0.697820
0.957675 0.000000 0.690876
1.000000 0.000000 0.685121
0.042213 0.107298 0.701357
0.171532 0.103982 0.700912
0.304000 0.103563 0.700466
0.436455 0.103145 0.700021
0.568899 0.102727 0.699576
0.699756 0.101052 0.697571
0.824311 0.094352 0.689655
0.956032 0.084029 0.675521
1.000000 0.077985 0.666268
0.040805 0.238107 0.699859
0.165387 0.231222 0.699414
0.296079 0.227156 0.698969
0.430832 0.226737 0.698524
0.565569 0.226319 0.698079
0.698259 0.224644 0.695645
0.822813 0.217945 0.686217
0.954389 0.207485 0.670756
1.000000 0.201197 0.660713
0.039398 0.368880 0.698362
0.163979 0.363900 0.697917
0.288561 0.355682 0.697471
0.421770 0.350330 0.697026
0.560712 0.349911 0.696581
0.696761 0.348237 0.693389
0.821316 0.341537 0.681702
0.952746 0.330941 0.664634
1.000000 0.324409 0.653650
0.037990 0.499615 0.696864
0.162572 0.496531 0.696419
0.287153 0.491564 0.695974
0.411735 0.481571 0.695529
0.551056 0.473504 0.695084
0.695264 0.471829 0.690186
0.819818 0.465129 0.674866
0.951104 0.454397 0.656024
1.000000 0.447621 0.643946
0.036582 0.630312 0.695367
0.161164 0.629115 0.694922
0.285746 0.627381 0.694477
0.410327 0.624215 0.694031
0.534909 0.614248 0.693586
0.693766 0.595421 0.681297
0.818321 0.588722 0.661356
0.949461 0.577853 0.642054
1.000000 0.570833 0.628960
0.031406 0.756682 0.689637
0.155988 0.756237 0.688234
0.280569 0.755792 0.686267
0.405151 0.755347 0.683032
0.529732 0.754901 0.675811
0.666965 0.754456 0.653689
0.816824 0.733163 0.649502
0.947818 0.715655 0.632402
1.000000 0.708066 0.619045
0.026018 0.880687 0.674637
0.150559 0.880199 0.671909
0.275100 0.879711 0.668162
0.399641 0.879223 0.662498
0.524182 0.878734 0.652522
0.654777 0.878246 0.635910
0.809564 0.877758 0.635451
0.946175 0.862950 0.630858
1.000000 0.854439 0.617257
0.019402 1.000000 0.658507
0.143871 1.000000 0.654669
0.268339 1.000000 0.649605
0.392808 1.000000 0.642479
0.517276 1.000000 0.631470
0.646385 1.000000 0.616745
0.794010 1.000000 0.616213
0.941558 1.000000 0.615682
1.000000 1.000000 0.615469
0.070502 0.000000 0.823114
0.198039 0.000000 0.822626
0.325424 0.000000 0.822138
0.452656 0.000000 0.821649
0.579736 0.000000 0.821161
0.706663 0.000000 0.820673
0.832997 0.000000 0.819758
0.957509 0.000000 0.817548
1.000000 0.000000 0.811847
0.039262 0.098460 0.821472
0.168802 0.094896 0.820983
0.301666 0.094437 0.820495
0.434520 0.093978 0.820007
0.567362 0.093519 0.819518
0.700194 0.093060 0.819030
0.831354 0.091223 0.816891
0.955866 0.083873 0.808401
1.000000 0.077805 0.799778
0.037717 0.229655 0.819829
0.162258 0.222093 0.819341
0.292917 0.217893 0.818852
0.427644 0.217434 0.818364
0.562358 0.216975 0.817876
0.697058 0.216516 0.817387
0.829712 0.214679 0.814894
0.954223 0.207329 0.805056
1.000000 0.201017 0.795673
0.036173 0.360815 0.818186
0.160714 0.354874 0.817698
0.285255 0.346061 0.817210
0.417691 0.340890 0.816721
0.555376 0.340431 0.816233
0.693044 0.339972 0.815745
0.828069 0.338135 0.812699
0.952581 0.330785 0.800971
1.000000 0.324229 0.790640
0.034629 0.491942 0.816544
0.159170 0.487613 0.816055
0.283711 0.481262 0.815567
0.408252 0.470723 0.815079
0.543945 0.463887 0.814590
0.687054 0.463428 0.814102
0.826426 0.461591 0.810081
0.950938 0.454241 0.795528
1.000000 0.447441 0.783985
0.033085 0.623035 0.814901
0.157626 0.620311 0.814412
0.282167 0.616410 0.813924
0.406708 0.610072 0.813436
0.531249 0.597234 0.812948
0.674853 0.586884 0.812459
0.824783 0.585046 0.806242
0.949295 0.577697 0.787163
1.000000 0.570653 0.774081
0.031541 0.754093 0.813258
0.156082 0.752968 0.812770
0.280623 0.751507 0.812281
0.405164 0.749351 0.811793
0.529705 0.745342 0.811305
0.654246 0.732531 0.810816
0.823141 0.708502 0.795084
0.947652 0.701153 0.770395
1.000000 0.693865 0.756053
0.025862 0.880522 0.807062
0.150403 0.880033 0.805734
0.274944 0.879545 0.804024
0.399485 0.879057 0.801596
0.524026 0.878568 0.797550
0.648567 0.878080 0.788423
0.789238 0.877592 0.760296
0.946010 0.850856 0.755702
1.000000 0.839813 0.742077
0.019222 1.000000 0.791465
0.143690 1.000000 0.788899
0.268159 1.000000 0.785580
0.392627 1.000000 0.780993
0.517096 1.000000 0.774018
0.641564 1.000000 0.761669
0.773572 1.000000 0.741033
0.935615 1.000000 0.740501
1.000000 1.000000 0.740289
0.076487 0.000000 0.943345
0.203852 0.000000 0.942814
0.331072 0.000000 0.942282
0.458149 0.000000 0.941751
0.585082 0.000000 0.941219
0.711872 0.000000 0.940688
0.838518 0.000000 0.940156
0.964625 0.000000 0.939240
1.000000 0.000000 0.938526
0.035064 0.088387 0.941557
0.164858 0.084564 0.941026
0.298172 0.084065 0.940494
0.431477 0.083565 0.939963
0.564771 0.083066 0.939431
0.698056 0.082566 0.938900
0.831331 0.082066 0.938368
0.962837 0.080067 0.936086
1.000000 0.077624 0.933285
0.033383 0.219992 0.939769
0.157884 0.211770 0.939238
0.288642 0.207384 0.938706
0.423563 0.206884 0.938175
0.558472 0.206385 0.937643
0.693370 0.205885 0.937112
0.828255 0.205386 0.936580
0.961049 0.203386 0.933990
1.000000 0.200836 0.930628
0.031703 0.351566 0.937981
0.156203 0.344780 0.937450
0.280703 0.335388 0.936918
0.412865 0.330204 0.936387
0.550123 0.329704 0.935855
0.687366 0.329204 0.935324
0.824595 0.328705 0.934792
0.959261 0.326705 0.931758
1.000000 0.324048 0.927624
0.030022 0.483108 0.936193
0.154522 0.477752 0.935662
0.279023 0.470387 0.935130
0.403523 0.459426 0.934599
0.537914 0.453023 0.934067
0.678882 0.452524 0.933536
0.819833 0.452024 0.933004
0.957473 0.450025 0.929281
1.000000 0.447260 0.924012
0.028341 0.614618 0.934405
0.152841 0.610688 0.933874
0.277342 0.605342 0.933342
0.401842 0.597462 0.932811
0.526343 0.584334 0.932279
0.664819 0.575843 0.931748
0.812592 0.575343 0.931216
0.955685 0.573344 0.926274
1.000000 0.570472 0.919183
0.026660 0.746097 0.932617
0.151161 0.743587 0.932086
0.275661 0.740252 0.931554
0.400162 0.735442 0.931023
0.524662 0.727577 0.930491
0.649162 0.711562 0.929960
0.797562 0.698663 0.929428
0.953897 0.696663 0.921743
1.000000 0.693684 0.911313
0.024980 0.877544 0.930829
0.149480 0.876448 0.930298
0.273980 0.875118 0.929766
0.398481 0.873366 0.929235
0.522981 0.870743 0.928703
0.647482 0.865796 0.928172
0.771982 0.849811 0.927640
0.952109 0.819982 0.908067
1.000000 0.816896 0.891266
0.019041 1.000000 0.924419
0.143510 1.000000 0.923124
0.267978 1.000000 0.921548
0.392447 1.000000 0.919497
0.516915 1.000000 0.916551
0.641384 1.000000 0.911592
0.765852 1.000000 0.900306
0.910407 1.000000 0.865321
1.000000 1.000000 0.865108
