luts/original/grain-memory.cube
TITLE "Grain Memory"
LUT_3D_SIZE 33
DOMAIN_MIN 0.0 0.0 0.0
DOMAIN_MAX 1.0 1.0 1.0
0.018480 0.018480 0.018480
0.050761 0.023762 0.023762
0.083037 0.026525 0.026525
0.115309 0.029440 0.029440
0.147576 0.032507 0.032507
0.179838 0.035725 0.035725
0.212096 0.039095 0.039095
0.244350 0.042617 0.042617
0.276599 0.046291 0.046291
0.308843 0.050117 0.050117
0.341083 0.054094 0.054094
0.373318 0.058223 0.058223
0.405548 0.062504 0.062504
0.437774 0.066937 0.066937
0.469996 0.071521 0.071521
0.502213 0.076258 0.076258
0.534425 0.081146 0.081146
0.566633 0.086186 0.086186
0.598836 0.091377 0.091377
0.631034 0.096721 0.096721
0.663228 0.102216 0.102216
0.695418 0.107863 0.107863
0.727603 0.113662 0.113662
0.759783 0.119613 0.119613
0.791959 0.125715 0.125715
0.824130 0.131970 0.131970
0.856296 0.138376 0.138376
0.888458 0.144934 0.144934
0.920616 0.151643 0.151643
0.952769 0.158505 0.158505
0.984917 0.165518 0.165518
0.999365 0.172683 0.172683
1.000000 0.180000 0.180000
0.023762 0.050761 0.023762
0.050761 0.050761 0.023762
0.083037 0.054781 0.026525
0.115309 0.058063 0.029440
0.147576 0.061274 0.032507
0.179838 0.064548 0.035725
0.212096 0.067929 0.039095
0.244350 0.071436 0.042617
0.276599 0.075080 0.046291
0.308843 0.078864 0.050117
0.341083 0.082793 0.054094
0.373318 0.086868 0.058223
0.405548 0.091091 0.062504
0.437774 0.095463 0.066937
0.469996 0.099984 0.071521
0.502213 0.104655 0.076258
0.534425 0.109476 0.081146
0.566633 0.114447 0.086186
0.598836 0.119570 0.091377
0.631034 0.124843 0.096721
0.663228 0.130267 0.102216
0.695418 0.135842 0.107863
0.727603 0.141569 0.113662
0.759783 0.147446 0.119613
0.791959 0.153476 0.125715
0.824130 0.159656 0.131970
0.856296 0.165988 0.138376
0.888458 0.172472 0.144934
0.920616 0.179107 0.151643
0.952769 0.185893 0.158505
0.984917 0.192831 0.165518
0.999365 0.199921 0.172683
1.000000 0.207162 0.180000
0.026525 0.083037 0.026525
0.054781 0.083037 0.026525
0.083037 0.083037 0.026525
0.115309 0.086686 0.029440
0.147576 0.090041 0.032507
0.179838 0.093370 0.035725
0.212096 0.096762 0.039095
0.244350 0.100255 0.042617
0.276599 0.103868 0.046291
0.308843 0.107611 0.050117
0.341083 0.111492 0.054094
0.373318 0.115513 0.058223
0.405548 0.119678 0.062504
0.437774 0.123989 0.066937
0.469996 0.128446 0.071521
0.502213 0.133052 0.076258
0.534425 0.137806 0.081146
0.566633 0.142709 0.086186
0.598836 0.147762 0.091377
0.631034 0.152964 0.096721
0.663228 0.158317 0.102216
0.695418 0.163821 0.107863
0.727603 0.169475 0.113662
0.759783 0.175280 0.119613
0.791959 0.181236 0.125715
0.824130 0.187343 0.131970
0.856296 0.193600 0.138376
0.888458 0.200010 0.144934
0.920616 0.206570 0.151643
0.952769 0.213282 0.158505
0.984917 0.220145 0.165518
0.999365 0.227159 0.172683
1.000000 0.234325 0.180000
0.029440 0.115309 0.029440
0.058063 0.115309 0.029440
0.086686 0.115309 0.029440
0.115309 0.115309 0.029440
0.147576 0.118809 0.032507
0.179838 0.122193 0.035725
0.212096 0.125596 0.039095
0.244350 0.129074 0.042617
0.276599 0.132656 0.046291
0.308843 0.136359 0.050117
0.341083 0.140191 0.054094
0.373318 0.144158 0.058223
0.405548 0.148265 0.062504
0.437774 0.152515 0.066937
0.469996 0.156909 0.071521
0.502213 0.161449 0.076258
0.534425 0.166136 0.081146
0.566633 0.170970 0.086186
0.598836 0.175954 0.091377
0.631034 0.181086 0.096721
0.663228 0.186368 0.102216
0.695418 0.191800 0.107863
0.727603 0.197381 0.113662
0.759783 0.203113 0.119613
0.791959 0.208996 0.125715
0.824130 0.215029 0.131970
0.856296 0.221213 0.138376
0.888458 0.227548 0.144934
0.920616 0.234033 0.151643
0.952769 0.240670 0.158505
0.984917 0.247458 0.165518
0.999365 0.254397 0.172683
1.000000 0.261488 0.180000
0.032507 0.147576 0.032507
0.061274 0.147576 0.032507
0.090041 0.147576 0.032507
0.118809 0.147576 0.032507
0.147576 0.147576 0.032507
0.179838 0.151016 0.035725
0.212096 0.154429 0.039095
0.244350 0.157893 0.042617
0.276599 0.161445 0.046291
0.308843 0.165106 0.050117
0.341083 0.168889 0.054094
0.373318 0.172803 0.058223
0.405548 0.176852 0.062504
0.437774 0.181041 0.066937
0.469996 0.185371 0.071521
0.502213 0.189846 0.076258
0.534425 0.194466 0.081146
0.566633 0.199232 0.086186
0.598836 0.204146 0.091377
0.631034 0.209208 0.096721
0.663228 0.214419 0.102216
0.695418 0.219779 0.107863
0.727603 0.225288 0.113662
0.759783 0.230947 0.119613
0.791959 0.236756 0.125715
0.824130 0.242715 0.131970
0.856296 0.248825 0.138376
0.888458 0.255086 0.144934
0.920616 0.261497 0.151643
0.952769 0.268058 0.158505
0.984917 0.274771 0.165518
0.999365 0.281635 0.172683
1.000000 0.288650 0.180000
0.035725 0.179838 0.035725
0.064548 0.179838 0.035725
0.093370 0.179838 0.035725
0.122193 0.179838 0.035725
0.151016 0.179838 0.035725
0.179838 0.179838 0.035725
0.212096 0.183263 0.039095
0.244350 0.186712 0.042617
0.276599 0.190233 0.046291
0.308843 0.193854 0.050117
0.341083 0.197588 0.054094
0.373318 0.201448 0.058223
0.405548 0.205439 0.062504
0.437774 0.209567 0.066937
0.469996 0.213834 0.071521
0.502213 0.218243 0.076258
0.534425 0.222796 0.081146
0.566633 0.227494 0.086186
0.598836 0.232338 0.091377
0.631034 0.237330 0.096721
0.663228 0.242469 0.102216
0.695418 0.247757 0.107863
0.727603 0.253194 0.113662
0.759783 0.258780 0.119613
0.791959 0.264516 0.125715
0.824130 0.270402 0.131970
0.856296 0.276437 0.138376
0.888458 0.282623 0.144934
0.920616 0.288960 0.151643
0.952769 0.295447 0.158505
0.984917 0.302085 0.165518
0.999365 0.308873 0.172683
1.000000 0.315812 0.180000
0.039095 0.212096 0.039095
0.067929 0.212096 0.039095
0.096762 0.212096 0.039095
0.125596 0.212096 0.039095
0.154429 0.212096 0.039095
0.183263 0.212096 0.039095
0.212096 0.212096 0.039095
0.244350 0.215531 0.042617
0.276599 0.219022 0.046291
0.308843 0.222601 0.050117
0.341083 0.226287 0.054094
0.373318 0.230093 0.058223
0.405548 0.234026 0.062504
0.437774 0.238093 0.066937
0.469996 0.242296 0.071521
0.502213 0.246640 0.076258
0.534425 0.251126 0.081146
0.566633 0.255755 0.086186
0.598836 0.260530 0.091377
0.631034 0.265452 0.096721
0.663228 0.270520 0.102216
0.695418 0.275736 0.107863
0.727603 0.281101 0.113662
0.759783 0.286614 0.119613
0.791959 0.292276 0.125715
0.824130 0.298088 0.131970
0.856296 0.304050 0.138376
0.888458 0.310161 0.144934
0.920616 0.316423 0.151643
0.952769 0.322835 0.158505
0.984917 0.329398 0.165518
0.999365 0.336111 0.172683
1.000000 0.342975 0.180000
0.042617 0.244350 0.042617
0.071436 0.244350 0.042617
0.100255 0.244350 0.042617
0.129074 0.244350 0.042617
0.157893 0.244350 0.042617
0.186712 0.244350 0.042617
0.215531 0.244350 0.042617
0.244350 0.244350 0.042617
0.276599 0.247810 0.046291
0.308843 0.251348 0.050117
0.341083 0.254986 0.054094
0.373318 0.258738 0.058223
0.405548 0.262613 0.062504
0.437774 0.266619 0.066937
0.469996 0.270759 0.071521
0.502213 0.275037 0.076258
0.534425 0.279455 0.081146
0.566633 0.284017 0.086186
0.598836 0.288722 0.091377
0.631034 0.293573 0.096721
0.663228 0.298571 0.102216
0.695418 0.303715 0.107863
0.727603 0.309007 0.113662
0.759783 0.314447 0.119613
0.791959 0.320036 0.125715
0.824130 0.325775 0.131970
0.856296 0.331662 0.138376
0.888458 0.337699 0.144934
0.920616 0.343886 0.151643
0.952769 0.350224 0.158505
0.984917 0.356711 0.165518
0.999365 0.363349 0.172683
1.000000 0.370138 0.180000
0.046291 0.276599 0.046291
0.075080 0.276599 0.046291
0.103868 0.276599 0.046291
0.132656 0.276599 0.046291
0.161445 0.276599 0.046291
0.190233 0.276599 0.046291
0.219022 0.276599 0.046291
0.247810 0.276599 0.046291
0.276599 0.276599 0.046291
0.308843 0.280096 0.050117
0.341083 0.283685 0.054094
0.373318 0.287383 0.058223
0.405548 0.291200 0.062504
0.437774 0.295145 0.066937
0.469996 0.299221 0.071521
0.502213 0.303434 0.076258
0.534425 0.307785 0.081146
0.566633 0.312278 0.086186
0.598836 0.316915 0.091377
0.631034 0.321695 0.096721
0.663228 0.326621 0.102216
0.695418 0.331694 0.107863
0.727603 0.336913 0.113662
0.759783 0.342281 0.119613
0.791959 0.347797 0.125715
0.824130 0.353461 0.131970
0.856296 0.359274 0.138376
0.888458 0.365237 0.144934
0.920616 0.371350 0.151643
0.952769 0.377612 0.158505
0.984917 0.384025 0.165518
0.999365 0.390587 0.172683
1.000000 0.397300 0.180000
0.050117 0.308843 0.050117
0.078864 0.308843 0.050117
0.107611 0.308843 0.050117
0.136359 0.308843 0.050117
0.165106 0.308843 0.050117
0.193854 0.308843 0.050117
0.222601 0.308843 0.050117
0.251348 0.308843 0.050117
0.280096 0.308843 0.050117
0.308843 0.308843 0.050117
0.341083 0.312384 0.054094
0.373318 0.316028 0.058223
0.405548 0.319787 0.062504
0.437774 0.323671 0.066937
0.469996 0.327684 0.071521
0.502213 0.331831 0.076258
0.534425 0.336115 0.081146
0.566633 0.340540 0.086186
0.598836 0.345107 0.091377
0.631034 0.349817 0.096721
0.663228 0.354672 0.102216
0.695418 0.359672 0.107863
0.727603 0.364820 0.113662
0.759783 0.370114 0.119613
0.791959 0.375557 0.125715
0.824130 0.381147 0.131970
0.856296 0.386887 0.138376
0.888458 0.392775 0.144934
0.920616 0.398813 0.151643
0.952769 0.405001 0.158505
0.984917 0.411338 0.165518
0.999365 0.417825 0.172683
1.000000 0.424462 0.180000
0.054094 0.341083 0.054094
0.082793 0.341083 0.054094
0.111492 0.341083 0.054094
0.140191 0.341083 0.054094
0.168889 0.341083 0.054094
0.197588 0.341083 0.054094
0.226287 0.341083 0.054094
0.254986 0.341083 0.054094
0.283685 0.341083 0.054094
0.312384 0.341083 0.054094
0.341083 0.341083 0.054094
0.373318 0.344673 0.058223
0.405548 0.348374 0.062504
0.437774 0.352197 0.066937
0.469996 0.356146 0.071521
0.502213 0.360228 0.076258
0.534425 0.364445 0.081146
0.566633 0.368802 0.086186
0.598836 0.373299 0.091377
0.631034 0.377939 0.096721
0.663228 0.382722 0.102216
0.695418 0.387651 0.107863
0.727603 0.392726 0.113662
0.759783 0.397948 0.119613
0.791959 0.403317 0.125715
0.824130 0.408834 0.131970
0.856296 0.414499 0.138376
0.888458 0.420313 0.144934
0.920616 0.426276 0.151643
0.952769 0.432389 0.158505
0.984917 0.438651 0.165518
0.999365 0.445063 0.172683
1.000000 0.451625 0.180000
0.058223 0.373318 0.058223
0.086868 0.373318 0.058223
0.115513 0.373318 0.058223
0.144158 0.373318 0.058223
0.172803 0.373318 0.058223
0.201448 0.373318 0.058223
0.230093 0.373318 0.058223
0.258738 0.373318 0.058223
0.287383 0.373318 0.058223
0.316028 0.373318 0.058223
0.344673 0.373318 0.058223
0.373318 0.373318 0.058223
0.405548 0.376961 0.062504
0.437774 0.380722 0.066937
0.469996 0.384608 0.071521
0.502213 0.388625 0.076258
0.534425 0.392775 0.081146
0.566633 0.397063 0.086186
0.598836 0.401491 0.091377
0.631034 0.406060 0.096721
0.663228 0.410773 0.102216
0.695418 0.415630 0.107863
0.727603 0.420633 0.113662
0.759783 0.425781 0.119613
0.791959 0.431077 0.125715
0.824130 0.436520 0.131970
0.856296 0.442111 0.138376
0.888458 0.447851 0.144934
0.920616 0.453740 0.151643
0.952769 0.459777 0.158505
0.984917 0.465964 0.165518
0.999365 0.472301 0.172683
1.000000 0.478788 0.180000
0.062504 0.405548 0.062504
0.091091 0.405548 0.062504
0.119678 0.405548 0.062504
0.148265 0.405548 0.062504
0.176852 0.405548 0.062504
0.205439 0.405548 0.062504
0.234026 0.405548 0.062504
0.262613 0.405548 0.062504
0.291200 0.405548 0.062504
0.319787 0.405548 0.062504
0.348374 0.405548 0.062504
0.376961 0.405548 0.062504
0.405548 0.405548 0.062504
0.437774 0.409248 0.066937
0.469996 0.413071 0.071521
0.502213 0.417022 0.076258
0.534425 0.421105 0.081146
0.566633 0.425325 0.086186
0.598836 0.429683 0.091377
0.631034 0.434182 0.096721
0.663228 0.438824 0.102216
0.695418 0.443609 0.107863
0.727603 0.448539 0.113662
0.759783 0.453615 0.119613
0.791959 0.458837 0.125715
0.824130 0.464207 0.131970
0.856296 0.469724 0.138376
0.888458 0.475389 0.144934
0.920616 0.481203 0.151643
0.952769 0.487166 0.158505
0.984917 0.493278 0.165518
0.999365 0.499539 0.172683
1.000000 0.505950 0.180000
0.066937 0.437774 0.066937
0.095463 0.437774 0.066937
0.123989 0.437774 0.066937
0.152515 0.437774 0.066937
0.181041 0.437774 0.066937
0.209567 0.437774 0.066937
0.238093 0.437774 0.066937
0.266619 0.437774 0.066937
0.295145 0.437774 0.066937
0.323671 0.437774 0.066937
0.352197 0.437774 0.066937
0.380722 0.437774 0.066937
0.409248 0.437774 0.066937
0.437774 0.437774 0.066937
0.469996 0.441533 0.071521
0.502213 0.445419 0.076258
0.534425 0.449435 0.081146
0.566633 0.453586 0.086186
0.598836 0.457875 0.091377
0.631034 0.462304 0.096721
0.663228 0.466874 0.102216
0.695418 0.471588 0.107863
0.727603 0.476445 0.113662
0.759783 0.481448 0.119613
0.791959 0.486597 0.125715
0.824130 0.491893 0.131970
0.856296 0.497336 0.138376
0.888458 0.502927 0.144934
0.920616 0.508666 0.151643
0.952769 0.514554 0.158505
0.984917 0.520591 0.165518
0.999365 0.526777 0.172683
1.000000 0.533113 0.180000
0.071521 0.469996 0.071521
0.099984 0.469996 0.071521
0.128446 0.469996 0.071521
0.156909 0.469996 0.071521
0.185371 0.469996 0.071521
0.213834 0.469996 0.071521
0.242296 0.469996 0.071521
0.270759 0.469996 0.071521
0.299221 0.469996 0.071521
0.327684 0.469996 0.071521
0.356146 0.469996 0.071521
0.384608 0.469996 0.071521
0.413071 0.469996 0.071521
0.441533 0.469996 0.071521
0.469996 0.469996 0.071521
0.502213 0.473816 0.076258
0.534425 0.477765 0.081146
0.566633 0.481848 0.086186
0.598836 0.486067 0.091377
0.631034 0.490426 0.096721
0.663228 0.494925 0.102216
0.695418 0.499566 0.107863
0.727603 0.504352 0.113662
0.759783 0.509282 0.119613
0.791959 0.514357 0.125715
0.824130 0.519579 0.131970
0.856296 0.524948 0.138376
0.888458 0.530465 0.144934
0.920616 0.536130 0.151643
0.952769 0.541943 0.158505
0.984917 0.547904 0.165518
0.999365 0.554015 0.172683
1.000000 0.560275 0.180000
0.076258 0.502213 0.076258
0.104655 0.502213 0.076258
0.133052 0.502213 0.076258
0.161449 0.502213 0.076258
0.189846 0.502213 0.076258
0.218243 0.502213 0.076258
0.246640 0.502213 0.076258
0.275037 0.502213 0.076258
0.303434 0.502213 0.076258
0.331831 0.502213 0.076258
0.360228 0.502213 0.076258
0.388625 0.502213 0.076258
0.417022 0.502213 0.076258
0.445419 0.502213 0.076258
0.473816 0.502213 0.076258
0.502213 0.502213 0.076258
0.534425 0.506095 0.081146
0.566633 0.510110 0.086186
0.598836 0.514259 0.091377
0.631034 0.518547 0.096721
0.663228 0.522975 0.102216
0.695418 0.527545 0.107863
0.727603 0.532258 0.113662
0.759783 0.537115 0.119613
0.791959 0.542118 0.125715
0.824130 0.547266 0.131970
0.856296 0.552561 0.138376
0.888458 0.558003 0.144934
0.920616 0.563593 0.151643
0.952769 0.569331 0.158505
0.984917 0.575218 0.165518
0.999365 0.581253 0.172683
1.000000 0.587438 0.180000
0.081146 0.534425 0.081146
0.109476 0.534425 0.081146
0.137806 0.534425 0.081146
0.166136 0.534425 0.081146
0.194466 0.534425 0.081146
0.222796 0.534425 0.081146
0.251126 0.534425 0.081146
0.279455 0.534425 0.081146
0.307785 0.534425 0.081146
0.336115 0.534425 0.081146
0.364445 0.534425 0.081146
0.392775 0.534425 0.081146
0.421105 0.534425 0.081146
0.449435 0.534425 0.081146
0.477765 0.534425 0.081146
0.506095 0.534425 0.081146
0.534425 0.534425 0.081146
0.566633 0.538371 0.086186
0.598836 0.542452 0.091377
0.631034 0.546669 0.096721
0.663228 0.551026 0.102216
0.695418 0.555524 0.107863
0.727603 0.560164 0.113662
0.759783 0.564949 0.119613
0.791959 0.569878 0.125715
0.824130 0.574952 0.131970
0.856296 0.580173 0.138376
0.888458 0.585541 0.144934
0.920616 0.591056 0.151643
0.952769 0.596719 0.158505
0.984917 0.602531 0.165518
0.999365 0.608491 0.172683
1.000000 0.614600 0.180000
0.086186 0.566633 0.086186
0.114447 0.566633 0.086186
0.142709 0.566633 0.086186
0.170970 0.566633 0.086186
0.199232 0.566633 0.086186
0.227494 0.566633 0.086186
0.255755 0.566633 0.086186
0.284017 0.566633 0.086186
0.312278 0.566633 0.086186
0.340540 0.566633 0.086186
0.368802 0.566633 0.086186
0.397063 0.566633 0.086186
0.425325 0.566633 0.086186
0.453586 0.566633 0.086186
0.481848 0.566633 0.086186
0.510110 0.566633 0.086186
0.538371 0.566633 0.086186
0.566633 0.566633 0.086186
0.598836 0.570644 0.091377
0.631034 0.574791 0.096721
0.663228 0.579077 0.102216
0.695418 0.583503 0.107863
0.727603 0.588071 0.113662
0.759783 0.592782 0.119613
0.791959 0.597638 0.125715
0.824130 0.602639 0.131970
0.856296 0.607785 0.138376
0.888458 0.613079 0.144934
0.920616 0.618520 0.151643
0.952769 0.624108 0.158505
0.984917 0.629844 0.165518
0.999365 0.635729 0.172683
1.000000 0.641762 0.180000
0.091377 0.598836 0.091377
0.119570 0.598836 0.091377
0.147762 0.598836 0.091377
0.175954 0.598836 0.091377
0.204146 0.598836 0.091377
0.232338 0.598836 0.091377
0.260530 0.598836 0.091377
0.288722 0.598836 0.091377
0.316915 0.598836 0.091377
0.345107 0.598836 0.091377
0.373299 0.598836 0.091377
0.401491 0.598836 0.091377
0.429683 0.598836 0.091377
0.457875 0.598836 0.091377
0.486067 0.598836 0.091377
0.514259 0.598836 0.091377
0.542452 0.598836 0.091377
0.570644 0.598836 0.091377
0.598836 0.598836 0.091377
0.631034 0.602913 0.096721
0.663228 0.607127 0.102216
0.695418 0.611481 0.107863
0.727603 0.615977 0.113662
0.759783 0.620616 0.119613
0.791959 0.625398 0.125715
0.824130 0.630325 0.131970
0.856296 0.635398 0.138376
0.888458 0.640617 0.144934
0.920616 0.645983 0.151643
0.952769 0.651496 0.158505
0.984917 0.657157 0.165518
0.999365 0.662967 0.172683
1.000000 0.668925 0.180000
0.096721 0.631034 0.096721
0.124843 0.631034 0.096721
0.152964 0.631034 0.096721
0.181086 0.631034 0.096721
0.209208 0.631034 0.096721
0.237330 0.631034 0.096721
0.265452 0.631034 0.096721
0.293573 0.631034 0.096721
0.321695 0.631034 0.096721
0.349817 0.631034 0.096721
0.377939 0.631034 0.096721
0.406060 0.631034 0.096721
0.434182 0.631034 0.096721
0.462304 0.631034 0.096721
0.490426 0.631034 0.096721
0.518547 0.631034 0.096721
0.546669 0.631034 0.096721
0.574791 0.631034 0.096721
0.602913 0.631034 0.096721
0.631034 0.631034 0.096721
0.663228 0.635178 0.102216
0.695418 0.639460 0.107863
0.727603 0.643884 0.113662
0.759783 0.648449 0.119613
0.791959 0.653158 0.125715
0.824130 0.658011 0.131970
0.856296 0.663010 0.138376
0.888458 0.668155 0.144934
0.920616 0.673446 0.151643
0.952769 0.678885 0.158505
0.984917 0.684471 0.165518
0.999365 0.690205 0.172683
1.000000 0.696087 0.180000
0.102216 0.663228 0.102216
0.130267 0.663228 0.102216
0.158317 0.663228 0.102216
0.186368 0.663228 0.102216
0.214419 0.663228 0.102216
0.242469 0.663228 0.102216
0.270520 0.663228 0.102216
0.298571 0.663228 0.102216
0.326621 0.663228 0.102216
0.354672 0.663228 0.102216
0.382722 0.663228 0.102216
0.410773 0.663228 0.102216
0.438824 0.663228 0.102216
0.466874 0.663228 0.102216
0.494925 0.663228 0.102216
0.522975 0.663228 0.102216
0.551026 0.663228 0.102216
0.579077 0.663228 0.102216
0.607127 0.663228 0.102216
0.635178 0.663228 0.102216
0.663228 0.663228 0.102216
0.695418 0.667439 0.107863
0.727603 0.671790 0.113662
0.759783 0.676283 0.119613
0.791959 0.680918 0.125715
0.824130 0.685698 0.131970
0.856296 0.690623 0.138376
0.888458 0.695693 0.144934
0.920616 0.700909 0.151643
0.952769 0.706273 0.158505
0.984917 0.711784 0.165518
0.999365 0.717443 0.172683
1.000000 0.723250 0.180000
0.107863 0.695418 0.107863
0.135842 0.695418 0.107863
0.163821 0.695418 0.107863
0.191800 0.695418 0.107863
0.219779 0.695418 0.107863
0.247757 0.695418 0.107863
0.275736 0.695418 0.107863
0.303715 0.695418 0.107863
0.331694 0.695418 0.107863
0.359672 0.695418 0.107863
0.387651 0.695418 0.107863
0.415630 0.695418 0.107863
0.443609 0.695418 0.107863
0.471588 0.695418 0.107863
0.499566 0.695418 0.107863
0.527545 0.695418 0.107863
0.555524 0.695418 0.107863
0.583503 0.695418 0.107863
0.611481 0.695418 0.107863
0.639460 0.695418 0.107863
0.667439 0.695418 0.107863
0.695418 0.695418 0.107863
0.727603 0.699696 0.113662
0.759783 0.704116 0.119613
0.791959 0.708678 0.125715
0.824130 0.713384 0.131970
0.856296 0.718235 0.138376
0.888458 0.723231 0.144934
0.920616 0.728373 0.151643
0.952769 0.733662 0.158505
0.984917 0.739097 0.165518
0.999365 0.744681 0.172683
1.000000 0.750413 0.180000
0.113662 0.727603 0.113662
0.141569 0.727603 0.113662
0.169475 0.727603 0.113662
0.197381 0.727603 0.113662
0.225288 0.727603 0.113662
0.253194 0.727603 0.113662
0.281101 0.727603 0.113662
0.309007 0.727603 0.113662
0.336913 0.727603 0.113662
0.364820 0.727603 0.113662
0.392726 0.727603 0.113662
0.420633 0.727603 0.113662
0.448539 0.727603 0.113662
0.476445 0.727603 0.113662
0.504352 0.727603 0.113662
0.532258 0.727603 0.113662
0.560164 0.727603 0.113662
0.588071 0.727603 0.113662
0.615977 0.727603 0.113662
0.643884 0.727603 0.113662
0.671790 0.727603 0.113662
0.699696 0.727603 0.113662
0.727603 0.727603 0.113662
0.759783 0.731950 0.119613
0.791959 0.736438 0.125715
0.824130 0.741071 0.131970
0.856296 0.745847 0.138376
0.888458 0.750769 0.144934
0.920616 0.755836 0.151643
0.952769 0.761050 0.158505
0.984917 0.766411 0.165518
0.999365 0.771919 0.172683
1.000000 0.777575 0.180000
0.119613 0.759783 0.119613
0.147446 0.759783 0.119613
0.175280 0.759783 0.119613
0.203113 0.759783 0.119613
0.230947 0.759783 0.119613
0.258780 0.759783 0.119613
0.286614 0.759783 0.119613
0.314447 0.759783 0.119613
0.342281 0.759783 0.119613
0.370114 0.759783 0.119613
0.397948 0.759783 0.119613
0.425781 0.759783 0.119613
0.453615 0.759783 0.119613
0.481448 0.759783 0.119613
0.509282 0.759783 0.119613
0.537115 0.759783 0.119613
0.564949 0.759783 0.119613
0.592782 0.759783 0.119613
0.620616 0.759783 0.119613
0.648449 0.759783 0.119613
0.676283 0.759783 0.119613
0.704116 0.759783 0.119613
0.731950 0.759783 0.119613
0.759783 0.759783 0.119613
0.791959 0.764199 0.125715
0.824130 0.768757 0.131970
0.856296 0.773459 0.138376
0.888458 0.778307 0.144934
0.920616 0.783299 0.151643
0.952769 0.788438 0.158505
0.984917 0.793724 0.165518
0.999365 0.799157 0.172683
1.000000 0.804738 0.180000
0.125715 0.791959 0.125715
0.153476 0.791959 0.125715
0.181236 0.791959 0.125715
0.208996 0.791959 0.125715
0.236756 0.791959 0.125715
0.264516 0.791959 0.125715
0.292276 0.791959 0.125715
0.320036 0.791959 0.125715
0.347797 0.791959 0.125715
0.375557 0.791959 0.125715
0.403317 0.791959 0.125715
0.431077 0.791959 0.125715
0.458837 0.791959 0.125715
0.486597 0.791959 0.125715
0.514357 0.791959 0.125715
0.542118 0.791959 0.125715
0.569878 0.791959 0.125715
0.597638 0.791959 0.125715
0.625398 0.791959 0.125715
0.653158 0.791959 0.125715
0.680918 0.791959 0.125715
0.708678 0.791959 0.125715
0.736438 0.791959 0.125715
0.764199 0.791959 0.125715
0.791959 0.791959 0.125715
0.824130 0.796444 0.131970
0.856296 0.801072 0.138376
0.888458 0.805845 0.144934
0.920616 0.810763 0.151643
0.952769 0.815827 0.158505
0.984917 0.821037 0.165518
0.999365 0.826395 0.172683
1.000000 0.831900 0.180000
0.131970 0.824130 0.131970
0.159656 0.824130 0.131970
0.187343 0.824130 0.131970
0.215029 0.824130 0.131970
0.242715 0.824130 0.131970
0.270402 0.824130 0.131970
0.298088 0.824130 0.131970
0.325775 0.824130 0.131970
0.353461 0.824130 0.131970
0.381147 0.824130 0.131970
0.408834 0.824130 0.131970
0.436520 0.824130 0.131970
0.464207 0.824130 0.131970
0.491893 0.824130 0.131970
0.519579 0.824130 0.131970
0.547266 0.824130 0.131970
0.574952 0.824130 0.131970
0.602639 0.824130 0.131970
0.630325 0.824130 0.131970
0.658011 0.824130 0.131970
0.685698 0.824130 0.131970
0.713384 0.824130 0.131970
0.741071 0.824130 0.131970
0.768757 0.824130 0.131970
0.796444 0.824130 0.131970
0.824130 0.824130 0.131970
0.856296 0.828684 0.138376
0.888458 0.833383 0.144934
0.920616 0.838226 0.151643
0.952769 0.843215 0.158505
0.984917 0.848351 0.165518
0.999365 0.853633 0.172683
1.000000 0.859062 0.180000
0.138376 0.856296 0.138376
0.165988 0.856296 0.138376
0.193600 0.856296 0.138376
0.221213 0.856296 0.138376
0.248825 0.856296 0.138376
0.276437 0.856296 0.138376
0.304050 0.856296 0.138376
0.331662 0.856296 0.138376
0.359274 0.856296 0.138376
0.386887 0.856296 0.138376
0.414499 0.856296 0.138376
0.442111 0.856296 0.138376
0.469724 0.856296 0.138376
0.497336 0.856296 0.138376
0.524948 0.856296 0.138376
0.552561 0.856296 0.138376
0.580173 0.856296 0.138376
0.607785 0.856296 0.138376
0.635398 0.856296 0.138376
0.663010 0.856296 0.138376
0.690623 0.856296 0.138376
0.718235 0.856296 0.138376
0.745847 0.856296 0.138376
0.773459 0.856296 0.138376
0.801072 0.856296 0.138376
0.828684 0.856296 0.138376
0.856296 0.856296 0.138376
