luts/original/grain-memory.cube
TITLE "Grain Memory"
LUT_3D_SIZE 9
DOMAIN_MIN 0.0 0.0 0.0
DOMAIN_MAX 1.0 1.0 1.0
0.018480 0.018480 0.018480
0.147576 0.032507 0.032507
0.276599 0.046291 0.046291
0.405548 0.062504 0.062504
0.534425 0.081146 0.081146
0.663228 0.102216 0.102216
0.791959 0.125715 0.125715
0.920616 0.151643 0.151643
1.000000 0.180000 0.180000
0.032507 0.147576 0.032507
0.147576 0.147576 0.032507
0.276599 0.161445 0.046291
0.405548 0.176852 0.062504
0.534425 0.194466 0.081146
0.663228 0.214419 0.102216
0.791959 0.236756 0.125715
0.920616 0.261497 0.151643
1.000000 0.288650 0.180000
0.046291 0.276599 0.046291
0.161445 0.276599 0.046291
0.276599 0.276599 0.046291
0.405548 0.291200 0.062504
0.534425 0.307785 0.081146
0.663228 0.326621 0.102216
0.791959 0.347797 0.125715
0.920616 0.371350 0.151643
1.000000 0.397300 0.180000
0.062504 0.405548 0.062504
0.176852 0.405548 0.062504
0.291200 0.405548 0.062504
0.405548 0.405548 0.062504
0.534425 0.421105 0.081146
0.663228 0.438824 0.102216
0.791959 0.458837 0.125715
0.920616 0.481203 0.151643
1.000000 0.505950 0.180000
0.081146 0.534425 0.081146
0.194466 0.534425 0.081146
0.307785 0.534425 0.081146
0.421105 0.534425 0.081146
0.534425 0.534425 0.081146
0.663228 0.551026 0.102216
0.791959 0.569878 0.125715
0.920616 0.591056 0.151643
1.000000 0.614600 0.180000
0.102216 0.663228 0.102216
0.214419 0.663228 0.102216
0.326621 0.663228 0.102216
0.438824 0.663228 0.102216
0.551026 0.663228 0.102216
0.663228 0.663228 0.102216
0.791959 0.680918 0.125715
0.920616 0.700909 0.151643
1.000000 0.723250 0.180000
0.125715 0.791959 0.125715
0.236756 0.791959 0.125715
0.347797 0.791959 0.125715
0.458837 0.791959 0.125715
0.569878 0.791959 0.125715
0.680918 0.791959 0.125715
0.791959 0.791959 0.125715
0.920616 0.810763 0.151643
1.000000 0.831900 0.180000
0.151643 0.920616 0.151643
0.261497 0.920616 0.151643
0.371350 0.920616 0.151643
0.481203 0.920616 0.151643
0.591056 0.920616 0.151643
0.700909 0.920616 0.151643
0.810763 0.920616 0.151643
0.920616 0.920616 0.151643
1.000000 0.940550 0.180000
0.180000 1.000000 0.180000
0.288650 1.000000 0.180000
0.397300 1.000000 0.180000
0.505950 1.000000 0.180000
0.614600 1.000000 0.180000
0.723250 1.000000 0.180000
0.831900 1.000000 0.180000
0.940550 1.000000 0.180000
1.000000 1.000000 0.180000
0.032507 0.032507 0.147576
0.147576 0.032507 0.147576
0.276599 0.046291 0.161445
0.405548 0.062504 0.176852
0.534425 0.081146 0.194466
0.663228 0.102216 0.214419
0.791959 0.125715 0.236756
0.920616 0.151643 0.261497
1.000000 0.180000 0.288650
0.032507 0.147576 0.147576
0.147576 0.147576 0.147576
0.276599 0.171060 0.171060
0.405548 0.187237 0.187237
0.534425 0.205842 0.205842
0.663228 0.226876 0.226876
0.791959 0.250339 0.250339
0.920616 0.276230 0.276230
1.000000 0.304550 0.304550
0.046291 0.276599 0.161445
0.171060 0.276599 0.171060
0.276599 0.276599 0.171060
0.405548 0.296393 0.187237
0.534425 0.315370 0.205842
0.663228 0.335964 0.226876
0.791959 0.358663 0.250339
0.920616 0.383628 0.276230
1.000000 0.410929 0.304550
0.062504 0.405548 0.176852
0.187237 0.405548 0.187237
0.296393 0.405548 0.187237
0.405548 0.405548 0.187237
0.534425 0.424897 0.205842
0.663228 0.445052 0.226876
0.791959 0.466987 0.250339
0.920616 0.491025 0.276230
1.000000 0.517307 0.304550
0.081146 0.534425 0.194466
0.205842 0.534425 0.205842
0.315370 0.534425 0.205842
0.424897 0.534425 0.205842
0.534425 0.534425 0.205842
0.663228 0.554140 0.226876
0.791959 0.575311 0.250339
0.920616 0.598423 0.276230
1.000000 0.623686 0.304550
0.102216 0.663228 0.214419
0.226876 0.663228 0.226876
0.335964 0.663228 0.226876
0.445052 0.663228 0.226876
0.554140 0.663228 0.226876
0.663228 0.663228 0.226876
0.791959 0.683635 0.250339
0.920616 0.705821 0.276230
1.000000 0.730064 0.304550
0.125715 0.791959 0.236756
0.250339 0.791959 0.250339
0.358663 0.791959 0.250339
0.466987 0.791959 0.250339
0.575311 0.791959 0.250339
0.683635 0.791959 0.250339
0.791959 0.791959 0.250339
0.920616 0.813218 0.276230
1.000000 0.836443 0.304550
0.151643 0.920616 0.261497
0.276230 0.920616 0.276230
0.383628 0.920616 0.276230
0.491025 0.920616 0.276230
0.598423 0.920616 0.276230
0.705821 0.920616 0.276230
0.813218 0.920616 0.276230
0.920616 0.920616 0.276230
1.000000 0.942821 0.304550
0.180000 1.000000 0.288650
0.304550 1.000000 0.304550
0.410929 1.000000 0.304550
0.517307 1.000000 0.304550
0.623686 1.000000 0.304550
0.730064 1.000000 0.304550
0.836443 1.000000 0.304550
0.942821 1.000000 0.304550
1.000000 1.000000 0.304550
0.046291 0.046291 0.276599
0.161445 0.046291 0.276599
0.276599 0.046291 0.276599
0.405548 0.062504 0.291200
0.534425 0.081146 0.307785
0.663228 0.102216 0.326621
0.791959 0.125715 0.347797
0.920616 0.151643 0.371350
1.000000 0.180000 0.397300
0.046291 0.161445 0.276599
0.171060 0.171060 0.276599
0.276599 0.171060 0.276599
0.405548 0.187237 0.296393
0.534425 0.205842 0.315370
0.663228 0.226876 0.335964
0.791959 0.250339 0.358663
0.920616 0.276230 0.383628
1.000000 0.304550 0.410929
0.046291 0.276599 0.276599
0.171060 0.276599 0.276599
0.276599 0.276599 0.276599
0.405548 0.311970 0.311970
0.534425 0.330538 0.330538
0.663228 0.351536 0.351536
0.791959 0.374962 0.374962
0.920616 0.400817 0.400817
1.000000 0.429100 0.429100
0.062504 0.405548 0.291200
0.187237 0.405548 0.296393
0.311970 0.405548 0.311970
0.405548 0.405548 0.311970
0.534425 0.432482 0.330538
0.663228 0.455433 0.351536
0.791959 0.479211 0.374962
0.920616 0.504776 0.400817
1.000000 0.532450 0.429100
0.081146 0.534425 0.307785
0.205842 0.534425 0.315370
0.330538 0.534425 0.330538
0.432482 0.534425 0.330538
0.534425 0.534425 0.330538
0.663228 0.559331 0.351536
0.791959 0.583460 0.374962
0.920616 0.608736 0.400817
1.000000 0.635800 0.429100
0.102216 0.663228 0.326621
0.226876 0.663228 0.335964
0.351536 0.663228 0.351536
0.455433 0.663228 0.351536
0.559331 0.663228 0.351536
0.663228 0.663228 0.351536
0.791959 0.687710 0.374962
0.920616 0.712696 0.400817
1.000000 0.739150 0.429100
0.125715 0.791959 0.347797
0.250339 0.791959 0.358663
0.374962 0.791959 0.374962
0.479211 0.791959 0.374962
0.583460 0.791959 0.374962
0.687710 0.791959 0.374962
0.791959 0.791959 0.374962
0.920616 0.816656 0.400817
1.000000 0.842500 0.429100
0.151643 0.920616 0.371350
0.276230 0.920616 0.383628
0.400817 0.920616 0.400817
0.504776 0.920616 0.400817
0.608736 0.920616 0.400817
0.712696 0.920616 0.400817
0.816656 0.920616 0.400817
0.920616 0.920616 0.400817
1.000000 0.945850 0.429100
0.180000 1.000000 0.397300
0.304550 1.000000 0.410929
0.429100 1.000000 0.429100
0.532450 1.000000 0.429100
0.635800 1.000000 0.429100
0.739150 1.000000 0.429100
0.842500 1.000000 0.429100
0.945850 1.000000 0.429100
1.000000 1.000000 0.429100
0.062504 0.062504 0.405548
0.176852 0.062504 0.405548
0.291200 0.062504 0.405548
0.405548 0.062504 0.405548
0.534425 0.081146 0.421105
0.663228 0.102216 0.438824
0.791959 0.125715 0.458837
0.920616 0.151643 0.481203
1.000000 0.180000 0.505950
0.062504 0.176852 0.405548
0.187237 0.187237 0.405548
0.296393 0.187237 0.405548
0.405548 0.187237 0.405548
0.534425 0.205842 0.424897
0.663228 0.226876 0.445052
0.791959 0.250339 0.466987
0.920616 0.276230 0.491025
1.000000 0.304550 0.517307
0.062504 0.291200 0.405548
0.187237 0.296393 0.405548
0.311970 0.311970 0.405548
0.405548 0.311970 0.405548
0.534425 0.330538 0.432482
0.663228 0.351536 0.455433
0.791959 0.374962 0.479211
0.920616 0.400817 0.504776
1.000000 0.429100 0.532450
0.062504 0.405548 0.405548
0.187237 0.405548 0.405548
0.311970 0.405548 0.405548
0.405548 0.405548 0.405548
0.534425 0.455235 0.455235
0.663228 0.476195 0.476195
0.791959 0.499585 0.499585
0.920616 0.525403 0.525403
1.000000 0.553650 0.553650
0.081146 0.534425 0.421105
0.205842 0.534425 0.424897
0.330538 0.534425 0.432482
0.455235 0.534425 0.455235
0.534425 0.534425 0.455235
0.663228 0.569712 0.476195
0.791959 0.597043 0.499585
0.920616 0.624206 0.525403
1.000000 0.652760 0.553650
0.102216 0.663228 0.438824
0.226876 0.663228 0.445052
0.351536 0.663228 0.455433
0.476195 0.663228 0.476195
0.569712 0.663228 0.476195
0.663228 0.663228 0.476195
0.791959 0.694501 0.499585
0.920616 0.723009 0.525403
1.000000 0.751870 0.553650
0.125715 0.791959 0.458837
0.250339 0.791959 0.466987
0.374962 0.791959 0.479211
0.499585 0.791959 0.499585
0.597043 0.791959 0.499585
0.694501 0.791959 0.499585
0.791959 0.791959 0.499585
0.920616 0.821813 0.525403
1.000000 0.850980 0.553650
0.151643 0.920616 0.481203
0.276230 0.920616 0.491025
0.400817 0.920616 0.504776
0.525403 0.920616 0.525403
0.624206 0.920616 0.525403
0.723009 0.920616 0.525403
0.821813 0.920616 0.525403
0.920616 0.920616 0.525403
1.000000 0.950090 0.553650
0.180000 1.000000 0.505950
0.304550 1.000000 0.517307
0.429100 1.000000 0.532450
0.553650 1.000000 0.553650
0.652760 1.000000 0.553650
0.751870 1.000000 0.553650
0.850980 1.000000 0.553650
0.950090 1.000000 0.553650
1.000000 1.000000 0.553650
0.081146 0.081146 0.534425
0.194466 0.081146 0.534425
0.307785 0.081146 0.534425
0.421105 0.081146 0.534425
0.534425 0.081146 0.534425
0.663228 0.102216 0.551026
0.791959 0.125715 0.569878
0.920616 0.151643 0.591056
1.000000 0.180000 0.614600
0.081146 0.194466 0.534425
0.205842 0.205842 0.534425
0.315370 0.205842 0.534425
0.424897 0.205842 0.534425
0.534425 0.205842 0.534425
0.663228 0.226876 0.554140
0.791959 0.250339 0.575311
0.920616 0.276230 0.598423
1.000000 0.304550 0.623686
0.081146 0.307785 0.534425
0.205842 0.315370 0.534425
0.330538 0.330538 0.534425
0.432482 0.330538 0.534425
0.534425 0.330538 0.534425
0.663228 0.351536 0.559331
0.791959 0.374962 0.583460
0.920616 0.400817 0.608736
1.000000 0.429100 0.635800
0.081146 0.421105 0.534425
0.205842 0.424897 0.534425
0.330538 0.432482 0.534425
0.455235 0.455235 0.534425
0.534425 0.455235 0.534425
0.663228 0.476195 0.569712
0.791959 0.499585 0.597043
0.920616 0.525403 0.624206
1.000000 0.553650 0.652760
0.081146 0.534425 0.534425
0.205842 0.534425 0.534425
0.330538 0.534425 0.534425
0.455235 0.534425 0.534425
0.534425 0.534425 0.534425
0.663228 0.600855 0.600855
0.791959 0.624208 0.624208
0.920616 0.649990 0.649990
1.000000 0.678200 0.678200
0.102216 0.663228 0.551026
0.226876 0.663228 0.554140
0.351536 0.663228 0.559331
0.476195 0.663228 0.569712
0.600855 0.663228 0.600855
0.663228 0.663228 0.600855
0.791959 0.708083 0.624208
0.920616 0.740198 0.649990
1.000000 0.770950 0.678200
0.125715 0.791959 0.569878
0.250339 0.791959 0.575311
0.374962 0.791959 0.583460
0.499585 0.791959 0.597043
0.624208 0.791959 0.624208
0.708083 0.791959 0.624208
0.791959 0.791959 0.624208
0.920616 0.830407 0.649990
1.000000 0.863700 0.678200
0.151643 0.920616 0.591056
0.276230 0.920616 0.598423
0.400817 0.920616 0.608736
0.525403 0.920616 0.624206
0.649990 0.920616 0.649990
0.740198 0.920616 0.649990
0.830407 0.920616 0.649990
0.920616 0.920616 0.649990
1.000000 0.956450 0.678200
0.180000 1.000000 0.614600
0.304550 1.000000 0.623686
0.429100 1.000000 0.635800
0.553650 1.000000 0.652760
0.678200 1.000000 0.678200
0.770950 1.000000 0.678200
0.863700 1.000000 0.678200
0.956450 1.000000 0.678200
1.000000 1.000000 0.678200
0.102216 0.102216 0.663228
0.214419 0.102216 0.663228
0.326621 0.102216 0.663228
0.438824 0.102216 0.663228
0.551026 0.102216 0.663228
0.663228 0.102216 0.663228
0.791959 0.125715 0.680918
0.920616 0.151643 0.700909
1.000000 0.180000 0.723250
0.102216 0.214419 0.663228
0.226876 0.226876 0.663228
0.335964 0.226876 0.663228
0.445052 0.226876 0.663228
0.554140 0.226876 0.663228
0.663228 0.226876 0.663228
0.791959 0.250339 0.683635
0.920616 0.276230 0.705821
1.000000 0.304550 0.730064
0.102216 0.326621 0.663228
0.226876 0.335964 0.663228
0.351536 0.351536 0.663228
0.455433 0.351536 0.663228
0.559331 0.351536 0.663228
0.663228 0.351536 0.663228
0.791959 0.374962 0.687710
0.920616 0.400817 0.712696
1.000000 0.429100 0.739150
0.102216 0.438824 0.663228
0.226876 0.445052 0.663228
0.351536 0.455433 0.663228
0.476195 0.476195 0.663228
0.569712 0.476195 0.663228
0.663228 0.476195 0.663228
0.791959 0.499585 0.694501
0.920616 0.525403 0.723009
1.000000 0.553650 0.751870
0.102216 0.551026 0.663228
0.226876 0.554140 0.663228
0.351536 0.559331 0.663228
0.476195 0.569712 0.663228
0.600855 0.600855 0.663228
0.663228 0.600855 0.663228
0.791959 0.624208 0.708083
0.920616 0.649990 0.740198
1.000000 0.678200 0.770950
0.102216 0.663228 0.663228
0.226876 0.663228 0.663228
0.351536 0.663228 0.663228
0.476195 0.663228 0.663228
0.600855 0.663228 0.663228
0.663228 0.663228 0.663228
0.791959 0.748831 0.748831
0.920616 0.774576 0.774576
1.000000 0.802750 0.802750
0.125715 0.791959 0.680918
0.250339 0.791959 0.683635
0.374962 0.791959 0.687710
0.499585 0.791959 0.694501
0.624208 0.791959 0.708083
0.748831 0.791959 0.748831
0.791959 0.791959 0.748831
0.920616 0.847596 0.774576
1.000000 0.884900 0.802750
0.151643 0.920616 0.700909
0.276230 0.920616 0.705821
0.400817 0.920616 0.712696
0.525403 0.920616 0.723009
0.649990 0.920616 0.740198
0.774576 0.920616 0.774576
0.847596 0.920616 0.774576
0.920616 0.920616 0.774576
1.000000 0.967050 0.802750
0.180000 1.000000 0.723250
0.304550 1.000000 0.730064
0.429100 1.000000 0.739150
0.553650 1.000000 0.751870
0.678200 1.000000 0.770950
0.802750 1.000000 0.802750
0.884900 1.000000 0.802750
0.967050 1.000000 0.802750
1.000000 1.000000 0.802750
0.125715 0.125715 0.791959
0.236756 0.125715 0.791959
0.347797 0.125715 0.791959
0.458837 0.125715 0.791959
0.569878 0.125715 0.791959
0.680918 0.125715 0.791959
0.791959 0.125715 0.791959
0.920616 0.151643 0.810763
1.000000 0.180000 0.831900
0.125715 0.236756 0.791959
0.250339 0.250339 0.791959
0.358663 0.250339 0.791959
0.466987 0.250339 0.791959
0.575311 0.250339 0.791959
0.683635 0.250339 0.791959
0.791959 0.250339 0.791959
0.920616 0.276230 0.813218
1.000000 0.304550 0.836443
0.125715 0.347797 0.791959
0.250339 0.358663 0.791959
0.374962 0.374962 0.791959
0.479211 0.374962 0.791959
0.583460 0.374962 0.791959
0.687710 0.374962 0.791959
0.791959 0.374962 0.791959
0.920616 0.400817 0.816656
1.000000 0.429100 0.842500
0.125715 0.458837 0.791959
0.250339 0.466987 0.791959
0.374962 0.479211 0.791959
0.499585 0.499585 0.791959
0.597043 0.499585 0.791959
0.694501 0.499585 0.791959
0.791959 0.499585 0.791959
0.920616 0.525403 0.821813
1.000000 0.553650 0.850980
0.125715 0.569878 0.791959
0.250339 0.575311 0.791959
0.374962 0.583460 0.791959
0.499585 0.597043 0.791959
0.624208 0.624208 0.791959
0.708083 0.624208 0.791959
0.791959 0.624208 0.791959
0.920616 0.649990 0.830407
1.000000 0.678200 0.863700
0.125715 0.680918 0.791959
0.250339 0.683635 0.791959
0.374962 0.687710 0.791959
0.499585 0.694501 0.791959
0.624208 0.708083 0.791959
0.748831 0.748831 0.791959
0.791959 0.748831 0.791959
0.920616 0.774576 0.847596
1.000000 0.802750 0.884900
0.125715 0.791959 0.791959
0.250339 0.791959 0.791959
0.374962 0.791959 0.791959
0.499585 0.791959 0.791959
0.624208 0.791959 0.791959
0.748831 0.791959 0.791959
0.791959 0.791959 0.791959
0.920616 0.899163 0.899163
1.000000 0.927300 0.927300
0.151643 0.920616 0.810763
0.276230 0.920616 0.813218
0.400817 0.920616 0.816656
0.525403 0.920616 0.821813
0.649990 0.920616 0.830407
0.774576 0.920616 0.847596
0.899163 0.920616 0.899163
0.920616 0.920616 0.899163
1.000000 0.988250 0.927300
0.180000 1.000000 0.831900
0.304550 1.000000 0.836443
0.429100 1.000000 0.842500
0.553650 1.000000 0.850980
0.678200 1.000000 0.863700
0.802750 1.000000 0.884900
0.927300 1.000000 0.927300
0.988250 1.000000 0.927300
1.000000 1.000000 0.927300
0.151643 0.151643 0.920616
0.261497 0.151643 0.920616
0.371350 0.151643 0.920616
0.481203 0.151643 0.920616
0.591056 0.151643 0.920616
0.700909 0.151643 0.920616
0.810763 0.151643 0.920616
0.920616 0.151643 0.920616
1.000000 0.180000 0.940550
0.151643 0.261497 0.920616
0.276230 0.276230 0.920616
0.383628 0.276230 0.920616
0.491025 0.276230 0.920616
0.598423 0.276230 0.920616
0.705821 0.276230 0.920616
0.813218 0.276230 0.920616
0.920616 0.276230 0.920616
1.000000 0.304550 0.942821
0.151643 0.371350 0.920616
0.276230 0.383628 0.920616
0.400817 0.400817 0.920616
0.504776 0.400817 0.920616
0.608736 0.400817 0.920616
0.712696 0.400817 0.920616
0.816656 0.400817 0.920616
0.920616 0.400817 0.920616
1.000000 0.429100 0.945850
0.151643 0.481203 0.920616
0.276230 0.491025 0.920616
0.400817 0.504776 0.920616
0.525403 0.525403 0.920616
0.624206 0.525403 0.920616
0.723009 0.525403 0.920616
0.821813 0.525403 0.920616
0.920616 0.525403 0.920616
1.000000 0.553650 0.950090
0.151643 0.591056 0.920616
0.276230 0.598423 0.920616
0.400817 0.608736 0.920616
0.525403 0.624206 0.920616
0.649990 0.649990 0.920616
0.740198 0.649990 0.920616
0.830407 0.649990 0.920616
0.920616 0.649990 0.920616
1.000000 0.678200 0.956450
0.151643 0.700909 0.920616
0.276230 0.705821 0.920616
0.400817 0.712696 0.920616
0.525403 0.723009 0.920616
0.649990 0.740198 0.920616
0.774576 0.774576 0.920616
0.847596 0.774576 0.920616
0.920616 0.774576 0.920616
1.000000 0.802750 0.967050
0.151643 0.810763 0.920616
0.276230 0.813218 0.920616
0.400817 0.816656 0.920616
0.525403 0.821813 0.920616
0.649990 0.830407 0.920616
0.774576 0.847596 0.920616
0.899163 0.899163 0.920616
0.920616 0.899163 0.920616
1.000000 0.927300 0.988250
0.151643 0.920616 0.920616
0.276230 0.920616 0.920616
0.400817 0.920616 0.920616
0.525403 0.920616 0.920616
0.649990 0.920616 0.920616
0.774576 0.920616 0.920616
0.899163 0.920616 0.920616
0.920616 0.920616 0.920616
1.000000 1.000000 1.000000
0.180000 1.000000 0.940550
0.304550 1.000000 0.942821
0.429100 1.000000 0.945850
0.553650 1.000000 0.950090
0.678200 1.000000 0.956450
0.802750 1.000000 0.967050
0.927300 1.000000 0.988250
1.000000 1.000000 1.000000
1.000000 1.000000 1.000000
0.180000 0.180000 1.000000
0.288650 0.180000 1.000000
0.397300 0.180000 1.000000
0.505950 0.180000 1.000000
0.614600 0.180000 1.000000
0.723250 0.180000 1.000000
0.831900 0.180000 1.000000
0.940550 0.180000 1.000000
1.000000 0.180000 1.000000
0.180000 0.288650 1.000000
0.304550 0.304550 1.000000
0.410929 0.304550 1.000000
0.517307 0.304550 1.000000
0.623686 0.304550 1.000000
0.730064 0.304550 1.000000
0.836443 0.304550 1.000000
0.942821 0.304550 1.000000
1.000000 0.304550 1.000000
0.180000 0.397300 1.000000
0.304550 0.410929 1.000000
0.429100 0.429100 1.000000
0.532450 0.429100 1.000000
0.635800 0.429100 1.000000
0.739150 0.429100 1.000000
0.842500 0.429100 1.000000
0.945850 0.429100 1.000000
1.000000 0.429100 1.000000
0.180000 0.505950 1.000000
0.304550 0.517307 1.000000
0.429100 0.532450 1.000000
0.553650 0.553650 1.000000
0.652760 0.553650 1.000000
0.751870 0.553650 1.000000
0.850980 0.553650 1.000000
0.950090 0.553650 1.000000
1.000000 0.553650 1.000000
0.180000 0.614600 1.000000
0.304550 0.623686 1.000000
0.429100 0.635800 1.000000
0.553650 0.652760 1.000000
0.678200 0.678200 1.000000
0.770950 0.678200 1.000000
0.863700 0.678200 1.000000
0.956450 0.678200 1.000000
1.000000 0.678200 1.000000
0.180000 0.723250 1.000000
0.304550 0.730064 1.000000
0.429100 0.739150 1.000000
0.553650 0.751870 1.000000
0.678200 0.770950 1.000000
0.802750 0.802750 1.000000
0.884900 0.802750 1.000000
0.967050 0.802750 1.000000
1.000000 0.802750 1.000000
0.180000 0.831900 1.000000
0.304550 0.836443 1.000000
0.429100 0.842500 1.000000
0.553650 0.850980 1.000000
0.678200 0.863700 1.000000
0.802750 0.884900 1.000000
0.927300 0.927300 1.000000
0.988250 0.927300 1.000000
1.000000 0.927300 1.000000
0.180000 0.940550 1.000000
0.304550 0.942821 1.000000
0.429100 0.945850 1.000000
0.553650 0.950090 1.000000
0.678200 0.956450 1.000000
0.802750 0.967050 1.000000
0.927300 0.988250 1.000000
1.000000 1.000000 1.000000
1.000000 1.000000 1.000000
0.180000 1.000000 1.000000
0.304550 1.000000 1.000000
0.429100 1.000000 1.000000
0.553650 1.000000 1.000000
0.678200 1.000000 1.000000
0.802750 1.000000 1.000000
0.927300 1.000000 1.000000
1.000000 1.000000 1.000000
1.000000 1.000000 1.000000
