luts/original/grain-memory.cube
TITLE "Grain Memory"
LUT_3D_SIZE 5
DOMAIN_MIN 0.0 0.0 0.0
DOMAIN_MAX 1.0 1.0 1.0
0.018480 0.018480 0.018480
0.276599 0.046291 0.046291
0.534425 0.081146 0.081146
0.791959 0.125715 0.125715
1.000000 0.180000 0.180000
0.046291 0.276599 0.046291
0.276599 0.276599 0.046291
0.534425 0.307785 0.081146
0.791959 0.347797 0.125715
1.000000 0.397300 0.180000
0.081146 0.534425 0.081146
0.307785 0.534425 0.081146
0.534425 0.534425 0.081146
0.791959 0.569878 0.125715
1.000000 0.614600 0.180000
0.125715 0.791959 0.125715
0.347797 0.791959 0.125715
0.569878 0.791959 0.125715
0.791959 0.791959 0.125715
1.000000 0.831900 0.180000
0.180000 1.000000 0.180000
0.397300 1.000000 0.180000
0.614600 1.000000 0.180000
0.831900 1.000000 0.180000
1.000000 1.000000 0.180000
0.046291 0.046291 0.276599
0.276599 0.046291 0.276599
0.534425 0.081146 0.307785
0.791959 0.125715 0.347797
1.000000 0.180000 0.397300
0.046291 0.276599 0.276599
0.276599 0.276599 0.276599
0.534425 0.330538 0.330538
0.791959 0.374962 0.374962
1.000000 0.429100 0.429100
0.081146 0.534425 0.307785
0.330538 0.534425 0.330538
0.534425 0.534425 0.330538
0.791959 0.583460 0.374962
1.000000 0.635800 0.429100
0.125715 0.791959 0.347797
0.374962 0.791959 0.374962
0.583460 0.791959 0.374962
0.791959 0.791959 0.374962
1.000000 0.842500 0.429100
0.180000 1.000000 0.397300
0.429100 1.000000 0.429100
0.635800 1.000000 0.429100
0.842500 1.000000 0.429100
1.000000 1.000000 0.429100
0.081146 0.081146 0.534425
0.307785 0.081146 0.534425
0.534425 0.081146 0.534425
0.791959 0.125715 0.569878
1.000000 0.180000 0.614600
0.081146 0.307785 0.534425
0.330538 0.330538 0.534425
0.534425 0.330538 0.534425
0.791959 0.374962 0.583460
1.000000 0.429100 0.635800
0.081146 0.534425 0.534425
0.330538 0.534425 0.534425
0.534425 0.534425 0.534425
0.791959 0.624208 0.624208
1.000000 0.678200 0.678200
0.125715 0.791959 0.569878
0.374962 0.791959 0.583460
0.624208 0.791959 0.624208
0.791959 0.791959 0.624208
1.000000 0.863700 0.678200
0.180000 1.000000 0.614600
0.429100 1.000000 0.635800
0.678200 1.000000 0.678200
0.863700 1.000000 0.678200
1.000000 1.000000 0.678200
0.125715 0.125715 0.791959
0.347797 0.125715 0.791959
0.569878 0.125715 0.791959
0.791959 0.125715 0.791959
1.000000 0.180000 0.831900
0.125715 0.347797 0.791959
0.374962 0.374962 0.791959
0.583460 0.374962 0.791959
0.791959 0.374962 0.791959
1.000000 0.429100 0.842500
0.125715 0.569878 0.791959
0.374962 0.583460 0.791959
0.624208 0.624208 0.791959
0.791959 0.624208 0.791959
1.000000 0.678200 0.863700
0.125715 0.791959 0.791959
0.374962 0.791959 0.791959
0.624208 0.791959 0.791959
0.791959 0.791959 0.791959
1.000000 0.927300 0.927300
0.180000 1.000000 0.831900
0.429100 1.000000 0.842500
0.678200 1.000000 0.863700
0.927300 1.000000 0.927300
1.000000 1.000000 0.927300
0.180000 0.180000 1.000000
0.397300 0.180000 1.000000
0.614600 0.180000 1.000000
0.831900 0.180000 1.000000
1.000000 0.180000 1.000000
0.180000 0.397300 1.000000
0.429100 0.429100 1.000000
0.635800 0.429100 1.000000
0.842500 0.429100 1.000000
1.000000 0.429100 1.000000
0.180000 0.614600 1.000000
0.429100 0.635800 1.000000
0.678200 0.678200 1.000000
0.863700 0.678200 1.000000
1.000000 0.678200 1.000000
0.180000 0.831900 1.000000
0.429100 0.842500 1.000000
0.678200 0.863700 1.000000
0.927300 0.927300 1.000000
1.000000 0.927300 1.000000
0.180000 1.000000 1.000000
0.429100 1.000000 1.000000
0.678200 1.000000 1.000000
0.927300 1.000000 1.000000
1.000000 1.000000 1.000000
