luts/original/green-remover.cube
TITLE "Green Remover"
LUT_3D_SIZE 9
DOMAIN_MIN 0.0 0.0 0.0
DOMAIN_MAX 1.0 1.0 1.0
0.000000 0.000000 0.000000
0.095365 0.000886 0.000886
0.216003 0.001777 0.001777
0.353500 0.002672 0.002672
0.499443 0.003571 0.003571
0.645417 0.004473 0.004473
0.783009 0.005380 0.005380
0.903806 0.006291 0.006291
0.999394 0.007206 0.007206
0.002821 0.091660 0.002821
0.099226 0.093183 0.003730
0.220614 0.094711 0.004642
0.358567 0.096244 0.005558
0.504669 0.097782 0.006479
0.650506 0.099325 0.007404
0.787659 0.100872 0.008332
0.907713 0.102425 0.009265
1.000000 0.104002 0.010205
0.005743 0.209734 0.005743
0.103198 0.211934 0.006673
0.225339 0.214139 0.007608
0.363747 0.216349 0.008546
0.510002 0.218563 0.009489
0.656694 0.221035 0.010448
0.795964 0.223846 0.011432
0.917532 0.226676 0.012425
1.000000 0.229527 0.013430
0.008767 0.347409 0.008767
0.107282 0.350251 0.009719
0.230883 0.353831 0.010697
0.371585 0.357611 0.011689
0.520802 0.361411 0.012692
0.669688 0.365233 0.013705
0.809065 0.369077 0.014729
0.929408 0.372941 0.015764
1.000000 0.375549 0.016782
0.011951 0.499609 0.011951
0.112733 0.504249 0.012963
0.238847 0.508907 0.013986
0.381819 0.513583 0.015019
0.532823 0.517657 0.016050
0.682696 0.520606 0.017068
0.822002 0.523564 0.018096
0.940914 0.526532 0.019135
1.000000 0.529510 0.020185
0.015314 0.657853 0.015314
0.118416 0.661584 0.016334
0.246911 0.664719 0.017352
0.392058 0.667860 0.018380
0.544765 0.671005 0.019419
0.695595 0.674156 0.020468
0.834759 0.677311 0.021529
0.952110 0.680472 0.022600
1.000000 0.683637 0.023681
0.018663 0.802758 0.018663
0.124088 0.805855 0.019701
0.255004 0.808951 0.020751
0.402362 0.812045 0.021811
0.556768 0.815136 0.022882
0.708471 0.818225 0.023963
0.847365 0.821311 0.025056
0.962979 0.824395 0.026160
1.000000 0.827475 0.027275
0.022091 0.928185 0.022091
0.129876 0.930922 0.023162
0.263219 0.933647 0.024244
0.412771 0.936360 0.025336
0.568825 0.939060 0.026440
0.721315 0.941748 0.027554
0.859808 0.944422 0.028680
0.972585 0.946415 0.029785
1.000000 0.947570 0.030856
0.025615 1.000000 0.025615
0.135782 1.000000 0.026718
0.271558 1.000000 0.027833
0.423282 1.000000 0.028958
0.579351 1.000000 0.030039
0.730030 1.000000 0.031111
0.865584 1.000000 0.032187
0.975992 1.000000 0.033268
1.000000 1.000000 0.034352
0.000261 0.000261 0.080520
0.095724 0.001150 0.082157
0.216433 0.002043 0.083801
0.353974 0.002940 0.085451
0.499933 0.003842 0.087107
0.645896 0.004747 0.088769
0.783448 0.005657 0.090437
0.904177 0.006570 0.092112
0.999666 0.007488 0.093793
0.003094 0.092129 0.085823
0.099598 0.093656 0.087492
0.221058 0.095187 0.089167
0.359055 0.096723 0.090848
0.505174 0.098264 0.092536
0.650997 0.099810 0.094230
0.788108 0.101361 0.095930
0.908090 0.102917 0.097636
1.000000 0.104588 0.099364
0.006027 0.210431 0.091268
0.103583 0.212635 0.092969
0.225797 0.214843 0.094676
0.364249 0.217057 0.096389
0.510519 0.219275 0.098109
0.657975 0.221947 0.099863
0.797264 0.224765 0.101638
0.918721 0.227603 0.103428
1.000000 0.230461 0.105232
0.009062 0.348327 0.096858
0.107736 0.351302 0.098595
0.231653 0.355068 0.100368
0.372582 0.358855 0.102155
0.521982 0.362664 0.103957
0.670979 0.366494 0.105773
0.810361 0.370345 0.107604
0.930563 0.373793 0.109276
1.000000 0.376388 0.110605
0.012268 0.501138 0.102679
0.113281 0.505786 0.104493
0.239638 0.510450 0.106321
0.382837 0.515132 0.108164
0.533997 0.518614 0.109648
0.683970 0.521564 0.110976
0.823270 0.524524 0.112315
0.942037 0.527494 0.113666
1.000000 0.530474 0.115028
0.015643 0.659476 0.108701
0.118961 0.662606 0.110017
0.247694 0.665741 0.111345
0.393062 0.668881 0.112683
0.545942 0.672027 0.114033
0.696864 0.675178 0.115395
0.836009 0.678334 0.116768
0.953199 0.681494 0.118152
1.000000 0.684659 0.119548
0.018986 0.803768 0.113049
0.124641 0.806864 0.114399
0.255796 0.809957 0.115759
0.403373 0.813049 0.117131
0.557946 0.816138 0.118515
0.709734 0.819225 0.119910
0.848597 0.822309 0.121317
0.964032 0.825390 0.122735
1.000000 0.828468 0.124165
0.022421 0.929077 0.117493
0.130437 0.931810 0.118876
0.264020 0.934530 0.120270
0.413789 0.937238 0.121676
0.570005 0.939933 0.123093
0.722571 0.942615 0.124522
0.861021 0.945283 0.125963
0.972905 0.946764 0.127344
1.000000 0.947917 0.128709
0.025952 1.000000 0.122033
0.136352 1.000000 0.123449
0.272367 1.000000 0.124877
0.424084 1.000000 0.126305
0.579868 1.000000 0.127667
0.730514 1.000000 0.129033
0.866001 1.000000 0.130402
0.976308 1.000000 0.131773
1.000000 1.000000 0.133148
0.000523 0.000523 0.181057
0.096085 0.001415 0.183548
0.216865 0.002311 0.186048
0.354450 0.003210 0.188554
0.500426 0.004114 0.191068
0.646376 0.005022 0.193589
0.783889 0.005934 0.196118
0.904548 0.006851 0.198653
0.999939 0.007771 0.201196
0.003367 0.092600 0.189201
0.099972 0.094130 0.191731
0.221504 0.095664 0.194267
0.359545 0.097204 0.196811
0.505679 0.098748 0.199362
0.651489 0.100298 0.201921
0.788558 0.101852 0.204486
0.908468 0.103411 0.207058
1.000000 0.105177 0.209673
0.006312 0.211130 0.197515
0.103970 0.213337 0.200082
0.226257 0.215549 0.202656
0.364753 0.217767 0.205237
0.511264 0.220056 0.207830
0.659258 0.222861 0.210468
0.798564 0.225686 0.213123
0.919908 0.228532 0.215794
1.000000 0.231397 0.218482
0.009360 0.349247 0.205999
0.108266 0.352534 0.208619
0.232425 0.356308 0.211272
0.373581 0.360103 0.213940
0.523165 0.363920 0.216626
0.672271 0.367757 0.219328
0.811658 0.371616 0.222047
0.931715 0.374631 0.223985
1.000000 0.377228 0.225539
0.012586 0.502670 0.214766
0.113831 0.507324 0.217466
0.240431 0.511996 0.220182
0.383855 0.516629 0.222878
0.535171 0.519571 0.224419
0.685244 0.522523 0.225971
0.824536 0.525484 0.227535
0.943156 0.528456 0.229111
1.000000 0.531437 0.230698
0.015960 0.660497 0.223310
0.119506 0.663627 0.224849
0.248479 0.666762 0.226400
0.394067 0.669903 0.227963
0.547118 0.673049 0.229537
0.698132 0.676199 0.231123
0.837258 0.679355 0.232721
0.954284 0.682516 0.234330
1.000000 0.685681 0.235950
0.019309 0.804777 0.228388
0.125194 0.807871 0.229961
0.256589 0.810962 0.231545
0.404385 0.814052 0.233142
0.559124 0.817139 0.234749
0.710996 0.820223 0.236369
0.849827 0.823305 0.238000
0.965081 0.826384 0.239643
1.000000 0.829459 0.241297
0.022751 0.929968 0.233560
0.130999 0.932696 0.235166
0.264822 0.935411 0.236784
0.414807 0.938113 0.238414
0.571184 0.940803 0.240055
0.723825 0.943480 0.241708
0.861942 0.945957 0.243361
0.973224 0.947113 0.244931
1.000000 0.948265 0.246503
0.026289 1.000000 0.238825
0.136923 1.000000 0.240465
0.273177 1.000000 0.242117
0.424602 1.000000 0.243733
0.580386 1.000000 0.245304
0.730997 1.000000 0.246876
0.866417 1.000000 0.248451
0.976623 1.000000 0.250028
1.000000 1.000000 0.251607
0.000787 0.000787 0.296340
0.096447 0.001681 0.299707
0.217299 0.002579 0.303080
0.354928 0.003482 0.306460
0.500920 0.004388 0.309846
0.646859 0.005299 0.313239
0.784330 0.006213 0.316638
0.904920 0.007132 0.320044
1.000000 0.008055 0.323455
0.003642 0.093072 0.307402
0.100347 0.094605 0.310805
0.221951 0.096143 0.314215
0.360037 0.097686 0.317631
0.506187 0.099234 0.321053
0.651984 0.100787 0.324481
0.789009 0.102345 0.327916
0.909075 0.103932 0.331360
1.000000 0.105767 0.334858
0.006599 0.211831 0.318634
0.104359 0.214042 0.322074
0.226719 0.216258 0.325519
0.365259 0.218479 0.328970
0.512431 0.220966 0.332446
0.660541 0.223778 0.335959
0.799864 0.226611 0.339487
0.921092 0.229463 0.343031
1.000000 0.232336 0.346591
0.009658 0.350169 0.330036
0.108799 0.353769 0.333541
0.233199 0.357551 0.337068
0.374582 0.361354 0.340611
0.524348 0.365178 0.344170
0.673563 0.369023 0.347745
0.812953 0.372881 0.351322
0.932864 0.375468 0.353003
1.000000 0.378068 0.354695
0.012906 0.504205 0.341744
0.114382 0.508865 0.345318
0.241227 0.513543 0.348908
0.384853 0.517584 0.351794
0.536344 0.520527 0.353473
0.686517 0.523481 0.355164
0.825799 0.526444 0.356865
0.944272 0.529417 0.358578
1.000000 0.532400 0.360302
0.016277 0.661517 0.352263
0.120051 0.664647 0.353940
0.249263 0.667783 0.355629
0.395072 0.670924 0.357328
0.548294 0.674070 0.359039
0.699400 0.677220 0.360762
0.838504 0.680376 0.362495
0.955365 0.683537 0.364240
1.000000 0.686701 0.365996
0.019633 0.805785 0.357789
0.125748 0.808877 0.359498
0.257382 0.811966 0.361218
0.405396 0.815054 0.362950
0.560302 0.818138 0.364693
0.712256 0.821221 0.366447
0.851054 0.824300 0.368213
0.966126 0.827376 0.369990
1.000000 0.830449 0.371778
0.023082 0.930857 0.363402
0.131562 0.933579 0.365143
0.265624 0.936289 0.366895
0.415825 0.938987 0.368659
0.572364 0.941671 0.370434
0.725079 0.944342 0.372220
0.862360 0.946306 0.373967
0.973543 0.947461 0.375659
1.000000 0.948612 0.377353
0.026627 1.000000 0.369102
0.137494 1.000000 0.370875
0.273988 1.000000 0.372659
0.425120 1.000000 0.374368
0.580903 1.000000 0.376061
0.731481 1.000000 0.377754
0.866832 1.000000 0.379449
0.976938 1.000000 0.381144
1.000000 1.000000 0.382841
0.001052 0.001052 0.420988
0.096810 0.001948 0.425165
0.217734 0.002849 0.429345
0.355407 0.003754 0.433528
0.501415 0.004663 0.437715
0.647342 0.005577 0.441904
0.784773 0.006494 0.446097
0.905293 0.007415 0.450291
1.000000 0.008341 0.454488
0.003918 0.093546 0.434754
0.100724 0.095083 0.438957
0.222400 0.096624 0.443163
0.360531 0.098170 0.447371
0.506696 0.099722 0.451582
0.652479 0.101278 0.455796
0.789462 0.102839 0.460011
0.910278 0.104519 0.464249
1.000000 0.106360 0.468523
0.006886 0.212533 0.448658
0.104749 0.214748 0.452885
0.227182 0.216968 0.457115
0.365767 0.219193 0.461346
0.513600 0.221878 0.465614
0.661826 0.224698 0.469902
0.801163 0.227537 0.474202
0.922275 0.230397 0.478514
1.000000 0.233277 0.482837
0.009961 0.351238 0.462699
0.109333 0.355007 0.466989
0.233975 0.358796 0.471290
0.375585 0.362607 0.475604
0.525534 0.366439 0.479930
0.674857 0.370292 0.484267
0.814232 0.373716 0.487706
0.934008 0.376306 0.489439
1.000000 0.378909 0.491183
0.013227 0.505742 0.477015
0.114936 0.510409 0.481354
0.242025 0.515093 0.485705
0.385852 0.518539 0.488191
0.537518 0.521484 0.489922
0.687788 0.524439 0.491663
0.827061 0.527404 0.493415
0.945384 0.530378 0.495177
1.000000 0.533363 0.496950
0.016594 0.662537 0.488672
0.120598 0.665667 0.490401
0.250048 0.668803 0.492140
0.396077 0.671944 0.493890
0.549470 0.675090 0.495650
0.700666 0.678241 0.497420
0.839748 0.681397 0.499201
0.956443 0.684557 0.500992
1.000000 0.687722 0.502794
0.019957 0.806792 0.494362
0.126303 0.809882 0.496119
0.258176 0.812969 0.497888
0.406408 0.816054 0.499666
0.561480 0.819137 0.501455
0.713516 0.822217 0.503255
0.852280 0.825294 0.505064
0.967168 0.828368 0.506884
1.000000 0.831438 0.508715
0.023413 0.931744 0.500128
0.132125 0.934461 0.501915
0.266426 0.937166 0.503712
0.416843 0.939858 0.505520
0.573543 0.942537 0.507337
0.726331 0.945203 0.509166
0.862779 0.946655 0.510915
0.973861 0.947809 0.512643
1.000000 0.948958 0.514371
0.026965 1.000000 0.505972
0.138066 1.000000 0.507787
0.274638 1.000000 0.509596
0.425638 1.000000 0.511324
0.581420 1.000000 0.513053
0.731964 1.000000 0.514781
0.867248 1.000000 0.516509
0.977252 1.000000 0.518236
1.000000 1.000000 0.519964
0.001318 0.001318 0.549504
0.097175 0.002217 0.554341
0.218171 0.003120 0.559175
0.355888 0.004028 0.564005
0.501912 0.004940 0.568831
0.647827 0.005856 0.573653
0.785217 0.006775 0.578470
0.905667 0.007700 0.583282
1.000000 0.008628 0.588089
0.004196 0.094022 0.565469
0.101102 0.095562 0.570310
0.222851 0.097107 0.575146
0.361026 0.098656 0.579977
0.507207 0.100211 0.584803
0.652977 0.101771 0.589624
0.789916 0.103335 0.594439
0.911478 0.105108 0.599285
1.000000 0.106955 0.604144
0.007176 0.213238 0.581495
0.105140 0.215457 0.586335
0.227647 0.217680 0.591170
0.366469 0.219986 0.596004
0.514770 0.222793 0.600870
0.663111 0.225620 0.605741
0.802462 0.228467 0.610614
0.923455 0.231334 0.615492
1.000000 0.234222 0.620371
0.010268 0.352471 0.597585
0.109869 0.356248 0.602463
0.234753 0.360045 0.607344
0.376590 0.363864 0.612229
0.526721 0.367703 0.617117
0.676150 0.371564 0.622008
0.815509 0.374552 0.624704
0.935150 0.377144 0.626403
1.000000 0.379749 0.628111
0.013550 0.507281 0.613851
0.115491 0.511955 0.618750
0.242821 0.516557 0.623490
0.386850 0.519494 0.625177
0.538691 0.522441 0.626874
0.689059 0.525397 0.628579
0.828321 0.528364 0.630293
0.946492 0.531340 0.632017
1.000000 0.534325 0.633750
0.016912 0.663556 0.625648
0.121144 0.666687 0.627341
0.250834 0.669823 0.629044
0.397083 0.672964 0.630756
0.550646 0.676110 0.632477
0.701931 0.679261 0.634207
0.840990 0.682417 0.635947
0.957516 0.685577 0.637695
1.000000 0.688742 0.639452
0.020282 0.807798 0.631216
0.126858 0.810885 0.632935
0.258970 0.813971 0.634662
0.407420 0.817054 0.636399
0.562657 0.820134 0.638145
0.714775 0.823212 0.639899
0.853503 0.826287 0.641663
0.968205 0.829358 0.643435
1.000000 0.832426 0.645216
0.023745 0.932629 0.636848
0.132689 0.935341 0.638591
0.267229 0.938040 0.640343
0.417861 0.940727 0.642104
0.574722 0.943401 0.643874
0.727260 0.945848 0.645638
0.863197 0.947004 0.647317
0.974180 0.948156 0.648995
1.000000 0.949305 0.650671
0.027303 1.000000 0.642543
0.138638 1.000000 0.644310
0.275123 1.000000 0.646036
0.426156 1.000000 0.647715
0.581937 1.000000 0.649392
0.732447 1.000000 0.651068
0.867663 1.000000 0.652743
0.977566 1.000000 0.654417
1.000000 1.000000 0.656090
0.001585 0.001585 0.676279
0.097542 0.002487 0.681540
0.218609 0.003393 0.686786
0.356371 0.004303 0.692017
0.502411 0.005217 0.697232
0.648314 0.006136 0.702432
0.785663 0.007058 0.707615
0.906042 0.007985 0.712781
1.000000 0.008916 0.717930
0.004475 0.094500 0.693642
0.101481 0.096043 0.698868
0.223304 0.097591 0.704077
0.361523 0.099144 0.709270
0.507719 0.100702 0.714445
0.653475 0.102265 0.719603
0.790653 0.103862 0.724748
0.912677 0.105699 0.729914
1.000000 0.107551 0.735071
0.007466 0.213945 0.710934
0.105533 0.216167 0.716118
0.228114 0.218394 0.721285
0.367455 0.220896 0.726451
0.515942 0.223710 0.731623
0.664397 0.226545 0.736786
0.803761 0.229399 0.741939
0.924633 0.232274 0.747080
1.000000 0.235169 0.752211
0.010578 0.353707 0.728160
0.110407 0.357491 0.733338
0.235533 0.361296 0.738507
0.377597 0.365123 0.743665
0.527909 0.368970 0.748812
0.677444 0.372805 0.753857
0.816783 0.375388 0.755427
0.936288 0.377983 0.757004
1.000000 0.380590 0.758589
0.013874 0.508823 0.745397
0.116049 0.513504 0.750549
0.243598 0.517511 0.754297
0.387849 0.520449 0.755865
0.539865 0.523397 0.757439
0.690329 0.526355 0.759021
0.829579 0.529323 0.760611
0.947597 0.532301 0.762207
1.000000 0.535288 0.763811
0.017230 0.664575 0.756300
0.121691 0.667706 0.757872
0.251620 0.670842 0.759451
0.398088 0.673983 0.761038
0.551821 0.677129 0.762632
0.703195 0.680280 0.764233
0.842230 0.683436 0.765841
0.958586 0.686596 0.767456
1.000000 0.689761 0.769079
0.020607 0.808802 0.761462
0.127413 0.811888 0.763053
0.259765 0.814971 0.764652
0.408433 0.818052 0.766257
0.563835 0.821130 0.767870
0.716032 0.824205 0.769490
0.854724 0.827278 0.771116
0.969239 0.830347 0.772750
1.000000 0.833221 0.774378
0.024077 0.933512 0.766671
0.133253 0.936218 0.768281
0.268033 0.938913 0.769898
0.418880 0.941594 0.771522
0.575900 0.944263 0.773153
0.727744 0.946197 0.774744
0.863615 0.947352 0.776287
0.974497 0.948503 0.777828
1.000000 0.949651 0.779367
0.027642 1.000000 0.771924
0.139210 1.000000 0.773553
0.275609 1.000000 0.775111
0.426674 1.000000 0.776653
0.582455 1.000000 0.778193
0.732929 1.000000 0.779731
0.868078 1.000000 0.781267
0.977879 1.000000 0.782800
1.000000 1.000000 0.784331
0.001854 0.001854 0.795587
0.097910 0.002758 0.800946
0.219049 0.003667 0.806275
0.356856 0.004580 0.811572
0.502912 0.005496 0.816836
0.648802 0.006418 0.822068
0.786110 0.007343 0.827265
0.906418 0.008272 0.832429
1.000000 0.009205 0.837557
0.004755 0.094979 0.813249
0.101863 0.096525 0.818516
0.223758 0.098077 0.823750
0.362021 0.099633 0.828950
0.508234 0.101195 0.834115
0.653976 0.102761 0.839245
0.791954 0.104449 0.844355
0.913874 0.106292 0.849454
1.000000 0.108150 0.854523
0.007758 0.214653 0.830640
0.105928 0.216879 0.835807
0.228582 0.219110 0.840938
0.368443 0.221809 0.846059
0.517115 0.224631 0.851156
0.665684 0.227472 0.856223
0.805059 0.230334 0.861260
0.925809 0.233216 0.866266
1.000000 0.236117 0.871236
0.010888 0.354946 0.847766
0.110947 0.358738 0.852861
0.236315 0.362551 0.857926
0.378606 0.366385 0.862961
0.529100 0.370240 0.867964
0.678718 0.373639 0.871620
0.818056 0.376224 0.872984
0.937423 0.378821 0.874353
1.000000 0.381431 0.875727
0.014199 0.510368 0.864664
0.116608 0.515054 0.869664
0.244376 0.518464 0.872001
0.388849 0.521404 0.873363
0.541038 0.524354 0.874729
0.691599 0.527313 0.876100
0.830835 0.530283 0.877476
0.948698 0.533262 0.878857
1.000000 0.536251 0.880243
0.017549 0.665594 0.873739
0.122239 0.668725 0.875102
0.252407 0.671861 0.876471
0.399095 0.675002 0.877844
0.552997 0.678148 0.879223
0.704458 0.681299 0.880606
0.843468 0.684455 0.881993
0.959653 0.687615 0.883386
1.000000 0.690780 0.884783
0.020932 0.809806 0.878210
0.127970 0.812889 0.879586
0.260561 0.815970 0.880966
0.409446 0.819049 0.882351
0.565012 0.822125 0.883741
0.717289 0.825198 0.885135
0.855942 0.828268 0.886533
0.970269 0.831335 0.887936
1.000000 0.833657 0.889305
0.024409 0.934392 0.882706
0.133818 0.937094 0.884093
0.268836 0.939783 0.885484
0.419899 0.942459 0.886880
0.577078 0.945122 0.888281
0.728229 0.946546 0.889619
0.864032 0.947700 0.890939
0.974815 0.948850 0.892257
1.000000 0.949996 0.893571
0.027982 1.000000 0.887225
0.139699 1.000000 0.888609
0.276095 1.000000 0.889932
0.427192 1.000000 0.891252
0.582972 1.000000 0.892569
0.733412 1.000000 0.893882
0.868493 1.000000 0.895192
0.978193 1.000000 0.896498
1.000000 1.000000 0.897802
0.002124 0.002124 0.901587
0.098279 0.003031 0.906632
0.219491 0.003942 0.911624
0.357342 0.004857 0.916560
0.503414 0.005777 0.921441
0.649292 0.006700 0.926266
0.786558 0.007628 0.931033
0.906794 0.008560 0.935743
1.000000 0.009496 0.940393
0.005036 0.095460 0.918143
0.102245 0.097010 0.923017
0.224214 0.098564 0.927834
0.362522 0.100124 0.932593
0.508749 0.101689 0.937294
0.654477 0.103259 0.941936
0.793254 0.105039 0.946539
0.915068 0.106887 0.951093
1.000000 0.108751 0.955591
0.008051 0.215364 0.934155
0.106324 0.217594 0.938847
0.229187 0.219916 0.943483
0.369433 0.222725 0.948080
0.518290 0.225553 0.952621
0.666971 0.228402 0.957106
0.806356 0.231272 0.961533
0.926983 0.234161 0.965901
1.000000 0.236794 0.969114
0.011200 0.356187 0.949619
0.111489 0.359987 0.954148
0.237100 0.363808 0.958619
0.379617 0.367650 0.963033
0.530291 0.371512 0.967387
0.679991 0.374473 0.969415
0.819327 0.377060 0.970486
0.938554 0.379660 0.971559
1.000000 0.382272 0.972634
0.014526 0.511915 0.964531
0.117165 0.516486 0.968647
0.245155 0.519417 0.969713
0.389848 0.522359 0.970782
0.542211 0.525310 0.971852
0.692867 0.528271 0.972925
0.832089 0.531242 0.973999
0.949796 0.534223 0.975076
1.000000 0.537213 0.976154
0.017868 0.666612 0.971075
0.122787 0.669743 0.972143
0.253194 0.672879 0.973213
0.400101 0.676020 0.974285
0.554172 0.679166 0.975359
0.705720 0.682317 0.976435
0.844703 0.685473 0.977512
0.960715 0.688633 0.978591
1.000000 0.691798 0.979672
0.021258 0.810808 0.974569
0.128526 0.813889 0.975641
0.261356 0.816968 0.976714
0.410458 0.820045 0.977789
0.566189 0.823118 0.978865
0.718544 0.826189 0.979943
0.857158 0.829257 0.981022
0.971295 0.832321 0.982103
1.000000 0.834094 0.983133
0.024742 0.935271 0.978063
0.134383 0.937967 0.979136
0.269641 0.940651 0.980212
0.420918 0.943322 0.981289
0.577942 0.945738 0.982357
0.728713 0.946895 0.983374
0.864450 0.948048 0.984386
0.975132 0.949196 0.985394
1.000000 0.950341 0.986397
0.028322 1.000000 0.981553
0.140120 1.000000 0.982599
0.276581 1.000000 0.983614
0.427711 1.000000 0.984625
0.583489 1.000000 0.985632
0.733894 1.000000 0.986635
0.868907 1.000000 0.987632
0.978505 1.000000 0.988626
1.000000 1.000000 0.989615
