luts/original/green-remover.cube
TITLE "Green Remover"
LUT_3D_SIZE 5
DOMAIN_MIN 0.0 0.0 0.0
DOMAIN_MAX 1.0 1.0 1.0
0.000000 0.000000 0.000000
0.216003 0.001777 0.001777
0.499443 0.003571 0.003571
0.783009 0.005380 0.005380
0.999394 0.007206 0.007206
0.005743 0.209734 0.005743
0.225339 0.214139 0.007608
0.510002 0.218563 0.009489
0.795964 0.223846 0.011432
1.000000 0.229527 0.013430
0.011951 0.499609 0.011951
0.238847 0.508907 0.013986
0.532823 0.517657 0.016050
0.822002 0.523564 0.018096
1.000000 0.529510 0.020185
0.018663 0.802758 0.018663
0.255004 0.808951 0.020751
0.556768 0.815136 0.022882
0.847365 0.821311 0.025056
1.000000 0.827475 0.027275
0.025615 1.000000 0.025615
0.271558 1.000000 0.027833
0.579351 1.000000 0.030039
0.865584 1.000000 0.032187
1.000000 1.000000 0.034352
0.000523 0.000523 0.181057
0.216865 0.002311 0.186048
0.500426 0.004114 0.191068
0.783889 0.005934 0.196118
0.999939 0.007771 0.201196
0.006312 0.211130 0.197515
0.226257 0.215549 0.202656
0.511264 0.220056 0.207830
0.798564 0.225686 0.213123
1.000000 0.231397 0.218482
0.012586 0.502670 0.214766
0.240431 0.511996 0.220182
0.535171 0.519571 0.224419
0.824536 0.525484 0.227535
1.000000 0.531437 0.230698
0.019309 0.804777 0.228388
0.256589 0.810962 0.231545
0.559124 0.817139 0.234749
0.849827 0.823305 0.238000
1.000000 0.829459 0.241297
0.026289 1.000000 0.238825
0.273177 1.000000 0.242117
0.580386 1.000000 0.245304
0.866417 1.000000 0.248451
1.000000 1.000000 0.251607
0.001052 0.001052 0.420988
0.217734 0.002849 0.429345
0.501415 0.004663 0.437715
0.784773 0.006494 0.446097
1.000000 0.008341 0.454488
0.006886 0.212533 0.448658
0.227182 0.216968 0.457115
0.513600 0.221878 0.465614
0.801163 0.227537 0.474202
1.000000 0.233277 0.482837
0.013227 0.505742 0.477015
0.242025 0.515093 0.485705
0.537518 0.521484 0.489922
0.827061 0.527404 0.493415
1.000000 0.533363 0.496950
0.019957 0.806792 0.494362
0.258176 0.812969 0.497888
0.561480 0.819137 0.501455
0.852280 0.825294 0.505064
1.000000 0.831438 0.508715
0.026965 1.000000 0.505972
0.274638 1.000000 0.509596
0.581420 1.000000 0.513053
0.867248 1.000000 0.516509
1.000000 1.000000 0.519964
0.001585 0.001585 0.676279
0.218609 0.003393 0.686786
0.502411 0.005217 0.697232
0.785663 0.007058 0.707615
1.000000 0.008916 0.717930
0.007466 0.213945 0.710934
0.228114 0.218394 0.721285
0.515942 0.223710 0.731623
0.803761 0.229399 0.741939
1.000000 0.235169 0.752211
0.013874 0.508823 0.745397
0.243598 0.517511 0.754297
0.539865 0.523397 0.757439
0.829579 0.529323 0.760611
1.000000 0.535288 0.763811
0.020607 0.808802 0.761462
0.259765 0.814971 0.764652
0.563835 0.821130 0.767870
0.854724 0.827278 0.771116
1.000000 0.833221 0.774378
0.027642 1.000000 0.771924
0.275609 1.000000 0.775111
0.582455 1.000000 0.778193
0.868078 1.000000 0.781267
1.000000 1.000000 0.784331
0.002124 0.002124 0.901587
0.219491 0.003942 0.911624
0.503414 0.005777 0.921441
0.786558 0.007628 0.931033
1.000000 0.009496 0.940393
0.008051 0.215364 0.934155
0.229187 0.219916 0.943483
0.518290 0.225553 0.952621
0.806356 0.231272 0.961533
1.000000 0.236794 0.969114
0.014526 0.511915 0.964531
0.245155 0.519417 0.969713
0.542211 0.525310 0.971852
0.832089 0.531242 0.973999
1.000000 0.537213 0.976154
0.021258 0.810808 0.974569
0.261356 0.816968 0.976714
0.566189 0.823118 0.978865
0.857158 0.829257 0.981022
1.000000 0.834094 0.983133
0.028322 1.000000 0.981553
0.276581 1.000000 0.983614
0.583489 1.000000 0.985632
0.868907 1.000000 0.987632
1.000000 1.000000 0.989615
