luts/original/green-remover.cube
TITLE "Green Remover"
LUT_3D_SIZE 33
DOMAIN_MIN 0.0 0.0 0.0
DOMAIN_MAX 1.0 1.0 1.0
0.000000 0.000000 0.000000
0.021012 0.000221 0.000221
0.043998 0.000443 0.000443
0.068826 0.000664 0.000664
0.095365 0.000886 0.000886
0.123484 0.001109 0.001109
0.153051 0.001331 0.001331
0.183935 0.001554 0.001554
0.216003 0.001777 0.001777
0.249126 0.002000 0.002000
0.283170 0.002224 0.002224
0.318006 0.002448 0.002448
0.353500 0.002672 0.002672
0.389523 0.002896 0.002896
0.425942 0.003121 0.003121
0.462625 0.003345 0.003345
0.499443 0.003571 0.003571
0.536262 0.003796 0.003796
0.572952 0.004021 0.004021
0.609380 0.004247 0.004247
0.645417 0.004473 0.004473
0.680929 0.004700 0.004700
0.715787 0.004926 0.004926
0.749857 0.005153 0.005153
0.783009 0.005380 0.005380
0.815112 0.005608 0.005608
0.846033 0.005835 0.005835
0.875642 0.006063 0.006063
0.903806 0.006291 0.006291
0.930395 0.006520 0.006520
0.955277 0.006748 0.006748
0.978321 0.006977 0.006977
0.999394 0.007206 0.007206
0.000696 0.020101 0.000696
0.021779 0.020361 0.000919
0.044832 0.020620 0.001142
0.069723 0.020879 0.001365
0.096320 0.021139 0.001588
0.124493 0.021399 0.001812
0.154108 0.021660 0.002035
0.185036 0.021921 0.002260
0.217145 0.022182 0.002484
0.250303 0.022443 0.002709
0.284378 0.022704 0.002933
0.319240 0.022966 0.003159
0.354756 0.023228 0.003384
0.390796 0.023490 0.003610
0.427227 0.023753 0.003836
0.463919 0.024016 0.004062
0.500739 0.024279 0.004288
0.537557 0.024542 0.004515
0.574241 0.024806 0.004742
0.610659 0.025070 0.004969
0.646680 0.025334 0.005197
0.682173 0.025599 0.005424
0.717006 0.025864 0.005652
0.751047 0.026129 0.005880
0.784165 0.026394 0.006109
0.816229 0.026660 0.006338
0.847106 0.026926 0.006567
0.876667 0.027192 0.006796
0.904779 0.027458 0.007025
0.931310 0.027725 0.007255
0.956129 0.027992 0.007485
0.979106 0.028259 0.007715
1.000000 0.028526 0.007946
0.001398 0.042139 0.001398
0.022553 0.042438 0.001622
0.045673 0.042736 0.001846
0.070627 0.043035 0.002071
0.097282 0.043334 0.002296
0.125508 0.043634 0.002521
0.155173 0.043934 0.002746
0.186145 0.044234 0.002971
0.218294 0.044534 0.003197
0.251487 0.044835 0.003423
0.285593 0.045136 0.003649
0.320481 0.045437 0.003876
0.356019 0.045739 0.004103
0.392076 0.046040 0.004330
0.428520 0.046342 0.004557
0.465219 0.046645 0.004784
0.502043 0.046947 0.005012
0.538859 0.047250 0.005240
0.575537 0.047554 0.005469
0.611944 0.047857 0.005697
0.647950 0.048161 0.005926
0.683422 0.048465 0.006155
0.718230 0.048769 0.006384
0.752241 0.049074 0.006614
0.785325 0.049379 0.006844
0.817350 0.049684 0.007074
0.848184 0.049990 0.007304
0.877695 0.050296 0.007535
0.905754 0.050602 0.007766
0.932227 0.050908 0.007997
0.956983 0.051215 0.008228
0.979892 0.051522 0.008460
1.000000 0.051829 0.008692
0.002107 0.066024 0.002107
0.023334 0.066362 0.002332
0.046521 0.066702 0.002558
0.071537 0.067041 0.002783
0.098251 0.067381 0.003009
0.126530 0.067721 0.003236
0.156245 0.068061 0.003462
0.187262 0.068402 0.003689
0.219450 0.068743 0.003916
0.252679 0.069084 0.004144
0.286816 0.069426 0.004371
0.321730 0.069767 0.004599
0.357289 0.070110 0.004827
0.393363 0.070452 0.005056
0.429819 0.070795 0.005284
0.466526 0.071138 0.005513
0.503353 0.071481 0.005742
0.540167 0.071825 0.005972
0.576839 0.072169 0.006202
0.613235 0.072513 0.006431
0.649225 0.072858 0.006662
0.684677 0.073202 0.006892
0.719459 0.073547 0.007123
0.753441 0.073893 0.007354
0.786490 0.074239 0.007585
0.818475 0.074585 0.007816
0.849264 0.074931 0.008048
0.878727 0.075278 0.008280
0.906732 0.075625 0.008512
0.933146 0.075972 0.008745
0.957839 0.076319 0.008978
0.980680 0.076667 0.009211
1.000000 0.077015 0.009444
0.002821 0.091660 0.002821
0.024120 0.092041 0.003048
0.047375 0.092421 0.003275
0.072454 0.092802 0.003502
0.099226 0.093183 0.003730
0.127560 0.093565 0.003957
0.157323 0.093947 0.004185
0.188385 0.094329 0.004413
0.220614 0.094711 0.004642
0.253878 0.095094 0.004871
0.288045 0.095477 0.005100
0.322986 0.095860 0.005329
0.358567 0.096244 0.005558
0.394657 0.096628 0.005788
0.431125 0.097012 0.006018
0.467840 0.097397 0.006248
0.504669 0.097782 0.006479
0.541482 0.098167 0.006710
0.578147 0.098553 0.006941
0.614532 0.098938 0.007172
0.650506 0.099325 0.007404
0.685937 0.099711 0.007635
0.720693 0.100098 0.007868
0.754645 0.100485 0.008100
0.787659 0.100872 0.008332
0.819604 0.101260 0.008565
0.850349 0.101648 0.008798
0.879762 0.102036 0.009032
0.907713 0.102425 0.009265
0.934068 0.102814 0.009499
0.958697 0.103203 0.009733
0.981469 0.103592 0.009968
1.000000 0.104002 0.010205
0.003542 0.118953 0.003542
0.024913 0.119375 0.003770
0.048236 0.119798 0.003999
0.073378 0.120220 0.004227
0.100209 0.120644 0.004456
0.128596 0.121067 0.004685
0.158409 0.121491 0.004914
0.189515 0.121916 0.005144
0.221784 0.122340 0.005374
0.255084 0.122765 0.005604
0.289282 0.123190 0.005834
0.324248 0.123616 0.006065
0.359851 0.124041 0.006296
0.395958 0.124468 0.006527
0.432439 0.124894 0.006758
0.469161 0.125321 0.006990
0.505993 0.125748 0.007222
0.542803 0.126175 0.007454
0.579461 0.126603 0.007686
0.615835 0.127031 0.007919
0.651792 0.127459 0.008152
0.687202 0.127888 0.008385
0.721933 0.128317 0.008619
0.755854 0.128746 0.008852
0.788832 0.129176 0.009086
0.820737 0.129605 0.009321
0.851437 0.130036 0.009555
0.880801 0.130466 0.009790
0.908696 0.130897 0.010025
0.935385 0.131384 0.010265
0.960501 0.131901 0.010508
0.983691 0.132418 0.010752
1.000000 0.132937 0.010997
0.004270 0.147799 0.004270
0.025713 0.148264 0.004499
0.049103 0.148729 0.004729
0.074309 0.149194 0.004959
0.101198 0.149660 0.005189
0.129640 0.150126 0.005419
0.159502 0.150593 0.005650
0.190653 0.151059 0.005881
0.222962 0.151526 0.006112
0.256297 0.151994 0.006344
0.290526 0.152461 0.006575
0.325519 0.152929 0.006807
0.361142 0.153397 0.007040
0.397266 0.153866 0.007272
0.433759 0.154335 0.007505
0.470488 0.154804 0.007738
0.507322 0.155274 0.007971
0.544131 0.155743 0.008205
0.580782 0.156214 0.008439
0.617143 0.156684 0.008673
0.653084 0.157155 0.008907
0.688473 0.157626 0.009142
0.723178 0.158097 0.009376
0.757067 0.158569 0.009612
0.790010 0.159041 0.009847
0.821893 0.159516 0.010083
0.853172 0.160092 0.010326
0.883097 0.160670 0.010570
0.911518 0.161248 0.010814
0.938287 0.161827 0.011059
0.963255 0.162408 0.011305
0.986269 0.162990 0.011551
1.000000 0.163573 0.011798
0.005003 0.178096 0.005003
0.026519 0.178603 0.005234
0.049978 0.179111 0.005465
0.075247 0.179618 0.005696
0.102195 0.180127 0.005928
0.130690 0.180635 0.006160
0.160602 0.181144 0.006392
0.191798 0.181653 0.006624
0.224147 0.182163 0.006857
0.257517 0.182672 0.007090
0.291777 0.183183 0.007323
0.326796 0.183693 0.007556
0.362441 0.184204 0.007790
0.398581 0.184715 0.008024
0.435086 0.185226 0.008258
0.471822 0.185738 0.008492
0.508659 0.186250 0.008727
0.545465 0.186762 0.008962
0.582108 0.187275 0.009197
0.618458 0.187787 0.009433
0.654382 0.188301 0.009668
0.689749 0.188814 0.009904
0.724666 0.189376 0.010143
0.759145 0.190014 0.010387
0.792684 0.190653 0.010631
0.825140 0.191293 0.010876
0.856364 0.191934 0.011122
0.886211 0.192576 0.011368
0.914531 0.193220 0.011615
0.941175 0.193865 0.011862
0.965990 0.194511 0.012111
0.988825 0.195158 0.012360
1.000000 0.195807 0.012609
0.005743 0.209734 0.005743
0.027332 0.210284 0.005975
0.050859 0.210833 0.006208
0.076191 0.211384 0.006440
0.103198 0.211934 0.006673
0.131748 0.212485 0.006906
0.161709 0.213036 0.007140
0.192950 0.213587 0.007374
0.225339 0.214139 0.007608
0.258745 0.214691 0.007842
0.293036 0.215243 0.008076
0.328080 0.215796 0.008311
0.363747 0.216349 0.008546
0.399903 0.216902 0.008782
0.436419 0.217455 0.009017
0.473163 0.218009 0.009253
0.510002 0.218563 0.009489
0.546805 0.219118 0.009725
0.583441 0.219672 0.009962
0.620197 0.220336 0.010204
0.656694 0.221035 0.010448
0.692661 0.221736 0.010693
0.727958 0.222438 0.010939
0.762440 0.223141 0.011185
0.795964 0.223846 0.011432
0.828383 0.224552 0.011679
0.859550 0.225259 0.011927
0.889316 0.225967 0.012176
0.917532 0.226676 0.012425
0.944046 0.227387 0.012675
0.968706 0.228099 0.012926
0.991358 0.228813 0.013178
1.000000 0.229527 0.013430
0.006489 0.242602 0.006489
0.028151 0.243194 0.006723
0.051746 0.243785 0.006957
0.077143 0.244377 0.007191
0.104209 0.244969 0.007425
0.132813 0.245561 0.007660
0.162823 0.246154 0.007895
0.194109 0.246747 0.008130
0.226538 0.247341 0.008365
0.259980 0.247934 0.008601
0.294301 0.248528 0.008837
0.329372 0.249122 0.009073
0.365059 0.249717 0.009309
0.401233 0.250311 0.009546
0.437760 0.250906 0.009783
0.474564 0.251522 0.010021
0.511885 0.252282 0.010265
0.549221 0.253043 0.010510
0.586434 0.253805 0.010755
0.623385 0.254569 0.011001
0.659933 0.255334 0.011248
0.695937 0.256101 0.011495
0.731252 0.256869 0.011743
0.765736 0.257638 0.011992
0.799242 0.258408 0.012241
0.831622 0.259180 0.012491
0.862729 0.259953 0.012742
0.892412 0.260727 0.012993
0.920521 0.261502 0.013245
0.946902 0.262279 0.013498
0.971403 0.263057 0.013751
0.993867 0.263837 0.014005
1.000000 0.264618 0.014260
0.007242 0.276585 0.007242
0.028977 0.277217 0.007477
0.052641 0.277849 0.007712
0.078101 0.278482 0.007948
0.105226 0.279115 0.008183
0.133885 0.279748 0.008419
0.163945 0.280381 0.008656
0.195276 0.281015 0.008892
0.227745 0.281649 0.009129
0.261222 0.282284 0.009366
0.295574 0.282918 0.009603
0.330670 0.283553 0.009841
0.366549 0.284278 0.010082
0.403139 0.285099 0.010327
0.440142 0.285922 0.010572
0.477423 0.286745 0.010818
0.514846 0.287571 0.011064
0.552273 0.288397 0.011312
0.589564 0.289225 0.011560
0.626580 0.290054 0.011808
0.663179 0.290885 0.012057
0.699217 0.291716 0.012307
0.734550 0.292549 0.012558
0.769033 0.293384 0.012809
0.802518 0.294220 0.013061
0.834857 0.295057 0.013314
0.865901 0.295895 0.013567
0.895498 0.296735 0.013821
0.923496 0.297576 0.014075
0.949742 0.298418 0.014330
0.974079 0.299262 0.014586
0.996353 0.300107 0.014843
1.000000 0.300953 0.015100
0.008001 0.311561 0.008001
0.029810 0.312233 0.008237
0.053542 0.312905 0.008474
0.079066 0.313578 0.008711
0.106251 0.314250 0.008948
0.134964 0.314923 0.009186
0.165074 0.315596 0.009423
0.196450 0.316269 0.009661
0.228959 0.316943 0.009899
0.262684 0.317792 0.010143
0.297380 0.318673 0.010388
0.332883 0.319556 0.010634
0.369061 0.320440 0.010881
0.405778 0.321326 0.011128
0.442902 0.322213 0.011376
0.480294 0.323101 0.011624
0.517818 0.323990 0.011873
0.555335 0.324881 0.012123
0.592704 0.325773 0.012373
0.629783 0.326667 0.012625
0.666431 0.327561 0.012876
0.702501 0.328458 0.013129
0.737850 0.329355 0.013382
0.772330 0.330254 0.013636
0.805792 0.331154 0.013890
0.838088 0.332055 0.014145
0.869066 0.332958 0.014401
0.898574 0.333862 0.014658
0.926459 0.334767 0.014915
0.952565 0.335674 0.015173
0.976736 0.336582 0.015431
0.998814 0.337491 0.015690
1.000000 0.338231 0.015946
0.008767 0.347409 0.008767
0.030649 0.348119 0.009005
0.054450 0.348830 0.009243
0.080038 0.349540 0.009481
0.107282 0.350251 0.009719
0.136076 0.351010 0.009960
0.166397 0.351949 0.010205
0.198042 0.352889 0.010450
0.230883 0.353831 0.010697
0.264789 0.354774 0.010944
0.299630 0.355718 0.011191
0.335273 0.356664 0.011440
0.371585 0.357611 0.011689
0.408431 0.358559 0.011939
0.445674 0.359508 0.012189
0.483177 0.360459 0.012440
0.520802 0.361411 0.012692
0.558407 0.362365 0.012944
0.595852 0.363320 0.013197
0.632994 0.364276 0.013451
0.669688 0.365233 0.013705
0.705790 0.366192 0.013960
0.741152 0.367152 0.014216
0.775627 0.368114 0.014472
0.809065 0.369077 0.014729
0.841314 0.370041 0.014987
0.872224 0.371006 0.015245
0.901640 0.371973 0.015504
0.929408 0.372941 0.015764
0.955363 0.373603 0.016018
0.979357 0.374251 0.016272
1.000000 0.374899 0.016527
1.000000 0.375549 0.016782
0.009539 0.384001 0.009539
0.031495 0.384747 0.009778
0.055392 0.385637 0.010021
0.081128 0.386633 0.010266
0.108570 0.387630 0.010513
0.137591 0.388629 0.010760
0.168064 0.389629 0.011007
0.199861 0.390630 0.011256
0.232853 0.391632 0.011504
0.266908 0.392636 0.011754
0.301893 0.393641 0.012004
0.337677 0.394647 0.012255
0.374123 0.395655 0.012507
0.411096 0.396664 0.012759
0.448459 0.397674 0.013012
0.486072 0.398685 0.013266
0.523796 0.399698 0.013520
0.561489 0.400712 0.013775
0.599009 0.401727 0.014030
0.636212 0.402744 0.014287
0.672952 0.403762 0.014544
0.709083 0.404781 0.014801
0.744457 0.405802 0.015059
0.778925 0.406824 0.015318
0.812335 0.407847 0.015578
0.844532 0.408759 0.015836
0.875361 0.409432 0.016090
0.904673 0.410105 0.016344
0.932313 0.410779 0.016598
0.958123 0.411454 0.016854
0.981945 0.412130 0.017110
1.000000 0.412806 0.017367
1.000000 0.413483 0.017624
0.010329 0.421728 0.010329
0.032420 0.422780 0.010575
0.056469 0.423833 0.010823
0.082353 0.424887 0.011071
0.109945 0.425942 0.011320
0.139118 0.426999 0.011569
0.169744 0.428057 0.011819
0.201694 0.429116 0.012070
0.234837 0.430177 0.012322
0.269040 0.431239 0.012574
0.304171 0.432302 0.012827
0.340095 0.433366 0.013080
0.376675 0.434432 0.013334
0.413775 0.435499 0.013589
0.451257 0.436567 0.013845
0.488979 0.437636 0.014101
0.526801 0.438706 0.014358
0.564582 0.439778 0.014615
0.602175 0.440851 0.014873
0.639438 0.441925 0.015132
0.676222 0.443001 0.015392
0.712381 0.444077 0.015652
0.747755 0.444895 0.015908
0.782201 0.445591 0.016161
0.815570 0.446288 0.016415
0.847710 0.446985 0.016670
0.878465 0.447684 0.016925
0.907681 0.448383 0.017181
0.935199 0.449082 0.017438
0.960861 0.449783 0.017695
0.984507 0.450484 0.017954
1.000000 0.451185 0.018212
1.000000 0.451888 0.018472
0.011135 0.460430 0.011135
0.033365 0.461537 0.011385
0.057559 0.462646 0.011635
0.083590 0.463755 0.011885
0.111333 0.464866 0.012137
0.140658 0.465977 0.012389
0.171438 0.467090 0.012641
0.203541 0.468205 0.012895
0.236835 0.469320 0.013149
0.271187 0.470437 0.013404
0.306463 0.471554 0.013659
0.342526 0.472673 0.013915
0.379241 0.473793 0.014172
0.416467 0.474914 0.014429
0.454067 0.476037 0.014687
0.491898 0.477160 0.014946
0.529818 0.478285 0.015206
0.567684 0.479411 0.015466
0.605349 0.480520 0.015726
0.642655 0.481237 0.015979
0.679468 0.481954 0.016232
0.715639 0.482672 0.016486
0.751018 0.483391 0.016741
0.785452 0.484110 0.016997
0.818790 0.484830 0.017253
0.850877 0.485551 0.017509
0.881557 0.486272 0.017767
0.910673 0.486994 0.018025
0.938066 0.487717 0.018284
0.963577 0.488440 0.018543
0.987044 0.489164 0.018803
1.000000 0.489889 0.019064
1.000000 0.490614 0.019325
0.011951 0.499609 0.011951
0.034321 0.500767 0.012203
0.058659 0.501927 0.012456
0.084839 0.503087 0.012709
0.112733 0.504249 0.012963
0.142212 0.505412 0.013218
0.173145 0.506576 0.013473
0.205401 0.507741 0.013729
0.238847 0.508907 0.013986
0.273347 0.510075 0.014243
0.308768 0.511243 0.014501
0.344972 0.512412 0.014760
0.381819 0.513583 0.015019
0.419172 0.514754 0.015279
0.456889 0.515927 0.015540
0.494822 0.516922 0.015797
0.532823 0.517657 0.016050
0.570757 0.518393 0.016304
0.608480 0.519130 0.016558
0.645842 0.519868 0.016812
0.682696 0.520606 0.017068
0.718891 0.521344 0.017324
0.754276 0.522084 0.017581
0.788697 0.522824 0.017838
0.822002 0.523564 0.018096
0.854033 0.524305 0.018355
0.884635 0.525047 0.018614
0.913648 0.525789 0.018874
0.940914 0.526532 0.019135
0.966270 0.527276 0.019396
0.989555 0.528020 0.019658
1.000000 0.528765 0.019921
1.000000 0.529510 0.020185
0.012777 0.539107 0.012777
0.035287 0.540313 0.013032
0.059770 0.541519 0.013287
0.086100 0.542727 0.013543
0.114146 0.543935 0.013799
0.143778 0.545145 0.014057
0.174866 0.546355 0.014315
0.207275 0.547566 0.014573
0.240873 0.548778 0.014832
0.275522 0.549992 0.015092
0.311088 0.551206 0.015353
0.347431 0.552421 0.015614
0.384399 0.553278 0.015869
0.421861 0.554030 0.016121
0.459678 0.554782 0.016375
0.497706 0.555535 0.016629
0.535803 0.556289 0.016884
0.573820 0.557043 0.017139
0.611612 0.557797 0.017395
0.649029 0.558553 0.017652
0.685922 0.559308 0.017909
0.722140 0.560065 0.018167
0.757529 0.560822 0.018426
0.791936 0.561579 0.018685
0.825204 0.562337 0.018945
0.857178 0.563096 0.019206
0.887699 0.563855 0.019467
0.916608 0.564614 0.019730
0.943743 0.565375 0.019992
0.968942 0.566135 0.020256
0.992041 0.566897 0.020520
1.000000 0.567658 0.020784
1.000000 0.568421 0.021050
0.013613 0.578763 0.013613
0.036264 0.580010 0.013870
0.060894 0.581258 0.014128
0.087373 0.582507 0.014386
0.115571 0.583757 0.014646
0.145358 0.585007 0.014905
0.176600 0.586259 0.015166
0.209163 0.587511 0.015427
0.242910 0.588697 0.015688
0.277692 0.589462 0.015940
0.313385 0.590227 0.016193
0.349850 0.590993 0.016446
0.386945 0.591759 0.016700
0.424531 0.592526 0.016955
0.462462 0.593293 0.017210
0.500596 0.594061 0.017466
0.538786 0.594829 0.017723
0.576886 0.595598 0.017980
0.614746 0.596367 0.018238
0.652217 0.597137 0.018497
0.689148 0.597907 0.018756
0.725386 0.598678 0.019016
0.760778 0.599449 0.019277
0.795167 0.600221 0.019538
0.828398 0.600993 0.019801
0.860312 0.601765 0.020063
0.890750 0.602539 0.020327
0.919551 0.603312 0.020591
0.946552 0.604086 0.020855
0.971590 0.604861 0.021121
0.994499 0.605636 0.021387
1.000000 0.606411 0.021654
1.000000 0.607187 0.021921
0.014459 0.618405 0.014459
0.037252 0.619688 0.014718
0.062028 0.620971 0.014979
0.088658 0.622255 0.015240
0.117010 0.623540 0.015502
0.146943 0.624570 0.015759
0.178324 0.625345 0.016011
0.211024 0.626121 0.016264
0.244907 0.626897 0.016517
0.279835 0.627674 0.016771
0.315670 0.628451 0.017026
0.352272 0.629228 0.017281
0.389498 0.630006 0.017537
0.427207 0.630784 0.017794
0.465253 0.631563 0.018051
0.503491 0.632342 0.018309
0.541774 0.633121 0.018568
0.579954 0.633901 0.018827
0.617882 0.634682 0.019087
0.655405 0.635462 0.019348
0.692372 0.636243 0.019609
0.728630 0.637025 0.019871
0.764022 0.637807 0.020134
0.798392 0.638589 0.020398
0.831583 0.639372 0.020662
0.863435 0.640155 0.020926
0.893787 0.640938 0.021192
0.922477 0.641722 0.021458
0.949341 0.642506 0.021725
0.974215 0.643291 0.021992
0.996932 0.644076 0.022260
1.000000 0.644862 0.022529
1.000000 0.645647 0.022798
0.015314 0.657853 0.015314
0.038250 0.659165 0.015577
0.063162 0.660019 0.015830
0.089928 0.660801 0.016082
0.118416 0.661584 0.016334
0.148494 0.662367 0.016588
0.180027 0.663151 0.016842
0.212878 0.663935 0.017097
0.246911 0.664719 0.017352
0.281986 0.665504 0.017608
0.317963 0.666289 0.017865
0.354701 0.667074 0.018122
0.392058 0.667860 0.018380
0.429889 0.668645 0.018639
0.468048 0.669432 0.018898
0.506390 0.670218 0.019158
0.544765 0.671005 0.019419
0.583025 0.671792 0.019680
0.621019 0.672580 0.019942
0.658593 0.673368 0.020205
0.695595 0.674156 0.020468
0.731870 0.674944 0.020732
0.767261 0.675733 0.020997
0.801610 0.676522 0.021262
0.834759 0.677311 0.021529
0.866546 0.678101 0.021795
0.896809 0.678891 0.022063
0.925386 0.679681 0.022331
0.952110 0.680472 0.022600
0.976817 0.681263 0.022869
0.999337 0.682054 0.023139
1.000000 0.682845 0.023410
1.000000 0.683637 0.023681
0.016153 0.695702 0.016153
0.039216 0.696488 0.016405
0.064271 0.697275 0.016659
0.091184 0.698062 0.016913
0.119823 0.698850 0.017167
0.150053 0.699637 0.017423
0.181738 0.700425 0.017679
0.214740 0.701213 0.017936
0.248922 0.702002 0.018193
0.284143 0.702790 0.018451
0.320263 0.703579 0.018710
0.357138 0.704368 0.018969
0.394624 0.705157 0.019229
0.432577 0.705947 0.019490
0.470849 0.706737 0.019751
0.509294 0.707527 0.020013
0.547761 0.708317 0.020276
0.586099 0.709107 0.020539
0.624157 0.709898 0.020803
0.661781 0.710689 0.021068
0.698817 0.711480 0.021333
0.735107 0.712271 0.021599
0.770495 0.713062 0.021866
0.804821 0.713854 0.022133
0.837925 0.714646 0.022401
0.869645 0.715438 0.022670
0.899817 0.716230 0.022940
0.928277 0.717023 0.023210
0.954859 0.717815 0.023481
0.979395 0.718608 0.023752
1.000000 0.719401 0.024024
1.000000 0.720194 0.024297
1.000000 0.720988 0.024571
0.016983 0.732279 0.016983
0.040187 0.733066 0.017238
0.065386 0.733853 0.017494
0.092448 0.734641 0.017750
0.121237 0.735428 0.018006
0.151619 0.736216 0.018264
0.183456 0.737004 0.018522
0.216610 0.737792 0.018780
0.250942 0.738580 0.019040
0.286309 0.739368 0.019300
0.322570 0.740157 0.019560
0.359581 0.740945 0.019822
0.397197 0.741734 0.020084
0.435271 0.742523 0.020346
0.473656 0.743312 0.020610
0.512202 0.744101 0.020874
0.550759 0.744890 0.021138
0.589176 0.745679 0.021404
0.627297 0.746468 0.021670
0.664970 0.747258 0.021937
0.702037 0.748047 0.022204
0.738341 0.748837 0.022472
0.773724 0.749627 0.022741
0.808025 0.750416 0.023010
0.841082 0.751206 0.023280
0.872732 0.751996 0.023551
0.902810 0.752786 0.023823
0.931151 0.753576 0.024095
0.957587 0.754366 0.024368
0.981948 0.755157 0.024641
1.000000 0.755947 0.024915
1.000000 0.756737 0.025190
1.000000 0.757528 0.025466
0.017820 0.768020 0.017820
0.041164 0.768803 0.018077
0.066508 0.769587 0.018334
0.093718 0.770370 0.018592
0.122659 0.771153 0.018851
0.153193 0.771937 0.019110
0.185183 0.772720 0.019370
0.218488 0.773503 0.019631
0.252969 0.774287 0.019892
0.288482 0.775070 0.020154
0.324885 0.775854 0.020417
0.362031 0.776637 0.020680
0.399776 0.777420 0.020944
0.437971 0.778204 0.021209
0.476468 0.778987 0.021474
0.515115 0.779771 0.021740
0.553762 0.780554 0.022007
0.592254 0.781337 0.022274
0.630438 0.782121 0.022542
0.668158 0.782904 0.022811
0.705255 0.783687 0.023081
0.741572 0.784470 0.023351
0.776947 0.785254 0.023622
0.811221 0.786037 0.023893
0.844228 0.786820 0.024165
0.875806 0.787603 0.024438
0.905788 0.788386 0.024712
0.934007 0.789169 0.024986
0.960293 0.789952 0.025261
0.984478 0.790735 0.025536
1.000000 0.791518 0.025813
1.000000 0.792300 0.026090
1.000000 0.793083 0.026367
0.018663 0.802758 0.018663
0.042147 0.803532 0.018921
0.067637 0.804307 0.019181
0.094996 0.805081 0.019441
0.124088 0.805855 0.019701
0.154774 0.806629 0.019963
0.186917 0.807403 0.020225
0.220374 0.808177 0.020487
0.255004 0.808951 0.020751
0.290663 0.809725 0.021015
0.327207 0.810498 0.021279
0.364489 0.811271 0.021545
0.402362 0.812045 0.021811
0.440678 0.812818 0.022077
0.479285 0.813591 0.022345
0.518033 0.814363 0.022613
0.556768 0.815136 0.022882
0.595336 0.815908 0.023151
0.633581 0.816681 0.023421
0.671345 0.817453 0.023692
0.708471 0.818225 0.023963
0.744798 0.818997 0.024236
0.780165 0.819768 0.024508
0.814409 0.820540 0.024782
0.847365 0.821311 0.025056
0.878868 0.822082 0.025331
0.908751 0.822853 0.025607
0.936845 0.823624 0.025883
0.962979 0.824395 0.026160
0.986983 0.825165 0.026437
1.000000 0.825935 0.026716
1.000000 0.826705 0.026995
1.000000 0.827475 0.027275
0.019511 0.836320 0.019511
0.043137 0.837081 0.019772
0.068772 0.837841 0.020033
0.096280 0.838601 0.020295
0.125524 0.839361 0.020558
0.156363 0.840121 0.020821
0.188658 0.840880 0.021085
0.222267 0.841639 0.021350
0.257046 0.842398 0.021615
0.292851 0.843157 0.021881
0.329536 0.843915 0.022148
0.366953 0.844673 0.022415
0.404955 0.845431 0.022683
0.443390 0.846189 0.022952
0.482108 0.846946 0.023221
0.520955 0.847703 0.023491
0.559777 0.848459 0.023762
0.598419 0.849216 0.024034
0.636724 0.849972 0.024306
0.674533 0.850727 0.024579
0.711686 0.851483 0.024852
0.748021 0.852238 0.025126
0.783377 0.852993 0.025401
0.817589 0.853747 0.025677
0.850492 0.854501 0.025953
0.881918 0.855255 0.026230
0.911698 0.856008 0.026508
0.939664 0.856762 0.026786
0.965643 0.857514 0.027065
0.989463 0.858267 0.027345
1.000000 0.859019 0.027625
1.000000 0.859771 0.027906
1.000000 0.860522 0.028188
0.020365 0.868531 0.020365
0.044133 0.869273 0.020628
0.069914 0.870014 0.020891
0.097572 0.870754 0.021155
0.126967 0.871495 0.021420
0.157959 0.872234 0.021685
0.190407 0.872974 0.021951
0.224168 0.873713 0.022218
0.259096 0.874451 0.022485
0.295047 0.875189 0.022753
0.331873 0.875927 0.023022
0.369425 0.876664 0.023291
0.407554 0.877401 0.023562
0.446108 0.878138 0.023832
0.484935 0.878873 0.024104
0.523881 0.879609 0.024376
0.562790 0.880344 0.024649
0.601505 0.881079 0.024922
0.639868 0.881813 0.025196
0.677719 0.882546 0.025471
0.714898 0.883280 0.025747
0.751240 0.884012 0.026023
0.786584 0.884744 0.026300
0.820762 0.885476 0.026578
0.853608 0.886207 0.026856
0.884954 0.886938 0.027135
0.914630 0.887669 0.027415
