luts/original/grit-alley.cube
TITLE "Grit Alley"
LUT_3D_SIZE 5
DOMAIN_MIN 0.0 0.0 0.0
DOMAIN_MAX 1.0 1.0 1.0
0.004200 0.008120 0.012040
0.265785 0.034391 0.040131
0.533480 0.070697 0.078257
0.807285 0.119233 0.128613
1.000000 0.180000 0.191200
0.028651 0.271525 0.040131
0.265785 0.271525 0.040131
0.533480 0.305868 0.078257
0.807285 0.351710 0.128613
1.000000 0.409600 0.191200
0.063137 0.541040 0.078257
0.298308 0.541040 0.078257
0.533480 0.541040 0.078257
0.807285 0.584188 0.128613
1.000000 0.639200 0.191200
0.109853 0.816665 0.128613
0.342330 0.816665 0.128613
0.574808 0.816665 0.128613
0.807285 0.816665 0.128613
1.000000 0.868800 0.191200
0.168800 1.000000 0.191200
0.398400 1.000000 0.191200
0.628000 1.000000 0.191200
0.857600 1.000000 0.191200
1.000000 1.000000 0.191200
0.028651 0.034391 0.277265
0.265785 0.034391 0.277265
0.533480 0.070697 0.313428
0.807285 0.119233 0.361090
1.000000 0.180000 0.420800
0.028651 0.271525 0.277265
0.265785 0.271525 0.277265
0.533480 0.333387 0.340947
0.807285 0.384978 0.394358
1.000000 0.448800 0.460000
0.063137 0.541040 0.313428
0.325827 0.541040 0.340947
0.533480 0.541040 0.340947
0.807285 0.600822 0.394358
1.000000 0.665333 0.460000
0.109853 0.816665 0.361090
0.375598 0.816665 0.394358
0.591442 0.816665 0.394358
0.807285 0.816665 0.394358
1.000000 0.881867 0.460000
0.168800 1.000000 0.420800
0.437600 1.000000 0.460000
0.654133 1.000000 0.460000
0.870667 1.000000 0.460000
1.000000 1.000000 0.460000
0.063137 0.070697 0.548600
0.298308 0.070697 0.548600
0.533480 0.070697 0.548600
0.807285 0.119233 0.593568
1.000000 0.180000 0.650400
0.063137 0.305868 0.548600
0.325827 0.333387 0.548600
0.533480 0.333387 0.548600
0.807285 0.384978 0.610202
1.000000 0.448800 0.676533
0.063137 0.541040 0.548600
0.325827 0.541040 0.548600
0.533480 0.541040 0.548600
0.807285 0.650723 0.660103
1.000000 0.717600 0.728800
0.109853 0.816665 0.593568
0.375598 0.816665 0.610202
0.641343 0.816665 0.660103
0.807285 0.816665 0.660103
1.000000 0.908000 0.728800
0.168800 1.000000 0.650400
0.437600 1.000000 0.676533
0.706400 1.000000 0.728800
0.896800 1.000000 0.728800
1.000000 1.000000 0.728800
0.109853 0.119233 0.826045
0.342330 0.119233 0.826045
0.574808 0.119233 0.826045
0.807285 0.119233 0.826045
1.000000 0.180000 0.880000
0.109853 0.351710 0.826045
0.375598 0.384978 0.826045
0.591442 0.384978 0.826045
0.807285 0.384978 0.826045
1.000000 0.448800 0.893067
0.109853 0.584188 0.826045
0.375598 0.600822 0.826045
0.641343 0.650723 0.826045
0.807285 0.650723 0.826045
1.000000 0.717600 0.919200
0.109853 0.816665 0.826045
0.375598 0.816665 0.826045
0.641343 0.816665 0.826045
0.807285 0.816665 0.826045
1.000000 0.986400 0.997600
0.168800 1.000000 0.880000
0.437600 1.000000 0.893067
0.706400 1.000000 0.919200
0.975200 1.000000 0.997600
1.000000 1.000000 0.997600
0.168800 0.180000 1.000000
0.398400 0.180000 1.000000
0.628000 0.180000 1.000000
0.857600 0.180000 1.000000
1.000000 0.180000 1.000000
0.168800 0.409600 1.000000
0.437600 0.448800 1.000000
0.654133 0.448800 1.000000
0.870667 0.448800 1.000000
1.000000 0.448800 1.000000
0.168800 0.639200 1.000000
0.437600 0.665333 1.000000
0.706400 0.717600 1.000000
0.896800 0.717600 1.000000
1.000000 0.717600 1.000000
0.168800 0.868800 1.000000
0.437600 0.881867 1.000000
0.706400 0.908000 1.000000
0.975200 0.986400 1.000000
1.000000 0.986400 1.000000
0.168800 1.000000 1.000000
0.437600 1.000000 1.000000
0.706400 1.000000 1.000000
0.975200 1.000000 1.000000
1.000000 1.000000 1.000000
