luts/original/grit-alley.cube
TITLE "Grit Alley"
LUT_3D_SIZE 33
DOMAIN_MIN 0.0 0.0 0.0
DOMAIN_MAX 1.0 1.0 1.0
0.004200 0.008120 0.012040
0.036564 0.012656 0.016803
0.069023 0.015188 0.019562
0.101578 0.017910 0.022513
0.134229 0.020824 0.025654
0.166975 0.023929 0.028987
0.199816 0.027225 0.032510
0.232753 0.030713 0.036225
0.265785 0.034391 0.040131
0.298913 0.038260 0.044228
0.332136 0.042321 0.048516
0.365455 0.046572 0.052995
0.398869 0.051015 0.057665
0.432378 0.055649 0.062526
0.465983 0.060474 0.067579
0.499684 0.065490 0.072822
0.533480 0.070697 0.078257
0.567371 0.076095 0.083883
0.601358 0.081684 0.089699
0.635441 0.087465 0.095707
0.669619 0.093436 0.101906
0.703892 0.099599 0.108296
0.738261 0.105953 0.114877
0.772725 0.112497 0.121650
0.807285 0.119233 0.128613
0.841940 0.126160 0.135768
0.876691 0.133278 0.143113
0.911537 0.140587 0.150650
0.946479 0.148088 0.158378
0.981516 0.155779 0.166297
0.997461 0.163662 0.174407
0.999365 0.171735 0.182708
1.000000 0.180000 0.191200
0.008508 0.040711 0.016803
0.036564 0.040711 0.016803
0.069023 0.044293 0.019562
0.101578 0.047334 0.022513
0.134229 0.050383 0.025654
0.166975 0.053550 0.028987
0.199816 0.056871 0.032510
0.232753 0.060363 0.036225
0.265785 0.064033 0.040131
0.298913 0.067885 0.044228
0.332136 0.071922 0.048516
0.365455 0.076145 0.052995
0.398869 0.080557 0.057665
0.432378 0.085157 0.062526
0.465983 0.089946 0.067579
0.499684 0.094925 0.072822
0.533480 0.100093 0.078257
0.567371 0.105452 0.083883
0.601358 0.111000 0.089699
0.635441 0.116739 0.095707
0.669619 0.122669 0.101906
0.703892 0.128789 0.108296
0.738261 0.135099 0.114877
0.772725 0.141601 0.121650
0.807285 0.148293 0.128613
0.841940 0.155176 0.135768
0.876691 0.162249 0.143113
0.911537 0.169514 0.150650
0.946479 0.176969 0.158378
0.981516 0.184616 0.166297
0.997461 0.192453 0.174407
0.999365 0.200481 0.182708
1.000000 0.208700 0.191200
0.010812 0.073398 0.019562
0.039918 0.073398 0.019562
0.069023 0.073398 0.019562
0.101578 0.076757 0.022513
0.134229 0.079941 0.025654
0.166975 0.083170 0.028987
0.199816 0.086517 0.032510
0.232753 0.090013 0.036225
0.265785 0.093674 0.040131
0.298913 0.097509 0.044228
0.332136 0.101523 0.048516
0.365455 0.105719 0.052995
0.398869 0.110099 0.057665
0.432378 0.114665 0.062526
0.465983 0.119419 0.067579
0.499684 0.124360 0.072822
0.533480 0.129490 0.078257
0.567371 0.134808 0.083883
0.601358 0.140316 0.089699
0.635441 0.146014 0.095707
0.669619 0.151901 0.101906
0.703892 0.157979 0.108296
0.738261 0.164246 0.114877
0.772725 0.170704 0.121650
0.807285 0.177353 0.128613
0.841940 0.184191 0.135768
0.876691 0.191220 0.143113
0.911537 0.198440 0.150650
0.946479 0.205851 0.158378
0.981516 0.213452 0.166297
0.997461 0.221244 0.174407
0.999365 0.229226 0.182708
1.000000 0.237400 0.191200
0.013308 0.106181 0.022513
0.042731 0.106181 0.022513
0.072155 0.106181 0.022513
0.101578 0.106181 0.022513
0.134229 0.109500 0.025654
0.166975 0.112791 0.028987
0.199816 0.116163 0.032510
0.232753 0.119664 0.036225
0.265785 0.123316 0.040131
0.298913 0.127134 0.044228
0.332136 0.131124 0.048516
0.365455 0.135292 0.052995
0.398869 0.139641 0.057665
0.432378 0.144174 0.062526
0.465983 0.148891 0.067579
0.499684 0.153795 0.072822
0.533480 0.158886 0.078257
0.567371 0.164165 0.083883
0.601358 0.169632 0.089699
0.635441 0.175289 0.095707
0.669619 0.181134 0.101906
0.703892 0.187169 0.108296
0.738261 0.193393 0.114877
0.772725 0.199808 0.121650
0.807285 0.206412 0.128613
0.841940 0.213207 0.135768
0.876691 0.220191 0.143113
0.911537 0.227367 0.150650
0.946479 0.234732 0.158378
0.981516 0.242288 0.166297
0.997461 0.250035 0.174407
0.999365 0.257972 0.182708
1.000000 0.266100 0.191200
0.015994 0.139059 0.025654
0.045553 0.139059 0.025654
0.075111 0.139059 0.025654
0.104670 0.139059 0.025654
0.134229 0.139059 0.025654
0.166975 0.142412 0.028987
0.199816 0.145809 0.032510
0.232753 0.149314 0.036225
0.265785 0.152958 0.040131
0.298913 0.156758 0.044228
0.332136 0.160725 0.048516
0.365455 0.164865 0.052995
0.398869 0.169183 0.057665
0.432378 0.173682 0.062526
0.465983 0.178364 0.067579
0.499684 0.183230 0.072822
0.533480 0.188283 0.078257
0.567371 0.193522 0.083883
0.601358 0.198949 0.089699
0.635441 0.204563 0.095707
0.669619 0.210367 0.101906
0.703892 0.216359 0.108296
0.738261 0.222540 0.114877
0.772725 0.228911 0.121650
0.807285 0.235472 0.128613
0.841940 0.242222 0.135768
0.876691 0.249163 0.143113
0.911537 0.256293 0.150650
0.946479 0.263614 0.158378
0.981516 0.271125 0.166297
0.997461 0.278826 0.174407
0.999365 0.286718 0.182708
1.000000 0.294800 0.191200
0.018872 0.172032 0.028987
0.048492 0.172032 0.028987
0.078113 0.172032 0.028987
0.107733 0.172032 0.028987
0.137354 0.172032 0.028987
0.166975 0.172032 0.028987
0.199816 0.175455 0.032510
0.232753 0.178964 0.036225
0.265785 0.182600 0.040131
0.298913 0.186382 0.044228
0.332136 0.190326 0.048516
0.365455 0.194438 0.052995
0.398869 0.198725 0.057665
0.432378 0.203190 0.062526
0.465983 0.207836 0.067579
0.499684 0.212665 0.072822
0.533480 0.217679 0.078257
0.567371 0.222879 0.083883
0.601358 0.228265 0.089699
0.635441 0.233838 0.095707
0.669619 0.239599 0.101906
0.703892 0.245549 0.108296
0.738261 0.251687 0.114877
0.772725 0.258015 0.121650
0.807285 0.264531 0.128613
0.841940 0.271238 0.135768
0.876691 0.278134 0.143113
0.911537 0.285219 0.150650
0.946479 0.292495 0.158378
0.981516 0.299961 0.166297
0.997461 0.307617 0.174407
0.999365 0.315463 0.182708
1.000000 0.323500 0.191200
0.021940 0.205101 0.032510
0.051586 0.205101 0.032510
0.081232 0.205101 0.032510
0.110878 0.205101 0.032510
0.140524 0.205101 0.032510
0.170170 0.205101 0.032510
0.199816 0.205101 0.032510
0.232753 0.208615 0.036225
0.265785 0.212241 0.040131
0.298913 0.216007 0.044228
0.332136 0.219927 0.048516
0.365455 0.224011 0.052995
0.398869 0.228267 0.057665
0.432378 0.232698 0.062526
0.465983 0.237309 0.067579
0.499684 0.242100 0.072822
0.533480 0.247075 0.078257
0.567371 0.252235 0.083883
0.601358 0.257581 0.089699
0.635441 0.263113 0.095707
0.669619 0.268832 0.101906
0.703892 0.274739 0.108296
0.738261 0.280834 0.114877
0.772725 0.287118 0.121650
0.807285 0.293591 0.128613
0.841940 0.300253 0.135768
0.876691 0.307105 0.143113
0.911537 0.314146 0.150650
0.946479 0.321377 0.158378
0.981516 0.328797 0.166297
0.997461 0.336408 0.174407
0.999365 0.344209 0.182708
1.000000 0.352200 0.191200
0.025200 0.238265 0.036225
0.054850 0.238265 0.036225
0.084501 0.238265 0.036225
0.114151 0.238265 0.036225
0.143802 0.238265 0.036225
0.173452 0.238265 0.036225
0.203102 0.238265 0.036225
0.232753 0.238265 0.036225
0.265785 0.241883 0.040131
0.298913 0.245631 0.044228
0.332136 0.249528 0.048516
0.365455 0.253584 0.052995
0.398869 0.257809 0.057665
0.432378 0.262206 0.062526
0.465983 0.266781 0.067579
0.499684 0.271536 0.072822
0.533480 0.276472 0.078257
0.567371 0.281592 0.083883
0.601358 0.286897 0.089699
0.635441 0.292387 0.095707
0.669619 0.298065 0.101906
0.703892 0.303929 0.108296
0.738261 0.309981 0.114877
0.772725 0.316222 0.121650
0.807285 0.322651 0.128613
0.841940 0.329269 0.135768
0.876691 0.336076 0.143113
0.911537 0.343072 0.150650
0.946479 0.350258 0.158378
0.981516 0.357634 0.166297
0.997461 0.365199 0.174407
0.999365 0.372955 0.182708
1.000000 0.380900 0.191200
0.028651 0.271525 0.040131
0.058293 0.271525 0.040131
0.087934 0.271525 0.040131
0.117576 0.271525 0.040131
0.147218 0.271525 0.040131
0.176860 0.271525 0.040131
0.206501 0.271525 0.040131
0.236143 0.271525 0.040131
0.265785 0.271525 0.040131
0.298913 0.275256 0.044228
0.332136 0.279129 0.048516
0.365455 0.283158 0.052995
0.398869 0.287351 0.057665
0.432378 0.291715 0.062526
0.465983 0.296254 0.067579
0.499684 0.300971 0.072822
0.533480 0.305868 0.078257
0.567371 0.310949 0.083883
0.601358 0.316213 0.089699
0.635441 0.321662 0.095707
0.669619 0.327297 0.101906
0.703892 0.333119 0.108296
0.738261 0.339128 0.114877
0.772725 0.345325 0.121650
0.807285 0.351710 0.128613
0.841940 0.358284 0.135768
0.876691 0.365047 0.143113
0.911537 0.371998 0.150650
0.946479 0.379140 0.158378
0.981516 0.386470 0.166297
0.997461 0.393990 0.174407
0.999365 0.401700 0.182708
1.000000 0.409600 0.191200
0.032293 0.304880 0.044228
0.061917 0.304880 0.044228
0.091542 0.304880 0.044228
0.121166 0.304880 0.044228
0.150790 0.304880 0.044228
0.180415 0.304880 0.044228
0.210039 0.304880 0.044228
0.239664 0.304880 0.044228
0.269288 0.304880 0.044228
0.298913 0.304880 0.044228
0.332136 0.308730 0.048516
0.365455 0.312731 0.052995
0.398869 0.316893 0.057665
0.432378 0.321223 0.062526
0.465983 0.325726 0.067579
0.499684 0.330406 0.072822
0.533480 0.335265 0.078257
0.567371 0.340305 0.083883
0.601358 0.345529 0.089699
0.635441 0.350937 0.095707
0.669619 0.356530 0.101906
0.703892 0.362309 0.108296
0.738261 0.368275 0.114877
0.772725 0.374429 0.121650
0.807285 0.380770 0.128613
0.841940 0.387300 0.135768
0.876691 0.394018 0.143113
0.911537 0.400925 0.150650
0.946479 0.408021 0.158378
0.981516 0.415306 0.166297
0.997461 0.422781 0.174407
0.999365 0.430446 0.182708
1.000000 0.438300 0.191200
0.036126 0.338331 0.048516
0.065727 0.338331 0.048516
0.095328 0.338331 0.048516
0.124929 0.338331 0.048516
0.154530 0.338331 0.048516
0.184131 0.338331 0.048516
0.213732 0.338331 0.048516
0.243333 0.338331 0.048516
0.272934 0.338331 0.048516
0.302535 0.338331 0.048516
0.332136 0.338331 0.048516
0.365455 0.342304 0.052995
0.398869 0.346435 0.057665
0.432378 0.350731 0.062526
0.465983 0.355199 0.067579
0.499684 0.359841 0.072822
0.533480 0.364661 0.078257
0.567371 0.369662 0.083883
0.601358 0.374845 0.089699
0.635441 0.380211 0.095707
0.669619 0.385762 0.101906
0.703892 0.391499 0.108296
0.738261 0.397422 0.114877
0.772725 0.403532 0.121650
0.807285 0.409830 0.128613
0.841940 0.416315 0.135768
0.876691 0.422989 0.143113
0.911537 0.429851 0.150650
0.946479 0.436902 0.158378
0.981516 0.444143 0.166297
0.997461 0.451572 0.174407
0.999365 0.459191 0.182708
1.000000 0.467000 0.191200
0.040150 0.371877 0.052995
0.069723 0.371877 0.052995
0.099296 0.371877 0.052995
0.128869 0.371877 0.052995
0.158442 0.371877 0.052995
0.188016 0.371877 0.052995
0.217589 0.371877 0.052995
0.247162 0.371877 0.052995
0.276735 0.371877 0.052995
0.306308 0.371877 0.052995
0.335881 0.371877 0.052995
0.365455 0.371877 0.052995
0.398869 0.375977 0.057665
0.432378 0.380239 0.062526
0.465983 0.384671 0.067579
0.499684 0.389276 0.072822
0.533480 0.394058 0.078257
0.567371 0.399019 0.083883
0.601358 0.404161 0.089699
0.635441 0.409486 0.095707
0.669619 0.414995 0.101906
0.703892 0.420689 0.108296
0.738261 0.426569 0.114877
0.772725 0.432636 0.121650
0.807285 0.438889 0.128613
0.841940 0.445331 0.135768
0.876691 0.451960 0.143113
0.911537 0.458778 0.150650
0.946479 0.465784 0.158378
0.981516 0.472979 0.166297
0.997461 0.480363 0.174407
0.999365 0.487937 0.182708
1.000000 0.495700 0.191200
0.044365 0.405519 0.057665
0.073907 0.405519 0.057665
0.103449 0.405519 0.057665
0.132991 0.405519 0.057665
0.162533 0.405519 0.057665
0.192075 0.405519 0.057665
0.221617 0.405519 0.057665
0.251159 0.405519 0.057665
0.280701 0.405519 0.057665
0.310243 0.405519 0.057665
0.339785 0.405519 0.057665
0.369327 0.405519 0.057665
0.398869 0.405519 0.057665
0.432378 0.409748 0.062526
0.465983 0.414143 0.067579
0.499684 0.418711 0.072822
0.533480 0.423454 0.078257
0.567371 0.428375 0.083883
0.601358 0.433477 0.089699
0.635441 0.438761 0.095707
0.669619 0.444228 0.101906
0.703892 0.449879 0.108296
0.738261 0.455716 0.114877
0.772725 0.461739 0.121650
0.807285 0.467949 0.128613
0.841940 0.474346 0.135768
0.876691 0.480931 0.143113
0.911537 0.487704 0.150650
0.946479 0.494665 0.158378
0.981516 0.501815 0.166297
0.997461 0.509154 0.174407
0.999365 0.516683 0.182708
1.000000 0.524400 0.191200
0.048771 0.439256 0.062526
0.078280 0.439256 0.062526
0.107788 0.439256 0.062526
0.137296 0.439256 0.062526
0.166804 0.439256 0.062526
0.196312 0.439256 0.062526
0.225821 0.439256 0.062526
0.255329 0.439256 0.062526
0.284837 0.439256 0.062526
0.314345 0.439256 0.062526
0.343854 0.439256 0.062526
0.373362 0.439256 0.062526
0.402870 0.439256 0.062526
0.432378 0.439256 0.062526
0.465983 0.443616 0.067579
0.499684 0.448146 0.072822
0.533480 0.452851 0.078257
0.567371 0.457732 0.083883
0.601358 0.462793 0.089699
0.635441 0.468035 0.095707
0.669619 0.473460 0.101906
0.703892 0.479069 0.108296
0.738261 0.484863 0.114877
0.772725 0.490843 0.121650
0.807285 0.497009 0.128613
0.841940 0.503362 0.135768
0.876691 0.509902 0.143113
0.911537 0.516630 0.150650
0.946479 0.523547 0.158378
0.981516 0.530652 0.166297
0.997461 0.537945 0.174407
0.999365 0.545428 0.182708
1.000000 0.553100 0.191200
0.053369 0.473088 0.067579
0.082841 0.473088 0.067579
0.112314 0.473088 0.067579
0.141786 0.473088 0.067579
0.171259 0.473088 0.067579
0.200731 0.473088 0.067579
0.230204 0.473088 0.067579
0.259676 0.473088 0.067579
0.289149 0.473088 0.067579
0.318621 0.473088 0.067579
0.348094 0.473088 0.067579
0.377566 0.473088 0.067579
0.407038 0.473088 0.067579
0.436511 0.473088 0.067579
0.465983 0.473088 0.067579
0.499684 0.477581 0.072822
0.533480 0.482247 0.078257
0.567371 0.487089 0.083883
0.601358 0.492109 0.089699
0.635441 0.497310 0.095707
0.669619 0.502693 0.101906
0.703892 0.508259 0.108296
0.738261 0.514010 0.114877
0.772725 0.519946 0.121650
0.807285 0.526068 0.128613
0.841940 0.532377 0.135768
0.876691 0.538873 0.143113
0.911537 0.545557 0.150650
0.946479 0.552428 0.158378
0.981516 0.559488 0.166297
0.997461 0.566737 0.174407
0.999365 0.574174 0.182708
1.000000 0.581800 0.191200
0.058157 0.507016 0.072822
0.087592 0.507016 0.072822
0.117027 0.507016 0.072822
0.146463 0.507016 0.072822
0.175898 0.507016 0.072822
0.205333 0.507016 0.072822
0.234768 0.507016 0.072822
0.264203 0.507016 0.072822
0.293638 0.507016 0.072822
0.323073 0.507016 0.072822
0.352508 0.507016 0.072822
0.381943 0.507016 0.072822
0.411379 0.507016 0.072822
0.440814 0.507016 0.072822
0.470249 0.507016 0.072822
0.499684 0.507016 0.072822
0.533480 0.511644 0.078257
0.567371 0.516446 0.083883
0.601358 0.521425 0.089699
0.635441 0.526585 0.095707
0.669619 0.531926 0.101906
0.703892 0.537449 0.108296
0.738261 0.543157 0.114877
0.772725 0.549050 0.121650
0.807285 0.555128 0.128613
0.841940 0.561393 0.135768
0.876691 0.567844 0.143113
0.911537 0.574483 0.150650
0.946479 0.581310 0.158378
0.981516 0.588324 0.166297
0.997461 0.595528 0.174407
0.999365 0.602919 0.182708
1.000000 0.610500 0.191200
0.063137 0.541040 0.078257
0.092533 0.541040 0.078257
0.121930 0.541040 0.078257
0.151326 0.541040 0.078257
0.180723 0.541040 0.078257
0.210119 0.541040 0.078257
0.239515 0.541040 0.078257
0.268912 0.541040 0.078257
0.298308 0.541040 0.078257
0.327705 0.541040 0.078257
0.357101 0.541040 0.078257
0.386498 0.541040 0.078257
0.415894 0.541040 0.078257
0.445291 0.541040 0.078257
0.474687 0.541040 0.078257
0.504084 0.541040 0.078257
0.533480 0.541040 0.078257
0.567371 0.545802 0.083883
0.601358 0.550741 0.089699
0.635441 0.555859 0.095707
0.669619 0.561158 0.101906
0.703892 0.566639 0.108296
0.738261 0.572304 0.114877
0.772725 0.578153 0.121650
0.807285 0.584188 0.128613
0.841940 0.590408 0.135768
0.876691 0.596815 0.143113
0.911537 0.603409 0.150650
0.946479 0.610191 0.158378
0.981516 0.617161 0.166297
0.997461 0.624319 0.174407
0.999365 0.631665 0.182708
1.000000 0.639200 0.191200
0.068307 0.575159 0.083883
0.097664 0.575159 0.083883
0.127021 0.575159 0.083883
0.156378 0.575159 0.083883
0.185734 0.575159 0.083883
0.215091 0.575159 0.083883
0.244448 0.575159 0.083883
0.273804 0.575159 0.083883
0.303161 0.575159 0.083883
0.332518 0.575159 0.083883
0.361875 0.575159 0.083883
0.391231 0.575159 0.083883
0.420588 0.575159 0.083883
0.449945 0.575159 0.083883
0.479301 0.575159 0.083883
0.508658 0.575159 0.083883
0.538015 0.575159 0.083883
0.567371 0.575159 0.083883
0.601358 0.580057 0.089699
0.635441 0.585134 0.095707
0.669619 0.590391 0.101906
0.703892 0.595829 0.108296
0.738261 0.601451 0.114877
0.772725 0.607257 0.121650
0.807285 0.613247 0.128613
0.841940 0.619424 0.135768
0.876691 0.625786 0.143113
0.911537 0.632336 0.150650
0.946479 0.639073 0.158378
0.981516 0.645997 0.166297
0.997461 0.653110 0.174407
0.999365 0.660411 0.182708
1.000000 0.667900 0.191200
0.073669 0.609373 0.089699
0.102985 0.609373 0.089699
0.132301 0.609373 0.089699
0.161617 0.609373 0.089699
0.190934 0.609373 0.089699
0.220250 0.609373 0.089699
0.249566 0.609373 0.089699
0.278882 0.609373 0.089699
0.308198 0.609373 0.089699
0.337514 0.609373 0.089699
0.366830 0.609373 0.089699
0.396146 0.609373 0.089699
0.425462 0.609373 0.089699
0.454778 0.609373 0.089699
0.484094 0.609373 0.089699
0.513410 0.609373 0.089699
0.542726 0.609373 0.089699
0.572042 0.609373 0.089699
0.601358 0.609373 0.089699
0.635441 0.614409 0.095707
0.669619 0.619623 0.101906
0.703892 0.625019 0.108296
0.738261 0.630598 0.114877
0.772725 0.636360 0.121650
0.807285 0.642307 0.128613
0.841940 0.648439 0.135768
0.876691 0.654757 0.143113
0.911537 0.661262 0.150650
0.946479 0.667954 0.158378
0.981516 0.674833 0.166297
0.997461 0.681901 0.174407
0.999365 0.689156 0.182708
1.000000 0.696600 0.191200
0.079222 0.643683 0.095707
0.108497 0.643683 0.095707
0.137772 0.643683 0.095707
0.167046 0.643683 0.095707
0.196321 0.643683 0.095707
0.225596 0.643683 0.095707
0.254870 0.643683 0.095707
0.284145 0.643683 0.095707
0.313420 0.643683 0.095707
0.342694 0.643683 0.095707
0.371969 0.643683 0.095707
0.401244 0.643683 0.095707
0.430518 0.643683 0.095707
0.459793 0.643683 0.095707
0.489068 0.643683 0.095707
0.518342 0.643683 0.095707
0.547617 0.643683 0.095707
0.576892 0.643683 0.095707
0.606166 0.643683 0.095707
0.635441 0.643683 0.095707
0.669619 0.648856 0.101906
0.703892 0.654210 0.108296
0.738261 0.659745 0.114877
0.772725 0.665464 0.121650
0.807285 0.671367 0.128613
0.841940 0.677455 0.135768
0.876691 0.683729 0.143113
0.911537 0.690189 0.150650
0.946479 0.696836 0.158378
0.981516 0.703670 0.166297
0.997461 0.710692 0.174407
0.999365 0.717902 0.182708
1.000000 0.725300 0.191200
0.084966 0.678089 0.101906
0.114199 0.678089 0.101906
0.143431 0.678089 0.101906
0.172664 0.678089 0.101906
0.201897 0.678089 0.101906
0.231129 0.678089 0.101906
0.260362 0.678089 0.101906
0.289595 0.678089 0.101906
0.318827 0.678089 0.101906
0.348060 0.678089 0.101906
0.377292 0.678089 0.101906
0.406525 0.678089 0.101906
0.435758 0.678089 0.101906
0.464990 0.678089 0.101906
0.494223 0.678089 0.101906
0.523456 0.678089 0.101906
0.552688 0.678089 0.101906
0.581921 0.678089 0.101906
0.611153 0.678089 0.101906
0.640386 0.678089 0.101906
0.669619 0.678089 0.101906
0.703892 0.683400 0.108296
0.738261 0.688892 0.114877
0.772725 0.694567 0.121650
0.807285 0.700426 0.128613
0.841940 0.706470 0.135768
0.876691 0.712700 0.143113
0.911537 0.719115 0.150650
0.946479 0.725717 0.158378
0.981516 0.732506 0.166297
0.997461 0.739483 0.174407
0.999365 0.746647 0.182708
1.000000 0.754000 0.191200
0.090901 0.712590 0.108296
0.120091 0.712590 0.108296
0.149281 0.712590 0.108296
0.178471 0.712590 0.108296
0.207661 0.712590 0.108296
0.236851 0.712590 0.108296
0.266042 0.712590 0.108296
0.295232 0.712590 0.108296
0.324422 0.712590 0.108296
0.353612 0.712590 0.108296
0.382802 0.712590 0.108296
0.411992 0.712590 0.108296
0.441182 0.712590 0.108296
0.470372 0.712590 0.108296
0.499562 0.712590 0.108296
0.528752 0.712590 0.108296
0.557942 0.712590 0.108296
0.587132 0.712590 0.108296
0.616322 0.712590 0.108296
0.645512 0.712590 0.108296
0.674702 0.712590 0.108296
0.703892 0.712590 0.108296
0.738261 0.718039 0.114877
0.772725 0.723671 0.121650
0.807285 0.729486 0.128613
0.841940 0.735486 0.135768
0.876691 0.741671 0.143113
0.911537 0.748041 0.150650
0.946479 0.754598 0.158378
0.981516 0.761343 0.166297
0.997461 0.768274 0.174407
0.999365 0.775393 0.182708
1.000000 0.782700 0.191200
0.097028 0.747186 0.114877
0.126174 0.747186 0.114877
0.155321 0.747186 0.114877
0.184468 0.747186 0.114877
0.213615 0.747186 0.114877
0.242762 0.747186 0.114877
0.271909 0.747186 0.114877
0.301056 0.747186 0.114877
0.330203 0.747186 0.114877
0.359350 0.747186 0.114877
0.388497 0.747186 0.114877
0.417644 0.747186 0.114877
0.446791 0.747186 0.114877
0.475938 0.747186 0.114877
0.505085 0.747186 0.114877
0.534232 0.747186 0.114877
0.563379 0.747186 0.114877
0.592526 0.747186 0.114877
0.621673 0.747186 0.114877
0.650820 0.747186 0.114877
0.679967 0.747186 0.114877
0.709114 0.747186 0.114877
0.738261 0.747186 0.114877
0.772725 0.752774 0.121650
0.807285 0.758546 0.128613
0.841940 0.764501 0.135768
0.876691 0.770642 0.143113
0.911537 0.776968 0.150650
0.946479 0.783480 0.158378
0.981516 0.790179 0.166297
0.997461 0.797065 0.174407
0.999365 0.804139 0.182708
1.000000 0.811400 0.191200
0.103345 0.781878 0.121650
0.132448 0.781878 0.121650
0.161552 0.781878 0.121650
0.190655 0.781878 0.121650
0.219759 0.781878 0.121650
0.248862 0.781878 0.121650
0.277966 0.781878 0.121650
0.307069 0.781878 0.121650
0.336173 0.781878 0.121650
0.365276 0.781878 0.121650
0.394380 0.781878 0.121650
0.423483 0.781878 0.121650
0.452587 0.781878 0.121650
0.481690 0.781878 0.121650
0.510794 0.781878 0.121650
0.539897 0.781878 0.121650
0.569001 0.781878 0.121650
0.598104 0.781878 0.121650
0.627208 0.781878 0.121650
0.656311 0.781878 0.121650
0.685415 0.781878 0.121650
0.714518 0.781878 0.121650
0.743622 0.781878 0.121650
0.772725 0.781878 0.121650
0.807285 0.787605 0.128613
0.841940 0.793517 0.135768
0.876691 0.799613 0.143113
0.911537 0.805894 0.150650
0.946479 0.812361 0.158378
0.981516 0.819015 0.166297
0.997461 0.825856 0.174407
0.999365 0.832884 0.182708
1.000000 0.840100 0.191200
0.109853 0.816665 0.128613
0.138913 0.816665 0.128613
0.167973 0.816665 0.128613
0.197032 0.816665 0.128613
0.226092 0.816665 0.128613
0.255151 0.816665 0.128613
0.284211 0.816665 0.128613
0.313271 0.816665 0.128613
0.342330 0.816665 0.128613
0.371390 0.816665 0.128613
0.400450 0.816665 0.128613
0.429509 0.816665 0.128613
0.458569 0.816665 0.128613
0.487629 0.816665 0.128613
0.516688 0.816665 0.128613
0.545748 0.816665 0.128613
0.574808 0.816665 0.128613
0.603867 0.816665 0.128613
0.632927 0.816665 0.128613
0.661987 0.816665 0.128613
0.691046 0.816665 0.128613
0.720106 0.816665 0.128613
0.749166 0.816665 0.128613
0.778225 0.816665 0.128613
0.807285 0.816665 0.128613
0.841940 0.822532 0.135768
0.876691 0.828584 0.143113
0.911537 0.834821 0.150650
0.946479 0.841243 0.158378
0.981516 0.847852 0.166297
0.997461 0.854647 0.174407
0.999365 0.861630 0.182708
1.000000 0.868800 0.191200
0.116553 0.851548 0.135768
0.145568 0.851548 0.135768
0.174584 0.851548 0.135768
0.203599 0.851548 0.135768
0.232615 0.851548 0.135768
0.261630 0.851548 0.135768
0.290646 0.851548 0.135768
0.319661 0.851548 0.135768
0.348677 0.851548 0.135768
0.377692 0.851548 0.135768
0.406708 0.851548 0.135768
0.435723 0.851548 0.135768
0.464739 0.851548 0.135768
0.493754 0.851548 0.135768
0.522770 0.851548 0.135768
0.551785 0.851548 0.135768
0.580801 0.851548 0.135768
0.609816 0.851548 0.135768
0.638832 0.851548 0.135768
0.667847 0.851548 0.135768
0.696863 0.851548 0.135768
0.725878 0.851548 0.135768
0.754894 0.851548 0.135768
0.783909 0.851548 0.135768
0.812925 0.851548 0.135768
0.841940 0.851548 0.135768
0.876691 0.857555 0.143113
0.911537 0.863747 0.150650
0.946479 0.870124 0.158378
0.981516 0.876688 0.166297
0.997461 0.883438 0.174407
0.999365 0.890375 0.182708
1.000000 0.897500 0.191200
0.123443 0.886526 0.143113
0.152414 0.886526 0.143113
0.181385 0.886526 0.143113
0.210356 0.886526 0.143113
0.239328 0.886526 0.143113
0.268299 0.886526 0.143113
0.297270 0.886526 0.143113
0.326241 0.886526 0.143113
0.355212 0.886526 0.143113
0.384183 0.886526 0.143113
0.413154 0.886526 0.143113
0.442125 0.886526 0.143113
0.471096 0.886526 0.143113
0.500067 0.886526 0.143113
0.529038 0.886526 0.143113
0.558009 0.886526 0.143113
0.586980 0.886526 0.143113
0.615951 0.886526 0.143113
0.644922 0.886526 0.143113
0.673894 0.886526 0.143113
0.702865 0.886526 0.143113
0.731836 0.886526 0.143113
0.760807 0.886526 0.143113
0.789778 0.886526 0.143113
0.818749 0.886526 0.143113
0.847720 0.886526 0.143113
0.876691 0.886526 0.143113
