luts/original/grit-alley.cube
TITLE "Grit Alley"
LUT_3D_SIZE 9
DOMAIN_MIN 0.0 0.0 0.0
DOMAIN_MAX 1.0 1.0 1.0
0.004200 0.008120 0.012040
0.134229 0.020824 0.025654
0.265785 0.034391 0.040131
0.398869 0.051015 0.057665
0.533480 0.070697 0.078257
0.669619 0.093436 0.101906
0.807285 0.119233 0.128613
0.946479 0.148088 0.158378
1.000000 0.180000 0.191200
0.015994 0.139059 0.025654
0.134229 0.139059 0.025654
0.265785 0.152958 0.040131
0.398869 0.169183 0.057665
0.533480 0.188283 0.078257
0.669619 0.210367 0.101906
0.807285 0.235472 0.128613
0.946479 0.263614 0.158378
1.000000 0.294800 0.191200
0.028651 0.271525 0.040131
0.147218 0.271525 0.040131
0.265785 0.271525 0.040131
0.398869 0.287351 0.057665
0.533480 0.305868 0.078257
0.669619 0.327297 0.101906
0.807285 0.351710 0.128613
0.946479 0.379140 0.158378
1.000000 0.409600 0.191200
0.044365 0.405519 0.057665
0.162533 0.405519 0.057665
0.280701 0.405519 0.057665
0.398869 0.405519 0.057665
0.533480 0.423454 0.078257
0.669619 0.444228 0.101906
0.807285 0.467949 0.128613
0.946479 0.494665 0.158378
1.000000 0.524400 0.191200
0.063137 0.541040 0.078257
0.180723 0.541040 0.078257
0.298308 0.541040 0.078257
0.415894 0.541040 0.078257
0.533480 0.541040 0.078257
0.669619 0.561158 0.101906
0.807285 0.584188 0.128613
0.946479 0.610191 0.158378
1.000000 0.639200 0.191200
0.084966 0.678089 0.101906
0.201897 0.678089 0.101906
0.318827 0.678089 0.101906
0.435758 0.678089 0.101906
0.552688 0.678089 0.101906
0.669619 0.678089 0.101906
0.807285 0.700426 0.128613
0.946479 0.725717 0.158378
1.000000 0.754000 0.191200
0.109853 0.816665 0.128613
0.226092 0.816665 0.128613
0.342330 0.816665 0.128613
0.458569 0.816665 0.128613
0.574808 0.816665 0.128613
0.691046 0.816665 0.128613
0.807285 0.816665 0.128613
0.946479 0.841243 0.158378
1.000000 0.868800 0.191200
0.137798 0.956769 0.158378
0.253324 0.956769 0.158378
0.368849 0.956769 0.158378
0.484375 0.956769 0.158378
0.599901 0.956769 0.158378
0.715427 0.956769 0.158378
0.830953 0.956769 0.158378
0.946479 0.956769 0.158378
1.000000 0.983600 0.191200
0.168800 1.000000 0.191200
0.283600 1.000000 0.191200
0.398400 1.000000 0.191200
0.513200 1.000000 0.191200
0.628000 1.000000 0.191200
0.742800 1.000000 0.191200
0.857600 1.000000 0.191200
0.972400 1.000000 0.191200
1.000000 1.000000 0.191200
0.015994 0.020824 0.143889
0.134229 0.020824 0.143889
0.265785 0.034391 0.158698
0.398869 0.051015 0.175833
0.533480 0.070697 0.195843
0.669619 0.093436 0.218837
0.807285 0.119233 0.244852
0.946479 0.148088 0.273904
1.000000 0.180000 0.306000
0.015994 0.139059 0.143889
0.134229 0.139059 0.143889
0.265785 0.164208 0.169948
0.398869 0.181596 0.188246
0.533480 0.202042 0.209602
0.669619 0.225545 0.234015
0.807285 0.252106 0.261486
0.946479 0.281724 0.292014
1.000000 0.314400 0.325600
0.028651 0.271525 0.158698
0.158468 0.271525 0.169948
0.265785 0.271525 0.169948
0.398869 0.293557 0.188246
0.533480 0.315041 0.209602
0.669619 0.338681 0.234015
0.807285 0.365018 0.261486
0.946479 0.394231 0.292014
1.000000 0.426400 0.325600
0.044365 0.405519 0.175833
0.174946 0.405519 0.188246
0.286907 0.405519 0.188246
0.398869 0.405519 0.188246
0.533480 0.428041 0.209602
0.669619 0.451817 0.234015
0.807285 0.477929 0.261486
0.946479 0.506739 0.292014
1.000000 0.538400 0.325600
0.063137 0.541040 0.195843
0.194482 0.541040 0.209602
0.307481 0.541040 0.209602
0.420481 0.541040 0.209602
0.533480 0.541040 0.209602
0.669619 0.564953 0.234015
0.807285 0.590841 0.261486
0.946479 0.619246 0.292014
1.000000 0.650400 0.325600
0.084966 0.678089 0.218837
0.217075 0.678089 0.234015
0.330211 0.678089 0.234015
0.443347 0.678089 0.234015
0.556483 0.678089 0.234015
0.669619 0.678089 0.234015
0.807285 0.703753 0.261486
0.946479 0.731754 0.292014
1.000000 0.762400 0.325600
0.109853 0.816665 0.244852
0.242726 0.816665 0.261486
0.355638 0.816665 0.261486
0.468549 0.816665 0.261486
0.581461 0.816665 0.261486
0.694373 0.816665 0.261486
0.807285 0.816665 0.261486
0.946479 0.844261 0.292014
1.000000 0.874400 0.325600
0.137798 0.956769 0.273904
0.271434 0.956769 0.292014
0.383942 0.956769 0.292014
0.496449 0.956769 0.292014
0.608956 0.956769 0.292014
0.721464 0.956769 0.292014
0.833971 0.956769 0.292014
0.946479 0.956769 0.292014
1.000000 0.986400 0.325600
0.168800 1.000000 0.306000
0.303200 1.000000 0.325600
0.415200 1.000000 0.325600
0.527200 1.000000 0.325600
0.639200 1.000000 0.325600
0.751200 1.000000 0.325600
0.863200 1.000000 0.325600
0.975200 1.000000 0.325600
1.000000 1.000000 0.325600
0.028651 0.034391 0.277265
0.147218 0.034391 0.277265
0.265785 0.034391 0.277265
0.398869 0.051015 0.294001
0.533480 0.070697 0.313428
0.669619 0.093436 0.335767
0.807285 0.119233 0.361090
0.946479 0.148088 0.389430
1.000000 0.180000 0.420800
0.028651 0.152958 0.277265
0.158468 0.164208 0.277265
0.265785 0.164208 0.277265
0.398869 0.181596 0.300207
0.533480 0.202042 0.322601
0.669619 0.225545 0.347151
0.807285 0.252106 0.374398
0.946479 0.281724 0.404521
1.000000 0.314400 0.437600
0.028651 0.271525 0.277265
0.158468 0.271525 0.277265
0.265785 0.271525 0.277265
0.398869 0.312178 0.318828
0.533480 0.333387 0.340947
0.669619 0.357654 0.366124
0.807285 0.384978 0.394358
0.946479 0.415360 0.425650
1.000000 0.448800 0.460000
0.044365 0.405519 0.294001
0.174946 0.405519 0.300207
0.305528 0.405519 0.318828
0.398869 0.405519 0.318828
0.533480 0.437213 0.340947
0.669619 0.464465 0.366124
0.807285 0.492900 0.394358
0.946479 0.523642 0.425650
1.000000 0.557067 0.460000
0.063137 0.541040 0.313428
0.194482 0.541040 0.322601
0.325827 0.541040 0.340947
0.429653 0.541040 0.340947
0.533480 0.541040 0.340947
0.669619 0.571277 0.366124
0.807285 0.600822 0.394358
0.946479 0.631924 0.425650
1.000000 0.665333 0.460000
0.084966 0.678089 0.335767
0.217075 0.678089 0.347151
0.349184 0.678089 0.366124
0.455995 0.678089 0.366124
0.562807 0.678089 0.366124
0.669619 0.678089 0.366124
0.807285 0.708743 0.394358
0.946479 0.740205 0.425650
1.000000 0.773600 0.460000
0.109853 0.816665 0.361090
0.242726 0.816665 0.374398
0.375598 0.816665 0.394358
0.483520 0.816665 0.394358
0.591442 0.816665 0.394358
0.699363 0.816665 0.394358
0.807285 0.816665 0.394358
0.946479 0.848487 0.425650
1.000000 0.881867 0.460000
0.137798 0.956769 0.389430
0.271434 0.956769 0.404521
0.405070 0.956769 0.425650
0.513352 0.956769 0.425650
0.621634 0.956769 0.425650
0.729915 0.956769 0.425650
0.838197 0.956769 0.425650
0.946479 0.956769 0.425650
1.000000 0.990133 0.460000
0.168800 1.000000 0.420800
0.303200 1.000000 0.437600
0.437600 1.000000 0.460000
0.545867 1.000000 0.460000
0.654133 1.000000 0.460000
0.762400 1.000000 0.460000
0.870667 1.000000 0.460000
0.978933 1.000000 0.460000
1.000000 1.000000 0.460000
0.044365 0.051015 0.412169
0.162533 0.051015 0.412169
0.280701 0.051015 0.412169
0.398869 0.051015 0.412169
0.533480 0.070697 0.431014
0.669619 0.093436 0.452698
0.807285 0.119233 0.477329
0.946479 0.148088 0.504955
1.000000 0.180000 0.535600
0.044365 0.169183 0.412169
0.174946 0.181596 0.412169
0.286907 0.181596 0.412169
0.398869 0.181596 0.412169
0.533480 0.202042 0.435601
0.669619 0.225545 0.460287
0.807285 0.252106 0.487309
0.946479 0.281724 0.517029
1.000000 0.314400 0.549600
0.044365 0.287351 0.412169
0.174946 0.293557 0.412169
0.305528 0.312178 0.412169
0.398869 0.312178 0.412169
0.533480 0.333387 0.444773
0.669619 0.357654 0.472935
0.807285 0.384978 0.502280
0.946479 0.415360 0.533932
1.000000 0.448800 0.568267
0.044365 0.405519 0.412169
0.174946 0.405519 0.412169
0.305528 0.405519 0.412169
0.398869 0.405519 0.412169
0.533480 0.464732 0.472292
0.669619 0.489762 0.498232
0.807285 0.517851 0.527231
0.946479 0.548997 0.559287
1.000000 0.583200 0.594400
0.063137 0.541040 0.431014
0.194482 0.541040 0.435601
0.325827 0.541040 0.444773
0.457172 0.541040 0.472292
0.533480 0.541040 0.472292
0.669619 0.583926 0.498232
0.807285 0.617455 0.527231
0.946479 0.650940 0.559287
1.000000 0.686240 0.594400
0.084966 0.678089 0.452698
0.217075 0.678089 0.460287
0.349184 0.678089 0.472935
0.481292 0.678089 0.498232
0.575456 0.678089 0.498232
0.669619 0.678089 0.498232
0.807285 0.717060 0.527231
0.946479 0.752883 0.559287
1.000000 0.789280 0.594400
0.109853 0.816665 0.477329
0.242726 0.816665 0.487309
0.375598 0.816665 0.502280
0.508471 0.816665 0.527231
0.608075 0.816665 0.527231
0.707680 0.816665 0.527231
0.807285 0.816665 0.527231
0.946479 0.854826 0.559287
1.000000 0.892320 0.594400
0.137798 0.956769 0.504955
0.271434 0.956769 0.517029
0.405070 0.956769 0.533932
0.538707 0.956769 0.559287
0.640650 0.956769 0.559287
0.742593 0.956769 0.559287
0.844536 0.956769 0.559287
0.946479 0.956769 0.559287
1.000000 0.995360 0.594400
0.168800 1.000000 0.535600
0.303200 1.000000 0.549600
0.437600 1.000000 0.568267
0.572000 1.000000 0.594400
0.675040 1.000000 0.594400
0.778080 1.000000 0.594400
0.881120 1.000000 0.594400
0.984160 1.000000 0.594400
1.000000 1.000000 0.594400
0.063137 0.070697 0.548600
0.180723 0.070697 0.548600
0.298308 0.070697 0.548600
0.415894 0.070697 0.548600
0.533480 0.070697 0.548600
0.669619 0.093436 0.569628
0.807285 0.119233 0.593568
0.946479 0.148088 0.620481
1.000000 0.180000 0.650400
0.063137 0.188283 0.548600
0.194482 0.202042 0.548600
0.307481 0.202042 0.548600
0.420481 0.202042 0.548600
0.533480 0.202042 0.548600
0.669619 0.225545 0.573423
0.807285 0.252106 0.600221
0.946479 0.281724 0.629536
1.000000 0.314400 0.661600
0.063137 0.305868 0.548600
0.194482 0.315041 0.548600
0.325827 0.333387 0.548600
0.429653 0.333387 0.548600
0.533480 0.333387 0.548600
0.669619 0.357654 0.579747
0.807285 0.384978 0.610202
0.946479 0.415360 0.642214
1.000000 0.448800 0.676533
0.063137 0.423454 0.548600
0.194482 0.428041 0.548600
0.325827 0.437213 0.548600
0.457172 0.464732 0.548600
0.533480 0.464732 0.548600
0.669619 0.489762 0.592396
0.807285 0.517851 0.626835
0.946479 0.548997 0.661230
1.000000 0.583200 0.697440
0.063137 0.541040 0.548600
0.194482 0.541040 0.548600
0.325827 0.541040 0.548600
0.457172 0.541040 0.548600
0.533480 0.541040 0.548600
0.669619 0.621871 0.630341
0.807285 0.650723 0.660103
0.946479 0.682633 0.692923
1.000000 0.717600 0.728800
0.084966 0.678089 0.569628
0.217075 0.678089 0.573423
0.349184 0.678089 0.579747
0.481292 0.678089 0.592396
0.613401 0.678089 0.630341
0.669619 0.678089 0.630341
0.807285 0.733694 0.660103
0.946479 0.774011 0.692923
1.000000 0.812800 0.728800
0.109853 0.816665 0.593568
0.242726 0.816665 0.600221
0.375598 0.816665 0.610202
0.508471 0.816665 0.626835
0.641343 0.816665 0.660103
0.724314 0.816665 0.660103
0.807285 0.816665 0.660103
0.946479 0.865390 0.692923
1.000000 0.908000 0.728800
0.137798 0.956769 0.620481
0.271434 0.956769 0.629536
0.405070 0.956769 0.642214
0.538707 0.956769 0.661230
0.672343 0.956769 0.692923
0.763721 0.956769 0.692923
0.855100 0.956769 0.692923
0.946479 0.956769 0.692923
1.000000 1.000000 0.728800
0.168800 1.000000 0.650400
0.303200 1.000000 0.661600
0.437600 1.000000 0.676533
0.572000 1.000000 0.697440
0.706400 1.000000 0.728800
0.801600 1.000000 0.728800
0.896800 1.000000 0.728800
0.992000 1.000000 0.728800
1.000000 1.000000 0.728800
0.084966 0.093436 0.686559
0.201897 0.093436 0.686559
0.318827 0.093436 0.686559
0.435758 0.093436 0.686559
0.552688 0.093436 0.686559
0.669619 0.093436 0.686559
0.807285 0.119233 0.709806
0.946479 0.148088 0.736007
1.000000 0.180000 0.765200
0.084966 0.210367 0.686559
0.217075 0.225545 0.686559
0.330211 0.225545 0.686559
0.443347 0.225545 0.686559
0.556483 0.225545 0.686559
0.669619 0.225545 0.686559
0.807285 0.252106 0.713133
0.946479 0.281724 0.742044
1.000000 0.314400 0.773600
0.084966 0.327297 0.686559
0.217075 0.338681 0.686559
0.349184 0.357654 0.686559
0.455995 0.357654 0.686559
0.562807 0.357654 0.686559
0.669619 0.357654 0.686559
0.807285 0.384978 0.718123
0.946479 0.415360 0.750495
1.000000 0.448800 0.784800
0.084966 0.444228 0.686559
0.217075 0.451817 0.686559
0.349184 0.464465 0.686559
0.481292 0.489762 0.686559
0.575456 0.489762 0.686559
0.669619 0.489762 0.686559
0.807285 0.517851 0.726440
0.946479 0.548997 0.763173
1.000000 0.583200 0.800480
0.084966 0.561158 0.686559
0.217075 0.564953 0.686559
0.349184 0.571277 0.686559
0.481292 0.583926 0.686559
0.613401 0.621871 0.686559
0.669619 0.621871 0.686559
0.807285 0.650723 0.743074
0.946479 0.682633 0.784301
1.000000 0.717600 0.824000
0.084966 0.678089 0.686559
0.217075 0.678089 0.686559
0.349184 0.678089 0.686559
0.481292 0.678089 0.686559
0.613401 0.678089 0.686559
0.669619 0.678089 0.686559
0.807285 0.783596 0.792976
0.946479 0.816269 0.826559
1.000000 0.852000 0.863200
0.109853 0.816665 0.709806
0.242726 0.816665 0.713133
0.375598 0.816665 0.718123
0.508471 0.816665 0.726440
0.641343 0.816665 0.743074
0.774216 0.816665 0.792976
0.807285 0.816665 0.792976
0.946479 0.886519 0.826559
1.000000 0.934133 0.863200
0.137798 0.956769 0.736007
0.271434 0.956769 0.742044
0.405070 0.956769 0.750495
0.538707 0.956769 0.763173
0.672343 0.956769 0.784301
0.805979 0.956769 0.826559
0.876229 0.956769 0.826559
0.946479 0.956769 0.826559
1.000000 1.000000 0.863200
0.168800 1.000000 0.765200
0.303200 1.000000 0.773600
0.437600 1.000000 0.784800
0.572000 1.000000 0.800480
0.706400 1.000000 0.824000
0.840800 1.000000 0.863200
0.922933 1.000000 0.863200
1.000000 1.000000 0.863200
1.000000 1.000000 0.863200
0.109853 0.119233 0.826045
0.226092 0.119233 0.826045
0.342330 0.119233 0.826045
0.458569 0.119233 0.826045
0.574808 0.119233 0.826045
0.691046 0.119233 0.826045
0.807285 0.119233 0.826045
0.946479 0.148088 0.851533
1.000000 0.180000 0.880000
0.109853 0.235472 0.826045
0.242726 0.252106 0.826045
0.355638 0.252106 0.826045
0.468549 0.252106 0.826045
0.581461 0.252106 0.826045
0.694373 0.252106 0.826045
0.807285 0.252106 0.826045
0.946479 0.281724 0.854551
1.000000 0.314400 0.885600
0.109853 0.351710 0.826045
0.242726 0.365018 0.826045
0.375598 0.384978 0.826045
0.483520 0.384978 0.826045
0.591442 0.384978 0.826045
0.699363 0.384978 0.826045
0.807285 0.384978 0.826045
0.946479 0.415360 0.858777
1.000000 0.448800 0.893067
0.109853 0.467949 0.826045
0.242726 0.477929 0.826045
0.375598 0.492900 0.826045
0.508471 0.517851 0.826045
0.608075 0.517851 0.826045
0.707680 0.517851 0.826045
0.807285 0.517851 0.826045
0.946479 0.548997 0.865116
1.000000 0.583200 0.903520
0.109853 0.584188 0.826045
0.242726 0.590841 0.826045
0.375598 0.600822 0.826045
0.508471 0.617455 0.826045
0.641343 0.650723 0.826045
0.724314 0.650723 0.826045
0.807285 0.650723 0.826045
0.946479 0.682633 0.875680
1.000000 0.717600 0.919200
0.109853 0.700426 0.826045
0.242726 0.703753 0.826045
0.375598 0.708743 0.826045
0.508471 0.717060 0.826045
0.641343 0.733694 0.826045
0.774216 0.783596 0.826045
0.807285 0.783596 0.826045
0.946479 0.816269 0.896809
1.000000 0.852000 0.945333
0.109853 0.816665 0.826045
0.242726 0.816665 0.826045
0.375598 0.816665 0.826045
0.508471 0.816665 0.826045
0.641343 0.816665 0.826045
0.774216 0.816665 0.826045
0.807285 0.816665 0.826045
0.946479 0.946612 0.956903
1.000000 0.986400 0.997600
0.137798 0.956769 0.851533
0.271434 0.956769 0.854551
0.405070 0.956769 0.858777
0.538707 0.956769 0.865116
0.672343 0.956769 0.875680
0.805979 0.956769 0.896809
0.936323 0.956769 0.956903
0.946479 0.956769 0.956903
1.000000 1.000000 0.997600
0.168800 1.000000 0.880000
0.303200 1.000000 0.885600
0.437600 1.000000 0.893067
0.572000 1.000000 0.903520
0.706400 1.000000 0.919200
0.840800 1.000000 0.945333
0.975200 1.000000 0.997600
1.000000 1.000000 0.997600
1.000000 1.000000 0.997600
0.137798 0.148088 0.967059
0.253324 0.148088 0.967059
0.368849 0.148088 0.967059
0.484375 0.148088 0.967059
0.599901 0.148088 0.967059
0.715427 0.148088 0.967059
0.830953 0.148088 0.967059
0.946479 0.148088 0.967059
1.000000 0.180000 0.994800
0.137798 0.263614 0.967059
0.271434 0.281724 0.967059
0.383942 0.281724 0.967059
0.496449 0.281724 0.967059
0.608956 0.281724 0.967059
0.721464 0.281724 0.967059
0.833971 0.281724 0.967059
0.946479 0.281724 0.967059
1.000000 0.314400 0.997600
0.137798 0.379140 0.967059
0.271434 0.394231 0.967059
0.405070 0.415360 0.967059
0.513352 0.415360 0.967059
0.621634 0.415360 0.967059
0.729915 0.415360 0.967059
0.838197 0.415360 0.967059
0.946479 0.415360 0.967059
1.000000 0.448800 1.000000
0.137798 0.494665 0.967059
0.271434 0.506739 0.967059
0.405070 0.523642 0.967059
0.538707 0.548997 0.967059
0.640650 0.548997 0.967059
0.742593 0.548997 0.967059
0.844536 0.548997 0.967059
0.946479 0.548997 0.967059
1.000000 0.583200 1.000000
0.137798 0.610191 0.967059
0.271434 0.619246 0.967059
0.405070 0.631924 0.967059
0.538707 0.650940 0.967059
0.672343 0.682633 0.967059
0.763721 0.682633 0.967059
0.855100 0.682633 0.967059
0.946479 0.682633 0.967059
1.000000 0.717600 1.000000
0.137798 0.725717 0.967059
0.271434 0.731754 0.967059
0.405070 0.740205 0.967059
0.538707 0.752883 0.967059
0.672343 0.774011 0.967059
0.805979 0.816269 0.967059
0.876229 0.816269 0.967059
0.946479 0.816269 0.967059
1.000000 0.852000 1.000000
0.137798 0.841243 0.967059
0.271434 0.844261 0.967059
0.405070 0.848487 0.967059
0.538707 0.854826 0.967059
0.672343 0.865390 0.967059
0.805979 0.886519 0.967059
0.936323 0.946612 0.967059
0.946479 0.946612 0.967059
1.000000 0.986400 1.000000
0.137798 0.956769 0.967059
0.271434 0.956769 0.967059
0.405070 0.956769 0.967059
0.538707 0.956769 0.967059
0.672343 0.956769 0.967059
0.805979 0.956769 0.967059
0.936323 0.956769 0.967059
0.946479 0.956769 0.967059
1.000000 1.000000 1.000000
0.168800 1.000000 0.994800
0.303200 1.000000 0.997600
0.437600 1.000000 1.000000
0.572000 1.000000 1.000000
0.706400 1.000000 1.000000
0.840800 1.000000 1.000000
0.975200 1.000000 1.000000
1.000000 1.000000 1.000000
1.000000 1.000000 1.000000
0.168800 0.180000 1.000000
0.283600 0.180000 1.000000
0.398400 0.180000 1.000000
0.513200 0.180000 1.000000
0.628000 0.180000 1.000000
0.742800 0.180000 1.000000
0.857600 0.180000 1.000000
0.972400 0.180000 1.000000
1.000000 0.180000 1.000000
0.168800 0.294800 1.000000
0.303200 0.314400 1.000000
0.415200 0.314400 1.000000
0.527200 0.314400 1.000000
0.639200 0.314400 1.000000
0.751200 0.314400 1.000000
0.863200 0.314400 1.000000
0.975200 0.314400 1.000000
1.000000 0.314400 1.000000
0.168800 0.409600 1.000000
0.303200 0.426400 1.000000
0.437600 0.448800 1.000000
0.545867 0.448800 1.000000
0.654133 0.448800 1.000000
0.762400 0.448800 1.000000
0.870667 0.448800 1.000000
0.978933 0.448800 1.000000
1.000000 0.448800 1.000000
0.168800 0.524400 1.000000
0.303200 0.538400 1.000000
0.437600 0.557067 1.000000
0.572000 0.583200 1.000000
0.675040 0.583200 1.000000
0.778080 0.583200 1.000000
0.881120 0.583200 1.000000
0.984160 0.583200 1.000000
1.000000 0.583200 1.000000
0.168800 0.639200 1.000000
0.303200 0.650400 1.000000
0.437600 0.665333 1.000000
0.572000 0.686240 1.000000
0.706400 0.717600 1.000000
0.801600 0.717600 1.000000
0.896800 0.717600 1.000000
0.992000 0.717600 1.000000
1.000000 0.717600 1.000000
0.168800 0.754000 1.000000
0.303200 0.762400 1.000000
0.437600 0.773600 1.000000
0.572000 0.789280 1.000000
0.706400 0.812800 1.000000
0.840800 0.852000 1.000000
0.922933 0.852000 1.000000
1.000000 0.852000 1.000000
1.000000 0.852000 1.000000
0.168800 0.868800 1.000000
0.303200 0.874400 1.000000
0.437600 0.881867 1.000000
0.572000 0.892320 1.000000
0.706400 0.908000 1.000000
0.840800 0.934133 1.000000
0.975200 0.986400 1.000000
1.000000 0.986400 1.000000
1.000000 0.986400 1.000000
0.168800 0.983600 1.000000
0.303200 0.986400 1.000000
0.437600 0.990133 1.000000
0.572000 0.995360 1.000000
0.706400 1.000000 1.000000
0.840800 1.000000 1.000000
0.975200 1.000000 1.000000
1.000000 1.000000 1.000000
1.000000 1.000000 1.000000
0.168800 1.000000 1.000000
0.303200 1.000000 1.000000
0.437600 1.000000 1.000000
0.572000 1.000000 1.000000
0.706400 1.000000 1.000000
0.840800 1.000000 1.000000
0.975200 1.000000 1.000000
1.000000 1.000000 1.000000
1.000000 1.000000 1.000000
