luts/original/hazy-dream.cube
TITLE "Hazy Dream"
LUT_3D_SIZE 33
DOMAIN_MIN 0.0 0.0 0.0
DOMAIN_MAX 1.0 1.0 1.0
0.019194 0.009462 0.009462
0.051497 0.010410 0.010410
0.083792 0.011402 0.011402
0.116081 0.012437 0.012437
0.148363 0.013517 0.013517
0.180639 0.014640 0.014640
0.212908 0.015807 0.015807
0.245170 0.017017 0.017017
0.277425 0.018272 0.018272
0.309673 0.019570 0.019570
0.341915 0.020912 0.020912
0.374150 0.022298 0.022298
0.406378 0.023727 0.023727
0.438600 0.025200 0.025200
0.470814 0.026717 0.026717
0.503022 0.028278 0.028278
0.535224 0.029883 0.029883
0.567418 0.031531 0.031531
0.599606 0.033223 0.033223
0.631787 0.034959 0.034959
0.663961 0.036738 0.036738
0.696128 0.038562 0.038562
0.728289 0.040429 0.040429
0.760443 0.042339 0.042339
0.792590 0.044294 0.044294
0.824731 0.046292 0.046292
0.856865 0.048335 0.048335
0.888992 0.050421 0.050421
0.921112 0.052550 0.052550
0.953225 0.054724 0.054724
0.985332 0.056941 0.056941
0.999365 0.058479 0.058479
1.000000 0.059685 0.059685
0.020134 0.040242 0.009814
0.051290 0.040800 0.010195
0.083574 0.041810 0.011175
0.115852 0.042836 0.012199
0.148123 0.043895 0.013266
0.180387 0.044992 0.014377
0.212644 0.046130 0.015533
0.244895 0.047309 0.016731
0.277138 0.048531 0.017974
0.309376 0.049796 0.019260
0.341606 0.051103 0.020590
0.373830 0.052454 0.021964
0.406046 0.053849 0.023382
0.438257 0.055287 0.024843
0.470460 0.056768 0.026349
0.502657 0.058293 0.027898
0.534846 0.059862 0.029490
0.567030 0.061474 0.031127
0.599206 0.063130 0.032807
0.631376 0.064830 0.034531
0.663538 0.066573 0.036299
0.695695 0.068360 0.038110
0.727844 0.070191 0.039966
0.759987 0.072065 0.041865
0.792123 0.073983 0.043807
0.824252 0.075945 0.045794
0.856374 0.077951 0.047824
0.888490 0.080000 0.049898
0.920599 0.082093 0.052016
0.952701 0.084230 0.054178
0.984796 0.086410 0.056383
0.999365 0.087933 0.057932
1.000000 0.089102 0.059126
0.021686 0.071767 0.010614
0.052198 0.071702 0.010547
0.083356 0.072224 0.010948
0.115622 0.073240 0.011960
0.147882 0.074277 0.013016
0.180134 0.075347 0.014115
0.212380 0.076455 0.015258
0.244620 0.077603 0.016445
0.276852 0.078792 0.017676
0.309078 0.080024 0.018951
0.341297 0.081297 0.020269
0.373509 0.082614 0.021631
0.405715 0.083973 0.023037
0.437913 0.085376 0.024487
0.470105 0.086821 0.025980
0.502291 0.088311 0.027517
0.534469 0.089843 0.029098
0.566641 0.091420 0.030723
0.598806 0.093039 0.032391
0.630964 0.094703 0.034103
0.663116 0.096410 0.035859
0.695261 0.098160 0.037659
0.727399 0.099955 0.039502
0.759530 0.101792 0.041390
0.791655 0.103674 0.043321
0.823772 0.105599 0.045296
0.855883 0.107568 0.047314
0.887988 0.109581 0.049376
0.920085 0.111637 0.051482
0.952176 0.113737 0.053632
0.984260 0.115881 0.055826
0.999365 0.117389 0.057384
1.000000 0.118520 0.058568
0.023154 0.103269 0.011441
0.053694 0.103201 0.011370
0.084236 0.103133 0.011299
0.115392 0.103648 0.011721
0.147641 0.104663 0.012765
0.179882 0.105706 0.013853
0.212117 0.106784 0.014984
0.244345 0.107900 0.016159
0.276566 0.109057 0.017378
0.308780 0.110254 0.018641
0.340988 0.111493 0.019948
0.373189 0.112775 0.021298
0.405383 0.114099 0.022692
0.437570 0.115466 0.024130
0.469751 0.116876 0.025611
0.501925 0.118330 0.027137
0.534092 0.119827 0.028706
0.566253 0.121367 0.030319
0.598406 0.122950 0.031975
0.630553 0.124577 0.033676
0.662693 0.126248 0.035420
0.694827 0.127962 0.037208
0.726953 0.129720 0.039039
0.759073 0.131521 0.040915
0.791187 0.133366 0.042834
0.823293 0.135255 0.044797
0.855393 0.137187 0.046804
0.887486 0.139163 0.048854
0.919572 0.141183 0.050949
0.951651 0.143246 0.053087
0.983724 0.145353 0.055268
0.999365 0.146846 0.056837
1.000000 0.147940 0.058009
0.024621 0.134749 0.012295
0.055162 0.134677 0.012220
0.085703 0.134605 0.012146
0.116247 0.134534 0.012071
0.147400 0.135053 0.012514
0.179630 0.136068 0.013590
0.211853 0.137116 0.014710
0.244070 0.138200 0.015873
0.276279 0.139323 0.017081
0.308482 0.140487 0.018331
0.340679 0.141691 0.019626
0.372868 0.142938 0.020965
0.405051 0.144227 0.022347
0.437227 0.145559 0.023773
0.469397 0.146933 0.025243
0.501559 0.148351 0.026756
0.533715 0.149812 0.028314
0.565864 0.151315 0.029915
0.598006 0.152863 0.031559
0.630142 0.154454 0.033248
0.662271 0.156088 0.034980
0.694393 0.157765 0.036756
0.726508 0.159487 0.038576
0.758617 0.161252 0.040440
0.790719 0.163060 0.042347
0.822814 0.164912 0.044299
0.854902 0.166808 0.046294
0.886984 0.168747 0.048332
0.919059 0.170730 0.050415
0.951127 0.172756 0.052541
0.983188 0.174827 0.054711
0.999365 0.176304 0.056290
1.000000 0.177361 0.057450
0.026105 0.166206 0.013176
0.056634 0.166131 0.013098
0.087164 0.166056 0.013020
0.117695 0.165981 0.012942
0.148228 0.165906 0.012864
0.179377 0.166434 0.013328
0.211589 0.167451 0.014436
0.243795 0.168503 0.015587
0.275993 0.169593 0.016783
0.308185 0.170722 0.018022
0.340370 0.171892 0.019305
0.372548 0.173104 0.020631
0.404719 0.174357 0.022002
0.436884 0.175653 0.023416
0.469042 0.176992 0.024874
0.501193 0.178374 0.026376
0.533338 0.179798 0.027921
0.565476 0.181266 0.029511
0.597606 0.182777 0.031144
0.629731 0.184331 0.032820
0.661848 0.185929 0.034541
0.693959 0.187570 0.036305
0.726063 0.189255 0.038113
0.758160 0.190983 0.039965
0.790251 0.192755 0.041861
0.822334 0.194571 0.043800
0.854411 0.196429 0.045783
0.886482 0.198332 0.047810
0.918545 0.200278 0.049881
0.950602 0.202268 0.051995
0.982652 0.204302 0.054153
0.999365 0.205764 0.055742
1.000000 0.206784 0.056891
0.027609 0.197640 0.014084
0.058122 0.197561 0.014003
0.088635 0.197483 0.013921
0.119149 0.197405 0.013840
0.149664 0.197326 0.013758
0.180180 0.197248 0.013677
0.211326 0.197789 0.014162
0.243520 0.198808 0.015301
0.275707 0.199864 0.016485
0.307887 0.200959 0.017712
0.340061 0.202095 0.018983
0.372227 0.203271 0.020298
0.404388 0.204489 0.021657
0.436541 0.205750 0.023059
0.468688 0.207053 0.024505
0.500827 0.208398 0.025995
0.532961 0.209787 0.027529
0.565087 0.211218 0.029106
0.597207 0.212693 0.030728
0.629320 0.214211 0.032393
0.661426 0.215772 0.034101
0.693525 0.217377 0.035854
0.725618 0.219025 0.037650
0.757704 0.220717 0.039490
0.789783 0.222452 0.041374
0.821855 0.224231 0.043302
0.853921 0.226053 0.045273
0.885980 0.227919 0.047288
0.918032 0.229828 0.049347
0.950077 0.231781 0.051450
0.982116 0.233778 0.053596
0.999365 0.235225 0.055195
1.000000 0.236208 0.056332
0.029138 0.229051 0.015020
0.059630 0.228969 0.014935
0.090123 0.228888 0.014850
0.120617 0.228806 0.014765
0.151111 0.228724 0.014680
0.181607 0.228642 0.014595
0.212103 0.228561 0.014510
0.243245 0.229116 0.015015
0.275420 0.230139 0.016187
0.307589 0.231199 0.017403
0.339752 0.232300 0.018662
0.371907 0.233441 0.019965
0.404056 0.234624 0.021312
0.436198 0.235848 0.022702
0.468333 0.237115 0.024137
0.500462 0.238425 0.025615
0.532583 0.239777 0.027137
0.564699 0.241172 0.028702
0.596807 0.242611 0.030312
0.628908 0.244092 0.031965
0.661003 0.245617 0.033662
0.693091 0.247185 0.035403
0.725172 0.248797 0.037187
0.757247 0.250452 0.039015
0.789315 0.252150 0.040887
0.821376 0.253892 0.042803
0.853430 0.255678 0.044763
0.885478 0.257507 0.046766
0.917519 0.259379 0.048813
0.949553 0.261296 0.050904
0.981580 0.263256 0.053038
0.999365 0.264688 0.054647
1.000000 0.265634 0.055774
0.030692 0.260440 0.015983
0.061162 0.260355 0.015894
0.091632 0.260270 0.015805
0.122103 0.260185 0.015717
0.152575 0.260099 0.015628
0.183048 0.260014 0.015540
0.213522 0.259929 0.015451
0.243997 0.259844 0.015363
0.275134 0.260416 0.015889
0.307292 0.261442 0.017093
0.339442 0.262507 0.018341
0.371587 0.263613 0.019632
0.403724 0.264760 0.020967
0.435855 0.265949 0.022346
0.467979 0.267180 0.023768
0.500096 0.268453 0.025234
0.532206 0.269769 0.026745
0.564310 0.271128 0.028298
0.596407 0.272530 0.029896
0.628497 0.273975 0.031537
0.660581 0.275463 0.033223
0.692657 0.276995 0.034951
0.724727 0.278570 0.036724
0.756790 0.280188 0.038541
0.788847 0.281850 0.040401
0.820897 0.283555 0.042305
0.852939 0.285304 0.044252
0.884976 0.287096 0.046244
0.917005 0.288932 0.048279
0.949028 0.290812 0.050358
0.981044 0.292735 0.052481
0.999365 0.294152 0.054100
1.000000 0.295060 0.055215
0.032272 0.291806 0.016972
0.062718 0.291717 0.016880
0.093165 0.291629 0.016788
0.123612 0.291540 0.016696
0.154060 0.291452 0.016604
0.184509 0.291363 0.016512
0.214959 0.291275 0.016420
0.245409 0.291187 0.016328
0.275861 0.291098 0.016236
0.306994 0.291687 0.016783
0.339133 0.292717 0.018019
0.371266 0.293787 0.019299
0.403392 0.294898 0.020622
0.435512 0.296051 0.021989
0.467624 0.297246 0.023400
0.499730 0.298483 0.024854
0.531829 0.299763 0.026352
0.563922 0.301085 0.027894
0.596007 0.302451 0.029480
0.628086 0.303859 0.031110
0.660158 0.305311 0.032783
0.692223 0.306806 0.034500
0.724282 0.308344 0.036261
0.756334 0.309926 0.038066
0.788379 0.311551 0.039914
0.820417 0.313220 0.041806
0.852449 0.314932 0.043742
0.884474 0.316687 0.045722
0.916492 0.318486 0.047745
0.948503 0.320329 0.049812
0.980508 0.322215 0.051923
0.999365 0.323617 0.053553
1.000000 0.324489 0.054656
0.033878 0.323149 0.017989
0.064300 0.323057 0.017894
0.094722 0.322966 0.017798
0.125144 0.322874 0.017703
0.155568 0.322782 0.017607
0.185992 0.322690 0.017512
0.216417 0.322598 0.017416
0.246842 0.322506 0.017321
0.277268 0.322414 0.017225
0.307695 0.322323 0.017129
0.338824 0.322928 0.017698
0.370946 0.323963 0.018965
0.403061 0.325039 0.020277
0.435169 0.326155 0.021632
0.467270 0.327314 0.023031
0.499364 0.328515 0.024474
0.531452 0.329758 0.025960
0.563533 0.331044 0.027490
0.595607 0.332373 0.029064
0.627675 0.333745 0.030682
0.659735 0.335161 0.032344
0.691789 0.336619 0.034049
0.723837 0.338120 0.035798
0.755877 0.339665 0.037591
0.787911 0.341254 0.039427
0.819938 0.342885 0.041308
0.851958 0.344561 0.043232
0.883972 0.346279 0.045200
0.915978 0.348042 0.047211
0.947978 0.349847 0.049267
0.979972 0.351697 0.051366
0.999365 0.353084 0.053005
1.000000 0.353919 0.054097
0.035511 0.354470 0.019034
0.065907 0.354375 0.018935
0.096304 0.354280 0.018835
0.126701 0.354184 0.018736
0.157099 0.354089 0.018637
0.187497 0.353994 0.018538
0.217897 0.353899 0.018439
0.248297 0.353803 0.018340
0.278697 0.353708 0.018241
0.309099 0.353613 0.018142
0.339501 0.353518 0.018043
0.370625 0.354142 0.018632
0.402729 0.355181 0.019932
0.434825 0.356262 0.021275
0.466915 0.357384 0.022662
0.498998 0.358549 0.024093
0.531075 0.359756 0.025568
0.563145 0.361005 0.027086
0.595207 0.362298 0.028648
0.627263 0.363633 0.030254
0.659313 0.365012 0.031904
0.691356 0.366433 0.033598
0.723391 0.367898 0.035335
0.755421 0.369406 0.037116
0.787443 0.370958 0.038941
0.819459 0.372553 0.040809
0.851468 0.374191 0.042722
0.883470 0.375873 0.044678
0.915465 0.377599 0.046677
0.947454 0.379368 0.048721
0.979436 0.381180 0.050808
0.999365 0.382552 0.052458
1.000000 0.383350 0.053539
0.037170 0.385768 0.020105
0.067540 0.385669 0.020002
0.097911 0.385571 0.019900
0.128282 0.385472 0.019797
0.158654 0.385374 0.019695
0.189027 0.385275 0.019592
0.219400 0.385176 0.019490
0.249774 0.385078 0.019387
0.280149 0.384979 0.019284
0.310524 0.384880 0.019182
0.340900 0.384782 0.019079
0.371277 0.384683 0.018977
0.402397 0.385325 0.019587
0.434482 0.386370 0.020918
0.466561 0.387456 0.022294
0.498633 0.388584 0.023713
0.530698 0.389755 0.025176
0.562756 0.390968 0.026682
0.594808 0.392224 0.028233
0.626852 0.393523 0.029827
0.658890 0.394864 0.031465
0.690922 0.396249 0.033146
0.722946 0.397677 0.034872
0.754964 0.399149 0.036641
0.786975 0.400664 0.038454
0.818979 0.402222 0.040311
0.850977 0.403823 0.042211
0.882968 0.405468 0.044156
0.914952 0.407157 0.046144
0.946929 0.408889 0.048175
0.978900 0.410665 0.050251
0.999365 0.412022 0.051910
1.000000 0.412783 0.052980
0.038857 0.417043 0.021203
0.069200 0.416941 0.021097
0.099545 0.416839 0.020991
0.129890 0.416737 0.020885
0.160235 0.416635 0.020779
0.190582 0.416533 0.020673
0.220929 0.416431 0.020567
0.251276 0.416329 0.020461
0.281624 0.416227 0.020355
0.311973 0.416125 0.020249
0.342322 0.416023 0.020143
0.372672 0.415921 0.020037
0.403023 0.415819 0.019931
0.434139 0.416480 0.020561
0.466206 0.417530 0.021925
0.498267 0.418622 0.023332
0.530321 0.419756 0.024783
0.562367 0.420932 0.026278
0.594408 0.422152 0.027817
0.626441 0.423414 0.029399
0.658468 0.424719 0.031025
0.690488 0.426067 0.032695
0.722501 0.427458 0.034409
0.754507 0.428893 0.036166
0.786507 0.430371 0.037967
0.818500 0.431892 0.039812
0.850486 0.433457 0.041701
0.882466 0.435065 0.043633
0.914438 0.436717 0.045610
0.946404 0.438412 0.047630
0.978364 0.440151 0.049693
0.999365 0.441493 0.051363
1.000000 0.442217 0.052421
0.040570 0.448296 0.022329
0.070887 0.448190 0.022220
0.101205 0.448085 0.022110
0.131523 0.447980 0.022000
0.161842 0.447874 0.021891
0.192162 0.447769 0.021781
0.222482 0.447664 0.021672
0.252803 0.447558 0.021562
0.283124 0.447453 0.021453
0.313446 0.447348 0.021343
0.343769 0.447242 0.021233
0.374092 0.447137 0.021124
0.404416 0.447031 0.021014
0.434740 0.446926 0.020905
0.465852 0.447606 0.021556
0.497901 0.448661 0.022952
0.529943 0.449759 0.024391
0.561979 0.450898 0.025874
0.594008 0.452081 0.027401
0.626030 0.453306 0.028971
0.658045 0.454575 0.030586
0.690054 0.455886 0.032244
0.722056 0.457241 0.033946
0.754051 0.458638 0.035691
0.786039 0.460080 0.037481
0.818021 0.461564 0.039314
0.849996 0.463092 0.041191
0.881964 0.464663 0.043111
0.913925 0.466278 0.045076
0.945880 0.467936 0.047084
0.977828 0.469638 0.049136
0.999365 0.470965 0.050816
1.000000 0.471652 0.051863
0.042310 0.479526 0.023482
0.072600 0.479417 0.023369
0.102891 0.479308 0.023256
0.133182 0.479199 0.023143
0.163475 0.479091 0.023030
0.193767 0.478982 0.022917
0.224061 0.478873 0.022804
0.254354 0.478765 0.022690
0.284649 0.478656 0.022577
0.314944 0.478547 0.022464
0.345239 0.478438 0.022351
0.375536 0.478330 0.022238
0.405832 0.478221 0.022125
0.436130 0.478112 0.022012
0.466428 0.478003 0.021899
0.497535 0.478702 0.022571
0.529566 0.479763 0.023999
0.561590 0.480866 0.025470
0.593608 0.482012 0.026985
0.625619 0.483201 0.028544
0.657623 0.484432 0.030146
0.689620 0.485707 0.031793
0.721610 0.487025 0.033483
0.753594 0.488386 0.035216
0.785571 0.489790 0.036994
0.817541 0.491237 0.038815
0.849505 0.492728 0.040680
0.881462 0.494263 0.042589
0.913412 0.495841 0.044542
0.945355 0.497462 0.046538
0.977292 0.499127 0.048578
0.999365 0.500439 0.050268
1.000000 0.501089 0.051304
0.044076 0.510733 0.024662
0.074340 0.510621 0.024546
0.104604 0.510509 0.024429
0.134868 0.510397 0.024312
0.165133 0.510284 0.024196
0.195399 0.510172 0.024079
0.225665 0.510060 0.023963
0.255932 0.509948 0.023846
0.286199 0.509836 0.023729
0.316467 0.509724 0.023613
0.346735 0.509612 0.023496
0.377004 0.509500 0.023380
0.407274 0.509387 0.023263
0.437544 0.509275 0.023146
0.467815 0.509163 0.023030
0.498086 0.509051 0.022913
0.529189 0.509769 0.023607
0.561202 0.510836 0.025066
0.593208 0.511945 0.026569
0.625207 0.513097 0.028116
0.657200 0.514291 0.029707
0.689186 0.515529 0.031341
0.721165 0.516810 0.033020
0.753138 0.518134 0.034742
0.785103 0.519502 0.036507
0.817062 0.520912 0.038317
0.849014 0.522366 0.040170
0.880960 0.523864 0.042067
0.912898 0.525405 0.044008
0.944830 0.526989 0.045993
0.976755 0.528617 0.048021
0.999365 0.529914 0.049721
1.000000 0.530528 0.050745
0.045870 0.541917 0.025869
0.076107 0.541802 0.025749
0.106343 0.541686 0.025629
0.136581 0.541571 0.025509
0.166818 0.541455 0.025389
0.197057 0.541340 0.025269
0.227296 0.541224 0.025149
0.257535 0.541109 0.025029
0.287775 0.540993 0.024909
0.318016 0.540878 0.024788
0.348257 0.540762 0.024668
0.378498 0.540647 0.024548
0.408740 0.540532 0.024428
0.438983 0.540416 0.024308
0.469226 0.540301 0.024188
0.499470 0.540185 0.024068
0.529715 0.540070 0.023948
0.560813 0.540807 0.024662
0.592808 0.541879 0.026153
0.624796 0.542994 0.027689
0.656778 0.544152 0.029267
0.688752 0.545353 0.030890
0.720720 0.546597 0.032557
0.752681 0.547884 0.034267
0.784635 0.549215 0.036021
0.816583 0.550588 0.037818
0.848524 0.552006 0.039660
0.880458 0.553466 0.041545
0.912385 0.554970 0.043474
0.944306 0.556518 0.045447
0.976219 0.558109 0.047463
0.999365 0.559391 0.049173
1.000000 0.559968 0.050186
0.047691 0.573079 0.027104
0.077900 0.572960 0.026980
0.108110 0.572841 0.026857
0.138319 0.572723 0.026733
0.168530 0.572604 0.026609
0.198741 0.572485 0.026486
0.228952 0.572366 0.026362
0.259164 0.572247 0.026239
0.289377 0.572128 0.026115
0.319590 0.572009 0.025991
0.349804 0.571891 0.025868
0.380018 0.571772 0.025744
0.410232 0.571653 0.025620
0.440448 0.571534 0.025497
0.470663 0.571415 0.025373
0.500880 0.571296 0.025250
0.531096 0.571177 0.025126
0.561314 0.571059 0.025002
0.592408 0.571815 0.025738
0.624385 0.572894 0.027261
0.656355 0.574015 0.028828
0.688318 0.575179 0.030439
0.720275 0.576386 0.032093
0.752224 0.577636 0.033792
0.784167 0.578929 0.035534
0.816104 0.580266 0.037320
0.848033 0.581646 0.039150
0.879956 0.583070 0.041023
0.911872 0.584537 0.042940
0.943781 0.586047 0.044901
0.975683 0.587601 0.046906
0.999365 0.588869 0.048626
1.000000 0.589409 0.049628
0.049539 0.604218 0.028365
0.079721 0.604096 0.028238
0.109903 0.603974 0.028111
0.140085 0.603851 0.027984
0.170268 0.603729 0.027857
0.200452 0.603607 0.027730
0.230636 0.603485 0.027603
0.260820 0.603363 0.027476
0.291005 0.603240 0.027348
0.321191 0.603118 0.027221
0.351377 0.602996 0.027094
0.381563 0.602874 0.026967
0.411750 0.602751 0.026840
0.441938 0.602629 0.026713
0.472126 0.602507 0.026586
0.502315 0.602385 0.026459
0.532504 0.602262 0.026331
0.562693 0.602140 0.026204
0.592884 0.602018 0.026077
0.623974 0.602795 0.026833
0.655932 0.603879 0.028389
0.687884 0.605006 0.029988
0.719829 0.606176 0.031630
0.751768 0.607389 0.033317
0.783699 0.608646 0.035047
0.815624 0.609945 0.036821
0.847542 0.611289 0.038639
0.879454 0.612675 0.040501
0.911358 0.614105 0.042406
0.943256 0.615579 0.044356
0.975147 0.617096 0.046349
0.999365 0.618348 0.048079
1.000000 0.618851 0.049069
0.051414 0.635335 0.029654
0.081568 0.635209 0.029524
0.111723 0.635083 0.029393
0.141878 0.634958 0.029262
0.172033 0.634832 0.029132
0.202189 0.634707 0.029001
0.232345 0.634581 0.028870
0.262502 0.634455 0.028740
0.292659 0.634330 0.028609
0.322817 0.634204 0.028479
0.352976 0.634079 0.028348
0.383135 0.633953 0.028217
0.413294 0.633827 0.028087
0.443454 0.633702 0.027956
0.473614 0.633576 0.027825
0.503775 0.633450 0.027695
0.533937 0.633325 0.027564
0.564099 0.633199 0.027433
0.594261 0.633074 0.027303
0.624424 0.632948 0.027172
0.655510 0.633744 0.027949
0.687450 0.634834 0.029536
0.719384 0.635967 0.031167
0.751311 0.637144 0.032842
0.783231 0.638363 0.034561
0.815145 0.639626 0.036323
0.847052 0.640932 0.038129
0.878952 0.642282 0.039979
0.910845 0.643675 0.041873
0.942731 0.645111 0.043810
0.974611 0.646591 0.045791
0.999365 0.647829 0.047531
1.000000 0.648295 0.048510
0.053317 0.666428 0.030970
0.083443 0.666299 0.030836
0.113570 0.666170 0.030702
0.143697 0.666041 0.030568
0.173824 0.665912 0.030434
0.203953 0.665783 0.030299
0.234081 0.665654 0.030165
0.264211 0.665525 0.030031
0.294340 0.665396 0.029897
0.324470 0.665267 0.029763
0.354601 0.665138 0.029629
0.384732 0.665009 0.029495
0.414864 0.664880 0.029360
0.444996 0.664751 0.029226
0.475129 0.664622 0.029092
0.505262 0.664494 0.028958
0.535396 0.664365 0.028824
0.565530 0.664236 0.028690
0.595664 0.664107 0.028556
0.625799 0.663978 0.028421
0.655935 0.663849 0.028287
0.687016 0.664665 0.029085
0.718939 0.665761 0.030704
0.750855 0.666900 0.032367
0.782763 0.668083 0.034074
0.814666 0.669308 0.035825
0.846561 0.670578 0.037619
0.878450 0.671890 0.039457
0.910332 0.673246 0.041339
0.942207 0.674646 0.043264
0.974075 0.676088 0.045234
0.999365 0.677311 0.046984
1.000000 0.677741 0.047951
0.055246 0.697499 0.032313
0.085344 0.697367 0.032176
0.115443 0.697235 0.032038
0.145543 0.697102 0.031900
0.175643 0.696970 0.031763
0.205743 0.696837 0.031625
0.235844 0.696705 0.031487
0.265946 0.696573 0.031350
0.296048 0.696440 0.031212
0.326150 0.696308 0.031074
0.356253 0.696176 0.030937
0.386356 0.696043 0.030799
0.416460 0.695911 0.030661
0.446564 0.695779 0.030524
0.476669 0.695646 0.030386
0.506775 0.695514 0.030249
0.536880 0.695382 0.030111
0.566987 0.695249 0.029973
0.597093 0.695117 0.029836
0.627200 0.694984 0.029698
0.657308 0.694852 0.029560
0.687416 0.694720 0.029423
0.718494 0.695556 0.030241
0.750398 0.696658 0.031892
0.782296 0.697803 0.033587
0.814186 0.698992 0.035326
0.846070 0.700224 0.037109
0.877948 0.701500 0.038935
0.909818 0.702819 0.040805
0.941682 0.704181 0.042719
0.973539 0.705587 0.044676
0.999365 0.706794 0.046436
1.000000 0.707188 0.047392
0.057202 0.728548 0.033684
0.087273 0.728412 0.033542
0.117344 0.728276 0.033401
0.147416 0.728140 0.033260
0.177488 0.728005 0.033119
0.207561 0.727869 0.032978
0.237634 0.727733 0.032837
0.267708 0.727597 0.032695
0.297782 0.727462 0.032554
0.327856 0.727326 0.032413
0.357931 0.727190 0.032272
0.388007 0.727054 0.032131
0.418083 0.726919 0.031990
0.448159 0.726783 0.031848
0.478236 0.726647 0.031707
0.508313 0.726512 0.031566
0.538391 0.726376 0.031425
0.568470 0.726240 0.031284
0.598548 0.726104 0.031143
0.628628 0.725969 0.031002
0.658707 0.725833 0.030860
0.688788 0.725697 0.030719
0.718868 0.725561 0.030578
0.749941 0.726417 0.031418
0.781828 0.727525 0.033101
0.813707 0.728677 0.034828
0.845580 0.729872 0.036598
0.877446 0.731111 0.038413
0.909305 0.732393 0.040271
0.941157 0.733718 0.042173
0.973003 0.735087 0.044119
0.999365 0.736279 0.045889
1.000000 0.736636 0.046834
0.059186 0.759573 0.035081
0.089229 0.759434 0.034936
0.119272 0.759295 0.034792
0.149316 0.759156 0.034647
0.179360 0.759017 0.034502
0.209405 0.758878 0.034358
0.239450 0.758738 0.034213
0.269496 0.758599 0.034068
0.299542 0.758460 0.033924
0.329589 0.758321 0.033779
0.359636 0.758182 0.033634
0.389684 0.758043 0.033490
0.419732 0.757904 0.033345
0.449780 0.757765 0.033200
0.479829 0.757626 0.033056
0.509879 0.757487 0.032911
0.539929 0.757347 0.032766
0.569979 0.757208 0.032622
0.600030 0.757069 0.032477
0.630081 0.756930 0.032332
0.660133 0.756791 0.032188
0.690185 0.756652 0.032043
0.720238 0.756513 0.031898
0.750291 0.756374 0.031754
0.781360 0.757249 0.032614
0.813228 0.758364 0.034329
0.845089 0.759522 0.036088
0.876944 0.760723 0.037891
0.908792 0.761968 0.039737
0.940633 0.763256 0.041627
0.972467 0.764588 0.043561
0.999365 0.765765 0.045342
1.000000 0.766086 0.046275
0.061196 0.790576 0.036506
0.091211 0.790433 0.036357
0.121227 0.790291 0.036209
0.151243 0.790149 0.036061
0.181259 0.790006 0.035913
0.211276 0.789864 0.035765
0.241294 0.789721 0.035617
0.271311 0.789579 0.035468
0.301330 0.789436 0.035320
0.331348 0.789294 0.035172
0.361368 0.789151 0.035024
0.391387 0.789009 0.034876
0.421407 0.788866 0.034728
0.451428 0.788724 0.034579
0.481449 0.788581 0.034431
0.511470 0.788439 0.034283
0.541492 0.788296 0.034135
0.571515 0.788154 0.033987
0.601538 0.788011 0.033838
0.631561 0.787869 0.033690
0.661585 0.787726 0.033542
0.691609 0.787584 0.033394
0.721633 0.787441 0.033246
0.751659 0.787299 0.033098
0.781684 0.787157 0.032949
0.812748 0.788052 0.033831
0.844598 0.789173 0.035578
0.876442 0.790337 0.037368
0.908278 0.791545 0.039203
0.940108 0.792796 0.041081
0.971931 0.794091 0.043004
0.999365 0.795253 0.044794
1.000000 0.795537 0.045716
0.063234 0.821556 0.037957
0.093221 0.821410 0.037806
0.123209 0.821264 0.037654
0.153197 0.821119 0.037502
0.183185 0.820973 0.037351
0.213174 0.820827 0.037199
0.243164 0.820681 0.037047
0.273154 0.820535 0.036896
0.303144 0.820389 0.036744
0.333135 0.820243 0.036592
0.363126 0.820098 0.036441
0.393118 0.819952 0.036289
0.423110 0.819806 0.036137
0.453102 0.819660 0.035986
0.483095 0.819514 0.035834
0.513089 0.819368 0.035682
0.543083 0.819223 0.035530
0.573077 0.819077 0.035379
0.603072 0.818931 0.035227
0.633067 0.818785 0.035075
0.663063 0.818639 0.034924
0.693059 0.818493 0.034772
0.723055 0.818347 0.034620
0.753052 0.818202 0.034469
0.783050 0.818056 0.034317
0.813048 0.817910 0.034165
0.844108 0.818825 0.035067
