luts/original/hazy-dream.cube
TITLE "Hazy Dream"
LUT_3D_SIZE 9
DOMAIN_MIN 0.0 0.0 0.0
DOMAIN_MAX 1.0 1.0 1.0
0.019194 0.009462 0.009462
0.148363 0.013517 0.013517
0.277425 0.018272 0.018272
0.406378 0.023727 0.023727
0.535224 0.029883 0.029883
0.663961 0.036738 0.036738
0.792590 0.044294 0.044294
0.921112 0.052550 0.052550
1.000000 0.059685 0.059685
0.024621 0.134749 0.012295
0.147400 0.135053 0.012514
0.276279 0.139323 0.017081
0.405051 0.144227 0.022347
0.533715 0.149812 0.028314
0.662271 0.156088 0.034980
0.790719 0.163060 0.042347
0.919059 0.170730 0.050415
1.000000 0.177361 0.057450
0.030692 0.260440 0.015983
0.152575 0.260099 0.015628
0.275134 0.260416 0.015889
0.403724 0.264760 0.020967
0.532206 0.269769 0.026745
0.660581 0.275463 0.033223
0.788847 0.281850 0.040401
0.917005 0.288932 0.048279
1.000000 0.295060 0.055215
0.037170 0.385768 0.020105
0.158654 0.385374 0.019695
0.280149 0.384979 0.019284
0.402397 0.385325 0.019587
0.530698 0.389755 0.025176
0.658890 0.394864 0.031465
0.786975 0.400664 0.038454
0.914952 0.407157 0.046144
1.000000 0.412783 0.052980
0.044076 0.510733 0.024662
0.165133 0.510284 0.024196
0.286199 0.509836 0.023729
0.407274 0.509387 0.023263
0.529189 0.509769 0.023607
0.657200 0.514291 0.029707
0.785103 0.519502 0.036507
0.912898 0.525405 0.044008
1.000000 0.530528 0.050745
0.051414 0.635335 0.029654
0.172033 0.634832 0.029132
0.292659 0.634330 0.028609
0.413294 0.633827 0.028087
0.533937 0.633325 0.027564
0.655510 0.633744 0.027949
0.783231 0.638363 0.034561
0.910845 0.643675 0.041873
1.000000 0.648295 0.048510
0.059186 0.759573 0.035081
0.179360 0.759017 0.034502
0.299542 0.758460 0.033924
0.419732 0.757904 0.033345
0.539929 0.757347 0.032766
0.660133 0.756791 0.032188
0.781360 0.757249 0.032614
0.908792 0.761968 0.039737
1.000000 0.766086 0.046275
0.067391 0.883448 0.040943
0.187119 0.882838 0.040308
0.306853 0.882228 0.039673
0.426594 0.881617 0.039038
0.546343 0.881007 0.038403
0.666098 0.880396 0.037769
0.785861 0.879786 0.037134
0.906738 0.880284 0.037601
1.000000 0.883898 0.044040
0.075752 1.000000 0.046961
0.195057 1.000000 0.046296
0.314368 1.000000 0.045632
0.433687 1.000000 0.044967
0.553011 1.000000 0.044303
0.672343 1.000000 0.043639
0.791681 1.000000 0.042974
0.911026 1.000000 0.042310
1.000000 1.000000 0.041805
0.024988 0.012703 0.122701
0.148290 0.013440 0.123610
0.277337 0.018180 0.125696
0.406276 0.023621 0.128426
0.535108 0.029762 0.131841
0.663831 0.036603 0.135948
0.792447 0.044145 0.140753
0.920954 0.052386 0.146255
1.000000 0.059514 0.150638
0.025155 0.134675 0.122540
0.147326 0.135913 0.124500
0.276191 0.140988 0.126614
0.404949 0.146263 0.129429
0.533599 0.152169 0.132943
0.662141 0.158753 0.137158
0.790575 0.166027 0.142073
0.918901 0.173995 0.147688
1.000000 0.180927 0.152279
0.031266 0.260352 0.123880
0.153773 0.260012 0.125162
0.275046 0.260665 0.125423
0.403622 0.265835 0.128048
0.532091 0.271356 0.131374
0.660451 0.277462 0.135400
0.788703 0.284216 0.140126
0.916848 0.291642 0.145553
1.000000 0.298077 0.150044
0.037812 0.385666 0.125428
0.160405 0.385272 0.126776
0.280846 0.384877 0.126366
0.402295 0.385450 0.126668
0.530582 0.390578 0.129805
0.658761 0.396201 0.133642
0.786831 0.402432 0.138180
0.914794 0.409314 0.143417
1.000000 0.415255 0.147809
0.044792 0.510617 0.127366
0.167265 0.510169 0.128825
0.287515 0.509720 0.128359
0.407775 0.509272 0.127893
0.529073 0.509835 0.128236
0.657070 0.514971 0.131885
0.784960 0.520676 0.136233
0.912741 0.527011 0.141282
1.000000 0.532461 0.145574
0.052207 0.635205 0.129722
0.174500 0.634702 0.131309
0.294434 0.634200 0.130787
0.414377 0.633698 0.130264
0.534330 0.633195 0.129742
0.655380 0.633771 0.130127
0.783088 0.638947 0.134286
0.910687 0.644734 0.139146
1.000000 0.649695 0.143339
0.060057 0.759429 0.132504
0.182144 0.758873 0.134228
0.301709 0.758317 0.133649
0.421283 0.757760 0.133071
0.540865 0.757204 0.132492
0.660455 0.756647 0.131913
0.781216 0.757246 0.132340
0.908634 0.762482 0.137011
1.000000 0.766957 0.141104
0.068341 0.883291 0.135717
0.190209 0.882680 0.137581
0.309378 0.882070 0.136947
0.428554 0.881460 0.136312
0.547738 0.880849 0.135677
0.666930 0.880239 0.135042
0.786130 0.879628 0.134407
0.906581 0.880256 0.134875
1.000000 0.884245 0.138869
0.076789 1.000000 0.139090
0.198455 1.000000 0.141125
0.317234 1.000000 0.140460
0.436021 1.000000 0.139796
0.554817 1.000000 0.139132
0.673621 1.000000 0.138467
0.792433 1.000000 0.137803
0.911253 1.000000 0.137138
1.000000 1.000000 0.136634
0.032230 0.017538 0.247152
0.154038 0.017184 0.246812
0.277221 0.018060 0.247803
0.406142 0.023482 0.250155
0.534956 0.029604 0.253170
0.663661 0.036426 0.256869
0.792258 0.043948 0.261260
0.920747 0.052171 0.266346
1.000000 0.059288 0.270315
0.031722 0.138864 0.246007
0.154804 0.140993 0.245666
0.276076 0.141869 0.247713
0.404815 0.147102 0.250863
0.533447 0.153035 0.254304
0.661970 0.159668 0.258327
0.790386 0.167002 0.262998
0.918694 0.175035 0.268343
1.000000 0.182053 0.272624
0.031146 0.260236 0.245616
0.155792 0.259896 0.246264
0.274930 0.262617 0.250303
0.403488 0.269093 0.252909
0.531938 0.275036 0.256216
0.660280 0.281509 0.260223
0.788514 0.288626 0.264930
0.916640 0.296418 0.270337
1.000000 0.303250 0.274818
0.037672 0.385532 0.246910
0.162262 0.385138 0.248886
0.283253 0.384743 0.251227
0.402161 0.385969 0.251529
0.530430 0.392538 0.254647
0.658590 0.398937 0.258465
0.786642 0.405748 0.262983
0.914587 0.413130 0.268202
1.000000 0.419504 0.272583
0.044633 0.510465 0.248507
0.169167 0.510016 0.251048
0.290726 0.509568 0.253201
0.409074 0.509119 0.252734
0.528921 0.510089 0.253078
0.656900 0.516404 0.256707
0.784771 0.522904 0.261036
0.912534 0.529871 0.266066
1.000000 0.535796 0.270348
0.052029 0.635034 0.250489
0.176507 0.634532 0.253464
0.298130 0.634029 0.255609
0.416670 0.633527 0.255087
0.535222 0.633025 0.254564
0.655210 0.633909 0.254949
0.782899 0.640092 0.259090
0.910480 0.646642 0.263931
1.000000 0.652125 0.268113
0.059860 0.759241 0.252882
0.184281 0.758684 0.256249
0.305822 0.758128 0.258453
0.424248 0.757571 0.257874
0.542686 0.757015 0.257295
0.661133 0.756458 0.256717
0.781027 0.757315 0.257143
0.908427 0.763443 0.261795
1.000000 0.768492 0.265878
0.068126 0.883084 0.255698
0.192491 0.882473 0.259436
0.313885 0.881863 0.261731
0.432068 0.881252 0.261096
0.550261 0.880642 0.260461
0.668462 0.880032 0.259827
0.786673 0.879421 0.259192
0.906373 0.880274 0.259659
1.000000 0.884896 0.263643
0.076563 1.000000 0.258675
0.200899 1.000000 0.262801
0.322137 1.000000 0.265235
0.440027 1.000000 0.264570
0.557929 1.000000 0.263906
0.675841 1.000000 0.263242
0.793764 1.000000 0.262577
0.911698 1.000000 0.261913
1.000000 1.000000 0.261408
0.040198 0.023148 0.371567
0.161618 0.022738 0.371172
0.283049 0.022328 0.370778
0.406008 0.023343 0.371887
0.534803 0.029445 0.374501
0.663490 0.036248 0.377792
0.792069 0.043752 0.381769
0.920540 0.051955 0.386440
1.000000 0.059062 0.389994
0.039581 0.144140 0.370240
0.162984 0.146358 0.369845
0.282642 0.145948 0.369451
0.404681 0.146962 0.371219
0.533295 0.152876 0.374570
0.661800 0.159491 0.378344
0.790197 0.166805 0.382701
0.918486 0.174820 0.387697
1.000000 0.181827 0.391573
0.038201 0.264338 0.368913
0.162790 0.265654 0.368518
0.284654 0.269568 0.368124
0.403354 0.270582 0.371616
0.531786 0.276307 0.376046
0.660110 0.282733 0.380281
0.788325 0.289858 0.384955
0.916433 0.297684 0.390217
1.000000 0.304592 0.394425
0.037533 0.385398 0.368396
0.162123 0.385004 0.368460
0.286712 0.384609 0.369731
0.402027 0.389208 0.376390
0.530277 0.397353 0.379488
0.658419 0.404016 0.383287
0.786453 0.411078 0.387787
0.914380 0.418742 0.392986
1.000000 0.425490 0.397357
0.044475 0.510313 0.369651
0.169009 0.509864 0.370857
0.293542 0.509416 0.373942
0.412711 0.508967 0.377576
0.528769 0.510895 0.377919
0.656729 0.519129 0.381530
0.784582 0.526519 0.385840
0.912326 0.534099 0.390851
1.000000 0.540508 0.395122
0.051852 0.634864 0.371259
0.176329 0.634361 0.373160
0.300807 0.633859 0.376803
0.421161 0.633356 0.379909
0.537063 0.632854 0.379387
0.655039 0.634297 0.379772
0.782710 0.642004 0.383893
0.910273 0.649494 0.388715
1.000000 0.655580 0.392887
0.059664 0.759052 0.373263
0.184085 0.758495 0.375703
0.308506 0.757939 0.379738
0.429162 0.757382 0.382678
0.545747 0.756826 0.382099
0.662347 0.756269 0.381520
0.780838 0.757531 0.381947
0.908219 0.764925 0.386579
1.000000 0.770704 0.390652
0.067910 0.882876 0.375680
0.192275 0.882266 0.378588
0.316640 0.881656 0.382974
0.437338 0.881045 0.385881
0.554071 0.880435 0.385246
0.670815 0.879824 0.384611
0.787570 0.879214 0.383976
0.906166 0.880393 0.384444
1.000000 0.885881 0.388417
0.076338 1.000000 0.378263
0.200673 1.000000 0.381619
0.325009 1.000000 0.386373
0.445656 1.000000 0.389345
0.562319 1.000000 0.388680
0.678997 1.000000 0.388016
0.795691 1.000000 0.387352
0.912400 1.000000 0.386687
1.000000 1.000000 0.386182
0.048931 0.029533 0.495945
0.169923 0.029066 0.495496
0.290925 0.028600 0.495048
0.411937 0.028133 0.494599
0.534651 0.029287 0.495836
0.663319 0.036071 0.498717
0.791880 0.043555 0.502281
0.920333 0.051740 0.506535
1.000000 0.058837 0.509676
0.048214 0.150097 0.494436
0.171594 0.152497 0.493988
0.291332 0.152031 0.493539
0.411082 0.151564 0.493091
0.533142 0.152718 0.494839
0.661629 0.159313 0.498365
0.790008 0.166608 0.502407
0.918279 0.174604 0.507053
1.000000 0.181602 0.510525
0.046645 0.269786 0.492927
0.171178 0.271948 0.492479
0.293914 0.275462 0.492031
0.410971 0.274995 0.491582
0.531634 0.276149 0.494298
0.659939 0.282555 0.498839
0.788136 0.289662 0.503474
0.916226 0.297469 0.508552
1.000000 0.304367 0.512404
0.045076 0.389510 0.491419
0.169609 0.390183 0.490970
0.294143 0.392332 0.490522
0.414539 0.398426 0.490074
0.530125 0.399580 0.495317
0.658249 0.405797 0.501244
0.786265 0.412715 0.506356
0.914172 0.420333 0.511726
1.000000 0.427132 0.515931
0.044317 0.510160 0.490798
0.168850 0.509712 0.490669
0.293384 0.509263 0.490905
0.417917 0.508815 0.492939
0.528616 0.515689 0.502761
0.656559 0.525769 0.506352
0.784393 0.533204 0.510643
0.912119 0.540877 0.515635
1.000000 0.547589 0.519897
0.051674 0.634693 0.492032
0.176152 0.634191 0.492859
0.300629 0.633688 0.494651
0.425107 0.633186 0.499049
0.542147 0.632683 0.504209
0.654868 0.635440 0.504594
0.782521 0.645609 0.508697
0.910066 0.654104 0.513499
1.000000 0.660792 0.517662
0.059467 0.758863 0.493646
0.183888 0.758306 0.495161
0.308310 0.757750 0.497778
0.432731 0.757193 0.502693
0.551712 0.756637 0.506902
0.664813 0.756081 0.506324
0.780649 0.758074 0.506750
0.908012 0.767378 0.511364
1.000000 0.774076 0.515427
0.067695 0.882669 0.495666
0.192060 0.882059 0.497743
0.316425 0.881448 0.500949
0.440790 0.880838 0.506186
0.560360 0.880227 0.510030
0.674747 0.879617 0.509395
0.789150 0.879007 0.508761
0.905959 0.880699 0.509228
1.000000 0.887440 0.513192
0.076112 1.000000 0.497853
0.200448 1.000000 0.500440
0.324783 1.000000 0.504157
0.449119 1.000000 0.509719
0.568897 1.000000 0.513455
0.683754 1.000000 0.512790
0.798635 1.000000 0.512126
0.913541 1.000000 0.511462
1.000000 1.000000 0.510957
0.058435 0.036691 0.620286
0.178985 0.036169 0.619784
0.299544 0.035646 0.619281
0.420112 0.035124 0.618779
0.540687 0.034601 0.618276
0.663149 0.035894 0.619645
0.791691 0.043359 0.622796
0.920125 0.051524 0.626633
1.000000 0.058611 0.629360
0.057621 0.156797 0.618596
0.180909 0.159411 0.618093
0.300438 0.158888 0.617591
0.419978 0.158366 0.617088
0.539529 0.157843 0.616586
0.661459 0.159136 0.618389
0.789819 0.166412 0.622115
0.918072 0.174388 0.626412
1.000000 0.181376 0.629481
0.055863 0.275940 0.616906
0.180340 0.278645 0.616403
0.303206 0.282130 0.615901
0.420974 0.281608 0.615398
0.538757 0.281085 0.614896
0.659768 0.282378 0.617400
0.787947 0.289465 0.621997
0.916018 0.297253 0.626889
1.000000 0.304141 0.630387
0.054105 0.395112 0.615215
0.178583 0.396648 0.614713
0.303060 0.399801 0.614210
0.425021 0.404850 0.613708
0.539027 0.404328 0.613206
0.658078 0.405620 0.617038
0.786076 0.412519 0.622962
0.913965 0.420117 0.628560
1.000000 0.426906 0.632553
0.052347 0.514314 0.613525
0.176825 0.514689 0.613023
0.301302 0.515759 0.612520
0.425780 0.518899 0.612018
0.544457 0.527570 0.611515
0.656388 0.528862 0.618818
0.784204 0.535572 0.626458
0.911912 0.542982 0.632530
1.000000 0.549671 0.636921
0.051497 0.634522 0.612807
0.175974 0.634020 0.612562
0.300452 0.633518 0.612504
0.424929 0.633015 0.612949
0.549407 0.632513 0.615890
0.654698 0.642057 0.629417
0.782332 0.654341 0.633500
0.909858 0.662600 0.638284
1.000000 0.669418 0.642436
0.059271 0.758674 0.614032
0.183692 0.758117 0.614622
0.308113 0.757561 0.615821
0.432535 0.757004 0.618293
0.556956 0.756448 0.624206
0.671560 0.755892 0.631127
0.780460 0.759607 0.631554
0.907805 0.771977 0.636148
1.000000 0.779693 0.640201
0.067479 0.882462 0.615653
0.191844 0.881851 0.616901
0.316209 0.881241 0.618928
0.440574 0.880630 0.622359
0.564940 0.880020 0.628718
0.682376 0.879410 0.634180
0.792324 0.878799 0.633545
0.905751 0.881420 0.634013
1.000000 0.890108 0.637966
0.075887 1.000000 0.617445
0.200222 1.000000 0.619264
0.324558 1.000000 0.621946
0.448893 1.000000 0.626036
0.573229 1.000000 0.632659
0.691601 1.000000 0.637565
0.803543 1.000000 0.636900
0.915525 1.000000 0.636236
1.000000 1.000000 0.635731
0.068711 0.044624 0.744591
0.188813 0.044045 0.744034
0.308922 0.043467 0.743478
0.429040 0.042888 0.742921
0.549165 0.042309 0.742365
0.669297 0.041731 0.741808
0.791502 0.043162 0.743312
0.919918 0.051308 0.746734
1.000000 0.058385 0.749046
0.067802 0.164258 0.742719
0.190973 0.167099 0.742162
0.310187 0.166520 0.741606
0.429411 0.165941 0.741049
0.548645 0.165363 0.740493
0.667887 0.164784 0.739937
0.789630 0.166215 0.741827
0.917865 0.174173 0.745773
1.000000 0.181150 0.748439
0.065856 0.282837 0.740847
0.190277 0.285993 0.740291
0.313121 0.289573 0.739734
0.430977 0.288995 0.739178
0.548844 0.288416 0.738621
0.666724 0.287837 0.738065
0.787758 0.289269 0.740524
0.915811 0.297037 0.745230
1.000000 0.303915 0.748375
0.063909 0.401442 0.738975
0.188330 0.403603 0.738419
0.312752 0.407307 0.737862
0.435032 0.412048 0.737306
0.550545 0.411469 0.736749
0.666073 0.410891 0.736193
0.785887 0.412322 0.739572
0.913758 0.419902 0.745398
1.000000 0.426680 0.749180
0.061962 0.520075 0.737103
0.186384 0.521246 0.736547
0.310805 0.523398 0.735990
0.435226 0.527700 0.735434
0.556304 0.534523 0.734878
0.666809 0.533944 0.734321
0.784015 0.535375 0.739440
0.911704 0.542766 0.746939
1.000000 0.549445 0.751507
0.060016 0.638734 0.735231
0.184437 0.638922 0.734675
0.308858 0.639531 0.734119
0.433280 0.641066 0.733562
0.557701 0.645353 0.733006
0.674410 0.656997 0.732449
0.782143 0.658429 0.742117
0.909651 0.665631 0.751688
1.000000 0.672210 0.756878
0.059074 0.758485 0.734421
0.183495 0.757928 0.734086
0.307917 0.757372 0.733869
0.432338 0.756815 0.733899
0.556759 0.756259 0.734594
0.681181 0.755703 0.738584
0.780271 0.768314 0.756357
0.907598 0.783069 0.760933
1.000000 0.790612 0.764975
0.067263 0.882254 0.735644
0.191629 0.881644 0.736061
0.315994 0.881034 0.736911
0.440359 0.880423 0.738537
0.564724 0.879813 0.741784
0.689089 0.879202 0.749414
0.800951 0.878592 0.758329
0.905544 0.883394 0.758797
1.000000 0.895379 0.762740
0.075661 1.000000 0.737040
0.199997 1.000000 0.738092
0.324332 1.000000 0.739740
0.448668 1.000000 0.742360
0.573003 1.000000 0.746729
0.697339 1.000000 0.754751
0.813052 1.000000 0.761675
0.919486 1.000000 0.761010
1.000000 1.000000 0.760505
0.079761 0.053332 0.868858
0.199410 0.052697 0.868248
0.319067 0.052062 0.867638
0.438730 0.051427 0.867027
0.558401 0.050792 0.866417
0.678079 0.050157 0.865806
0.797764 0.049523 0.865196
0.919711 0.051093 0.866836
1.000000 0.058160 0.868735
0.078759 0.172486 0.866805
0.201799 0.175561 0.866195
0.320647 0.174926 0.865584
0.439505 0.174292 0.864974
0.558371 0.173657 0.864363
0.677245 0.173022 0.863753
0.796128 0.172387 0.863143
0.917657 0.173957 0.865137
1.000000 0.180925 0.867400
0.076623 0.290491 0.864752
0.200988 0.294058 0.864141
0.323755 0.297791 0.863531
0.441468 0.297156 0.862920
0.559190 0.296521 0.862310
0.676923 0.295886 0.861700
0.794666 0.295252 0.861089
0.915604 0.296822 0.863573
1.000000 0.303690 0.866366
0.074487 0.408521 0.862698
0.198853 0.411202 0.862088
0.323218 0.415339 0.861477
0.445567 0.420020 0.860867
0.561538 0.419386 0.860257
0.677522 0.418751 0.859646
0.793520 0.418116 0.859036
0.913550 0.419686 0.862240
1.000000 0.426455 0.865813
0.072352 0.526576 0.860645
0.196717 0.528376 0.860034
0.321082 0.531241 0.859424
0.445447 0.536082 0.858814
0.567075 0.542250 0.858203
0.680044 0.541615 0.857593
0.793030 0.540981 0.856982
0.911497 0.542551 0.861352
1.000000 0.549220 0.866101
0.070216 0.644657 0.858591
0.194582 0.645579 0.857981
0.318947 0.647180 0.857371
0.443312 0.650036 0.856760
0.567677 0.655644 0.856150
0.687764 0.664480 0.855539
0.794318 0.663845 0.854929
0.909444 0.665415 0.861504
1.000000 0.671985 0.868073
0.068081 0.762763 0.856538
0.192446 0.762812 0.855928
0.316811 0.763154 0.855317
0.441176 0.764037 0.854707
0.565542 0.766105 0.854096
0.689907 0.771696 0.853486
0.804397 0.786709 0.852876
0.907390 0.788280 0.865214
1.000000 0.794750 0.874255
0.067048 0.882047 0.855636
0.191413 0.881437 0.855225
0.315778 0.880826 0.854897
0.440143 0.880216 0.854719
0.564508 0.879606 0.854855
0.688874 0.878995 0.855839
0.813239 0.878385 0.861020
0.905337 0.894459 0.883582
1.000000 0.909645 0.887515
0.075435 1.000000 0.856638
0.199771 1.000000 0.856923
0.324107 1.000000 0.857538
0.448442 1.000000 0.858690
0.572778 1.000000 0.860810
0.697113 1.000000 0.864949
0.821449 1.000000 0.874553
0.930222 1.000000 0.885785
1.000000 1.000000 0.885280
0.091585 0.062813 0.993090
0.210779 0.062122 0.992425
0.329980 0.061431 0.991761
0.449188 0.060740 0.991097
0.568403 0.060049 0.990432
0.687625 0.059359 0.989768
0.806853 0.058668 0.989103
0.926089 0.057977 0.988439
1.000000 0.057934 0.988426
0.090489 0.181483 0.990855
0.213392 0.184798 0.990190
0.331847 0.184107 0.989526
0.450309 0.183416 0.988862
0.568780 0.182725 0.988197
0.687258 0.182034 0.987533
0.805744 0.181343 0.986868
0.924239 0.180652 0.986204
1.000000 0.180699 0.986365
0.088164 0.298909 0.988620
0.212474 0.302867 0.987955
0.335137 0.306783 0.987291
0.452596 0.306092 0.986627
0.570063 0.305401 0.985962
0.687541 0.304710 0.985298
0.805027 0.304019 0.984633
0.922522 0.303328 0.983969
1.000000 0.303464 0.984362
0.085840 0.416359 0.986385
0.210149 0.419506 0.985720
0.334458 0.424033 0.985056
0.456782 0.428767 0.984392
0.572826 0.428076 0.983727
0.688881 0.427385 0.983063
0.804947 0.426694 0.982398
0.921024 0.426003 0.981734
1.000000 0.426229 0.982452
0.083516 0.533833 0.984150
0.207825 0.536172 0.983485
0.332134 0.539599 0.982821
0.456443 0.544837 0.982157
0.578246 0.550752 0.981492
0.692122 0.550061 0.980828
0.806013 0.549370 0.980163
0.919918 0.548679 0.979499
1.000000 0.548994 0.980705
0.081191 0.651330 0.981915
0.205500 0.652865 0.981250
0.329809 0.655198 0.980586
0.454118 0.658856 0.979922
0.578427 0.664970 0.979257
0.699333 0.672737 0.978593
0.809471 0.672046 0.977928
0.919629 0.671355 0.977264
1.000000 0.671759 0.979284
0.078867 0.768851 0.979680
0.203176 0.769586 0.979015
0.327485 0.770828 0.978351
0.451794 0.772914 0.977687
0.576103 0.776563 0.977022
0.700412 0.783634 0.976358
0.819399 0.794721 0.975693
0.921552 0.794030 0.975029
1.000000 0.794524 0.978675
0.076542 0.886396 0.977445
0.200852 0.886335 0.976780
0.325161 0.886492 0.976116
0.449470 0.887012 0.975452
0.573779 0.888206 0.974787
0.698088 0.890874 0.974123
0.822397 0.897928 0.973458
0.934418 0.916706 0.972794
1.000000 0.917289 0.981322
0.075210 1.000000 0.976237
0.199545 1.000000 0.975757
0.323881 1.000000 0.975340
0.448217 1.000000 0.975027
0.572552 1.000000 0.974901
0.696888 1.000000 0.975165
0.821223 1.000000 0.976485
0.945559 1.000000 0.983029
1.000000 1.000000 1.000000
