luts/original/hazy-dream.cube
TITLE "Hazy Dream"
LUT_3D_SIZE 5
DOMAIN_MIN 0.0 0.0 0.0
DOMAIN_MAX 1.0 1.0 1.0
0.019194 0.009462 0.009462
0.277425 0.018272 0.018272
0.535224 0.029883 0.029883
0.792590 0.044294 0.044294
1.000000 0.059685 0.059685
0.030692 0.260440 0.015983
0.275134 0.260416 0.015889
0.532206 0.269769 0.026745
0.788847 0.281850 0.040401
1.000000 0.295060 0.055215
0.044076 0.510733 0.024662
0.286199 0.509836 0.023729
0.529189 0.509769 0.023607
0.785103 0.519502 0.036507
1.000000 0.530528 0.050745
0.059186 0.759573 0.035081
0.299542 0.758460 0.033924
0.539929 0.757347 0.032766
0.781360 0.757249 0.032614
1.000000 0.766086 0.046275
0.075752 1.000000 0.046961
0.314368 1.000000 0.045632
0.553011 1.000000 0.044303
0.791681 1.000000 0.042974
1.000000 1.000000 0.041805
0.032230 0.017538 0.247152
0.277221 0.018060 0.247803
0.534956 0.029604 0.253170
0.792258 0.043948 0.261260
1.000000 0.059288 0.270315
0.031146 0.260236 0.245616
0.274930 0.262617 0.250303
0.531938 0.275036 0.256216
0.788514 0.288626 0.264930
1.000000 0.303250 0.274818
0.044633 0.510465 0.248507
0.290726 0.509568 0.253201
0.528921 0.510089 0.253078
0.784771 0.522904 0.261036
1.000000 0.535796 0.270348
0.059860 0.759241 0.252882
0.305822 0.758128 0.258453
0.542686 0.757015 0.257295
0.781027 0.757315 0.257143
1.000000 0.768492 0.265878
0.076563 1.000000 0.258675
0.322137 1.000000 0.265235
0.557929 1.000000 0.263906
0.793764 1.000000 0.262577
1.000000 1.000000 0.261408
0.048931 0.029533 0.495945
0.290925 0.028600 0.495048
0.534651 0.029287 0.495836
0.791880 0.043555 0.502281
1.000000 0.058837 0.509676
0.046645 0.269786 0.492927
0.293914 0.275462 0.492031
0.531634 0.276149 0.494298
0.788136 0.289662 0.503474
1.000000 0.304367 0.512404
0.044317 0.510160 0.490798
0.293384 0.509263 0.490905
0.528616 0.515689 0.502761
0.784393 0.533204 0.510643
1.000000 0.547589 0.519897
0.059467 0.758863 0.493646
0.308310 0.757750 0.497778
0.551712 0.756637 0.506902
0.780649 0.758074 0.506750
1.000000 0.774076 0.515427
0.076112 1.000000 0.497853
0.324783 1.000000 0.504157
0.568897 1.000000 0.513455
0.798635 1.000000 0.512126
1.000000 1.000000 0.510957
0.068711 0.044624 0.744591
0.308922 0.043467 0.743478
0.549165 0.042309 0.742365
0.791502 0.043162 0.743312
1.000000 0.058385 0.749046
0.065856 0.282837 0.740847
0.313121 0.289573 0.739734
0.548844 0.288416 0.738621
0.787758 0.289269 0.740524
1.000000 0.303915 0.748375
0.061962 0.520075 0.737103
0.310805 0.523398 0.735990
0.556304 0.534523 0.734878
0.784015 0.535375 0.739440
1.000000 0.549445 0.751507
0.059074 0.758485 0.734421
0.307917 0.757372 0.733869
0.556759 0.756259 0.734594
0.780271 0.768314 0.756357
1.000000 0.790612 0.764975
0.075661 1.000000 0.737040
0.324332 1.000000 0.739740
0.573003 1.000000 0.746729
0.813052 1.000000 0.761675
1.000000 1.000000 0.760505
0.091585 0.062813 0.993090
0.329980 0.061431 0.991761
0.568403 0.060049 0.990432
0.806853 0.058668 0.989103
1.000000 0.057934 0.988426
0.088164 0.298909 0.988620
0.335137 0.306783 0.987291
0.570063 0.305401 0.985962
0.805027 0.304019 0.984633
1.000000 0.303464 0.984362
0.083516 0.533833 0.984150
0.332134 0.539599 0.982821
0.578246 0.550752 0.981492
0.806013 0.549370 0.980163
1.000000 0.548994 0.980705
0.078867 0.768851 0.979680
0.327485 0.770828 0.978351
0.576103 0.776563 0.977022
0.819399 0.794721 0.975693
1.000000 0.794524 0.978675
0.075210 1.000000 0.976237
0.323881 1.000000 0.975340
0.572552 1.000000 0.974901
0.821223 1.000000 0.976485
1.000000 1.000000 1.000000
