luts/original/highlife-soft.cube
TITLE "Highlife Soft"
LUT_3D_SIZE 5
DOMAIN_MIN 0.0 0.0 0.0
DOMAIN_MAX 1.0 1.0 1.0
0.017455 0.006606 0.006606
0.275015 0.006577 0.006577
0.532229 0.004584 0.004584
0.789097 0.000628 0.000628
1.000000 0.000000 0.000000
0.021325 0.258352 0.005622
0.273182 0.257483 0.004781
0.529815 0.255684 0.002219
0.786102 0.253518 0.000000
1.000000 0.253080 0.000000
0.022330 0.508586 0.001665
0.275080 0.507869 0.000961
0.527401 0.506746 0.000000
0.783108 0.505117 0.000000
1.000000 0.504335 0.000000
0.025431 0.757658 0.000000
0.277652 0.756768 0.000000
0.529279 0.755878 0.000000
0.780113 0.754796 0.000000
1.000000 0.753784 0.000000
0.030168 1.000000 0.000000
0.281267 1.000000 0.000000
0.531831 1.000000 0.000000
0.781860 1.000000 0.000000
1.000000 1.000000 0.000000
0.023276 0.007566 0.244647
0.274852 0.006417 0.243446
0.532014 0.004374 0.237192
0.788831 0.000367 0.229005
1.000000 0.000000 0.223448
0.020838 0.258189 0.242442
0.273019 0.256133 0.239246
0.529601 0.252719 0.231759
0.785836 0.248144 0.222307
1.000000 0.242635 0.211854
0.021704 0.508372 0.234001
0.272480 0.507654 0.230501
0.527187 0.506231 0.229393
0.782842 0.501107 0.219372
1.000000 0.495535 0.208278
0.019807 0.757392 0.222911
0.270371 0.756502 0.218685
0.525476 0.755612 0.217812
0.779847 0.754017 0.216437
1.000000 0.748374 0.204702
0.015251 1.000000 0.209190
0.265735 1.000000 0.204188
0.521105 1.000000 0.203125
0.776459 1.000000 0.202062
1.000000 1.000000 0.201126
0.027023 0.006352 0.492706
0.279824 0.005648 0.491988
0.531771 0.004135 0.490435
0.788529 0.000071 0.482980
1.000000 0.000000 0.477191
0.024236 0.257264 0.490292
0.274425 0.253283 0.489574
0.529357 0.251770 0.487285
0.785534 0.247136 0.477521
1.000000 0.241493 0.467451
0.021466 0.508128 0.487437
0.270762 0.507411 0.486220
0.526943 0.503049 0.479154
0.782539 0.495480 0.469076
1.000000 0.489067 0.457917
0.019511 0.757090 0.477025
0.268638 0.756200 0.473517
0.520481 0.755310 0.467516
0.779544 0.753146 0.466141
1.000000 0.744995 0.454341
0.014890 1.000000 0.464008
0.263827 1.000000 0.459133
0.515040 1.000000 0.452764
0.773437 1.000000 0.451701
1.000000 1.000000 0.450765
0.029038 0.003397 0.740647
0.282455 0.002525 0.739757
0.535861 0.001652 0.738867
0.788227 0.000000 0.736969
1.000000 0.000000 0.730748
0.025587 0.254389 0.737653
0.275499 0.249590 0.736762
0.531158 0.248717 0.735872
0.785232 0.246840 0.733480
1.000000 0.241132 0.723854
0.022652 0.505875 0.734658
0.271780 0.502773 0.733767
0.522573 0.495782 0.732877
0.782237 0.493905 0.729157
1.000000 0.487556 0.716491
0.019214 0.756788 0.731134
0.268342 0.755897 0.729963
0.517470 0.755007 0.728155
0.779242 0.747543 0.715845
1.000000 0.736154 0.703980
0.014529 1.000000 0.718822
0.263466 1.000000 0.715747
0.512403 1.000000 0.710529
0.765646 1.000000 0.701340
1.000000 1.000000 0.700404
0.030571 0.000000 0.988472
0.285025 0.000000 0.987409
0.538931 0.000000 0.986346
0.792289 0.000000 0.985283
1.000000 0.000000 0.984119
0.025198 0.249808 0.984896
0.274976 0.244156 0.983833
0.530758 0.243114 0.982770
0.786526 0.242073 0.981707
1.000000 0.240771 0.980251
0.021693 0.501507 0.981320
0.270652 0.496903 0.980257
0.520860 0.489610 0.979194
0.780222 0.488568 0.978131
1.000000 0.487195 0.976270
0.018189 0.753167 0.977744
0.267147 0.750453 0.976681
0.516105 0.745862 0.975618
0.767722 0.735064 0.974555
1.000000 0.733619 0.971478
0.014168 1.000000 0.973633
0.263105 1.000000 0.972354
0.512042 1.000000 0.970847
0.760979 1.000000 0.968329
1.000000 1.000000 0.950043
