luts/original/highlife-soft.cube
TITLE "Highlife Soft"
LUT_3D_SIZE 33
DOMAIN_MIN 0.0 0.0 0.0
DOMAIN_MAX 1.0 1.0 1.0
0.017455 0.006606 0.006606
0.049669 0.006710 0.006710
0.081878 0.006783 0.006783
0.114081 0.006825 0.006825
0.146278 0.006837 0.006837
0.178471 0.006818 0.006818
0.210657 0.006768 0.006768
0.242839 0.006688 0.006688
0.275015 0.006577 0.006577
0.307185 0.006435 0.006435
0.339351 0.006263 0.006263
0.371511 0.006060 0.006060
0.403665 0.005826 0.005826
0.435814 0.005562 0.005562
0.467958 0.005267 0.005267
0.500096 0.004941 0.004941
0.532229 0.004584 0.004584
0.564356 0.004197 0.004197
0.596478 0.003779 0.003779
0.628595 0.003331 0.003331
0.660706 0.002852 0.002852
0.692812 0.002342 0.002342
0.724913 0.001801 0.001801
0.757008 0.001230 0.001230
0.789097 0.000628 0.000628
0.821182 0.000000 0.000000
0.853261 0.000000 0.000000
0.885334 0.000000 0.000000
0.917402 0.000000 0.000000
0.949465 0.000000 0.000000
0.981522 0.000000 0.000000
0.999365 0.000000 0.000000
1.000000 0.000000 0.000000
0.018288 0.038443 0.006818
0.049504 0.038102 0.006548
0.081703 0.038157 0.006612
0.113897 0.038192 0.006645
0.146086 0.038201 0.006648
0.178269 0.038181 0.006620
0.210446 0.038132 0.006562
0.242619 0.038053 0.006472
0.274786 0.037944 0.006353
0.306947 0.037804 0.006202
0.339103 0.037635 0.006021
0.371254 0.037434 0.005809
0.403400 0.037203 0.005566
0.435540 0.036942 0.005293
0.467674 0.036650 0.004989
0.499803 0.036327 0.004654
0.531927 0.035974 0.004289
0.564045 0.035590 0.003893
0.596159 0.035176 0.003466
0.628266 0.034731 0.003008
0.660368 0.034255 0.002520
0.692465 0.033749 0.002001
0.724556 0.033212 0.001452
0.756642 0.032644 0.000872
0.788723 0.032045 0.000261
0.820798 0.031782 0.000000
0.852868 0.031770 0.000000
0.884932 0.031759 0.000000
0.916991 0.031748 0.000000
0.949045 0.031738 0.000000
0.981093 0.031728 0.000000
0.999365 0.031726 0.000000
1.000000 0.031736 0.000000
0.018801 0.069913 0.006777
0.050318 0.069862 0.006726
0.081528 0.069528 0.006441
0.113713 0.069556 0.006465
0.145893 0.069562 0.006459
0.178067 0.069542 0.006422
0.210236 0.069494 0.006355
0.242399 0.069417 0.006257
0.274557 0.069310 0.006128
0.306709 0.069173 0.005969
0.338856 0.069005 0.005778
0.370998 0.068808 0.005557
0.403134 0.068580 0.005306
0.435265 0.068322 0.005024
0.467391 0.068033 0.004711
0.499511 0.067713 0.004367
0.531625 0.067363 0.003993
0.563735 0.066983 0.003588
0.595839 0.066572 0.003152
0.627937 0.066130 0.002686
0.660030 0.065658 0.002189
0.692118 0.065155 0.001661
0.724200 0.064621 0.001103
0.756277 0.064057 0.000514
0.788349 0.063560 0.000000
0.820415 0.063535 0.000000
0.852475 0.063511 0.000000
0.884531 0.063489 0.000000
0.916581 0.063468 0.000000
0.948625 0.063448 0.000000
0.980664 0.063429 0.000000
0.999365 0.063424 0.000000
1.000000 0.063442 0.000000
0.019316 0.101365 0.006692
0.050819 0.101311 0.006639
0.082322 0.101256 0.006585
0.113530 0.100919 0.006285
0.145700 0.100923 0.006270
0.177865 0.100903 0.006225
0.210025 0.100855 0.006148
0.242179 0.100779 0.006041
0.274328 0.100674 0.005904
0.306471 0.100540 0.005735
0.338609 0.100375 0.005536
0.370742 0.100181 0.005306
0.402869 0.099956 0.005046
0.434991 0.099700 0.004755
0.467107 0.099415 0.004433
0.499218 0.099099 0.004080
0.531324 0.098752 0.003697
0.563424 0.098375 0.003283
0.595519 0.097967 0.002839
0.627608 0.097529 0.002364
0.659692 0.097060 0.001858
0.691771 0.096561 0.001321
0.723844 0.096031 0.000754
0.755912 0.095470 0.000156
0.787974 0.095294 0.000000
0.820031 0.095258 0.000000
0.852083 0.095223 0.000000
0.884129 0.095191 0.000000
0.916170 0.095160 0.000000
0.948205 0.095130 0.000000
0.980236 0.095102 0.000000
0.999365 0.095093 0.000000
1.000000 0.095120 0.000000
0.019798 0.132799 0.006565
0.051300 0.132742 0.006509
0.082802 0.132684 0.006452
0.114302 0.132627 0.006396
0.145507 0.132282 0.006081
0.177663 0.132261 0.006027
0.209814 0.132215 0.005942
0.241959 0.132141 0.005826
0.274098 0.132038 0.005679
0.306233 0.131906 0.005502
0.338362 0.131744 0.005294
0.370485 0.131552 0.005055
0.402603 0.131331 0.004786
0.434716 0.131078 0.004486
0.466823 0.130796 0.004155
0.498925 0.130483 0.003794
0.531022 0.130140 0.003402
0.563113 0.129766 0.002979
0.595199 0.129362 0.002525
0.627279 0.128927 0.002041
0.659354 0.128462 0.001526
0.691424 0.127966 0.000981
0.723488 0.127439 0.000405
0.755547 0.127050 0.000000
0.787600 0.126999 0.000000
0.819648 0.126951 0.000000
0.851690 0.126906 0.000000
0.883728 0.126863 0.000000
0.915759 0.126823 0.000000
0.947786 0.126784 0.000000
0.979807 0.126747 0.000000
0.999365 0.126734 0.000000
1.000000 0.126770 0.000000
0.020242 0.164214 0.006394
0.051747 0.164154 0.006335
0.083252 0.164094 0.006276
0.114755 0.164034 0.006218
0.146259 0.163974 0.006159
0.177461 0.163619 0.005829
0.209603 0.163574 0.005735
0.241739 0.163501 0.005610
0.273869 0.163401 0.005455
0.305995 0.163271 0.005268
0.338115 0.163112 0.005051
0.370229 0.162923 0.004804
0.402338 0.162705 0.004526
0.434442 0.162456 0.004217
0.466540 0.162176 0.003877
0.498633 0.161867 0.003507
0.530720 0.161527 0.003106
0.562802 0.161157 0.002674
0.594879 0.160756 0.002212
0.626950 0.160324 0.001719
0.659016 0.159862 0.001195
0.691077 0.159370 0.000641
0.723132 0.158847 0.000056
0.755181 0.158737 0.000000
0.787226 0.158674 0.000000
0.819264 0.158615 0.000000
0.851298 0.158560 0.000000
0.883326 0.158507 0.000000
0.915349 0.158458 0.000000
0.947366 0.158410 0.000000
0.979378 0.158365 0.000000
0.999365 0.158348 0.000000
1.000000 0.158390 0.000000
0.020645 0.195612 0.006180
0.052155 0.195549 0.006119
0.083665 0.195486 0.006057
0.115174 0.195424 0.005996
0.146683 0.195361 0.005934
0.178192 0.195298 0.005873
0.209392 0.194931 0.005528
0.241519 0.194861 0.005394
0.273640 0.194763 0.005230
0.305756 0.194636 0.005035
0.337867 0.194479 0.004809
0.369973 0.194294 0.004553
0.402073 0.194078 0.004266
0.434167 0.193832 0.003948
0.466256 0.193556 0.003599
0.498340 0.193250 0.003220
0.530419 0.192913 0.002810
0.562491 0.192546 0.002370
0.594559 0.192149 0.001898
0.626621 0.191721 0.001396
0.658678 0.191263 0.000864
0.690729 0.190774 0.000301
0.722775 0.190471 0.000000
0.754816 0.190392 0.000000
0.786851 0.190319 0.000000
0.818881 0.190250 0.000000
0.850905 0.190184 0.000000
0.882924 0.190123 0.000000
0.914938 0.190064 0.000000
0.946946 0.190008 0.000000
0.978949 0.189955 0.000000
0.999365 0.189933 0.000000
1.000000 0.189982 0.000000
0.021006 0.226991 0.005923
0.052523 0.226926 0.005859
0.084039 0.226860 0.005795
0.115555 0.226795 0.005730
0.147071 0.226729 0.005666
0.178586 0.226664 0.005602
0.210101 0.226599 0.005538
0.241299 0.226219 0.005179
0.273411 0.226123 0.005006
0.305518 0.225999 0.004802
0.337620 0.225846 0.004567
0.369716 0.225663 0.004301
0.401807 0.225450 0.004005
0.433893 0.225208 0.003679
0.465973 0.224935 0.003321
0.498047 0.224632 0.002933
0.530117 0.224299 0.002514
0.562181 0.223935 0.002065
0.594239 0.223542 0.001585
0.626292 0.223117 0.001074
0.658340 0.222662 0.000533
0.690382 0.222204 0.000000
0.722419 0.222108 0.000000
0.754451 0.222018 0.000000
0.786477 0.221934 0.000000
0.818498 0.221854 0.000000
0.850513 0.221780 0.000000
0.882523 0.221709 0.000000
0.914527 0.221642 0.000000
0.946526 0.221578 0.000000
0.978520 0.221517 0.000000
0.999365 0.221490 0.000000
1.000000 0.221546 0.000000
0.021325 0.258352 0.005622
0.052849 0.258284 0.005556
0.084373 0.258216 0.005489
0.115896 0.258148 0.005422
0.147419 0.258080 0.005355
0.178942 0.258011 0.005289
0.210465 0.257943 0.005222
0.241987 0.257875 0.005155
0.273182 0.257483 0.004781
0.305280 0.257361 0.004568
0.337373 0.257211 0.004325
0.369460 0.257031 0.004050
0.401542 0.256822 0.003745
0.433618 0.256583 0.003410
0.465689 0.256313 0.003043
0.497755 0.256014 0.002646
0.529815 0.255684 0.002219
0.561870 0.255324 0.001760
0.593919 0.254933 0.001271
0.625963 0.254513 0.000752
0.658002 0.254061 0.000201
0.690035 0.253821 0.000000
0.722063 0.253713 0.000000
0.754085 0.253613 0.000000
0.786102 0.253518 0.000000
0.818114 0.253430 0.000000
0.850120 0.253346 0.000000
0.882121 0.253267 0.000000
0.914117 0.253192 0.000000
0.946107 0.253120 0.000000
0.978091 0.253052 0.000000
0.999365 0.253019 0.000000
1.000000 0.253080 0.000000
0.021601 0.289695 0.005279
0.053133 0.289624 0.005209
0.084665 0.289553 0.005140
0.116196 0.289482 0.005071
0.147727 0.289412 0.005001
0.179258 0.289341 0.004932
0.210789 0.289270 0.004863
0.242319 0.289199 0.004793
0.273849 0.289128 0.004724
0.305042 0.288723 0.004335
0.337126 0.288575 0.004082
0.369204 0.288399 0.003799
0.401276 0.288193 0.003485
0.433344 0.287957 0.003141
0.465406 0.287691 0.002765
0.497462 0.287395 0.002360
0.529513 0.287068 0.001923
0.561559 0.286712 0.001456
0.593599 0.286325 0.000958
0.625634 0.285907 0.000429
0.657664 0.285534 0.000000
0.689688 0.285406 0.000000
0.721707 0.285288 0.000000
0.753720 0.285177 0.000000
0.785728 0.285073 0.000000
0.817731 0.284976 0.000000
0.849728 0.284883 0.000000
0.881720 0.284796 0.000000
0.913706 0.284713 0.000000
0.945687 0.284634 0.000000
0.977663 0.284559 0.000000
0.999365 0.284521 0.000000
1.000000 0.284587 0.000000
0.021834 0.321019 0.004892
0.053374 0.320946 0.004820
0.084915 0.320872 0.004748
0.116454 0.320799 0.004676
0.147994 0.320726 0.004604
0.179533 0.320652 0.004532
0.211072 0.320578 0.004460
0.242611 0.320505 0.004388
0.274149 0.320432 0.004316
0.305687 0.320358 0.004244
0.336878 0.319939 0.003840
0.368947 0.319766 0.003548
0.401011 0.319563 0.003225
0.433069 0.319330 0.002872
0.465122 0.319067 0.002488
0.497170 0.318775 0.002073
0.529212 0.318452 0.001627
0.561248 0.318099 0.001151
0.593280 0.317715 0.000644
0.625305 0.317301 0.000107
0.657326 0.317098 0.000000
0.689341 0.316960 0.000000
0.721351 0.316831 0.000000
0.753355 0.316711 0.000000
0.785354 0.316598 0.000000
0.817347 0.316492 0.000000
0.849335 0.316392 0.000000
0.881318 0.316296 0.000000
0.913295 0.316206 0.000000
0.945267 0.316120 0.000000
0.977234 0.316038 0.000000
0.999365 0.315994 0.000000
1.000000 0.316065 0.000000
0.022024 0.352326 0.004462
0.053573 0.352250 0.004387
0.085122 0.352174 0.004313
0.116671 0.352097 0.004238
0.148219 0.352021 0.004163
0.179767 0.351945 0.004089
0.211314 0.351869 0.004014
0.242862 0.351793 0.003939
0.274409 0.351716 0.003865
0.305956 0.351640 0.003790
0.337502 0.351564 0.003715
0.368691 0.351131 0.003297
0.400746 0.350932 0.002965
0.432795 0.350702 0.002603
0.464839 0.350443 0.002210
0.496877 0.350154 0.001786
0.528910 0.349835 0.001332
0.560937 0.349485 0.000847
0.592960 0.349105 0.000331
0.624976 0.348792 0.000000
0.656988 0.348631 0.000000
0.688994 0.348482 0.000000
0.720994 0.348344 0.000000
0.752990 0.348214 0.000000
0.784979 0.348093 0.000000
0.816964 0.347979 0.000000
0.848943 0.347871 0.000000
0.880916 0.347768 0.000000
0.912885 0.347671 0.000000
0.944847 0.347578 0.000000
0.976805 0.347489 0.000000
0.999365 0.347439 0.000000
1.000000 0.347514 0.000000
0.022172 0.383614 0.003989
0.053729 0.383536 0.003912
0.085287 0.383457 0.003834
0.116844 0.383378 0.003757
0.148401 0.383299 0.003680
0.179958 0.383220 0.003602
0.211515 0.383141 0.003525
0.243071 0.383062 0.003448
0.274627 0.382983 0.003370
0.306183 0.382904 0.003293
0.337738 0.382825 0.003216
0.369294 0.382747 0.003138
0.400480 0.382300 0.002705
0.432520 0.382074 0.002334
0.464555 0.381818 0.001932
0.496584 0.381533 0.001499
0.528608 0.381217 0.001036
0.560627 0.380871 0.000542
0.592640 0.380494 0.000017
0.624647 0.380302 0.000000
0.656650 0.380131 0.000000
0.688647 0.379973 0.000000
0.720638 0.379825 0.000000
0.752624 0.379687 0.000000
0.784605 0.379558 0.000000
0.816580 0.379436 0.000000
0.848550 0.379320 0.000000
0.880515 0.379211 0.000000
0.912474 0.379107 0.000000
0.944428 0.379008 0.000000
0.976376 0.378913 0.000000
0.999365 0.378857 0.000000
1.000000 0.378935 0.000000
0.022276 0.414885 0.003473
0.053843 0.414803 0.003393
0.085409 0.414721 0.003313
0.116976 0.414640 0.003233
0.148542 0.414558 0.003153
0.180108 0.414477 0.003073
0.211673 0.414395 0.002993
0.243239 0.414313 0.002913
0.274804 0.414232 0.002833
0.306368 0.414150 0.002753
0.337933 0.414069 0.002673
0.369497 0.413987 0.002593
0.401062 0.413905 0.002513
0.432246 0.413445 0.002065
0.464271 0.413193 0.001654
0.496292 0.412910 0.001212
0.528306 0.412598 0.000740
0.560316 0.412256 0.000237
0.592320 0.411976 0.000000
0.624318 0.411780 0.000000
0.656312 0.411599 0.000000
0.688300 0.411431 0.000000
0.720282 0.411275 0.000000
0.752259 0.411130 0.000000
0.784231 0.410993 0.000000
0.816197 0.410863 0.000000
0.848158 0.410741 0.000000
0.880113 0.410625 0.000000
0.912063 0.410515 0.000000
0.944008 0.410409 0.000000
0.975947 0.410309 0.000000
0.999365 0.410247 0.000000
1.000000 0.410327 0.000000
0.022337 0.446137 0.002913
0.053913 0.446052 0.002831
0.085489 0.445968 0.002748
0.117064 0.445884 0.002665
0.148639 0.445799 0.002583
0.180214 0.445715 0.002500
0.211789 0.445631 0.002418
0.243364 0.445547 0.002335
0.274938 0.445462 0.002252
0.306512 0.445378 0.002170
0.338086 0.445294 0.002087
0.369659 0.445209 0.002004
0.401233 0.445125 0.001922
0.432806 0.445041 0.001839
0.463988 0.444566 0.001376
0.495999 0.444288 0.000926
0.528005 0.443979 0.000445
0.560005 0.443655 0.000000
0.592000 0.443430 0.000000
0.623990 0.443224 0.000000
0.655974 0.443035 0.000000
0.687952 0.442859 0.000000
0.719926 0.442695 0.000000
0.751894 0.442541 0.000000
0.783856 0.442397 0.000000
0.815813 0.442261 0.000000
0.847765 0.442133 0.000000
0.879712 0.442011 0.000000
0.911653 0.441894 0.000000
0.943588 0.441783 0.000000
0.975518 0.441677 0.000000
0.999365 0.441609 0.000000
1.000000 0.441692 0.000000
0.022355 0.477371 0.002310
0.053940 0.477284 0.002225
0.085525 0.477197 0.002140
0.117110 0.477110 0.002055
0.148694 0.477023 0.001969
0.180279 0.476936 0.001884
0.211863 0.476849 0.001799
0.243446 0.476762 0.001714
0.275030 0.476675 0.001628
0.306613 0.476588 0.001543
0.338196 0.476501 0.001458
0.369779 0.476414 0.001373
0.401362 0.476327 0.001287
0.432944 0.476240 0.001202
0.464527 0.476153 0.001117
0.495706 0.475664 0.000639
0.527703 0.475359 0.000149
0.559694 0.475085 0.000000
0.591680 0.474851 0.000000
0.623661 0.474636 0.000000
0.655636 0.474438 0.000000
0.687605 0.474254 0.000000
0.719570 0.474083 0.000000
0.751528 0.473923 0.000000
0.783482 0.473772 0.000000
0.815430 0.473630 0.000000
0.847373 0.473495 0.000000
0.879310 0.473367 0.000000
0.911242 0.473246 0.000000
0.943168 0.473129 0.000000
0.975089 0.473018 0.000000
0.999365 0.472943 0.000000
1.000000 0.473028 0.000000
0.022330 0.508586 0.001665
0.053924 0.508497 0.001577
0.085519 0.508407 0.001489
0.117113 0.508317 0.001401
0.148706 0.508228 0.001313
0.180300 0.508138 0.001225
0.211893 0.508048 0.001137
0.243487 0.507958 0.001049
0.275080 0.507869 0.000961
0.306672 0.507779 0.000873
0.338265 0.507689 0.000786
0.369857 0.507600 0.000698
0.401449 0.507510 0.000610
0.433041 0.507420 0.000522
0.464632 0.507331 0.000434
0.496224 0.507241 0.000346
0.527401 0.506746 0.000000
0.559383 0.506480 0.000000
0.591360 0.506238 0.000000
0.623332 0.506015 0.000000
0.655298 0.505809 0.000000
0.687258 0.505618 0.000000
0.719213 0.505441 0.000000
0.751163 0.505274 0.000000
0.783108 0.505117 0.000000
0.815047 0.504969 0.000000
0.846980 0.504829 0.000000
0.878908 0.504695 0.000000
0.910831 0.504568 0.000000
0.942749 0.504447 0.000000
0.974661 0.504330 0.000000
0.999365 0.504250 0.000000
1.000000 0.504335 0.000000
0.022262 0.539784 0.000976
0.053866 0.539692 0.000885
0.085469 0.539599 0.000794
0.117073 0.539507 0.000704
0.148676 0.539414 0.000613
0.180279 0.539322 0.000523
0.211882 0.539230 0.000432
0.243484 0.539137 0.000342
0.275086 0.539045 0.000251
0.306689 0.538952 0.000161
0.338290 0.538860 0.000070
0.369898 0.538768 0.000000
0.401520 0.538675 0.000000
0.433131 0.538583 0.000000
0.464731 0.538490 0.000000
0.496320 0.538398 0.000000
0.527898 0.538306 0.000000
0.559073 0.537841 0.000000
0.591040 0.537591 0.000000
0.623003 0.537361 0.000000
0.654960 0.537148 0.000000
0.686911 0.536951 0.000000
0.718857 0.536767 0.000000
0.750798 0.536594 0.000000
0.782733 0.536432 0.000000
0.814663 0.536278 0.000000
0.846588 0.536133 0.000000
0.878507 0.535995 0.000000
0.910421 0.535863 0.000000
0.942329 0.535737 0.000000
0.974232 0.535616 0.000000
0.999365 0.535529 0.000000
1.000000 0.535615 0.000000
0.022150 0.570963 0.000243
0.053764 0.570868 0.000150
0.085377 0.570773 0.000057
0.117018 0.570678 0.000000
0.148696 0.570583 0.000000
0.180364 0.570488 0.000000
0.212021 0.570393 0.000000
0.243667 0.570298 0.000000
0.275303 0.570203 0.000000
0.306928 0.570108 0.000000
0.338543 0.570012 0.000000
0.370147 0.569917 0.000000
0.401741 0.569822 0.000000
0.433324 0.569727 0.000000
0.464896 0.569632 0.000000
0.496458 0.569537 0.000000
0.528010 0.569442 0.000000
0.559550 0.569347 0.000000
0.590720 0.568910 0.000000
0.622674 0.568673 0.000000
0.654621 0.568455 0.000000
0.686564 0.568252 0.000000
0.718501 0.568062 0.000000
0.750433 0.567884 0.000000
0.782359 0.567717 0.000000
0.814280 0.567558 0.000000
0.846195 0.567408 0.000000
0.878105 0.567265 0.000000
0.910010 0.567129 0.000000
0.941909 0.566998 0.000000
0.973803 0.566873 0.000000
0.999365 0.566780 0.000000
1.000000 0.566866 0.000000
0.022501 0.602125 0.000000
0.054182 0.602027 0.000000
0.085852 0.601929 0.000000
0.117512 0.601831 0.000000
0.149162 0.601733 0.000000
0.180802 0.601636 0.000000
0.212431 0.601538 0.000000
0.244050 0.601440 0.000000
0.275658 0.601342 0.000000
0.307257 0.601244 0.000000
0.338845 0.601147 0.000000
0.370423 0.601049 0.000000
0.401990 0.600951 0.000000
0.433547 0.600853 0.000000
0.465094 0.600756 0.000000
0.496631 0.600658 0.000000
0.528157 0.600560 0.000000
0.559673 0.600462 0.000000
0.591179 0.600364 0.000000
0.622345 0.599953 0.000000
0.654283 0.599729 0.000000
0.686217 0.599521 0.000000
0.718145 0.599326 0.000000
0.750067 0.599144 0.000000
0.781985 0.598972 0.000000
0.813896 0.598809 0.000000
0.845803 0.598654 0.000000
0.877704 0.598507 0.000000
0.909599 0.598367 0.000000
0.941489 0.598232 0.000000
0.973374 0.598103 0.000000
0.999365 0.598004 0.000000
1.000000 0.598089 0.000000
0.023084 0.633268 0.000000
0.054738 0.633167 0.000000
0.086381 0.633067 0.000000
0.118015 0.632966 0.000000
0.149638 0.632866 0.000000
0.181252 0.632765 0.000000
0.212855 0.632665 0.000000
0.244448 0.632564 0.000000
0.276031 0.632464 0.000000
0.307604 0.632363 0.000000
0.339168 0.632263 0.000000
0.370721 0.632162 0.000000
0.402264 0.632062 0.000000
0.433796 0.631961 0.000000
0.465319 0.631861 0.000000
0.496832 0.631760 0.000000
0.528335 0.631660 0.000000
0.559828 0.631559 0.000000
0.591311 0.631459 0.000000
0.622783 0.631358 0.000000
0.653945 0.630971 0.000000
0.685870 0.630758 0.000000
0.717789 0.630560 0.000000
0.749702 0.630373 0.000000
0.781610 0.630196 0.000000
0.813513 0.630030 0.000000
0.845410 0.629871 0.000000
0.877302 0.629720 0.000000
0.909188 0.629576 0.000000
0.941070 0.629438 0.000000
0.972945 0.629305 0.000000
0.999365 0.629200 0.000000
1.000000 0.629284 0.000000
0.023669 0.664393 0.000000
0.055297 0.664289 0.000000
0.086916 0.664186 0.000000
0.118524 0.664083 0.000000
0.150123 0.663980 0.000000
0.181711 0.663877 0.000000
0.213290 0.663773 0.000000
0.244860 0.663670 0.000000
0.276419 0.663567 0.000000
0.307968 0.663464 0.000000
0.339508 0.663361 0.000000
0.371038 0.663258 0.000000
0.402558 0.663154 0.000000
0.434068 0.663051 0.000000
0.465568 0.662948 0.000000
0.497059 0.662845 0.000000
0.528540 0.662742 0.000000
0.560010 0.662638 0.000000
0.591472 0.662535 0.000000
0.622923 0.662432 0.000000
0.654364 0.662329 0.000000
0.685523 0.661964 0.000000
0.717432 0.661762 0.000000
0.749337 0.661571 0.000000
0.781236 0.661391 0.000000
0.813129 0.661221 0.000000
0.845018 0.661059 0.000000
0.876900 0.660905 0.000000
0.908778 0.660757 0.000000
0.940650 0.660615 0.000000
0.972516 0.660479 0.000000
0.999365 0.660369 0.000000
1.000000 0.660451 0.000000
0.024255 0.695499 0.000000
0.055859 0.695394 0.000000
0.087454 0.695288 0.000000
0.119039 0.695182 0.000000
0.150614 0.695076 0.000000
0.182180 0.694970 0.000000
0.213736 0.694864 0.000000
0.245282 0.694758 0.000000
0.276819 0.694652 0.000000
0.308346 0.694546 0.000000
0.339864 0.694441 0.000000
0.371372 0.694335 0.000000
0.402870 0.694229 0.000000
0.434359 0.694123 0.000000
0.465838 0.694017 0.000000
0.497307 0.693911 0.000000
0.528767 0.693805 0.000000
0.560217 0.693699 0.000000
0.591658 0.693593 0.000000
0.623089 0.693488 0.000000
0.654510 0.693382 0.000000
0.685922 0.693276 0.000000
0.717076 0.692933 0.000000
0.748971 0.692739 0.000000
0.780861 0.692556 0.000000
0.812746 0.692383 0.000000
0.844625 0.692218 0.000000
0.876499 0.692060 0.000000
0.908367 0.691910 0.000000
0.940230 0.691765 0.000000
0.972088 0.691626 0.000000
0.999365 0.691511 0.000000
1.000000 0.691590 0.000000
0.024843 0.726588 0.000000
0.056424 0.726479 0.000000
0.087996 0.726371 0.000000
0.119559 0.726262 0.000000
0.151112 0.726154 0.000000
0.182656 0.726045 0.000000
0.214190 0.725936 0.000000
0.245715 0.725828 0.000000
0.277231 0.725719 0.000000
0.308737 0.725611 0.000000
0.340233 0.725502 0.000000
0.371720 0.725394 0.000000
0.403198 0.725285 0.000000
0.434666 0.725176 0.000000
0.466125 0.725068 0.000000
0.497574 0.724959 0.000000
0.529014 0.724851 0.000000
0.560445 0.724742 0.000000
0.591866 0.724634 0.000000
0.623277 0.724525 0.000000
0.654679 0.724416 0.000000
0.686072 0.724308 0.000000
0.717455 0.724199 0.000000
0.748606 0.723877 0.000000
0.780487 0.723691 0.000000
0.812362 0.723515 0.000000
0.844233 0.723347 0.000000
0.876097 0.723187 0.000000
0.907956 0.723034 0.000000
0.939810 0.722887 0.000000
0.971659 0.722745 0.000000
0.999365 0.722625 0.000000
1.000000 0.722701 0.000000
0.025431 0.757658 0.000000
0.056991 0.757547 0.000000
0.088542 0.757436 0.000000
0.120084 0.757325 0.000000
0.151616 0.757213 0.000000
0.183139 0.757102 0.000000
0.214652 0.756991 0.000000
0.246157 0.756880 0.000000
0.277652 0.756768 0.000000
0.309138 0.756657 0.000000
0.340614 0.756546 0.000000
0.372081 0.756434 0.000000
0.403539 0.756323 0.000000
0.434988 0.756212 0.000000
0.466428 0.756101 0.000000
0.497858 0.755989 0.000000
0.529279 0.755878 0.000000
0.560690 0.755767 0.000000
0.592093 0.755655 0.000000
0.623486 0.755544 0.000000
0.654870 0.755433 0.000000
0.686244 0.755322 0.000000
0.717609 0.755210 0.000000
0.748965 0.755099 0.000000
0.780113 0.754796 0.000000
0.811979 0.754618 0.000000
0.843840 0.754448 0.000000
0.875696 0.754285 0.000000
0.907546 0.754130 0.000000
0.939391 0.753980 0.000000
0.971230 0.753836 0.000000
0.999365 0.753711 0.000000
1.000000 0.753784 0.000000
0.026021 0.788711 0.000000
0.057560 0.788597 0.000000
0.089091 0.788483 0.000000
0.120612 0.788369 0.000000
0.152124 0.788255 0.000000
0.183627 0.788141 0.000000
0.215121 0.788027 0.000000
0.246606 0.787913 0.000000
0.278082 0.787799 0.000000
0.309548 0.787685 0.000000
0.341005 0.787571 0.000000
0.372454 0.787457 0.000000
0.403893 0.787343 0.000000
0.435323 0.787229 0.000000
0.466744 0.787115 0.000000
0.498156 0.787001 0.000000
0.529559 0.786887 0.000000
0.560952 0.786773 0.000000
0.592337 0.786659 0.000000
0.623712 0.786545 0.000000
0.655078 0.786431 0.000000
0.686435 0.786317 0.000000
0.717783 0.786203 0.000000
0.749122 0.786089 0.000000
0.780452 0.785975 0.000000
0.811596 0.785691 0.000000
0.843448 0.785519 0.000000
0.875294 0.785355 0.000000
0.907135 0.785197 0.000000
0.938971 0.785046 0.000000
0.970801 0.784900 0.000000
0.999365 0.784770 0.000000
1.000000 0.784839 0.000000
0.026611 0.819745 0.000000
0.058131 0.819628 0.000000
0.089642 0.819512 0.000000
0.121144 0.819395 0.000000
0.152637 0.819278 0.000000
0.184121 0.819162 0.000000
0.215596 0.819045 0.000000
0.247062 0.818928 0.000000
0.278519 0.818811 0.000000
0.309967 0.818695 0.000000
0.341406 0.818578 0.000000
0.372836 0.818461 0.000000
0.404257 0.818345 0.000000
0.435669 0.818228 0.000000
0.467072 0.818111 0.000000
0.498467 0.817995 0.000000
0.529852 0.817878 0.000000
0.561228 0.817761 0.000000
0.592595 0.817645 0.000000
0.623954 0.817528 0.000000
0.655303 0.817411 0.000000
0.686643 0.817295 0.000000
0.717975 0.817178 0.000000
0.749297 0.817061 0.000000
0.780611 0.816945 0.000000
0.811915 0.816828 0.000000
0.843055 0.816561 0.000000
