luts/original/highlife-soft.cube
TITLE "Highlife Soft"
LUT_3D_SIZE 9
DOMAIN_MIN 0.0 0.0 0.0
DOMAIN_MAX 1.0 1.0 1.0
0.017455 0.006606 0.006606
0.146278 0.006837 0.006837
0.275015 0.006577 0.006577
0.403665 0.005826 0.005826
0.532229 0.004584 0.004584
0.660706 0.002852 0.002852
0.789097 0.000628 0.000628
0.917402 0.000000 0.000000
1.000000 0.000000 0.000000
0.019798 0.132799 0.006565
0.145507 0.132282 0.006081
0.274098 0.132038 0.005679
0.402603 0.131331 0.004786
0.531022 0.130140 0.003402
0.659354 0.128462 0.001526
0.787600 0.126999 0.000000
0.915759 0.126823 0.000000
1.000000 0.126770 0.000000
0.021325 0.258352 0.005622
0.147419 0.258080 0.005355
0.273182 0.257483 0.004781
0.401542 0.256822 0.003745
0.529815 0.255684 0.002219
0.658002 0.254061 0.000201
0.786102 0.253518 0.000000
0.914117 0.253192 0.000000
1.000000 0.253080 0.000000
0.022172 0.383614 0.003989
0.148401 0.383299 0.003680
0.274627 0.382983 0.003370
0.400480 0.382300 0.002705
0.528608 0.381217 0.001036
0.656650 0.380131 0.000000
0.784605 0.379558 0.000000
0.912474 0.379107 0.000000
1.000000 0.378935 0.000000
0.022330 0.508586 0.001665
0.148706 0.508228 0.001313
0.275080 0.507869 0.000961
0.401449 0.507510 0.000610
0.527401 0.506746 0.000000
0.655298 0.505809 0.000000
0.783108 0.505117 0.000000
0.910831 0.504568 0.000000
1.000000 0.504335 0.000000
0.023084 0.633268 0.000000
0.149638 0.632866 0.000000
0.276031 0.632464 0.000000
0.402264 0.632062 0.000000
0.528335 0.631660 0.000000
0.653945 0.630971 0.000000
0.781610 0.630196 0.000000
0.909188 0.629576 0.000000
1.000000 0.629284 0.000000
0.025431 0.757658 0.000000
0.151616 0.757213 0.000000
0.277652 0.756768 0.000000
0.403539 0.756323 0.000000
0.529279 0.755878 0.000000
0.654870 0.755433 0.000000
0.780113 0.754796 0.000000
0.907546 0.754130 0.000000
1.000000 0.753784 0.000000
0.027794 0.881759 0.000000
0.153673 0.881270 0.000000
0.279413 0.880782 0.000000
0.405013 0.880294 0.000000
0.530473 0.879805 0.000000
0.655794 0.879317 0.000000
0.780976 0.878829 0.000000
0.905903 0.878230 0.000000
1.000000 0.877837 0.000000
0.030168 1.000000 0.000000
0.155785 1.000000 0.000000
0.281267 1.000000 0.000000
0.406616 1.000000 0.000000
0.531831 1.000000 0.000000
0.656912 1.000000 0.000000
0.781860 1.000000 0.000000
0.906675 1.000000 0.000000
1.000000 1.000000 0.000000
0.020771 0.007521 0.120573
0.146219 0.006779 0.119763
0.274945 0.006508 0.117172
0.403584 0.005746 0.114112
0.532136 0.004494 0.110569
0.660603 0.002750 0.106537
0.788983 0.000515 0.102015
0.917276 0.000000 0.098982
1.000000 0.000000 0.096507
0.019444 0.132740 0.119413
0.145448 0.131767 0.118086
0.274028 0.131104 0.115235
0.402522 0.130190 0.111893
0.530929 0.128819 0.108061
0.659250 0.126968 0.103737
0.787485 0.124631 0.098923
0.915633 0.121806 0.093618
1.000000 0.119496 0.088823
0.020928 0.258282 0.115985
0.146715 0.258009 0.114912
0.273112 0.257246 0.114337
0.401460 0.256157 0.110853
0.529722 0.254745 0.106878
0.657898 0.252898 0.102412
0.785988 0.250586 0.097455
0.913991 0.247796 0.092008
1.000000 0.245506 0.087035
0.021722 0.383533 0.111968
0.147402 0.383217 0.110787
0.274150 0.382902 0.110478
0.400399 0.382106 0.109813
0.528516 0.380657 0.105695
0.656546 0.378817 0.101087
0.784490 0.376530 0.095988
0.912348 0.373776 0.090398
1.000000 0.371506 0.085247
0.021824 0.508494 0.107281
0.147496 0.508135 0.105972
0.274275 0.507776 0.105621
0.401049 0.507417 0.105269
0.527309 0.506555 0.104512
0.655194 0.504723 0.099762
0.782993 0.502463 0.094520
0.910705 0.499747 0.088788
1.000000 0.497494 0.083459
0.021235 0.633164 0.101911
0.146929 0.632762 0.100466
0.273798 0.632360 0.100072
0.400664 0.631958 0.099678
0.527526 0.631556 0.099284
0.653842 0.630617 0.098437
0.781495 0.628385 0.093053
0.909062 0.625707 0.087178
1.000000 0.623470 0.081671
0.019955 0.757544 0.095853
0.145683 0.757098 0.094269
0.272669 0.756653 0.093833
0.399651 0.756208 0.093397
0.526630 0.755763 0.092960
0.653605 0.755318 0.092524
0.779998 0.754296 0.091585
0.907420 0.751656 0.085568
1.000000 0.749436 0.079883
0.017984 0.881633 0.089106
0.143752 0.881144 0.087381
0.270868 0.880656 0.086902
0.397980 0.880168 0.086424
0.525089 0.879679 0.085945
0.652195 0.879191 0.085467
0.779298 0.878703 0.084988
0.905777 0.877596 0.083958
1.000000 0.875392 0.078095
0.015431 1.000000 0.081779
0.141233 1.000000 0.079900
0.268476 1.000000 0.079368
0.395717 1.000000 0.078837
0.522954 1.000000 0.078305
0.650187 1.000000 0.077774
0.777418 1.000000 0.077242
0.904645 1.000000 0.076711
1.000000 1.000000 0.076307
0.023276 0.007566 0.244647
0.149401 0.007299 0.244374
0.274852 0.006417 0.243446
0.403476 0.005641 0.240557
0.532014 0.004374 0.237192
0.660466 0.002616 0.233342
0.788831 0.000367 0.229005
0.917110 0.000000 0.225974
1.000000 0.000000 0.223448
0.022043 0.132887 0.243730
0.147544 0.131401 0.243458
0.273936 0.130519 0.242008
0.402415 0.129601 0.238485
0.530807 0.128191 0.234669
0.659114 0.126291 0.230420
0.787334 0.123900 0.225705
0.915468 0.121018 0.220512
1.000000 0.118642 0.215848
0.020838 0.258189 0.242442
0.145571 0.257917 0.241683
0.273019 0.256133 0.239246
0.401353 0.254368 0.235748
0.529601 0.252719 0.231759
0.657762 0.250663 0.227278
0.785836 0.248144 0.222307
0.913825 0.245146 0.216845
1.000000 0.242635 0.211854
0.021617 0.383426 0.238537
0.146307 0.383110 0.237046
0.272782 0.382795 0.235373
0.400292 0.381675 0.234708
0.514197 0.377242 0.240288
0.640705 0.376116 0.237977
0.784339 0.374632 0.220840
0.912182 0.371604 0.215235
1.000000 0.369093 0.210066
0.021704 0.508372 0.234001
0.146353 0.508013 0.232155
0.272480 0.507654 0.230501
0.400206 0.507296 0.230150
0.527187 0.506231 0.229393
0.640029 0.501894 0.237314
0.782842 0.501107 0.219372
0.910539 0.498051 0.213625
1.000000 0.495535 0.208278
0.021101 0.633027 0.228796
0.145707 0.632625 0.226661
0.271735 0.632224 0.224938
0.399300 0.631822 0.224545
0.526860 0.631420 0.224151
0.653705 0.630326 0.223303
0.781344 0.627568 0.217905
0.908897 0.624485 0.212016
1.000000 0.621962 0.206490
0.019807 0.757392 0.222911
0.144371 0.756947 0.220508
0.270371 0.756502 0.218685
0.397926 0.756057 0.218248
0.525476 0.755612 0.217812
0.653021 0.755167 0.217376
0.779847 0.754017 0.216437
0.907254 0.750907 0.210406
1.000000 0.748374 0.204702
0.017822 0.881467 0.216341
0.142343 0.880979 0.213681
0.268348 0.880490 0.211740
0.395956 0.880002 0.211261
0.523560 0.879514 0.210783
0.651160 0.879025 0.210304
0.778757 0.878537 0.209826
0.905611 0.877318 0.208796
1.000000 0.874772 0.202914
0.015251 1.000000 0.209190
0.139719 1.000000 0.206266
0.265735 1.000000 0.204188
0.393422 1.000000 0.203656
0.521105 1.000000 0.203125
0.648784 1.000000 0.202593
0.776459 1.000000 0.202062
0.904129 1.000000 0.201530
1.000000 1.000000 0.201126
0.025365 0.007177 0.368691
0.151621 0.006867 0.368375
0.277872 0.006558 0.368060
0.403369 0.005536 0.367000
0.531893 0.004255 0.363814
0.660330 0.002482 0.360146
0.788680 0.000219 0.355993
0.916944 0.000000 0.352920
1.000000 0.000000 0.350343
0.023949 0.132435 0.367629
0.149226 0.130827 0.367314
0.276355 0.130518 0.366998
0.402308 0.129496 0.365611
0.530686 0.128072 0.361822
0.658977 0.126157 0.357676
0.787183 0.123752 0.353096
0.915302 0.120855 0.348055
1.000000 0.118462 0.343569
0.022908 0.258088 0.366568
0.147599 0.256926 0.366252
0.273639 0.254477 0.365937
0.401246 0.253455 0.363694
0.529479 0.251889 0.359129
0.657625 0.249832 0.354515
0.785685 0.247284 0.349539
0.913659 0.244245 0.344127
1.000000 0.241674 0.339247
0.021512 0.383319 0.365104
0.146202 0.383003 0.364561
0.270893 0.382687 0.363420
0.400184 0.379893 0.359603
0.528272 0.376893 0.355456
0.656273 0.374482 0.350819
0.784188 0.371730 0.345692
0.912016 0.368536 0.340073
1.000000 0.365816 0.334886
0.021585 0.508250 0.360720
0.146233 0.507891 0.359538
0.270882 0.507532 0.357421
0.398199 0.507174 0.355030
0.527065 0.505633 0.354274
0.639960 0.501104 0.362247
0.766345 0.499529 0.359612
0.892687 0.497836 0.356731
1.000000 0.492890 0.333098
0.020967 0.632891 0.355681
0.145574 0.632489 0.354081
0.270180 0.632087 0.351612
0.396840 0.631685 0.349411
0.525721 0.631283 0.349017
0.653569 0.629911 0.348169
0.765596 0.625685 0.358878
0.891865 0.623896 0.355927
1.000000 0.619943 0.331310
0.019659 0.757241 0.349968
0.144223 0.756796 0.348028
0.268786 0.756351 0.345291
0.395229 0.755906 0.343100
0.523702 0.755461 0.342664
0.652170 0.755016 0.342228
0.779695 0.753663 0.341289
0.891044 0.749949 0.355122
1.000000 0.746974 0.329522
0.017659 0.881301 0.343575
0.142181 0.880813 0.341329
0.266702 0.880324 0.338345
0.393055 0.879836 0.336099
0.521388 0.879348 0.335620
0.649716 0.878859 0.335142
0.778040 0.878371 0.334663
0.905445 0.876989 0.333633
1.000000 0.873985 0.327734
0.015070 1.000000 0.336599
0.139539 1.000000 0.334060
0.264007 1.000000 0.330823
0.390318 1.000000 0.328476
0.518619 1.000000 0.327944
0.646913 1.000000 0.327413
0.775202 1.000000 0.326881
0.903484 1.000000 0.326350
1.000000 1.000000 0.325946
0.027023 0.006352 0.492706
0.153426 0.006000 0.492347
0.279824 0.005648 0.491988
0.406219 0.005297 0.491630
0.531771 0.004135 0.490435
0.660193 0.002349 0.486949
0.788529 0.000071 0.482980
0.916779 0.000000 0.479820
1.000000 0.000000 0.477191
0.025419 0.131590 0.491499
0.150639 0.129817 0.491140
0.277665 0.129466 0.490781
0.404687 0.129114 0.490423
0.530564 0.127953 0.488973
0.658841 0.126023 0.484930
0.787032 0.123603 0.480485
0.915136 0.120692 0.475597
1.000000 0.118281 0.471289
0.024236 0.257264 0.490292
0.148885 0.255610 0.489933
0.274425 0.253283 0.489574
0.402785 0.252931 0.489216
0.529357 0.251770 0.487285
0.657489 0.249698 0.482499
0.785534 0.247136 0.477521
0.913493 0.244083 0.472179
1.000000 0.241493 0.467451
0.023053 0.382925 0.489085
0.147702 0.382009 0.488726
0.272350 0.380359 0.488368
0.399054 0.376749 0.488009
0.528150 0.375587 0.484819
0.656137 0.373373 0.479104
0.784037 0.370668 0.473650
0.911850 0.367473 0.467924
1.000000 0.364705 0.462793
0.021466 0.508128 0.487437
0.146114 0.507769 0.486919
0.270762 0.507411 0.486220
0.395411 0.507052 0.484626
0.526943 0.503049 0.479154
0.654784 0.498678 0.474361
0.782539 0.495480 0.469076
0.910208 0.492020 0.463300
1.000000 0.489067 0.457917
0.020834 0.632754 0.482564
0.145440 0.632352 0.481499
0.270046 0.631950 0.479953
0.394652 0.631549 0.477109
0.522965 0.631147 0.473883
0.653432 0.629120 0.473035
0.765521 0.624663 0.483804
0.891782 0.622611 0.480845
1.000000 0.617047 0.456129
0.019511 0.757090 0.477025
0.144075 0.756645 0.475546
0.268638 0.756200 0.473517
0.393202 0.755755 0.470341
0.520481 0.755310 0.467516
0.650694 0.754864 0.467080
0.779544 0.753146 0.466141
0.890961 0.749202 0.480040
1.000000 0.744995 0.454341
0.017497 0.881135 0.470808
0.142018 0.880647 0.468977
0.266540 0.880159 0.466582
0.391061 0.879670 0.463173
0.517977 0.879182 0.460458
0.647482 0.878694 0.459979
0.776981 0.878205 0.459501
0.905279 0.876566 0.458471
1.000000 0.872910 0.452553
0.014890 1.000000 0.464008
0.139358 1.000000 0.461853
0.263827 1.000000 0.459133
0.388295 1.000000 0.455492
0.515040 1.000000 0.452764
0.644243 1.000000 0.452232
0.773437 1.000000 0.451701
0.902621 1.000000 0.451169
1.000000 1.000000 0.450765
0.028248 0.005092 0.616691
0.154803 0.004698 0.616289
0.281354 0.004304 0.615887
0.407903 0.003910 0.615485
0.534447 0.003516 0.615084
0.660057 0.002215 0.613751
0.788378 0.000000 0.609985
0.916613 0.000000 0.606675
1.000000 0.000000 0.603993
0.026454 0.130324 0.615339
0.151651 0.128373 0.614937
0.278715 0.127979 0.614535
0.405775 0.127585 0.614133
0.532830 0.127191 0.613731
0.658704 0.125890 0.612183
0.786880 0.123455 0.607874
0.914970 0.120530 0.603137
1.000000 0.118101 0.599007
0.025129 0.256037 0.613987
0.149735 0.254039 0.613585
0.275143 0.251654 0.613183
0.403085 0.251260 0.612781
0.531021 0.250866 0.612379
0.657352 0.249565 0.610481
0.785383 0.246988 0.605501
0.913327 0.243920 0.600230
1.000000 0.241313 0.595654
0.023804 0.381738 0.612635
0.148410 0.380321 0.612233
0.273016 0.378100 0.611831
0.398874 0.374935 0.611429
0.528692 0.374541 0.611027
0.656000 0.373239 0.608467
0.783885 0.370520 0.602587
0.911685 0.367310 0.596726
1.000000 0.364525 0.591674
0.022479 0.507427 0.611283
0.147085 0.506588 0.610881
0.271691 0.505403 0.610479
0.396297 0.503187 0.610077
0.523792 0.498216 0.609675
0.654648 0.496914 0.605384
0.782388 0.494053 0.598410
0.910042 0.490700 0.592074
1.000000 0.487737 0.586597
0.020700 0.632618 0.609446
0.145306 0.632216 0.608916
0.269912 0.631814 0.608293
0.394518 0.631412 0.607418
0.519124 0.631010 0.605299
0.653296 0.625599 0.597902
0.780891 0.619723 0.592460
0.908399 0.615711 0.586528
1.000000 0.612452 0.580949
0.019363 0.756939 0.604080
0.143926 0.756494 0.603062
0.268490 0.756049 0.601741
0.393054 0.755603 0.599784
0.517618 0.755158 0.596110
0.647081 0.754713 0.591931
0.779393 0.752136 0.590993
0.890878 0.747919 0.604959
1.000000 0.741895 0.579161
0.017334 0.880969 0.598040
0.141856 0.880481 0.596623
0.266377 0.879993 0.594817
0.390899 0.879504 0.592310
0.515420 0.879016 0.588340
0.643402 0.878528 0.584817
0.775126 0.878039 0.584338
0.905114 0.875937 0.583308
1.000000 0.871281 0.577373
0.014709 1.000000 0.591416
0.139178 1.000000 0.589644
0.263646 1.000000 0.587441
0.388115 1.000000 0.584535
0.512583 1.000000 0.580365
0.640030 1.000000 0.577052
0.770691 1.000000 0.576520
0.901335 1.000000 0.575989
1.000000 1.000000 0.575585
0.029038 0.003397 0.740647
0.155748 0.002961 0.740202
0.282455 0.002525 0.739757
0.409159 0.002088 0.739312
0.535861 0.001652 0.738867
0.662559 0.001216 0.738422
0.788227 0.000000 0.736969
0.916447 0.000000 0.733484
1.000000 0.000000 0.730748
0.027054 0.128629 0.739150
0.152240 0.126493 0.738705
0.279393 0.126057 0.738260
0.406543 0.125621 0.737815
0.533689 0.125185 0.737369
0.660830 0.124748 0.736924
0.786729 0.123307 0.735261
0.914804 0.120367 0.730677
1.000000 0.117920 0.726724
0.025587 0.254389 0.737653
0.150151 0.252095 0.737207
0.275499 0.249590 0.736762
0.403331 0.249153 0.736317
0.531158 0.248717 0.735872
0.658980 0.248281 0.735427
0.785232 0.246840 0.733480
0.913161 0.243758 0.728280
1.000000 0.241132 0.723854
0.024119 0.380137 0.736155
0.148683 0.378339 0.735710
0.273247 0.375771 0.735265
0.398877 0.372686 0.734820
0.527878 0.372250 0.734375
0.656873 0.371813 0.733929
0.783734 0.370372 0.731523
0.911519 0.367148 0.725527
1.000000 0.364344 0.720552
0.022652 0.505875 0.734658
0.147216 0.504569 0.734213
0.271780 0.502773 0.733767
0.396343 0.499906 0.733322
0.522573 0.495782 0.732877
0.654074 0.495346 0.732432
0.782237 0.493905 0.729157
0.909876 0.490538 0.722088
1.000000 0.487556 0.716491
0.021184 0.631602 0.733160
0.145748 0.630786 0.732715
0.270312 0.629759 0.732270
0.394876 0.628271 0.731825
0.519440 0.625410 0.731380
0.647850 0.618878 0.730935
0.780739 0.617437 0.725389
0.908233 0.613928 0.717046
1.000000 0.610768 0.710914
0.019214 0.756788 0.731134
0.143778 0.756343 0.730578
0.268342 0.755897 0.729963
0.392906 0.755452 0.729225
0.517470 0.755007 0.728155
0.642033 0.754562 0.725441
0.779242 0.747543 0.715845
0.906591 0.740028 0.709756
1.000000 0.736154 0.703980
0.017172 0.880804 0.725271
0.141693 0.880315 0.724269
0.266215 0.879827 0.723051
0.390736 0.879339 0.721445
0.515258 0.878850 0.719030
0.639779 0.878362 0.714424
0.770547 0.877874 0.709176
0.904948 0.874681 0.708146
1.000000 0.868351 0.702192
0.014529 1.000000 0.718822
0.138997 1.000000 0.717434
0.263466 1.000000 0.715747
0.387934 1.000000 0.713575
0.512403 1.000000 0.710529
0.636871 1.000000 0.705660
0.765646 1.000000 0.701340
0.899061 1.000000 0.700808
1.000000 1.000000 0.700404
0.029393 0.001267 0.864574
0.156260 0.000789 0.864086
0.283125 0.000310 0.863598
0.410074 0.000000 0.863109
0.537086 0.000000 0.862621
0.663953 0.000000 0.862133
0.790677 0.000000 0.861644
0.916281 0.000000 0.860247
1.000000 0.000000 0.857457
0.027220 0.126503 0.862932
0.152401 0.124179 0.862443
0.279668 0.123700 0.861955
0.406931 0.123222 0.861467
0.534192 0.122743 0.860978
0.661449 0.122265 0.860490
0.788702 0.121786 0.860002
0.914638 0.120205 0.858216
1.000000 0.117740 0.854440
0.025610 0.252313 0.861289
0.150131 0.249743 0.860801
0.275449 0.247090 0.860312
0.403284 0.246612 0.859824
0.531114 0.246133 0.859336
0.658941 0.245655 0.858847
0.786764 0.245176 0.858359
0.912996 0.243595 0.856328
1.000000 0.240952 0.852054
0.024000 0.378114 0.859646
0.148521 0.375984 0.859158
0.273043 0.373129 0.858669
0.398569 0.370002 0.858181
0.527274 0.369523 0.857693
0.655974 0.369045 0.857204
0.784668 0.368566 0.856716
0.911353 0.366985 0.854325
1.000000 0.364164 0.849428
0.022390 0.503904 0.858003
0.146912 0.502213 0.857515
0.271433 0.499991 0.857027
0.395955 0.496784 0.856538
0.521841 0.492913 0.856050
0.652046 0.492435 0.855562
0.782244 0.491956 0.855073
0.909710 0.490375 0.852100
1.000000 0.487376 0.846382
0.020780 0.629684 0.856361
0.145302 0.628430 0.855872
0.269823 0.626839 0.855384
0.394345 0.624620 0.854896
0.518866 0.621028 0.854407
0.645523 0.615825 0.853919
0.778933 0.615346 0.853431
0.908067 0.613765 0.849355
1.000000 0.610588 0.842499
0.019170 0.755454 0.854718
0.143692 0.754636 0.854230
0.268213 0.753672 0.853741
0.392735 0.752438 0.853253
0.517256 0.750612 0.852765
0.641778 0.747027 0.852276
0.771230 0.738737 0.851788
0.906425 0.737156 0.844833
1.000000 0.733800 0.836517
0.017009 0.880638 0.852500
0.141531 0.880149 0.851913
0.266052 0.879661 0.851283
0.390574 0.879173 0.850579
0.515095 0.878684 0.849717
0.639617 0.878196 0.848432
0.764138 0.877708 0.845051
0.904782 0.868883 0.832983
1.000000 0.860934 0.827012
0.014348 1.000000 0.846228
0.138817 1.000000 0.845222
0.263285 1.000000 0.844052
0.387754 1.000000 0.842612
0.512222 1.000000 0.840690
0.636691 1.000000 0.837759
0.761159 1.000000 0.832100
0.893401 1.000000 0.825628
1.000000 1.000000 0.825224
0.030571 0.000000 0.988472
0.157867 0.000000 0.987940
0.285025 0.000000 0.987409
0.412047 0.000000 0.986877
0.538931 0.000000 0.986346
0.665679 0.000000 0.985814
0.792289 0.000000 0.985283
0.918763 0.000000 0.984751
1.000000 0.000000 0.984119
0.026950 0.123944 0.986684
0.152129 0.121429 0.986152
0.279524 0.120908 0.985621
0.406916 0.120387 0.985089
0.534304 0.119867 0.984558
0.661690 0.119346 0.984026
0.789072 0.118825 0.983495
0.916451 0.118304 0.982963
1.000000 0.117559 0.982155
0.025198 0.249808 0.984896
0.149677 0.246972 0.984364
0.274976 0.244156 0.983833
0.402869 0.243635 0.983301
0.530758 0.243114 0.982770
0.658644 0.242593 0.982238
0.786526 0.242073 0.981707
0.914404 0.241552 0.981175
1.000000 0.240771 0.980251
0.023446 0.375662 0.983108
0.147925 0.373229 0.982576
0.272404 0.370108 0.982045
0.397873 0.366883 0.981513
0.526473 0.366362 0.980982
0.655069 0.365841 0.980450
0.783660 0.365320 0.979919
0.912247 0.364800 0.979387
1.000000 0.363983 0.978301
0.021693 0.501507 0.981320
0.146172 0.499476 0.980788
0.270652 0.496903 0.980257
0.395131 0.493425 0.979725
0.520860 0.489610 0.979194
0.650544 0.489089 0.978662
0.780222 0.488568 0.978131
0.909895 0.488047 0.977599
1.000000 0.487195 0.976270
0.019941 0.627342 0.979532
0.144420 0.625712 0.979000
0.268899 0.623684 0.978469
0.393379 0.620994 0.977937
0.517858 0.617078 0.977406
0.644036 0.612337 0.976874
0.775589 0.611816 0.976343
0.907134 0.611295 0.975811
1.000000 0.610407 0.974077
0.018189 0.753167 0.977744
0.142668 0.751936 0.977212
0.267147 0.750453 0.976681
0.391626 0.748547 0.976149
0.516105 0.745862 0.975618
0.640585 0.741466 0.975086
0.767722 0.735064 0.974555
0.903268 0.734543 0.974023
1.000000 0.733619 0.971478
0.016437 0.878983 0.975956
0.140916 0.878150 0.975424
0.265395 0.877208 0.974893
0.389874 0.876085 0.974361
0.514353 0.874625 0.973830
0.638832 0.872428 0.973298
0.763311 0.868039 0.972767
0.893931 0.857791 0.972235
1.000000 0.856831 0.967257
0.014168 1.000000 0.973633
0.138636 1.000000 0.973010
0.263105 1.000000 0.972354
0.387573 1.000000 0.971647
0.512042 1.000000 0.970847
0.636510 1.000000 0.969851
0.760979 1.000000 0.968329
0.885447 1.000000 0.964196
1.000000 1.000000 0.950043
