luts/original/hip-hop-punch.cube
TITLE "Hip Hop Punch"
LUT_3D_SIZE 5
DOMAIN_MIN 0.0 0.0 0.0
DOMAIN_MAX 1.0 1.0 1.0
0.001050 0.000000 0.000000
0.274600 0.000000 0.000000
0.562775 0.000000 0.000000
0.865575 0.000000 0.000000
1.000000 0.000000 0.000000
0.001537 0.256458 0.000000
0.274600 0.256458 0.000000
0.562775 0.258505 0.000000
0.865575 0.260552 0.000000
1.000000 0.262600 0.000000
0.002025 0.538880 0.000000
0.282400 0.538880 0.000000
0.562775 0.538880 0.000000
0.865575 0.548240 0.000000
1.000000 0.557600 0.000000
0.002512 0.835927 0.000000
0.290200 0.835927 0.000000
0.577887 0.835927 0.000000
0.865575 0.835927 0.000000
1.000000 0.852600 0.000000
0.003000 1.000000 0.000000
0.298000 1.000000 0.000000
0.593000 1.000000 0.000000
0.888000 1.000000 0.000000
1.000000 1.000000 0.000000
0.001537 0.000000 0.238315
0.274600 0.000000 0.238315
0.562775 0.000000 0.234610
0.865575 0.000000 0.230905
1.000000 0.000000 0.227200
0.000000 0.256458 0.238105
0.274600 0.250349 0.226097
0.562775 0.229582 0.202588
0.865575 0.204244 0.171409
1.000000 0.186265 0.147200
0.000000 0.538880 0.233404
0.258742 0.538880 0.204500
0.562775 0.535781 0.202588
0.865575 0.518492 0.171409
1.000000 0.511803 0.147200
0.000000 0.835927 0.229056
0.239543 0.835927 0.173781
0.554176 0.835927 0.173781
0.865575 0.832740 0.171409
1.000000 0.837341 0.147200
0.000000 1.000000 0.224875
0.225329 1.000000 0.147200
0.550867 1.000000 0.147200
0.876406 1.000000 0.147200
1.000000 1.000000 0.147200
0.002025 0.000000 0.514985
0.282400 0.000000 0.514985
0.562775 0.000000 0.514985
0.865575 0.000000 0.518592
1.000000 0.000000 0.522200
0.000000 0.257493 0.514985
0.258046 0.230306 0.514985
0.562775 0.226483 0.508123
0.865575 0.201056 0.483793
1.000000 0.182600 0.470364
0.000000 0.538880 0.514856
0.252290 0.538880 0.510879
0.562775 0.522869 0.482963
0.865575 0.494502 0.459096
1.000000 0.483527 0.442200
0.000000 0.835927 0.517615
0.233076 0.835927 0.484561
0.533004 0.835927 0.461468
0.865575 0.830170 0.459096
1.000000 0.827920 0.442200
0.000000 1.000000 0.520762
0.218000 1.000000 0.467750
0.524854 1.000000 0.442200
0.869247 1.000000 0.442200
1.000000 1.000000 0.442200
0.002512 0.000000 0.806280
0.290200 0.000000 0.806280
0.577887 0.000000 0.806280
0.865575 0.000000 0.806280
1.000000 0.000000 0.817200
0.000000 0.258841 0.806280
0.238942 0.205800 0.806280
0.555754 0.205800 0.806280
0.865575 0.201056 0.799545
1.000000 0.182600 0.797368
0.000000 0.547439 0.806280
0.235448 0.520864 0.806280
0.530601 0.493488 0.806280
0.865575 0.488744 0.793531
1.000000 0.477600 0.784144
0.000000 0.835927 0.806175
0.233076 0.835927 0.802634
0.520763 0.835927 0.798490
0.865575 0.806180 0.746784
1.000000 0.788092 0.737200
0.000000 1.000000 0.816650
0.218000 1.000000 0.796368
0.513000 1.000000 0.781269
0.838985 1.000000 0.737200
1.000000 1.000000 0.737200
0.003000 0.000000 1.000000
0.298000 0.000000 1.000000
0.593000 0.000000 1.000000
0.888000 0.000000 1.000000
1.000000 0.000000 1.000000
0.000000 0.260381 1.000000
0.221841 0.182600 1.000000
0.548845 0.182600 1.000000
0.875849 0.182600 1.000000
1.000000 0.182600 1.000000
0.000000 0.556269 1.000000
0.218000 0.507184 1.000000
0.519401 0.477600 1.000000
0.867747 0.477600 1.000000
1.000000 0.477600 1.000000
0.000000 0.852156 1.000000
0.218000 0.835802 1.000000
0.513000 0.823627 1.000000
0.827213 0.772600 1.000000
1.000000 0.772600 1.000000
0.000000 1.000000 1.000000
0.218000 1.000000 1.000000
0.513000 1.000000 1.000000
0.808000 1.000000 1.000000
1.000000 0.920000 0.920000
