luts/original/hip-hop-punch.cube
TITLE "Hip Hop Punch"
LUT_3D_SIZE 33
DOMAIN_MIN 0.0 0.0 0.0
DOMAIN_MAX 1.0 1.0 1.0
0.001050 0.000000 0.000000
0.034444 0.000000 0.000000
0.068066 0.000000 0.000000
0.101917 0.000000 0.000000
0.135997 0.000000 0.000000
0.170305 0.000000 0.000000
0.204841 0.000000 0.000000
0.239606 0.000000 0.000000
0.274600 0.000000 0.000000
0.309822 0.000000 0.000000
0.345273 0.000000 0.000000
0.380952 0.000000 0.000000
0.416859 0.000000 0.000000
0.452996 0.000000 0.000000
0.489360 0.000000 0.000000
0.525953 0.000000 0.000000
0.562775 0.000000 0.000000
0.599825 0.000000 0.000000
0.637104 0.000000 0.000000
0.674611 0.000000 0.000000
0.712347 0.000000 0.000000
0.750311 0.000000 0.000000
0.788504 0.000000 0.000000
0.826925 0.000000 0.000000
0.865575 0.000000 0.000000
0.904453 0.000000 0.000000
0.943560 0.000000 0.000000
0.982895 0.000000 0.000000
0.989844 0.000000 0.000000
0.994287 0.000000 0.000000
0.997461 0.000000 0.000000
0.999365 0.000000 0.000000
1.000000 0.000000 0.000000
0.001111 0.021335 0.000000
0.034444 0.021335 0.000000
0.068066 0.020791 0.000000
0.101917 0.020247 0.000000
0.135997 0.019703 0.000000
0.170305 0.019159 0.000000
0.204841 0.018616 0.000000
0.239606 0.018072 0.000000
0.274600 0.017528 0.000000
0.309822 0.016984 0.000000
0.345273 0.016440 0.000000
0.380952 0.015896 0.000000
0.416859 0.015352 0.000000
0.452996 0.014808 0.000000
0.489360 0.014265 0.000000
0.525953 0.013721 0.000000
0.562775 0.013177 0.000000
0.599825 0.012633 0.000000
0.637104 0.012089 0.000000
0.674611 0.011545 0.000000
0.712347 0.011001 0.000000
0.750311 0.010458 0.000000
0.788504 0.009914 0.000000
0.826925 0.009370 0.000000
0.865575 0.008826 0.000000
0.904453 0.008282 0.000000
0.943560 0.007738 0.000000
0.982895 0.007194 0.000000
0.989844 0.006650 0.000000
0.994287 0.006107 0.000000
0.997461 0.005563 0.000000
0.999365 0.005019 0.000000
1.000000 0.004475 0.000000
0.001172 0.054238 0.000000
0.034619 0.054238 0.000000
0.068066 0.054238 0.000000
0.101917 0.053809 0.000000
0.135997 0.053379 0.000000
0.170305 0.052949 0.000000
0.204841 0.052520 0.000000
0.239606 0.052090 0.000000
0.274600 0.051661 0.000000
0.309822 0.051231 0.000000
0.345273 0.050801 0.000000
0.380952 0.050372 0.000000
0.416859 0.049942 0.000000
0.452996 0.049513 0.000000
0.489360 0.049083 0.000000
0.525953 0.048653 0.000000
0.562775 0.048224 0.000000
0.599825 0.047794 0.000000
0.637104 0.047365 0.000000
0.674611 0.046935 0.000000
0.712347 0.046505 0.000000
0.750311 0.046076 0.000000
0.788504 0.045646 0.000000
0.826925 0.045216 0.000000
0.865575 0.044787 0.000000
0.904453 0.044357 0.000000
0.943560 0.043928 0.000000
0.982895 0.043498 0.000000
0.989844 0.043068 0.000000
0.994287 0.042639 0.000000
0.997461 0.042209 0.000000
0.999365 0.041780 0.000000
1.000000 0.041350 0.000000
0.001233 0.087370 0.000000
0.034794 0.087370 0.000000
0.068356 0.087370 0.000000
0.101917 0.087370 0.000000
0.135997 0.087055 0.000000
0.170305 0.086739 0.000000
0.204841 0.086424 0.000000
0.239606 0.086109 0.000000
0.274600 0.085793 0.000000
0.309822 0.085478 0.000000
0.345273 0.085163 0.000000
0.380952 0.084847 0.000000
0.416859 0.084532 0.000000
0.452996 0.084217 0.000000
0.489360 0.083901 0.000000
0.525953 0.083586 0.000000
0.562775 0.083271 0.000000
0.599825 0.082955 0.000000
0.637104 0.082640 0.000000
0.674611 0.082325 0.000000
0.712347 0.082009 0.000000
0.750311 0.081694 0.000000
0.788504 0.081379 0.000000
0.826925 0.081063 0.000000
0.865575 0.080748 0.000000
0.904453 0.080432 0.000000
0.943560 0.080117 0.000000
0.982895 0.079802 0.000000
0.989844 0.079486 0.000000
0.994287 0.079171 0.000000
0.997461 0.078856 0.000000
0.999365 0.078540 0.000000
1.000000 0.078225 0.000000
0.001294 0.120731 0.000000
0.034970 0.120731 0.000000
0.068645 0.120731 0.000000
0.102321 0.120731 0.000000
0.135997 0.120731 0.000000
0.170305 0.120530 0.000000
0.204841 0.120328 0.000000
0.239606 0.120127 0.000000
0.274600 0.119926 0.000000
0.309822 0.119725 0.000000
0.345273 0.119524 0.000000
0.380952 0.119323 0.000000
0.416859 0.119122 0.000000
0.452996 0.118921 0.000000
0.489360 0.118720 0.000000
0.525953 0.118519 0.000000
0.562775 0.118317 0.000000
0.599825 0.118116 0.000000
0.637104 0.117915 0.000000
0.674611 0.117714 0.000000
0.712347 0.117513 0.000000
0.750311 0.117312 0.000000
0.788504 0.117111 0.000000
0.826925 0.116910 0.000000
0.865575 0.116709 0.000000
0.904453 0.116508 0.000000
0.943560 0.116307 0.000000
0.982895 0.116105 0.000000
0.989844 0.115904 0.000000
0.994287 0.115703 0.000000
0.997461 0.115502 0.000000
0.999365 0.115301 0.000000
1.000000 0.115100 0.000000
0.001355 0.154320 0.000000
0.035145 0.154320 0.000000
0.068935 0.154320 0.000000
0.102725 0.154320 0.000000
0.136515 0.154320 0.000000
0.170305 0.154320 0.000000
0.204841 0.154233 0.000000
0.239606 0.154146 0.000000
0.274600 0.154059 0.000000
0.309822 0.153972 0.000000
0.345273 0.153885 0.000000
0.380952 0.153799 0.000000
0.416859 0.153712 0.000000
0.452996 0.153625 0.000000
0.489360 0.153538 0.000000
0.525953 0.153451 0.000000
0.562775 0.153364 0.000000
0.599825 0.153278 0.000000
0.637104 0.153191 0.000000
0.674611 0.153104 0.000000
0.712347 0.153017 0.000000
0.750311 0.152930 0.000000
0.788504 0.152843 0.000000
0.826925 0.152757 0.000000
0.865575 0.152670 0.000000
0.904453 0.152583 0.000000
0.943560 0.152496 0.000000
0.982895 0.152409 0.000000
0.989844 0.152322 0.000000
0.994287 0.152236 0.000000
0.997461 0.152149 0.000000
0.999365 0.152062 0.000000
1.000000 0.151975 0.000000
0.001416 0.188137 0.000000
0.035320 0.188137 0.000000
0.069224 0.188137 0.000000
0.103129 0.188137 0.000000
0.137033 0.188137 0.000000
0.170937 0.188137 0.000000
0.204841 0.188137 0.000000
0.239606 0.188164 0.000000
0.274600 0.188192 0.000000
0.309822 0.188219 0.000000
0.345273 0.188247 0.000000
0.380952 0.188274 0.000000
0.416859 0.188302 0.000000
0.452996 0.188329 0.000000
0.489360 0.188356 0.000000
0.525953 0.188384 0.000000
0.562775 0.188411 0.000000
0.599825 0.188439 0.000000
0.637104 0.188466 0.000000
0.674611 0.188494 0.000000
0.712347 0.188521 0.000000
0.750311 0.188548 0.000000
0.788504 0.188576 0.000000
0.826925 0.188603 0.000000
0.865575 0.188631 0.000000
0.904453 0.188658 0.000000
0.943560 0.188685 0.000000
0.982895 0.188713 0.000000
0.989844 0.188740 0.000000
0.994287 0.188768 0.000000
0.997461 0.188795 0.000000
0.999365 0.188823 0.000000
1.000000 0.188850 0.000000
0.001477 0.222183 0.000000
0.035495 0.222183 0.000000
0.069514 0.222183 0.000000
0.103532 0.222183 0.000000
0.137551 0.222183 0.000000
0.171569 0.222183 0.000000
0.205588 0.222183 0.000000
0.239606 0.222183 0.000000
0.274600 0.222325 0.000000
0.309822 0.222466 0.000000
0.345273 0.222608 0.000000
0.380952 0.222750 0.000000
0.416859 0.222891 0.000000
0.452996 0.223033 0.000000
0.489360 0.223175 0.000000
0.525953 0.223316 0.000000
0.562775 0.223458 0.000000
0.599825 0.223600 0.000000
0.637104 0.223741 0.000000
0.674611 0.223883 0.000000
0.712347 0.224025 0.000000
0.750311 0.224167 0.000000
0.788504 0.224308 0.000000
0.826925 0.224450 0.000000
0.865575 0.224592 0.000000
0.904453 0.224733 0.000000
0.943560 0.224875 0.000000
0.982895 0.225017 0.000000
0.989844 0.225158 0.000000
0.994287 0.225300 0.000000
0.997461 0.225442 0.000000
0.999365 0.225583 0.000000
1.000000 0.225725 0.000000
0.001537 0.256458 0.000000
0.035670 0.256458 0.000000
0.069803 0.256458 0.000000
0.103936 0.256458 0.000000
0.138069 0.256458 0.000000
0.172202 0.256458 0.000000
0.206334 0.256458 0.000000
0.240467 0.256458 0.000000
0.274600 0.256458 0.000000
0.309822 0.256713 0.000000
0.345273 0.256969 0.000000
0.380952 0.257225 0.000000
0.416859 0.257481 0.000000
0.452996 0.257737 0.000000
0.489360 0.257993 0.000000
0.525953 0.258249 0.000000
0.562775 0.258505 0.000000
0.599825 0.258761 0.000000
0.637104 0.259017 0.000000
0.674611 0.259273 0.000000
0.712347 0.259529 0.000000
0.750311 0.259785 0.000000
0.788504 0.260041 0.000000
0.826925 0.260297 0.000000
0.865575 0.260552 0.000000
0.904453 0.260808 0.000000
0.943560 0.261064 0.000000
0.982895 0.261320 0.000000
0.989844 0.261576 0.000000
0.994287 0.261832 0.000000
0.997461 0.262088 0.000000
0.999365 0.262344 0.000000
1.000000 0.262600 0.000000
0.001598 0.290961 0.000000
0.035846 0.290961 0.000000
0.070093 0.290961 0.000000
0.104340 0.290961 0.000000
0.138587 0.290961 0.000000
0.172834 0.290961 0.000000
0.207081 0.290961 0.000000
0.241328 0.290961 0.000000
0.275575 0.290961 0.000000
0.309822 0.290961 0.000000
0.345273 0.291331 0.000000
0.380952 0.291701 0.000000
0.416859 0.292071 0.000000
0.452996 0.292441 0.000000
0.489360 0.292811 0.000000
0.525953 0.293182 0.000000
0.562775 0.293552 0.000000
0.599825 0.293922 0.000000
0.637104 0.294292 0.000000
0.674611 0.294662 0.000000
0.712347 0.295033 0.000000
0.750311 0.295403 0.000000
0.788504 0.295773 0.000000
0.826925 0.296143 0.000000
0.865575 0.296513 0.000000
0.904453 0.296884 0.000000
0.943560 0.297254 0.000000
0.982895 0.297624 0.000000
0.989844 0.297994 0.000000
0.994287 0.298364 0.000000
0.997461 0.298735 0.000000
0.999365 0.299105 0.000000
1.000000 0.299475 0.000000
0.001659 0.325692 0.000000
0.036021 0.325692 0.000000
0.070382 0.325692 0.000000
0.104743 0.325692 0.000000
0.139105 0.325692 0.000000
0.173466 0.325692 0.000000
0.207827 0.325692 0.000000
0.242189 0.325692 0.000000
0.276550 0.325692 0.000000
0.310911 0.325692 0.000000
0.345273 0.325692 0.000000
0.380952 0.326176 0.000000
0.416859 0.326661 0.000000
0.452996 0.327145 0.000000
0.489360 0.327630 0.000000
0.525953 0.328114 0.000000
0.562775 0.328599 0.000000
0.599825 0.329083 0.000000
0.637104 0.329568 0.000000
0.674611 0.330052 0.000000
0.712347 0.330537 0.000000
0.750311 0.331021 0.000000
0.788504 0.331505 0.000000
0.826925 0.331990 0.000000
0.865575 0.332474 0.000000
0.904453 0.332959 0.000000
0.943560 0.333443 0.000000
0.982895 0.333928 0.000000
0.989844 0.334412 0.000000
0.994287 0.334897 0.000000
0.997461 0.335381 0.000000
0.999365 0.335866 0.000000
1.000000 0.336350 0.000000
0.001720 0.360652 0.000000
0.036196 0.360652 0.000000
0.070671 0.360652 0.000000
0.105147 0.360652 0.000000
0.139623 0.360652 0.000000
0.174098 0.360652 0.000000
0.208574 0.360652 0.000000
0.243049 0.360652 0.000000
0.277525 0.360652 0.000000
0.312001 0.360652 0.000000
0.346476 0.360652 0.000000
0.380952 0.360652 0.000000
0.416859 0.361251 0.000000
0.452996 0.361849 0.000000
0.489360 0.362448 0.000000
0.525953 0.363047 0.000000
0.562775 0.363646 0.000000
0.599825 0.364244 0.000000
0.637104 0.364843 0.000000
0.674611 0.365442 0.000000
0.712347 0.366040 0.000000
0.750311 0.366639 0.000000
0.788504 0.367238 0.000000
0.826925 0.367837 0.000000
0.865575 0.368435 0.000000
0.904453 0.369034 0.000000
0.943560 0.369633 0.000000
0.982895 0.370231 0.000000
0.989844 0.370830 0.000000
0.994287 0.371429 0.000000
0.997461 0.372028 0.000000
0.999365 0.372626 0.000000
1.000000 0.373225 0.000000
0.001781 0.395841 0.000000
0.036371 0.395841 0.000000
0.070961 0.395841 0.000000
0.105551 0.395841 0.000000
0.140141 0.395841 0.000000
0.174730 0.395841 0.000000
0.209320 0.395841 0.000000
0.243910 0.395841 0.000000
0.278500 0.395841 0.000000
0.313090 0.395841 0.000000
0.347680 0.395841 0.000000
0.382270 0.395841 0.000000
0.416859 0.395841 0.000000
0.452996 0.396554 0.000000
0.489360 0.397267 0.000000
0.525953 0.397980 0.000000
0.562775 0.398692 0.000000
0.599825 0.399405 0.000000
0.637104 0.400118 0.000000
0.674611 0.400831 0.000000
0.712347 0.401544 0.000000
0.750311 0.402257 0.000000
0.788504 0.402970 0.000000
0.826925 0.403683 0.000000
0.865575 0.404396 0.000000
0.904453 0.405109 0.000000
0.943560 0.405822 0.000000
0.982895 0.406535 0.000000
0.989844 0.407248 0.000000
0.994287 0.407961 0.000000
0.997461 0.408674 0.000000
0.999365 0.409387 0.000000
1.000000 0.410100 0.000000
0.001842 0.431258 0.000000
0.036546 0.431258 0.000000
0.071250 0.431258 0.000000
0.105954 0.431258 0.000000
0.140659 0.431258 0.000000
0.175363 0.431258 0.000000
0.210067 0.431258 0.000000
0.244771 0.431258 0.000000
0.279475 0.431258 0.000000
0.314179 0.431258 0.000000
0.348883 0.431258 0.000000
0.383587 0.431258 0.000000
0.418291 0.431258 0.000000
0.452996 0.431258 0.000000
0.489360 0.432085 0.000000
0.525953 0.432912 0.000000
0.562775 0.433739 0.000000
0.599825 0.434567 0.000000
0.637104 0.435394 0.000000
0.674611 0.436221 0.000000
0.712347 0.437048 0.000000
0.750311 0.437876 0.000000
0.788504 0.438703 0.000000
0.826925 0.439530 0.000000
0.865575 0.440357 0.000000
0.904453 0.441184 0.000000
0.943560 0.442012 0.000000
0.982895 0.442839 0.000000
0.989844 0.443666 0.000000
0.994287 0.444493 0.000000
0.997461 0.445321 0.000000
0.999365 0.446148 0.000000
1.000000 0.446975 0.000000
0.001903 0.466903 0.000000
0.036721 0.466903 0.000000
0.071540 0.466903 0.000000
0.106358 0.466903 0.000000
0.141177 0.466903 0.000000
0.175995 0.466903 0.000000
0.210813 0.466903 0.000000
0.245632 0.466903 0.000000
0.280450 0.466903 0.000000
0.315268 0.466903 0.000000
0.350087 0.466903 0.000000
0.384905 0.466903 0.000000
0.419723 0.466903 0.000000
0.454542 0.466903 0.000000
0.489360 0.466903 0.000000
0.525953 0.467845 0.000000
0.562775 0.468786 0.000000
0.599825 0.469728 0.000000
0.637104 0.470669 0.000000
0.674611 0.471611 0.000000
0.712347 0.472552 0.000000
0.750311 0.473494 0.000000
0.788504 0.474435 0.000000
0.826925 0.475377 0.000000
0.865575 0.476318 0.000000
0.904453 0.477260 0.000000
0.943560 0.478201 0.000000
0.982895 0.479143 0.000000
0.989844 0.480084 0.000000
0.994287 0.481026 0.000000
0.997461 0.481967 0.000000
0.999365 0.482909 0.000000
1.000000 0.483850 0.000000
0.001964 0.502777 0.000000
0.036897 0.502777 0.000000
0.071829 0.502777 0.000000
0.106762 0.502777 0.000000
0.141695 0.502777 0.000000
0.176627 0.502777 0.000000
0.211560 0.502777 0.000000
0.246492 0.502777 0.000000
0.281425 0.502777 0.000000
0.316358 0.502777 0.000000
0.351290 0.502777 0.000000
0.386223 0.502777 0.000000
0.421155 0.502777 0.000000
0.456088 0.502777 0.000000
0.491021 0.502777 0.000000
0.525953 0.502777 0.000000
0.562775 0.503833 0.000000
0.599825 0.504889 0.000000
0.637104 0.505945 0.000000
0.674611 0.507000 0.000000
0.712347 0.508056 0.000000
0.750311 0.509112 0.000000
0.788504 0.510168 0.000000
0.826925 0.511223 0.000000
0.865575 0.512279 0.000000
0.904453 0.513335 0.000000
0.943560 0.514391 0.000000
0.982895 0.515446 0.000000
0.989844 0.516502 0.000000
0.994287 0.517558 0.000000
0.997461 0.518614 0.000000
0.999365 0.519669 0.000000
1.000000 0.520725 0.000000
0.002025 0.538880 0.000000
0.037072 0.538880 0.000000
0.072119 0.538880 0.000000
0.107166 0.538880 0.000000
0.142212 0.538880 0.000000
0.177259 0.538880 0.000000
0.212306 0.538880 0.000000
0.247353 0.538880 0.000000
0.282400 0.538880 0.000000
0.317447 0.538880 0.000000
0.352494 0.538880 0.000000
0.387541 0.538880 0.000000
0.422588 0.538880 0.000000
0.457634 0.538880 0.000000
0.492681 0.538880 0.000000
0.527728 0.538880 0.000000
0.562775 0.538880 0.000000
0.599825 0.540050 0.000000
0.637104 0.541220 0.000000
0.674611 0.542390 0.000000
0.712347 0.543560 0.000000
0.750311 0.544730 0.000000
0.788504 0.545900 0.000000
0.826925 0.547070 0.000000
0.865575 0.548240 0.000000
0.904453 0.549410 0.000000
0.943560 0.550580 0.000000
0.982895 0.551750 0.000000
0.989844 0.552920 0.000000
0.994287 0.554090 0.000000
0.997461 0.555260 0.000000
0.999365 0.556430 0.000000
1.000000 0.557600 0.000000
0.002086 0.575211 0.000000
0.037247 0.575211 0.000000
0.072408 0.575211 0.000000
0.107569 0.575211 0.000000
0.142730 0.575211 0.000000
0.177892 0.575211 0.000000
0.213053 0.575211 0.000000
0.248214 0.575211 0.000000
0.283375 0.575211 0.000000
0.318536 0.575211 0.000000
0.353697 0.575211 0.000000
0.388858 0.575211 0.000000
0.424020 0.575211 0.000000
0.459181 0.575211 0.000000
0.494342 0.575211 0.000000
0.529503 0.575211 0.000000
0.564664 0.575211 0.000000
0.599825 0.575211 0.000000
0.637104 0.576495 0.000000
0.674611 0.577780 0.000000
0.712347 0.579064 0.000000
0.750311 0.580348 0.000000
0.788504 0.581632 0.000000
0.826925 0.582917 0.000000
0.865575 0.584201 0.000000
0.904453 0.585485 0.000000
0.943560 0.586769 0.000000
0.982895 0.588054 0.000000
0.989844 0.589338 0.000000
0.994287 0.590622 0.000000
0.997461 0.591906 0.000000
0.999365 0.593191 0.000000
1.000000 0.594475 0.000000
0.002147 0.611771 0.000000
0.037422 0.611771 0.000000
0.072698 0.611771 0.000000
0.107973 0.611771 0.000000
0.143248 0.611771 0.000000
0.178524 0.611771 0.000000
0.213799 0.611771 0.000000
0.249075 0.611771 0.000000
0.284350 0.611771 0.000000
0.319625 0.611771 0.000000
0.354901 0.611771 0.000000
0.390176 0.611771 0.000000
0.425452 0.611771 0.000000
0.460727 0.611771 0.000000
0.496002 0.611771 0.000000
0.531278 0.611771 0.000000
0.566553 0.611771 0.000000
0.601829 0.611771 0.000000
0.637104 0.611771 0.000000
0.674611 0.613169 0.000000
0.712347 0.614568 0.000000
0.750311 0.615966 0.000000
0.788504 0.617365 0.000000
0.826925 0.618763 0.000000
0.865575 0.620162 0.000000
0.904453 0.621560 0.000000
0.943560 0.622959 0.000000
0.982895 0.624357 0.000000
0.989844 0.625756 0.000000
0.994287 0.627154 0.000000
0.997461 0.628553 0.000000
0.999365 0.629951 0.000000
1.000000 0.631350 0.000000
0.002208 0.648559 0.000000
0.037597 0.648559 0.000000
0.072987 0.648559 0.000000
0.108377 0.648559 0.000000
0.143766 0.648559 0.000000
0.179156 0.648559 0.000000
0.214546 0.648559 0.000000
0.249935 0.648559 0.000000
0.285325 0.648559 0.000000
0.320715 0.648559 0.000000
0.356104 0.648559 0.000000
0.391494 0.648559 0.000000
0.426884 0.648559 0.000000
0.462273 0.648559 0.000000
0.497663 0.648559 0.000000
0.533053 0.648559 0.000000
0.568442 0.648559 0.000000
0.603832 0.648559 0.000000
0.639221 0.648559 0.000000
0.674611 0.648559 0.000000
0.712347 0.650072 0.000000
0.750311 0.651585 0.000000
0.788504 0.653097 0.000000
0.826925 0.654610 0.000000
0.865575 0.656123 0.000000
0.904453 0.657636 0.000000
0.943560 0.659148 0.000000
0.982895 0.660661 0.000000
0.989844 0.662174 0.000000
0.994287 0.663687 0.000000
0.997461 0.665199 0.000000
0.999365 0.666712 0.000000
1.000000 0.668225 0.000000
0.002269 0.685576 0.000000
0.037773 0.685576 0.000000
0.073277 0.685576 0.000000
0.108780 0.685576 0.000000
0.144284 0.685576 0.000000
0.179788 0.685576 0.000000
0.215292 0.685576 0.000000
0.250796 0.685576 0.000000
0.286300 0.685576 0.000000
0.321804 0.685576 0.000000
0.357308 0.685576 0.000000
0.392812 0.685576 0.000000
0.428316 0.685576 0.000000
0.463820 0.685576 0.000000
0.499323 0.685576 0.000000
0.534827 0.685576 0.000000
0.570331 0.685576 0.000000
0.605835 0.685576 0.000000
0.641339 0.685576 0.000000
0.676843 0.685576 0.000000
0.712347 0.685576 0.000000
0.750311 0.687203 0.000000
0.788504 0.688830 0.000000
0.826925 0.690457 0.000000
0.865575 0.692084 0.000000
0.904453 0.693711 0.000000
0.943560 0.695338 0.000000
0.982895 0.696965 0.000000
0.989844 0.698592 0.000000
0.994287 0.700219 0.000000
0.997461 0.701846 0.000000
0.999365 0.703473 0.000000
1.000000 0.705100 0.000000
0.002330 0.722821 0.000000
0.037948 0.722821 0.000000
0.073566 0.722821 0.000000
0.109184 0.722821 0.000000
0.144802 0.722821 0.000000
0.180421 0.722821 0.000000
0.216039 0.722821 0.000000
0.251657 0.722821 0.000000
0.287275 0.722821 0.000000
0.322893 0.722821 0.000000
0.358511 0.722821 0.000000
0.394129 0.722821 0.000000
0.429748 0.722821 0.000000
0.465366 0.722821 0.000000
0.500984 0.722821 0.000000
0.536602 0.722821 0.000000
0.572220 0.722821 0.000000
0.607838 0.722821 0.000000
0.643457 0.722821 0.000000
0.679075 0.722821 0.000000
0.714693 0.722821 0.000000
0.750311 0.722821 0.000000
0.788504 0.724562 0.000000
0.826925 0.726303 0.000000
0.865575 0.728045 0.000000
0.904453 0.729786 0.000000
0.943560 0.731527 0.000000
0.982895 0.733269 0.000000
0.989844 0.735010 0.000000
0.994287 0.736751 0.000000
0.997461 0.738492 0.000000
0.999365 0.740234 0.000000
1.000000 0.741975 0.000000
0.002391 0.760295 0.000000
0.038123 0.760295 0.000000
0.073855 0.760295 0.000000
0.109588 0.760295 0.000000
0.145320 0.760295 0.000000
0.181053 0.760295 0.000000
0.216785 0.760295 0.000000
0.252518 0.760295 0.000000
0.288250 0.760295 0.000000
0.323982 0.760295 0.000000
0.359715 0.760295 0.000000
0.395447 0.760295 0.000000
0.431180 0.760295 0.000000
0.466912 0.760295 0.000000
0.502645 0.760295 0.000000
0.538377 0.760295 0.000000
0.574109 0.760295 0.000000
0.609842 0.760295 0.000000
0.645574 0.760295 0.000000
0.681307 0.760295 0.000000
0.717039 0.760295 0.000000
0.752771 0.760295 0.000000
0.788504 0.760295 0.000000
0.826925 0.762150 0.000000
0.865575 0.764006 0.000000
0.904453 0.765861 0.000000
0.943560 0.767717 0.000000
0.982895 0.769572 0.000000
0.989844 0.771428 0.000000
0.994287 0.773283 0.000000
0.997461 0.775139 0.000000
0.999365 0.776994 0.000000
1.000000 0.778850 0.000000
0.002452 0.797997 0.000000
0.038298 0.797997 0.000000
0.074145 0.797997 0.000000
0.109992 0.797997 0.000000
0.145838 0.797997 0.000000
0.181685 0.797997 0.000000
0.217532 0.797997 0.000000
0.253378 0.797997 0.000000
0.289225 0.797997 0.000000
0.325072 0.797997 0.000000
0.360918 0.797997 0.000000
0.396765 0.797997 0.000000
0.432612 0.797997 0.000000
0.468458 0.797997 0.000000
0.504305 0.797997 0.000000
0.540152 0.797997 0.000000
0.575998 0.797997 0.000000
0.611845 0.797997 0.000000
0.647692 0.797997 0.000000
0.683538 0.797997 0.000000
0.719385 0.797997 0.000000
0.755232 0.797997 0.000000
0.791079 0.797997 0.000000
0.826925 0.797997 0.000000
0.865575 0.799967 0.000000
0.904453 0.801936 0.000000
0.943560 0.803906 0.000000
0.982895 0.805876 0.000000
0.989844 0.807846 0.000000
0.994287 0.809816 0.000000
0.997461 0.811785 0.000000
0.999365 0.813755 0.000000
1.000000 0.815725 0.000000
0.002512 0.835927 0.000000
0.038473 0.835927 0.000000
0.074434 0.835927 0.000000
0.110395 0.835927 0.000000
0.146356 0.835927 0.000000
0.182317 0.835927 0.000000
0.218278 0.835927 0.000000
0.254239 0.835927 0.000000
0.290200 0.835927 0.000000
0.326161 0.835927 0.000000
0.362122 0.835927 0.000000
0.398083 0.835927 0.000000
0.434044 0.835927 0.000000
0.470005 0.835927 0.000000
0.505966 0.835927 0.000000
0.541927 0.835927 0.000000
0.577887 0.835927 0.000000
0.613848 0.835927 0.000000
0.649809 0.835927 0.000000
0.685770 0.835927 0.000000
0.721731 0.835927 0.000000
0.757692 0.835927 0.000000
0.793653 0.835927 0.000000
0.829614 0.835927 0.000000
0.865575 0.835927 0.000000
0.904453 0.838012 0.000000
0.943560 0.840096 0.000000
0.982895 0.842180 0.000000
0.989844 0.844264 0.000000
0.994287 0.846348 0.000000
0.997461 0.848432 0.000000
0.999365 0.850516 0.000000
1.000000 0.852600 0.000000
0.002573 0.874087 0.000000
0.038649 0.874087 0.000000
0.074724 0.874087 0.000000
0.110799 0.874087 0.000000
0.146874 0.874087 0.000000
0.182949 0.874087 0.000000
0.219025 0.874087 0.000000
0.255100 0.874087 0.000000
0.291175 0.874087 0.000000
0.327250 0.874087 0.000000
0.363325 0.874087 0.000000
0.399401 0.874087 0.000000
0.435476 0.874087 0.000000
0.471551 0.874087 0.000000
0.507626 0.874087 0.000000
0.543701 0.874087 0.000000
0.579777 0.874087 0.000000
0.615852 0.874087 0.000000
0.651927 0.874087 0.000000
0.688002 0.874087 0.000000
0.724077 0.874087 0.000000
0.760153 0.874087 0.000000
0.796228 0.874087 0.000000
0.832303 0.874087 0.000000
0.868378 0.874087 0.000000
0.904453 0.874087 0.000000
0.943560 0.876285 0.000000
0.982895 0.878483 0.000000
0.989844 0.880682 0.000000
0.994287 0.882880 0.000000
0.997461 0.885078 0.000000
0.999365 0.887277 0.000000
1.000000 0.889475 0.000000
0.002634 0.912475 0.000000
0.038824 0.912475 0.000000
0.075013 0.912475 0.000000
0.111203 0.912475 0.000000
0.147392 0.912475 0.000000
0.183582 0.912475 0.000000
0.219771 0.912475 0.000000
0.255961 0.912475 0.000000
0.292150 0.912475 0.000000
0.328339 0.912475 0.000000
0.364529 0.912475 0.000000
0.400718 0.912475 0.000000
0.436908 0.912475 0.000000
0.473097 0.912475 0.000000
0.509287 0.912475 0.000000
0.545476 0.912475 0.000000
0.581666 0.912475 0.000000
0.617855 0.912475 0.000000
0.654045 0.912475 0.000000
0.690234 0.912475 0.000000
0.726423 0.912475 0.000000
0.762613 0.912475 0.000000
0.798802 0.912475 0.000000
0.834992 0.912475 0.000000
0.871181 0.912475 0.000000
0.907371 0.912475 0.000000
0.943560 0.912475 0.000000
