luts/original/hip-hop-punch.cube
TITLE "Hip Hop Punch"
LUT_3D_SIZE 9
DOMAIN_MIN 0.0 0.0 0.0
DOMAIN_MAX 1.0 1.0 1.0
0.001050 0.000000 0.000000
0.135997 0.000000 0.000000
0.274600 0.000000 0.000000
0.416859 0.000000 0.000000
0.562775 0.000000 0.000000
0.712347 0.000000 0.000000
0.865575 0.000000 0.000000
0.989844 0.000000 0.000000
1.000000 0.000000 0.000000
0.001294 0.120731 0.000000
0.135997 0.120731 0.000000
0.274600 0.119926 0.000000
0.416859 0.119122 0.000000
0.562775 0.118317 0.000000
0.712347 0.117513 0.000000
0.865575 0.116709 0.000000
0.989844 0.115904 0.000000
1.000000 0.115100 0.000000
0.001537 0.256458 0.000000
0.138069 0.256458 0.000000
0.274600 0.256458 0.000000
0.416859 0.257481 0.000000
0.562775 0.258505 0.000000
0.712347 0.259529 0.000000
0.865575 0.260552 0.000000
0.989844 0.261576 0.000000
1.000000 0.262600 0.000000
0.001781 0.395841 0.000000
0.140141 0.395841 0.000000
0.278500 0.395841 0.000000
0.416859 0.395841 0.000000
0.562775 0.398692 0.000000
0.712347 0.401544 0.000000
0.865575 0.404396 0.000000
0.989844 0.407248 0.000000
1.000000 0.410100 0.000000
0.002025 0.538880 0.000000
0.142212 0.538880 0.000000
0.282400 0.538880 0.000000
0.422588 0.538880 0.000000
0.562775 0.538880 0.000000
0.712347 0.543560 0.000000
0.865575 0.548240 0.000000
0.989844 0.552920 0.000000
1.000000 0.557600 0.000000
0.002269 0.685576 0.000000
0.144284 0.685576 0.000000
0.286300 0.685576 0.000000
0.428316 0.685576 0.000000
0.570331 0.685576 0.000000
0.712347 0.685576 0.000000
0.865575 0.692084 0.000000
0.989844 0.698592 0.000000
1.000000 0.705100 0.000000
0.002512 0.835927 0.000000
0.146356 0.835927 0.000000
0.290200 0.835927 0.000000
0.434044 0.835927 0.000000
0.577887 0.835927 0.000000
0.721731 0.835927 0.000000
0.865575 0.835927 0.000000
0.989844 0.844264 0.000000
1.000000 0.852600 0.000000
0.002756 0.989844 0.000000
0.148428 0.989844 0.000000
0.294100 0.989844 0.000000
0.439772 0.989844 0.000000
0.585444 0.989844 0.000000
0.731116 0.989844 0.000000
0.876787 0.989844 0.000000
0.989844 0.989844 0.000000
1.000000 1.000000 0.000000
0.003000 1.000000 0.000000
0.150500 1.000000 0.000000
0.298000 1.000000 0.000000
0.445500 1.000000 0.000000
0.593000 1.000000 0.000000
0.740500 1.000000 0.000000
0.888000 1.000000 0.000000
1.000000 1.000000 0.000000
1.000000 1.000000 0.000000
0.001294 0.000000 0.105464
0.135997 0.000000 0.105464
0.274600 0.000000 0.101784
0.416859 0.000000 0.098103
0.562775 0.000000 0.094422
0.712347 0.000000 0.090742
0.865575 0.000000 0.087061
0.989844 0.000000 0.083381
1.000000 0.000000 0.079700
0.000000 0.120731 0.105056
0.135997 0.118134 0.100272
0.274600 0.109690 0.089566
0.416859 0.100008 0.076942
0.562775 0.088504 0.062401
0.712347 0.075113 0.045942
0.865575 0.059818 0.027565
0.989844 0.045497 0.010156
1.000000 0.038466 0.000000
0.000000 0.256458 0.100701
0.131470 0.256458 0.091017
0.274600 0.254476 0.089566
0.416859 0.246901 0.076942
0.562775 0.237893 0.062401
0.712347 0.227129 0.045942
0.865575 0.214519 0.027565
0.989844 0.202904 0.010156
1.000000 0.198740 0.000000
0.000000 0.395841 0.096657
0.124835 0.395841 0.078623
0.271891 0.395841 0.078623
0.416859 0.393793 0.076942
0.562775 0.387282 0.062401
0.712347 0.379144 0.045942
0.865575 0.369220 0.027565
0.989844 0.360312 0.010156
1.000000 0.359013 0.000000
0.000000 0.538880 0.092678
0.116563 0.538880 0.064312
0.266044 0.538880 0.064312
0.415525 0.538880 0.064312
0.562775 0.536672 0.062401
0.712347 0.531160 0.045942
0.865575 0.523920 0.027565
0.989844 0.517720 0.010156
1.000000 0.519287 0.000000
0.000000 0.685576 0.088721
0.106455 0.685576 0.048083
0.258532 0.685576 0.048083
0.410608 0.685576 0.048083
0.562685 0.685576 0.048083
0.712347 0.683176 0.045942
0.865575 0.678621 0.027565
0.989844 0.675128 0.010156
1.000000 0.679561 0.000000
0.000000 0.835927 0.084776
0.094465 0.835927 0.029937
0.249210 0.835927 0.029937
0.403955 0.835927 0.029937
0.558701 0.835927 0.029937
0.713446 0.835927 0.029937
0.865575 0.833322 0.027565
0.989844 0.832536 0.010156
1.000000 0.839835 0.000000
0.000000 0.989844 0.080836
0.080837 0.989844 0.010156
0.238245 0.989844 0.010156
0.395653 0.989844 0.010156
0.553060 0.989844 0.010156
0.710468 0.989844 0.010156
0.867876 0.989844 0.010156
0.989844 0.989844 0.010156
1.000000 1.000000 0.000000
0.000000 1.000000 0.076931
0.076931 1.000000 0.000000
0.237205 1.000000 0.000000
0.397479 1.000000 0.000000
0.557753 1.000000 0.000000
0.718027 1.000000 0.000000
0.878301 1.000000 0.000000
1.000000 1.000000 0.000000
1.000000 1.000000 0.000000
0.001537 0.000000 0.238315
0.138069 0.000000 0.238315
0.274600 0.000000 0.238315
0.416859 0.000000 0.236463
0.562775 0.000000 0.234610
0.712347 0.000000 0.232757
0.865575 0.000000 0.230905
0.989844 0.000000 0.229052
1.000000 0.000000 0.227200
0.000000 0.119158 0.238315
0.131695 0.110611 0.238315
0.274600 0.107708 0.233585
0.416859 0.097961 0.222481
0.562775 0.086296 0.210099
0.712347 0.072713 0.195987
0.865575 0.057213 0.180038
0.989844 0.042404 0.164864
1.000000 0.035100 0.157334
0.000000 0.256458 0.238105
0.127302 0.256458 0.234915
0.274600 0.250349 0.226097
0.416859 0.239752 0.215301
0.562775 0.229582 0.202588
0.712347 0.217818 0.187957
0.865575 0.204244 0.171409
0.989844 0.191443 0.155553
1.000000 0.186265 0.147200
0.000000 0.395841 0.235662
0.120661 0.395841 0.222738
0.266561 0.395841 0.216983
0.416859 0.392409 0.215301
0.562775 0.382681 0.202588
0.712347 0.372707 0.187957
0.865575 0.361368 0.171409
0.989844 0.351144 0.155553
1.000000 0.349034 0.147200
0.000000 0.538880 0.233404
0.112102 0.538880 0.210173
0.258742 0.538880 0.204500
0.412371 0.538880 0.204500
0.562775 0.535781 0.202588
0.712347 0.527597 0.187957
0.865575 0.518492 0.171409
0.989844 0.510844 0.155553
1.000000 0.511803 0.147200
0.000000 0.685576 0.231213
0.101626 0.685576 0.195999
0.249961 0.685576 0.190099
0.405143 0.685576 0.190099
0.560325 0.685576 0.190099
0.712347 0.682486 0.187957
0.865575 0.675616 0.171409
0.989844 0.670544 0.155553
1.000000 0.674572 0.147200
0.000000 0.835927 0.229056
0.089232 0.835927 0.180021
0.239543 0.835927 0.173781
0.396859 0.835927 0.173781
0.554176 0.835927 0.173781
0.711492 0.835927 0.173781
0.865575 0.832740 0.171409
0.989844 0.830245 0.155553
1.000000 0.837341 0.147200
0.000000 0.989844 0.226916
0.074928 0.989844 0.162189
0.227334 0.989844 0.155553
0.387034 0.989844 0.155553
0.546735 0.989844 0.155553
0.706435 0.989844 0.155553
0.866135 0.989844 0.155553
0.989844 0.989844 0.155553
1.000000 1.000000 0.147200
0.000000 1.000000 0.224875
0.070500 1.000000 0.154423
0.225329 1.000000 0.147200
0.388098 1.000000 0.147200
0.550867 1.000000 0.147200
0.713637 1.000000 0.147200
0.876406 1.000000 0.147200
1.000000 1.000000 0.147200
1.000000 1.000000 0.147200
0.001781 0.000000 0.374822
0.140141 0.000000 0.374822
0.278500 0.000000 0.374822
0.416859 0.000000 0.374822
0.562775 0.000000 0.374797
0.712347 0.000000 0.374773
0.865575 0.000000 0.374749
0.989844 0.000000 0.374724
1.000000 0.000000 0.374700
0.000000 0.117878 0.374822
0.124769 0.101324 0.374822
0.273241 0.101324 0.374822
0.416859 0.097961 0.370287
0.562775 0.086296 0.360170
0.712347 0.072713 0.348569
0.865575 0.057213 0.335236
0.989844 0.042404 0.322787
1.000000 0.035100 0.318169
0.000000 0.256944 0.374822
0.122342 0.248582 0.374822
0.266322 0.239683 0.374822
0.416859 0.236320 0.366630
0.562775 0.226483 0.353640
0.712347 0.214729 0.340482
0.865575 0.201056 0.325917
0.989844 0.188076 0.312398
1.000000 0.182600 0.306862
0.000000 0.395841 0.374667
0.120661 0.395841 0.372166
0.259020 0.395841 0.368670
0.416859 0.385260 0.353661
0.562775 0.371863 0.342775
0.712347 0.361080 0.329973
0.865575 0.349003 0.315253
0.989844 0.337909 0.301224
1.000000 0.334629 0.294700
0.000000 0.538880 0.374130
0.112102 0.538880 0.361270
0.252290 0.538880 0.353583
0.404133 0.538880 0.344687
0.562775 0.533687 0.342775
0.712347 0.521160 0.329973
0.865575 0.509944 0.315253
0.989844 0.500919 0.301224
1.000000 0.501000 0.294700
0.000000 0.685576 0.373705
0.101626 0.685576 0.349360
0.243641 0.685576 0.340152
0.394798 0.685576 0.332115
0.555858 0.685576 0.332115
0.712347 0.681240 0.329973
0.865575 0.670884 0.315253
0.989844 0.663928 0.301224
1.000000 0.667371 0.294700
0.000000 0.835927 0.373335
0.089232 0.835927 0.335866
0.233076 0.835927 0.325525
0.385382 0.835927 0.317625
0.546857 0.835927 0.317625
0.708332 0.835927 0.317625
0.865575 0.831824 0.315253
0.989844 0.826938 0.301224
1.000000 0.833742 0.294700
0.000000 0.989844 0.372996
0.074928 0.989844 0.320623
0.220600 0.989844 0.309255
0.374594 0.989844 0.301224
0.537603 0.989844 0.301224
0.700613 0.989844 0.301224
0.863623 0.989844 0.301224
0.989844 0.989844 0.301224
1.000000 1.000000 0.294700
0.000000 1.000000 0.372818
0.070500 1.000000 0.315814
0.218000 1.000000 0.303441
0.374558 1.000000 0.294700
0.540929 1.000000 0.294700
0.707300 1.000000 0.294700
0.873671 1.000000 0.294700
1.000000 1.000000 0.294700
1.000000 1.000000 0.294700
0.002025 0.000000 0.514985
0.142212 0.000000 0.514985
0.282400 0.000000 0.514985
0.422588 0.000000 0.514985
0.562775 0.000000 0.514985
0.712347 0.000000 0.516789
0.865575 0.000000 0.518592
0.989844 0.000000 0.520396
1.000000 0.000000 0.522200
0.000000 0.116730 0.514985
0.116466 0.090119 0.514985
0.266870 0.090119 0.514985
0.417275 0.090119 0.514985
0.562775 0.086296 0.510241
0.712347 0.072713 0.501151
0.865575 0.057213 0.490434
0.989844 0.042404 0.480710
1.000000 0.035100 0.479004
0.000000 0.257493 0.514985
0.114014 0.238811 0.514985
0.258046 0.230306 0.514985
0.414256 0.230306 0.514985
0.562775 0.226483 0.508123
0.712347 0.214729 0.496324
0.865575 0.201056 0.483793
0.989844 0.188076 0.472772
1.000000 0.182600 0.470364
0.000000 0.398255 0.514985
0.114014 0.390188 0.514985
0.254201 0.384593 0.514985
0.403294 0.370494 0.514985
0.562775 0.366670 0.502589
0.712347 0.356744 0.487189
0.865575 0.344900 0.473052
0.989844 0.333748 0.460864
1.000000 0.330100 0.457403
0.000000 0.538880 0.514856
0.112102 0.538880 0.512367
0.252290 0.538880 0.510879
0.392477 0.538880 0.505476
0.562775 0.522869 0.482963
0.712347 0.506025 0.471988
0.865575 0.494502 0.459096
0.989844 0.484866 0.446896
1.000000 0.483527 0.442200
0.000000 0.685576 0.516198
0.101626 0.685576 0.502720
0.243641 0.685576 0.497623
0.385657 0.685576 0.486734
0.544186 0.685576 0.474130
0.712347 0.678311 0.471988
0.865575 0.662336 0.459096
0.989844 0.653227 0.446896
1.000000 0.655724 0.442200
0.000000 0.835927 0.517615
0.089232 0.835927 0.491711
0.233076 0.835927 0.484561
0.376920 0.835927 0.472231
0.533004 0.835927 0.461468
0.702350 0.835927 0.461468
0.865575 0.830170 0.459096
0.989844 0.821589 0.446896
1.000000 0.827920 0.442200
0.000000 0.989844 0.519075
0.074928 0.989844 0.479056
0.220600 0.989844 0.470370
0.366272 0.989844 0.457063
0.522835 0.989844 0.446896
0.691197 0.989844 0.446896
0.859559 0.989844 0.446896
0.989844 0.989844 0.446896
1.000000 1.000000 0.442200
0.000000 1.000000 0.520762
0.070500 1.000000 0.477204
0.218000 1.000000 0.467750
0.365500 1.000000 0.453266
0.524854 1.000000 0.442200
0.697051 1.000000 0.442200
0.869247 1.000000 0.442200
1.000000 1.000000 0.442200
1.000000 1.000000 0.442200
0.002269 0.000000 0.658804
0.144284 0.000000 0.658804
0.286300 0.000000 0.658804
0.428316 0.000000 0.658804
0.570331 0.000000 0.658804
0.712347 0.000000 0.658804
0.865575 0.000000 0.662436
0.989844 0.000000 0.666068
1.000000 0.000000 0.669700
0.000000 0.115626 0.658804
0.106354 0.076996 0.658804
0.259145 0.076996 0.658804
0.411936 0.076996 0.658804
0.564728 0.076996 0.658804
0.712347 0.072713 0.653733
0.865575 0.057213 0.645632
0.989844 0.042404 0.638633
1.000000 0.035100 0.639839
0.000000 0.258143 0.658804
0.103768 0.227760 0.658804
0.249306 0.219012 0.658804
0.406002 0.219012 0.658804
0.562698 0.219012 0.658804
0.712347 0.214729 0.652167
0.865575 0.201056 0.641669
0.989844 0.188076 0.633146
1.000000 0.182600 0.633866
0.000000 0.400661 0.658804
0.103768 0.381286 0.658804
0.245783 0.373247 0.658804
0.393324 0.361028 0.658804
0.558360 0.361028 0.658804
0.712347 0.356744 0.649204
0.865575 0.344900 0.635259
0.989844 0.333748 0.624914
1.000000 0.330100 0.624906
0.000000 0.543179 0.658804
0.103768 0.534812 0.658804
0.245783 0.531341 0.658804
0.387799 0.523302 0.658804
0.542609 0.503043 0.658804
0.712347 0.498760 0.641462
0.865575 0.488744 0.623126
0.989844 0.479420 0.611192
1.000000 0.477600 0.609971
0.000000 0.685576 0.658690
0.101626 0.685576 0.656081
0.243641 0.685576 0.655095
0.385657 0.685576 0.652987
0.527673 0.685576 0.645333
0.712347 0.663176 0.614004
0.865575 0.642236 0.602940
0.989844 0.632969 0.592568
1.000000 0.633674 0.589700
0.000000 0.835927 0.661895
0.089232 0.835927 0.647555
0.233076 0.835927 0.643597
0.376920 0.835927 0.636772
0.520763 0.835927 0.622190
0.686720 0.835927 0.605312
0.865575 0.826280 0.602940
0.989844 0.811464 0.592568
1.000000 0.816899 0.589700
0.000000 0.989844 0.665155
0.074928 0.989844 0.637490
0.220600 0.989844 0.631485
0.366272 0.989844 0.622286
0.511944 0.989844 0.606419
0.673370 0.989844 0.592568
0.851865 0.989844 0.592568
0.989844 0.989844 0.592568
1.000000 1.000000 0.589700
0.000000 1.000000 0.668706
0.070500 1.000000 0.638595
0.218000 1.000000 0.632059
0.365500 1.000000 0.622046
0.513000 1.000000 0.604776
0.677648 1.000000 0.589700
0.860873 1.000000 0.589700
1.000000 1.000000 0.589700
1.000000 1.000000 0.589700
0.002512 0.000000 0.806280
0.146356 0.000000 0.806280
0.290200 0.000000 0.806280
0.434044 0.000000 0.806280
0.577887 0.000000 0.806280
0.721731 0.000000 0.806280
0.865575 0.000000 0.806280
0.989844 0.000000 0.811740
1.000000 0.000000 0.817200
0.000000 0.114542 0.806280
0.094364 0.061956 0.806280
0.249711 0.061956 0.806280
0.405057 0.061956 0.806280
0.560404 0.061956 0.806280
0.715750 0.061956 0.806280
0.865575 0.057213 0.800830
0.989844 0.042404 0.796557
1.000000 0.035100 0.800674
0.000000 0.258841 0.806280
0.091604 0.215006 0.806280
0.238942 0.205800 0.806280
0.397348 0.205800 0.806280
0.555754 0.205800 0.806280
0.714159 0.205800 0.806280
0.865575 0.201056 0.799545
0.989844 0.188076 0.793519
1.000000 0.182600 0.797368
0.000000 0.403140 0.806280
0.091604 0.370963 0.806280
0.235448 0.361465 0.806280
0.384052 0.349644 0.806280
0.547734 0.349644 0.806280
0.711416 0.349644 0.806280
0.865575 0.344900 0.797466
0.989844 0.333748 0.788964
1.000000 0.330100 0.792409
0.000000 0.547439 0.806280
0.091604 0.526920 0.806280
0.235448 0.520864 0.806280
0.379291 0.510000 0.806280
0.530601 0.493488 0.806280
0.705554 0.493488 0.806280
0.865575 0.488744 0.793531
0.989844 0.479420 0.781370
1.000000 0.477600 0.784144
0.000000 0.691738 0.806280
0.091604 0.682878 0.806280
0.235448 0.680262 0.806280
0.379291 0.675571 0.806280
0.523135 0.664708 0.806280
0.684269 0.637331 0.806280
0.865575 0.632588 0.783249
0.989844 0.625092 0.766179
1.000000 0.625100 0.767610
0.000000 0.835927 0.806175
0.089232 0.835927 0.803400
0.233076 0.835927 0.802634
0.376920 0.835927 0.801313
0.520763 0.835927 0.798490
0.664607 0.835927 0.788241
0.865575 0.806180 0.746784
0.989844 0.784997 0.738240
1.000000 0.788092 0.737200
0.000000 0.989844 0.811235
0.074928 0.989844 0.795924
0.220600 0.989844 0.792601
0.366272 0.989844 0.787510
0.511944 0.989844 0.778728
0.657616 0.989844 0.759964
0.831755 0.989844 0.738240
0.989844 0.989844 0.738240
1.000000 1.000000 0.737200
0.000000 1.000000 0.816650
0.070500 1.000000 0.799985
0.218000 1.000000 0.796368
0.365500 1.000000 0.790827
0.513000 1.000000 0.781269
0.660500 1.000000 0.760845
0.838985 1.000000 0.737200
1.000000 1.000000 0.737200
1.000000 1.000000 0.737200
0.002756 0.000000 0.957412
0.148428 0.000000 0.957412
0.294100 0.000000 0.957412
0.439772 0.000000 0.957412
0.585444 0.000000 0.957412
0.731116 0.000000 0.957412
0.876787 0.000000 0.957412
0.989844 0.000000 0.957412
1.000000 0.000000 0.964700
0.000000 0.113469 0.957412
0.080477 0.044999 0.957412
0.238459 0.044999 0.957412
0.396441 0.044999 0.957412
0.554423 0.044999 0.957412
0.712404 0.044999 0.957412
0.870386 0.044999 0.957412
0.989844 0.042404 0.954480
1.000000 0.035100 0.961509
0.000000 0.259564 0.957412
0.077523 0.200433 0.957412
0.226770 0.190671 0.957412
0.387338 0.190671 0.957412
0.547906 0.190671 0.957412
0.708474 0.190671 0.957412
0.869042 0.190671 0.957412
0.989844 0.188076 0.953893
1.000000 0.182600 0.960870
0.000000 0.405659 0.957412
0.077523 0.358950 0.957412
0.223195 0.348265 0.957412
0.373392 0.336343 0.957412
0.537922 0.336343 0.957412
0.702452 0.336343 0.957412
0.866981 0.336343 0.957412
0.989844 0.333748 0.953014
1.000000 0.330100 0.959913
0.000000 0.551753 0.957412
0.077523 0.517467 0.957412
0.223195 0.509624 0.957412
0.368866 0.497324 0.957412
0.520704 0.482015 0.957412
0.692066 0.482015 0.957412
0.863428 0.482015 0.957412
0.989844 0.479420 0.951547
1.000000 0.477600 0.958317
0.000000 0.697848 0.957412
0.077523 0.675984 0.957412
0.223195 0.670983 0.957412
0.368866 0.663139 0.957412
0.514538 0.649071 0.957412
0.669879 0.627686 0.957412
0.855838 0.627686 0.957412
0.989844 0.625092 0.948614
1.000000 0.625100 0.955124
0.000000 0.843942 0.957412
0.077523 0.834501 0.957412
0.223195 0.832342 0.957412
0.368866 0.828955 0.957412
0.514538 0.822880 0.957412
0.660210 0.808811 0.957412
0.828273 0.773358 0.957412
0.989844 0.770764 0.939810
1.000000 0.772600 0.945541
0.000000 0.989844 0.957314
0.074928 0.989844 0.954358
0.220600 0.989844 0.953716
0.366272 0.989844 0.952733
0.511944 0.989844 0.951037
0.657616 0.989844 0.947414
0.803288 0.989844 0.934246
0.989844 0.989844 0.883912
1.000000 1.000000 0.884700
0.000000 1.000000 0.964594
0.070500 1.000000 0.961376
0.218000 1.000000 0.960677
0.365500 1.000000 0.959607
0.513000 1.000000 0.957761
0.660500 1.000000 0.953818
0.808000 1.000000 0.939486
1.000000 1.000000 0.884700
1.000000 1.000000 0.884700
0.003000 0.000000 1.000000
0.150500 0.000000 1.000000
0.298000 0.000000 1.000000
0.445500 0.000000 1.000000
0.593000 0.000000 1.000000
0.740500 0.000000 1.000000
0.888000 0.000000 1.000000
1.000000 0.000000 1.000000
1.000000 0.000000 1.000000
0.000000 0.112437 1.000000
0.073700 0.035100 1.000000
0.234535 0.035100 1.000000
0.395370 0.035100 1.000000
0.556205 0.035100 1.000000
0.717040 0.035100 1.000000
0.877875 0.035100 1.000000
1.000000 0.035100 1.000000
1.000000 0.035100 1.000000
0.000000 0.260381 1.000000
0.070500 0.193157 1.000000
0.221841 0.182600 1.000000
0.385343 0.182600 1.000000
0.548845 0.182600 1.000000
0.712347 0.182600 1.000000
0.875849 0.182600 1.000000
1.000000 0.182600 1.000000
1.000000 0.182600 1.000000
0.000000 0.408325 1.000000
0.070500 0.354547 1.000000
0.218000 0.342875 1.000000
0.370301 0.330100 1.000000
0.537804 0.330100 1.000000
0.705308 0.330100 1.000000
0.872811 0.330100 1.000000
1.000000 0.330100 1.000000
1.000000 0.330100 1.000000
0.000000 0.556269 1.000000
0.070500 0.515938 1.000000
0.218000 0.507184 1.000000
0.365500 0.493773 1.000000
0.519401 0.477600 1.000000
0.693574 0.477600 1.000000
0.867747 0.477600 1.000000
1.000000 0.477600 1.000000
1.000000 0.477600 1.000000
0.000000 0.704213 1.000000
0.070500 0.677328 1.000000
0.218000 0.671493 1.000000
0.365500 0.662554 1.000000
0.513000 0.647134 1.000000
0.670103 0.625100 1.000000
0.857617 0.625100 1.000000
1.000000 0.625100 1.000000
1.000000 0.625100 1.000000
0.000000 0.852156 1.000000
0.070500 0.838719 1.000000
0.218000 0.835802 1.000000
0.365500 0.831334 1.000000
0.513000 0.823627 1.000000
0.660500 0.807159 1.000000
0.827213 0.772600 1.000000
1.000000 0.772600 1.000000
1.000000 0.772600 1.000000
0.000000 1.000000 1.000000
0.070500 1.000000 1.000000
0.218000 1.000000 1.000000
0.365500 1.000000 1.000000
0.513000 1.000000 1.000000
0.660500 1.000000 1.000000
0.808000 1.000000 1.000000
1.000000 0.920000 0.920000
1.000000 0.920000 0.920000
0.000000 1.000000 1.000000
0.070500 1.000000 1.000000
0.218000 1.000000 1.000000
0.365500 1.000000 1.000000
0.513000 1.000000 1.000000
0.660500 1.000000 1.000000
0.808000 1.000000 1.000000
1.000000 0.920000 0.920000
1.000000 0.920000 0.920000
