luts/original/honey-studio.cube
TITLE "Honey Studio"
LUT_3D_SIZE 5
DOMAIN_MIN 0.0 0.0 0.0
DOMAIN_MAX 1.0 1.0 1.0
0.026168 0.005871 0.005871
0.287773 0.002949 0.002949
0.549032 0.000000 0.000000
0.809946 0.000000 0.000000
1.000000 0.000000 0.000000
0.032229 0.258297 0.002841
0.285940 0.256569 0.001190
0.546618 0.254276 0.000000
0.806951 0.253382 0.000000
1.000000 0.253080 0.000000
0.038062 0.508515 0.000000
0.291881 0.507797 0.000000
0.544204 0.506378 0.000000
0.803956 0.504903 0.000000
1.000000 0.504335 0.000000
0.046618 0.757569 0.000000
0.298779 0.756679 0.000000
0.550346 0.755789 0.000000
0.800961 0.754564 0.000000
1.000000 0.753784 0.000000
0.055302 1.000000 0.000000
0.306348 1.000000 0.000000
0.556858 1.000000 0.000000
0.806834 1.000000 0.000000
1.000000 1.000000 0.000000
0.035017 0.005589 0.231798
0.287629 0.002811 0.228862
0.548842 0.000000 0.216992
0.809710 0.000000 0.207243
1.000000 0.000000 0.198063
0.030890 0.258153 0.228428
0.285796 0.254330 0.222864
0.546428 0.246292 0.206821
0.806715 0.235729 0.187197
1.000000 0.224664 0.166890
0.031616 0.508325 0.211718
0.285906 0.507607 0.206678
0.544014 0.504558 0.204504
0.803720 0.494021 0.184321
1.000000 0.483628 0.163314
0.027978 0.757334 0.190973
0.282154 0.756443 0.184998
0.542710 0.755553 0.184143
0.800725 0.752214 0.181446
1.000000 0.742479 0.159738
0.020181 1.000000 0.166139
0.274612 1.000000 0.159118
0.536011 1.000000 0.158055
0.797377 1.000000 0.156992
1.000000 1.000000 0.156162
0.039051 0.000377 0.475783
0.295481 0.000000 0.475066
0.548598 0.000000 0.472074
0.809408 0.000000 0.461315
1.000000 0.000000 0.451825
0.035185 0.254277 0.473370
0.287995 0.247371 0.472652
0.546185 0.243712 0.466399
0.806413 0.232969 0.446527
1.000000 0.221529 0.427092
0.031383 0.508081 0.469247
0.280694 0.507363 0.466348
0.543771 0.499020 0.454270
0.803418 0.484259 0.434031
1.000000 0.471975 0.412953
0.027688 0.757031 0.449819
0.276833 0.756141 0.442690
0.535115 0.755251 0.433853
0.800423 0.750214 0.431156
1.000000 0.736534 0.409377
0.019820 1.000000 0.426412
0.268757 1.000000 0.416858
0.525660 1.000000 0.407694
0.792653 1.000000 0.406631
1.000000 1.000000 0.405801
0.047306 0.000000 0.719651
0.302568 0.000000 0.718761
0.557189 0.000000 0.717871
0.809105 0.000000 0.715198
1.000000 0.000000 0.705401
0.034990 0.246176 0.716656
0.287071 0.238073 0.715766
0.549538 0.237218 0.714876
0.806110 0.232679 0.708561
1.000000 0.221168 0.690261
0.032115 0.502511 0.713661
0.281260 0.497016 0.712771
0.537062 0.484343 0.711881
0.803116 0.479803 0.701163
1.000000 0.467592 0.678433
0.027397 0.756729 0.708657
0.276543 0.755839 0.706642
0.525688 0.754948 0.701744
0.800121 0.740493 0.680866
1.000000 0.721326 0.659016
0.019459 1.000000 0.686677
0.268396 1.000000 0.680952
0.517333 1.000000 0.669983
0.780756 1.000000 0.656270
1.000000 1.000000 0.655440
0.056071 0.000000 0.963402
0.310596 0.000000 0.962339
0.564559 0.000000 0.961276
0.817959 0.000000 0.960213
1.000000 0.000000 0.958791
0.031433 0.234844 0.959826
0.283447 0.225412 0.958763
0.546203 0.224392 0.957700
0.808928 0.223371 0.956637
1.000000 0.220807 0.953416
0.028000 0.492125 0.956250
0.276979 0.483620 0.955187
0.530676 0.470959 0.954124
0.801067 0.469938 0.953061
1.000000 0.467231 0.948354
0.024567 0.749324 0.952674
0.273546 0.745013 0.951611
0.522526 0.736537 0.950548
0.782217 0.716505 0.949485
1.000000 0.713655 0.940318
0.019098 1.000000 0.946934
0.268035 1.000000 0.945031
0.516972 1.000000 0.942184
0.765909 1.000000 0.934761
1.000000 1.000000 0.905079
