luts/original/honey-studio.cube
TITLE "Honey Studio"
LUT_3D_SIZE 9
DOMAIN_MIN 0.0 0.0 0.0
DOMAIN_MAX 1.0 1.0 1.0
0.026168 0.005871 0.005871
0.157014 0.004858 0.004858
0.287773 0.002949 0.002949
0.418446 0.000145 0.000145
0.549032 0.000000 0.000000
0.679532 0.000000 0.000000
0.809946 0.000000 0.000000
0.940273 0.000000 0.000000
1.000000 0.000000 0.000000
0.030091 0.132753 0.005287
0.156243 0.131483 0.004118
0.286857 0.129774 0.002070
0.417384 0.127828 0.000000
0.547825 0.127410 0.000000
0.678180 0.127130 0.000000
0.808448 0.126923 0.000000
0.938630 0.126761 0.000000
1.000000 0.126770 0.000000
0.032229 0.258297 0.002841
0.159688 0.258025 0.002579
0.285940 0.256569 0.001190
0.416322 0.255038 0.000000
0.546618 0.254276 0.000000
0.676828 0.253763 0.000000
0.806951 0.253382 0.000000
0.936988 0.253080 0.000000
1.000000 0.253080 0.000000
0.033910 0.383551 0.000000
0.161609 0.383236 0.000000
0.289098 0.382920 0.000000
0.415261 0.381632 0.000000
0.545411 0.380599 0.000000
0.675476 0.379898 0.000000
0.805453 0.379375 0.000000
0.935345 0.378957 0.000000
1.000000 0.378935 0.000000
0.038062 0.508515 0.000000
0.165061 0.508156 0.000000
0.291881 0.507797 0.000000
0.418522 0.507438 0.000000
0.544204 0.506378 0.000000
0.674123 0.505537 0.000000
0.803956 0.504903 0.000000
0.933702 0.504393 0.000000
1.000000 0.504335 0.000000
0.042314 0.633187 0.000000
0.168836 0.632785 0.000000
0.295197 0.632383 0.000000
0.421397 0.631981 0.000000
0.547436 0.631579 0.000000
0.672771 0.630678 0.000000
0.802459 0.629966 0.000000
0.932060 0.629387 0.000000
1.000000 0.629284 0.000000
0.046618 0.757569 0.000000
0.172772 0.757124 0.000000
0.298779 0.756679 0.000000
0.424637 0.756234 0.000000
0.550346 0.755789 0.000000
0.675908 0.755344 0.000000
0.800961 0.754564 0.000000
0.930417 0.753940 0.000000
1.000000 0.753784 0.000000
0.050950 0.881661 0.000000
0.176801 0.881173 0.000000
0.302513 0.880684 0.000000
0.428085 0.880196 0.000000
0.553517 0.879708 0.000000
0.678810 0.879219 0.000000
0.803964 0.878731 0.000000
0.928774 0.878051 0.000000
1.000000 0.877837 0.000000
0.055302 1.000000 0.000000
0.180892 1.000000 0.000000
0.306348 1.000000 0.000000
0.431670 1.000000 0.000000
0.556858 1.000000 0.000000
0.681913 1.000000 0.000000
0.806834 1.000000 0.000000
0.931623 1.000000 0.000000
1.000000 1.000000 0.000000
0.031868 0.006934 0.109762
0.156970 0.004816 0.107433
0.287721 0.002900 0.101235
0.418386 0.000088 0.094164
0.548964 0.000000 0.089368
0.679456 0.000000 0.084730
0.809861 0.000000 0.080137
0.940180 0.000000 0.075571
1.000000 0.000000 0.071113
0.028964 0.132709 0.107054
0.156199 0.130778 0.105357
0.286805 0.128564 0.098833
0.417324 0.125688 0.091412
0.547757 0.121969 0.083097
0.678104 0.117376 0.073886
0.808364 0.111896 0.063779
0.938538 0.105528 0.052777
1.000000 0.101260 0.043859
0.030978 0.258246 0.100023
0.159044 0.257973 0.099342
0.285888 0.256165 0.097953
0.416262 0.253328 0.090393
0.546550 0.249764 0.081938
0.676751 0.245371 0.072588
0.806866 0.240114 0.062342
0.936895 0.233980 0.051200
1.000000 0.229915 0.042071
0.031902 0.383491 0.092023
0.159929 0.383176 0.091286
0.288400 0.382860 0.090983
0.415201 0.380938 0.089374
0.545343 0.377535 0.080779
0.675399 0.373344 0.071289
0.805369 0.368312 0.060904
0.935252 0.362414 0.049623
1.000000 0.358548 0.040283
0.031733 0.508446 0.082950
0.159925 0.508088 0.082139
0.288592 0.507729 0.081795
0.417249 0.507370 0.081450
0.544136 0.505280 0.079621
0.674047 0.501295 0.069991
0.803871 0.496489 0.059467
0.933609 0.490828 0.048046
1.000000 0.487160 0.038495
0.030474 0.633111 0.072792
0.158896 0.632709 0.071901
0.287831 0.632307 0.071515
0.416759 0.631905 0.071129
0.545679 0.631503 0.070743
0.672695 0.629224 0.068693
0.802374 0.624645 0.058029
0.931967 0.619223 0.046469
1.000000 0.615751 0.036707
0.028123 0.757485 0.061547
0.156805 0.757040 0.060571
0.286042 0.756595 0.060143
0.415273 0.756149 0.059716
0.544496 0.755704 0.059289
0.673714 0.755259 0.058861
0.800876 0.752782 0.056591
0.930324 0.747599 0.044892
1.000000 0.744322 0.034919
0.024680 0.881568 0.049211
0.153639 0.881080 0.048149
0.283195 0.880592 0.047680
0.412746 0.880103 0.047212
0.542290 0.879615 0.046743
0.671829 0.879127 0.046274
0.801361 0.878638 0.045805
0.928681 0.875956 0.043315
1.000000 0.872872 0.033131
0.020361 1.000000 0.036000
0.149585 1.000000 0.034830
0.279453 1.000000 0.034298
0.409313 1.000000 0.033767
0.539168 1.000000 0.033235
0.669017 1.000000 0.032704
0.798859 1.000000 0.032172
0.928695 1.000000 0.031641
1.000000 1.000000 0.031343
0.035017 0.005589 0.231798
0.162564 0.005327 0.231526
0.287629 0.002811 0.228862
0.418278 0.000000 0.222161
0.548842 0.000000 0.216992
0.679319 0.000000 0.212055
0.809710 0.000000 0.207243
0.940014 0.000000 0.202506
1.000000 0.000000 0.198063
0.032897 0.131889 0.230882
0.161053 0.129448 0.230610
0.286712 0.126931 0.226308
0.417217 0.123966 0.218741
0.547635 0.120105 0.210488
0.677967 0.115348 0.201406
0.808213 0.109697 0.191460
0.938372 0.103149 0.180635
1.000000 0.098678 0.171929
0.030890 0.258153 0.228428
0.155628 0.257881 0.225419
0.285796 0.254330 0.222864
0.416155 0.250416 0.215290
0.546428 0.246292 0.206821
0.676615 0.241428 0.197457
0.806715 0.235729 0.187197
0.936729 0.229163 0.176041
1.000000 0.224664 0.166890
0.031799 0.383384 0.220529
0.156496 0.383069 0.216893
0.286825 0.382753 0.215880
0.415094 0.379978 0.214271
0.522611 0.375221 0.227831
0.650131 0.372758 0.223079
0.805218 0.364887 0.185759
0.935086 0.358459 0.174464
1.000000 0.354160 0.165102
0.031616 0.508325 0.211718
0.156272 0.507966 0.207670
0.285906 0.507607 0.206678
0.416208 0.507248 0.206333
0.544014 0.504558 0.204504
0.649455 0.499787 0.222430
0.803720 0.494021 0.184321
0.933444 0.487732 0.172887
1.000000 0.483628 0.163314
0.030343 0.632974 0.201877
0.154957 0.632572 0.197417
0.284481 0.632170 0.196384
0.414666 0.631768 0.195998
0.544841 0.631367 0.195612
0.672558 0.628605 0.193562
0.802223 0.623130 0.182884
0.931801 0.616983 0.171310
1.000000 0.613068 0.161526
0.027978 0.757334 0.190973
0.152550 0.756889 0.186094
0.282154 0.756443 0.184998
0.412436 0.755998 0.184571
0.542710 0.755553 0.184143
0.672976 0.755108 0.183716
0.800725 0.752214 0.181446
0.930158 0.746212 0.169733
1.000000 0.742479 0.159738
0.024521 0.881402 0.178993
0.149052 0.880914 0.173689
0.278821 0.880426 0.172521
0.409296 0.879937 0.172052
0.539764 0.879449 0.171584
0.670225 0.878961 0.171115
0.800679 0.878472 0.170646
0.928515 0.875418 0.168156
1.000000 0.871864 0.157950
0.020181 1.000000 0.166139
0.144649 1.000000 0.160385
0.274612 1.000000 0.159118
0.405315 1.000000 0.158586
0.536011 1.000000 0.158055
0.666698 1.000000 0.157523
0.797377 1.000000 0.156992
0.928048 1.000000 0.156460
1.000000 1.000000 0.156162
0.037445 0.003403 0.353806
0.165282 0.003100 0.353490
0.293110 0.002797 0.353174
0.418171 0.000000 0.350169
0.548720 0.000000 0.344561
0.679183 0.000000 0.339330
0.809559 0.000000 0.334303
0.939849 0.000000 0.329395
1.000000 0.000000 0.324967
0.035040 0.129502 0.352744
0.161995 0.127081 0.352428
0.291811 0.126778 0.352113
0.417110 0.123863 0.347978
0.547513 0.119988 0.339847
0.677831 0.115217 0.331009
0.808061 0.109551 0.321360
0.938206 0.102990 0.310861
1.000000 0.098498 0.302552
0.034021 0.257232 0.351682
0.158718 0.255042 0.351367
0.289660 0.250759 0.351051
0.416048 0.247844 0.344289
0.546306 0.243829 0.335228
0.676478 0.238919 0.325738
0.806564 0.233114 0.315506
0.936563 0.226413 0.304446
1.000000 0.221710 0.295502
0.031696 0.383277 0.349033
0.156393 0.382961 0.347703
0.281090 0.382646 0.342751
0.414986 0.377077 0.339168
0.545099 0.371252 0.330546
0.675126 0.365816 0.321027
0.805067 0.359775 0.310614
0.934920 0.352952 0.299305
1.000000 0.348205 0.289922
0.031500 0.508203 0.340484
0.156155 0.507844 0.337949
0.280811 0.507485 0.332622
0.413891 0.507126 0.331216
0.543893 0.503197 0.329387
0.649387 0.498376 0.347365
0.776785 0.495179 0.342088
0.904139 0.491718 0.336364
1.000000 0.478850 0.288134
0.030212 0.632838 0.330960
0.154826 0.632436 0.327680
0.279440 0.632034 0.322152
0.410969 0.631632 0.320867
0.543427 0.631230 0.320481
0.672422 0.627650 0.318431
0.776036 0.622956 0.341369
0.903318 0.619446 0.335575
1.000000 0.609456 0.286346
0.027833 0.757182 0.320397
0.152405 0.756737 0.316518
0.276978 0.756292 0.310708
0.408038 0.755847 0.309426
0.539973 0.755402 0.308998
0.671897 0.754957 0.308571
0.800574 0.751433 0.306301
0.902496 0.747162 0.334787
1.000000 0.740023 0.284558
0.024362 0.881237 0.308772
0.148893 0.880748 0.304355
0.273425 0.880260 0.298214
0.404367 0.879772 0.296893
0.536175 0.879283 0.296424
0.667975 0.878795 0.295956
0.799765 0.878307 0.295487
0.928350 0.874727 0.292997
1.000000 0.870551 0.282770
0.020000 1.000000 0.296277
0.144469 1.000000 0.291335
0.268937 1.000000 0.284805
0.399909 1.000000 0.283406
0.531756 1.000000 0.282874
0.663592 1.000000 0.282343
0.795417 1.000000 0.281811
0.927230 1.000000 0.281280
1.000000 1.000000 0.280982
0.039051 0.000377 0.475783
0.167221 0.000033 0.475425
0.295481 0.000000 0.475066
0.423558 0.000000 0.474707
0.548598 0.000000 0.472074
0.679046 0.000000 0.466555
0.809408 0.000000 0.461315
0.939683 0.000000 0.456240
1.000000 0.000000 0.451825
0.036343 0.126459 0.474577
0.163142 0.123874 0.474218
0.292660 0.123530 0.473859
0.422167 0.123185 0.473500
0.547391 0.119871 0.469203
0.677694 0.115086 0.460609
0.807910 0.109406 0.451257
0.938040 0.102831 0.441085
1.000000 0.098317 0.433172
0.035185 0.254277 0.473370
0.159840 0.250996 0.473011
0.287995 0.247371 0.472652
0.420590 0.247027 0.472293
0.546185 0.243712 0.466399
0.676342 0.238788 0.456700
0.806413 0.232969 0.446527
0.936397 0.226254 0.435648
1.000000 0.221529 0.427092
0.034026 0.382064 0.472163
0.158682 0.380661 0.471804
0.283337 0.377391 0.471445
0.417691 0.370868 0.471086
0.544978 0.367554 0.461378
0.674990 0.362490 0.450694
0.804915 0.356531 0.439916
0.934755 0.349677 0.428503
1.000000 0.344741 0.419292
0.031383 0.508081 0.469247
0.156038 0.507722 0.468224
0.280694 0.507363 0.466348
0.405349 0.507004 0.459052
0.543771 0.499020 0.454270
0.673638 0.491072 0.444598
0.803418 0.484259 0.434031
0.933112 0.477010 0.422569
1.000000 0.471975 0.412953
0.030081 0.632701 0.460040
0.154695 0.632299 0.457940
0.279309 0.631897 0.454514
0.403923 0.631495 0.447210
0.540240 0.631094 0.445350
0.672285 0.625824 0.443300
0.775960 0.621128 0.466297
0.903235 0.617148 0.460496
1.000000 0.604284 0.411165
0.027688 0.757031 0.449819
0.152260 0.756586 0.446939
0.276833 0.756141 0.442690
0.401406 0.755696 0.435469
0.535115 0.755251 0.433853
0.670058 0.754806 0.433426
0.800423 0.750214 0.431156
0.902413 0.745773 0.459707
1.000000 0.736534 0.409377
0.024203 0.881071 0.438550
0.148734 0.880582 0.435018
0.273265 0.880094 0.430151
0.397797 0.879606 0.422824
0.530596 0.879117 0.421265
0.664512 0.878629 0.420796
0.798417 0.878141 0.420328
0.928184 0.873765 0.417838
1.000000 0.868726 0.407589
0.019820 1.000000 0.426412
0.144288 1.000000 0.422283
0.268757 1.000000 0.416858
0.393225 1.000000 0.409284
0.525660 1.000000 0.407694
0.659165 1.000000 0.407162
0.792653 1.000000 0.406631
0.926123 1.000000 0.406099
1.000000 1.000000 0.405801
0.042976 0.000000 0.597732
0.170991 0.000000 0.597330
0.298829 0.000000 0.596928
0.426491 0.000000 0.596526
0.553977 0.000000 0.596124
0.678910 0.000000 0.593730
0.809257 0.000000 0.588280
0.939517 0.000000 0.583041
1.000000 0.000000 0.578636
0.036806 0.122626 0.596380
0.163613 0.119826 0.595978
0.293205 0.119440 0.595576
0.422789 0.119054 0.595174
0.552363 0.118669 0.594772
0.677558 0.114955 0.590206
0.807759 0.109261 0.581153
0.937874 0.102672 0.571307
1.000000 0.098137 0.563790
0.035508 0.250619 0.595028
0.160122 0.246703 0.594626
0.287774 0.243142 0.594224
0.419283 0.242756 0.593822
0.550780 0.242371 0.593420
0.676205 0.238657 0.587657
0.806262 0.232824 0.577545
0.936232 0.226095 0.566848
1.000000 0.221349 0.558678
0.034210 0.378585 0.593675
0.158824 0.376049 0.593273
0.283438 0.371499 0.592872
0.413018 0.366458 0.592470
0.548902 0.366072 0.592068
0.674853 0.362359 0.584128
0.804764 0.356386 0.572711
0.934589 0.349518 0.561122
1.000000 0.344561 0.552235
0.032912 0.506525 0.592323
0.157526 0.505359 0.591921
0.282140 0.503473 0.591519
0.406754 0.498936 0.591117
0.545145 0.489774 0.590715
0.673501 0.486061 0.577574
0.803267 0.479949 0.565141
0.932946 0.472941 0.553022
1.000000 0.467773 0.543461
0.029950 0.632565 0.589118
0.154564 0.632163 0.588197
0.279178 0.631761 0.586871
0.403792 0.631359 0.584361
0.528406 0.630957 0.574321
0.672149 0.620159 0.568169
0.801769 0.609876 0.557449
0.931303 0.601621 0.545832
1.000000 0.596173 0.535985
0.027542 0.756880 0.579239
0.152115 0.756435 0.577357
0.276688 0.755990 0.574668
0.401260 0.755545 0.570225
0.525833 0.755100 0.560656
0.665874 0.754654 0.558281
0.800272 0.747858 0.556011
0.902330 0.743479 0.584628
1.000000 0.731106 0.534197
0.024044 0.880905 0.568325
0.148575 0.880417 0.565678
0.273106 0.879928 0.562085
0.397637 0.879440 0.556747
0.522169 0.878952 0.547621
0.658347 0.878463 0.545637
0.796099 0.877975 0.545168
0.928018 0.872250 0.542678
1.000000 0.865941 0.532409
0.019639 1.000000 0.556546
0.144108 1.000000 0.553228
0.268576 1.000000 0.548907
0.393045 1.000000 0.542922
0.517513 1.000000 0.533869
0.652261 1.000000 0.531982
0.788384 1.000000 0.531450
0.924479 1.000000 0.530919
1.000000 1.000000 0.530621
0.047306 0.000000 0.719651
0.175017 0.000000 0.719206
0.302568 0.000000 0.718761
0.429958 0.000000 0.718316
0.557189 0.000000 0.717871
0.684259 0.000000 0.717425
0.809105 0.000000 0.715198
0.939351 0.000000 0.709797
1.000000 0.000000 0.705401
0.036428 0.117974 0.718154
0.163300 0.114938 0.717709
0.293094 0.114510 0.717263
0.422879 0.114083 0.716818
0.552657 0.113656 0.716373
0.682428 0.113228 0.715928
0.807608 0.109116 0.711046
0.937708 0.102513 0.701526
1.000000 0.097956 0.694405
0.034990 0.246176 0.716656
0.159563 0.241732 0.716211
0.287071 0.238073 0.715766
0.418310 0.237646 0.715321
0.549538 0.237218 0.714876
0.680757 0.236791 0.714431
0.806110 0.232679 0.708561
0.936066 0.225936 0.698046
1.000000 0.221168 0.690261
0.033552 0.374356 0.715159
0.158125 0.371042 0.714714
0.282698 0.365888 0.714269
0.411340 0.361208 0.713823
0.545152 0.360781 0.713378
0.678950 0.360353 0.712933
0.804613 0.356241 0.705502
0.934423 0.349359 0.693738
1.000000 0.344380 0.685172
0.032115 0.502511 0.713661
0.156688 0.500322 0.713216
0.281260 0.497016 0.712771
0.405833 0.491009 0.712326
0.537062 0.484343 0.711881
0.676747 0.483916 0.711436
0.803116 0.479803 0.701163
0.932780 0.472782 0.687881
1.000000 0.467592 0.678433
0.030677 0.630644 0.712164
0.155250 0.629574 0.711719
0.279823 0.628105 0.711274
0.404395 0.625668 0.710828
0.528968 0.619676 0.710383
0.672023 0.607478 0.709938
0.801618 0.603366 0.692877
0.931138 0.596205 0.678569
1.000000 0.590804 0.668388
0.027397 0.756729 0.708657
0.151970 0.756284 0.707773
0.276543 0.755839 0.706642
0.401115 0.755394 0.704976
0.525688 0.754948 0.701744
0.650261 0.754503 0.688558
0.800121 0.740493 0.680866
0.929495 0.727664 0.669096
1.000000 0.721326 0.659016
0.023884 0.880739 0.698099
0.148416 0.880251 0.696337
0.272947 0.879762 0.694016
0.397478 0.879274 0.690667
0.522009 0.878786 0.685081
0.646541 0.878297 0.672962
0.790791 0.877809 0.670009
0.927852 0.869300 0.667519
1.000000 0.861009 0.657228
0.019459 1.000000 0.686677
0.143927 1.000000 0.684170
0.268396 1.000000 0.680952
0.392864 1.000000 0.676554
0.517333 1.000000 0.669983
0.641801 1.000000 0.658687
0.780756 1.000000 0.656270
0.921632 1.000000 0.655738
1.000000 1.000000 0.655440
0.051676 0.000000 0.841541
0.179172 0.000000 0.841053
0.306518 0.000000 0.840564
0.433716 0.000000 0.840076
0.560764 0.000000 0.839588
0.687664 0.000000 0.839099
0.814415 0.000000 0.838611
0.939185 0.000000 0.836508
1.000000 0.000000 0.832119
0.035209 0.112491 0.839898
0.162172 0.109209 0.839410
0.292226 0.108740 0.838922
0.422272 0.108271 0.838433
0.552312 0.107802 0.837945
0.682344 0.107333 0.837457
0.812370 0.106865 0.836968
0.937543 0.102353 0.831744
1.000000 0.097776 0.825018
0.033632 0.240922 0.838256
0.158163 0.235986 0.837767
0.285651 0.232163 0.837279
0.416897 0.231694 0.836791
0.548135 0.231225 0.836302
0.679363 0.230756 0.835814
0.810584 0.230288 0.835326
0.935900 0.225776 0.829242
1.000000 0.220988 0.821840
0.032055 0.369332 0.836613
0.156586 0.365378 0.836125
0.281117 0.359742 0.835636
0.409426 0.355117 0.835148
0.542534 0.354648 0.834660
0.675631 0.354179 0.834171
0.808717 0.353711 0.833683
0.934257 0.349199 0.826352
1.000000 0.344200 0.818105
0.030478 0.497720 0.834970
0.155009 0.494745 0.834482
0.279540 0.490563 0.833993
0.404071 0.484014 0.833505
0.533841 0.478071 0.833017
0.670266 0.477602 0.832529
0.806676 0.477134 0.832040
0.932614 0.472622 0.822736
1.000000 0.467412 0.813397
0.028901 0.626087 0.833327
0.153432 0.624087 0.832839
0.277963 0.621352 0.832351
0.402494 0.617178 0.831862
0.527025 0.609527 0.831374
0.660129 0.601025 0.830886
0.804124 0.600557 0.830397
0.930972 0.596045 0.817504
1.000000 0.590624 0.806741
0.027324 0.754432 0.831685
0.151855 0.753402 0.831196
0.276386 0.752109 0.830708
0.400917 0.750301 0.830220
0.525448 0.747247 0.829731
0.649980 0.739611 0.829243
0.798323 0.723980 0.828755
0.929329 0.719468 0.807287
1.000000 0.713836 0.795210
0.023725 0.880573 0.827870
0.148256 0.880085 0.826993
0.272788 0.879597 0.825945
0.397319 0.879108 0.824582
0.521850 0.878620 0.822537
0.646381 0.878132 0.818495
0.770913 0.877643 0.801763
0.927686 0.860023 0.792360
1.000000 0.849411 0.782048
0.019278 1.000000 0.816806
0.143747 1.000000 0.815109
0.268215 1.000000 0.812993
0.392684 1.000000 0.810181
0.517152 1.000000 0.806088
0.641621 1.000000 0.799210
0.766089 1.000000 0.784183
0.915078 1.000000 0.780558
1.000000 1.000000 0.780260
0.056071 0.000000 0.963402
0.183404 0.000000 0.962870
0.310596 0.000000 0.962339
0.437648 0.000000 0.961807
0.564559 0.000000 0.961276
0.691329 0.000000 0.960744
0.817959 0.000000 0.960213
0.944448 0.000000 0.959681
1.000000 0.000000 0.958791
0.033149 0.106174 0.961614
0.160217 0.102639 0.961082
0.290563 0.102129 0.960551
0.420902 0.101618 0.960019
0.551234 0.101108 0.959488
0.681560 0.100598 0.958956
0.811879 0.100088 0.958425
0.942192 0.099577 0.957893
1.000000 0.097595 0.955629
0.031433 0.234844 0.959826
0.155922 0.229433 0.959294
0.283447 0.225412 0.958763
0.414829 0.224902 0.958231
0.546203 0.224392 0.957700
0.677570 0.223881 0.957168
0.808928 0.223371 0.956637
0.940280 0.222861 0.956105
1.000000 0.220807 0.953416
0.029716 0.363495 0.958038
0.154206 0.358969 0.957506
0.278696 0.352882 0.956975
0.406877 0.348185 0.956443
0.539750 0.347675 0.955912
0.672613 0.347165 0.955380
0.805468 0.346655 0.954849
0.938313 0.346144 0.954317
1.000000 0.344019 0.951034
0.028000 0.492125 0.956250
0.152489 0.488480 0.955718
0.276979 0.483620 0.955187
0.401469 0.476659 0.954655
0.530676 0.470959 0.954124
0.665877 0.470448 0.953592
0.801067 0.469938 0.953061
0.936245 0.469428 0.952529
1.000000 0.467231 0.948354
0.026283 0.620734 0.954462
0.150773 0.617969 0.953930
0.275263 0.614331 0.953399
0.399752 0.609184 0.952867
0.524242 0.601079 0.952336
0.655276 0.593732 0.951804
0.794625 0.593222 0.951273
0.933958 0.592711 0.950741
1.000000 0.590443 0.945080
0.024567 0.749324 0.952674
0.149056 0.747434 0.952142
0.273546 0.745013 0.951611
0.398036 0.741674 0.951079
0.522526 0.736537 0.950548
0.647015 0.727053 0.950016
0.782217 0.716505 0.949485
0.931033 0.715995 0.948953
1.000000 0.713655 0.940318
0.022850 0.877894 0.950886
0.147340 0.876876 0.950354
0.271830 0.875667 0.949823
0.396319 0.874130 0.949291
0.520809 0.871948 0.948760
0.645299 0.868209 0.948228
0.769789 0.858743 0.947697
0.924047 0.839278 0.947165
1.000000 0.836867 0.929607
0.019098 1.000000 0.946934
0.143566 1.000000 0.946046
0.268035 1.000000 0.945031
0.392503 1.000000 0.943803
0.516972 1.000000 0.942184
0.641440 1.000000 0.939715
0.765909 1.000000 0.934761
0.890377 1.000000 0.913995
1.000000 1.000000 0.905079
