luts/original/hype-block.cube
TITLE "Hype Block"
LUT_3D_SIZE 9
DOMAIN_MIN 0.0 0.0 0.0
DOMAIN_MAX 1.0 1.0 1.0
0.012040 0.000000 0.000000
0.146304 0.000000 0.000000
0.283005 0.000000 0.000000
0.422144 0.000000 0.000000
0.563720 0.000000 0.000000
0.707734 0.000000 0.000000
0.854185 0.000000 0.000000
0.989844 0.000000 0.000000
1.000000 0.000000 0.000000
0.014835 0.122154 0.000000
0.146304 0.122154 0.000000
0.283005 0.121618 0.000000
0.422144 0.121081 0.000000
0.563720 0.120545 0.000000
0.707734 0.120009 0.000000
0.854185 0.119473 0.000000
0.989844 0.118936 0.000000
1.000000 0.118400 0.000000
0.017630 0.254305 0.000000
0.150318 0.254305 0.000000
0.283005 0.254305 0.000000
0.422144 0.254988 0.000000
0.563720 0.255670 0.000000
0.707734 0.256353 0.000000
0.854185 0.257035 0.000000
0.989844 0.257717 0.000000
1.000000 0.258400 0.000000
0.020425 0.388894 0.000000
0.154331 0.388894 0.000000
0.288238 0.388894 0.000000
0.422144 0.388894 0.000000
0.563720 0.390795 0.000000
0.707734 0.392696 0.000000
0.854185 0.394598 0.000000
0.989844 0.396499 0.000000
1.000000 0.398400 0.000000
0.023220 0.525920 0.000000
0.158345 0.525920 0.000000
0.293470 0.525920 0.000000
0.428595 0.525920 0.000000
0.563720 0.525920 0.000000
0.707734 0.529040 0.000000
0.854185 0.532160 0.000000
0.989844 0.535280 0.000000
1.000000 0.538400 0.000000
0.026015 0.665384 0.000000
0.162359 0.665384 0.000000
0.298703 0.665384 0.000000
0.435046 0.665384 0.000000
0.571390 0.665384 0.000000
0.707734 0.665384 0.000000
0.854185 0.669722 0.000000
0.989844 0.674061 0.000000
1.000000 0.678400 0.000000
0.028810 0.807285 0.000000
0.166372 0.807285 0.000000
0.303935 0.807285 0.000000
0.441498 0.807285 0.000000
0.579060 0.807285 0.000000
0.716622 0.807285 0.000000
0.854185 0.807285 0.000000
0.989844 0.812842 0.000000
1.000000 0.818400 0.000000
0.031605 0.951624 0.000000
0.170386 0.951624 0.000000
0.309168 0.951624 0.000000
0.447949 0.951624 0.000000
0.586730 0.951624 0.000000
0.725511 0.951624 0.000000
0.864293 0.951624 0.000000
0.989844 0.951624 0.000000
1.000000 0.958400 0.000000
0.034400 1.000000 0.000000
0.174400 1.000000 0.000000
0.314400 1.000000 0.000000
0.454400 1.000000 0.000000
0.594400 1.000000 0.000000
0.734400 1.000000 0.000000
0.874400 1.000000 0.000000
1.000000 1.000000 0.000000
1.000000 1.000000 0.000000
0.014835 0.000000 0.098004
0.146304 0.000000 0.098004
0.283005 0.000000 0.092918
0.422144 0.000000 0.087831
0.563720 0.000000 0.082745
0.707734 0.000000 0.077659
0.854185 0.000000 0.072572
0.989844 0.000000 0.067486
1.000000 0.000000 0.062400
0.007687 0.122154 0.093238
0.146304 0.116889 0.087474
0.283005 0.104072 0.070359
0.422144 0.089324 0.050781
0.563720 0.082859 0.040625
0.707734 0.076751 0.030469
0.854185 0.070817 0.020312
0.989844 0.065030 0.010156
1.000000 0.059727 0.000000
0.000000 0.254305 0.077491
0.142372 0.254305 0.074377
0.283005 0.249292 0.070359
0.422144 0.236463 0.050781
0.563720 0.229068 0.040625
0.707734 0.222926 0.030469
0.854185 0.217389 0.020312
0.989844 0.212372 0.010156
1.000000 0.209044 0.000000
0.000000 0.388894 0.068977
0.132253 0.388894 0.054714
0.279958 0.388894 0.054714
0.422144 0.383601 0.050781
0.563720 0.375277 0.040625
0.707734 0.369101 0.030469
0.854185 0.363962 0.020312
0.989844 0.359714 0.010156
1.000000 0.358362 0.000000
0.000000 0.525920 0.060815
0.126136 0.525920 0.040625
0.273649 0.525920 0.040625
0.421162 0.525920 0.040625
0.563720 0.521486 0.040625
0.707734 0.515276 0.030469
0.854185 0.510535 0.020312
0.989844 0.507055 0.010156
1.000000 0.507679 0.000000
0.000000 0.665384 0.052775
0.123749 0.665384 0.030469
0.270817 0.665384 0.030469
0.417886 0.665384 0.030469
0.564955 0.665384 0.030469
0.707734 0.661451 0.030469
0.854185 0.657108 0.020312
0.989844 0.654397 0.010156
1.000000 0.656997 0.000000
0.000000 0.807285 0.044791
0.121855 0.807285 0.020312
0.269095 0.807285 0.020312
0.416335 0.807285 0.020312
0.563576 0.807285 0.020312
0.710816 0.807285 0.020312
0.854185 0.803681 0.020312
0.989844 0.801739 0.010156
1.000000 0.806314 0.000000
0.000000 0.951624 0.036839
0.120223 0.951624 0.010156
0.267962 0.951624 0.010156
0.415701 0.951624 0.010156
0.563440 0.951624 0.010156
0.711179 0.951624 0.010156
0.858918 0.951624 0.010156
0.989844 0.949080 0.010156
1.000000 0.955631 0.000000
0.000000 1.000000 0.028998
0.119454 1.000000 0.000000
0.268771 1.000000 0.000000
0.418089 1.000000 0.000000
0.567406 1.000000 0.000000
0.716724 1.000000 0.000000
0.866041 1.000000 0.000000
1.000000 1.000000 0.000000
1.000000 1.000000 0.000000
0.017630 0.000000 0.225605
0.150318 0.000000 0.225605
0.283005 0.000000 0.225605
0.422144 0.000000 0.221738
0.563720 0.000000 0.217870
0.707734 0.000000 0.214003
0.854185 0.000000 0.210135
0.989844 0.000000 0.206268
1.000000 0.000000 0.202400
0.003108 0.114356 0.225605
0.145477 0.107095 0.225605
0.283005 0.099059 0.212715
0.422144 0.083309 0.193409
0.563720 0.064374 0.171612
0.707734 0.042254 0.146851
0.854185 0.020312 0.121993
0.989844 0.010156 0.107852
1.000000 0.000000 0.095281
0.000000 0.254305 0.221198
0.131777 0.254305 0.213245
0.283005 0.243026 0.203047
0.422144 0.225609 0.183966
0.563720 0.207524 0.161699
0.707734 0.186783 0.136248
0.854185 0.163055 0.107612
0.989844 0.138123 0.077643
1.000000 0.128229 0.062400
0.000000 0.388894 0.210739
0.121214 0.388894 0.192760
0.274045 0.388894 0.188620
0.422144 0.380500 0.183966
0.563720 0.362710 0.161699
0.707734 0.343588 0.136248
0.854185 0.321977 0.107612
0.989844 0.299482 0.077643
1.000000 0.292803 0.062400
0.000000 0.525920 0.202390
0.107466 0.525920 0.170905
0.259551 0.525920 0.166991
0.415875 0.525920 0.166991
0.563720 0.517896 0.161699
0.707734 0.500394 0.136248
0.854185 0.480898 0.107612
0.989844 0.460840 0.077643
1.000000 0.457377 0.062400
0.000000 0.665384 0.194774
0.090533 0.665384 0.146167
0.243777 0.665384 0.142177
0.401246 0.665384 0.142177
0.558715 0.665384 0.142177
0.707734 0.657199 0.136248
0.854185 0.639820 0.107612
0.989844 0.622198 0.077643
1.000000 0.621951 0.062400
0.000000 0.807285 0.187499
0.070415 0.807285 0.118350
0.225424 0.807285 0.114178
0.384795 0.807285 0.114178
0.544166 0.807285 0.114178
0.703537 0.807285 0.114178
0.854185 0.798741 0.107612
0.989844 0.783557 0.077643
1.000000 0.786524 0.062400
0.000000 0.951624 0.180409
0.047112 0.951624 0.087396
0.204156 0.951624 0.082993
0.365766 0.951624 0.082993
0.527376 0.951624 0.082993
0.688986 0.951624 0.082993
0.850595 0.951624 0.082993
0.989844 0.944915 0.077643
1.000000 0.951098 0.062400
0.000000 1.000000 0.173985
0.034400 1.000000 0.067148
0.194059 1.000000 0.062400
0.358633 1.000000 0.062400
0.523206 1.000000 0.062400
0.687780 1.000000 0.062400
0.852354 1.000000 0.062400
1.000000 1.000000 0.062400
1.000000 1.000000 0.062400
0.020425 0.000000 0.355644
0.154331 0.000000 0.355644
0.288238 0.000000 0.355644
0.422144 0.000000 0.355644
0.563720 0.000000 0.352995
0.707734 0.000000 0.350346
0.854185 0.000000 0.347697
0.989844 0.000000 0.345049
1.000000 0.000000 0.342400
0.000000 0.106227 0.355644
0.132985 0.092619 0.355644
0.284680 0.092619 0.355644
0.422144 0.083309 0.343053
0.563720 0.064374 0.323258
0.707734 0.042254 0.300866
0.854185 0.020312 0.277918
0.989844 0.010156 0.263908
1.000000 0.000000 0.254083
0.000000 0.249417 0.355644
0.125869 0.240756 0.355644
0.278750 0.226526 0.355644
0.422144 0.217215 0.334060
0.563720 0.199499 0.310867
0.707734 0.178598 0.286313
0.854185 0.154512 0.259155
0.989844 0.129092 0.230993
1.000000 0.118400 0.218258
0.000000 0.388894 0.352501
0.121214 0.388894 0.347364
0.255120 0.388894 0.333566
0.422144 0.370008 0.317872
0.563720 0.347107 0.296824
0.707734 0.326049 0.272592
0.854185 0.302866 0.245174
0.989844 0.278827 0.216424
1.000000 0.270322 0.202400
0.000000 0.525920 0.343965
0.107466 0.525920 0.325599
0.242591 0.525920 0.308476
0.406790 0.525920 0.302116
0.563720 0.513438 0.296824
0.707734 0.490163 0.272592
0.854185 0.467408 0.245174
0.989844 0.444992 0.216424
1.000000 0.440127 0.202400
0.000000 0.665384 0.336773
0.090533 0.665384 0.302463
0.226877 0.665384 0.284046
0.387163 0.665384 0.278521
0.553434 0.665384 0.278521
0.707734 0.654276 0.272592
0.854185 0.631951 0.245174
0.989844 0.611157 0.216424
1.000000 0.609933 0.202400
0.000000 0.807285 0.330206
0.070415 0.807285 0.276772
0.207978 0.807285 0.257071
0.368118 0.807285 0.251740
0.533904 0.807285 0.251740
0.699689 0.807285 0.251740
0.854185 0.796493 0.245174
0.989844 0.777322 0.216424
1.000000 0.779738 0.202400
0.000000 0.951624 0.323979
0.047112 0.951624 0.248190
0.185893 0.951624 0.227134
0.347088 0.951624 0.221775
0.513886 0.951624 0.221775
0.680684 0.951624 0.221775
0.847482 0.951624 0.221775
0.989844 0.943487 0.216424
1.000000 0.949544 0.202400
0.000000 1.000000 0.318973
0.034400 1.000000 0.230888
0.174400 1.000000 0.208118
0.338244 1.000000 0.202400
0.508050 1.000000 0.202400
0.677855 1.000000 0.202400
0.847660 1.000000 0.202400
1.000000 1.000000 0.202400
1.000000 1.000000 0.202400
0.023220 0.000000 0.488120
0.158345 0.000000 0.488120
0.293470 0.000000 0.488120
0.428595 0.000000 0.488120
0.563720 0.000000 0.488120
0.707734 0.000000 0.486690
0.854185 0.000000 0.485260
0.989844 0.000000 0.483830
1.000000 0.000000 0.482400
0.000000 0.101679 0.488120
0.119772 0.074958 0.488120
0.272430 0.074958 0.488120
0.425088 0.074958 0.488120
0.563720 0.064374 0.474903
0.707734 0.042254 0.454881
0.854185 0.020312 0.433844
0.989844 0.010156 0.419964
1.000000 0.000000 0.412886
0.000000 0.244060 0.488120
0.112758 0.222516 0.488120
0.259280 0.210083 0.488120
0.422897 0.210083 0.488120
0.563720 0.199499 0.469396
0.707734 0.178598 0.445526
0.854185 0.154512 0.420018
0.989844 0.129092 0.394056
1.000000 0.118400 0.384687
0.000000 0.386441 0.488120
0.112758 0.378362 0.488120
0.247883 0.368002 0.488120
0.413399 0.345208 0.488120
0.563720 0.334624 0.456022
0.707734 0.314942 0.428374
0.854185 0.292074 0.400829
0.989844 0.267874 0.373165
1.000000 0.258400 0.361948
0.000000 0.525920 0.485540
0.107466 0.525920 0.480292
0.242591 0.525920 0.475400
0.377716 0.525920 0.454201
0.563720 0.497835 0.431949
0.707734 0.468564 0.408935
0.854185 0.444283 0.382737
0.989844 0.420571 0.355205
1.000000 0.413547 0.342400
0.000000 0.665384 0.478772
0.090533 0.665384 0.458758
0.226877 0.665384 0.448015
0.363221 0.665384 0.423843
0.540608 0.665384 0.414864
0.707734 0.648105 0.408935
0.854185 0.618461 0.382737
0.989844 0.594143 0.355205
1.000000 0.591414 0.342400
0.000000 0.807285 0.472913
0.070415 0.807285 0.435195
0.207978 0.807285 0.421288
0.345540 0.807285 0.396684
0.515088 0.807285 0.389303
0.692633 0.807285 0.389303
0.854185 0.792639 0.382737
0.989844 0.767714 0.355205
1.000000 0.769281 0.342400
0.000000 0.951624 0.467549
0.047112 0.951624 0.408985
0.185893 0.951624 0.392714
0.324675 0.951624 0.367404
0.492462 0.951624 0.360556
0.667500 0.951624 0.360556
0.842538 0.951624 0.360556
0.989844 0.941286 0.355205
1.000000 0.947148 0.342400
0.000000 1.000000 0.463960
0.034400 1.000000 0.394629
0.174400 1.000000 0.376706
0.314400 1.000000 0.349585
0.484694 1.000000 0.342400
0.662561 1.000000 0.342400
0.840428 1.000000 0.342400
1.000000 1.000000 0.342400
1.000000 1.000000 0.342400
0.026015 0.000000 0.623034
0.162359 0.000000 0.623034
0.298703 0.000000 0.623034
0.435046 0.000000 0.623034
0.571390 0.000000 0.623034
0.707734 0.000000 0.623034
0.854185 0.000000 0.622823
0.989844 0.000000 0.622611
1.000000 0.000000 0.622400
0.000000 0.097710 0.623034
0.103784 0.054112 0.623034
0.258432 0.054112 0.623034
0.413081 0.054112 0.623034
0.567729 0.054112 0.623034
0.707734 0.042254 0.608897
0.854185 0.020312 0.589769
0.989844 0.010156 0.576019
1.000000 0.000000 0.571688
0.000000 0.240248 0.623034
0.096462 0.202812 0.623034
0.242944 0.190456 0.623034
0.404632 0.190456 0.623034
0.566321 0.190456 0.623034
0.707734 0.178598 0.604739
0.854185 0.154512 0.580881
0.989844 0.129092 0.557119
1.000000 0.118400 0.551116
0.000000 0.382786 0.623034
0.096462 0.359748 0.623034
0.232806 0.344771 0.623034
0.385624 0.326800 0.623034
0.563153 0.326800 0.623034
0.707734 0.314942 0.597116
0.854185 0.292074 0.568545
0.989844 0.267874 0.541879
1.000000 0.258400 0.534528
0.000000 0.525324 0.623034
0.096462 0.516684 0.623034
0.232806 0.511068 0.623034
0.369150 0.496092 0.623034
0.549424 0.463143 0.623034
0.707734 0.451285 0.578603
0.854185 0.429637 0.545930
0.989844 0.406655 0.517393
1.000000 0.398400 0.507877
0.000000 0.665384 0.620772
0.090533 0.665384 0.615053
0.226877 0.665384 0.611984
0.363221 0.665384 0.605077
0.499564 0.665384 0.575150
0.707734 0.626506 0.545279
0.854185 0.589982 0.520299
0.989844 0.564512 0.493986
1.000000 0.559163 0.482400
0.000000 0.807285 0.615620
0.070415 0.807285 0.593618
0.207978 0.807285 0.585506
0.345540 0.807285 0.571153
0.483103 0.807285 0.538860
0.675498 0.807285 0.526865
0.854185 0.784502 0.520299
0.989844 0.750983 0.493986
1.000000 0.751069 0.482400
0.000000 0.951624 0.611118
0.047112 0.951624 0.569779
0.185893 0.951624 0.558294
0.324675 0.951624 0.540428
0.463456 0.951624 0.508820
0.643328 0.951624 0.499337
0.833474 0.951624 0.499337
0.989844 0.937453 0.493986
1.000000 0.942976 0.482400
0.000000 1.000000 0.608948
0.034400 1.000000 0.558369
0.174400 1.000000 0.545294
0.314400 1.000000 0.525509
0.454400 1.000000 0.492065
0.635925 1.000000 0.482400
0.827832 1.000000 0.482400
1.000000 1.000000 0.482400
1.000000 1.000000 0.482400
0.028810 0.000000 0.760385
0.166372 0.000000 0.760385
0.303935 0.000000 0.760385
0.441498 0.000000 0.760385
0.579060 0.000000 0.760385
0.716622 0.000000 0.760385
0.854185 0.000000 0.760385
0.989844 0.000000 0.761392
1.000000 0.000000 0.762400
0.000000 0.093987 0.760385
0.084754 0.030081 0.760385
0.241750 0.030081 0.760385
0.398745 0.030081 0.760385
0.555740 0.030081 0.760385
0.712736 0.030081 0.760385
0.854185 0.020312 0.745695
0.989844 0.010156 0.732075
1.000000 0.000000 0.730490
0.000000 0.237090 0.760385
0.076981 0.180414 0.760385
0.224476 0.167644 0.760385
0.386869 0.167644 0.760385
0.549263 0.167644 0.760385
0.711656 0.167644 0.760385
0.854185 0.154512 0.741744
0.989844 0.129092 0.720183
1.000000 0.118400 0.717546
0.000000 0.380192 0.760385
0.076981 0.339260 0.760385
0.214544 0.321967 0.760385
0.365859 0.305206 0.760385
0.537802 0.305206 0.760385
0.709746 0.305206 0.760385
0.854185 0.292074 0.736262
0.989844 0.267874 0.710592
1.000000 0.258400 0.707107
0.000000 0.523295 0.760385
0.076981 0.498106 0.760385
0.214544 0.487464 0.760385
0.352106 0.467148 0.760385
0.512016 0.442769 0.760385
0.705449 0.442769 0.760385
0.854185 0.429637 0.726211
0.989844 0.406655 0.695185
1.000000 0.398400 0.690338
0.000000 0.666398 0.760385
0.076981 0.656952 0.760385
0.214544 0.652962 0.760385
0.352106 0.645343 0.760385
0.489669 0.625027 0.760385
0.686825 0.580331 0.760385
0.854185 0.567199 0.701800
0.989844 0.545436 0.666364
1.000000 0.538400 0.658967
0.000000 0.807285 0.758327
0.070415 0.807285 0.752041
0.207978 0.807285 0.749723
0.345540 0.807285 0.745622
0.483103 0.807285 0.736396
0.620665 0.807285 0.696413
0.854185 0.756023 0.657862
0.989844 0.714533 0.632767
1.000000 0.711397 0.622400
0.000000 0.951624 0.754688
0.047112 0.951624 0.730574
0.185893 0.951624 0.723874
0.324675 0.951624 0.713453
0.463456 0.951624 0.695014
0.602237 0.951624 0.653528
0.811461 0.951624 0.638118
0.989844 0.929104 0.632767
1.000000 0.933888 0.622400
0.000000 1.000000 0.753935
0.034400 1.000000 0.722109
0.174400 1.000000 0.713882
0.314400 1.000000 0.701432
0.454400 1.000000 0.680388
0.594400 1.000000 0.637159
0.800393 1.000000 0.622400
1.000000 1.000000 0.622400
1.000000 1.000000 0.622400
0.031605 0.000000 0.900174
0.170386 0.000000 0.900174
0.309168 0.000000 0.900174
0.447949 0.000000 0.900174
0.586730 0.000000 0.900174
0.725511 0.000000 0.900174
0.864293 0.000000 0.900174
0.989844 0.000000 0.900174
1.000000 0.000000 0.902400
0.000000 0.090390 0.900174
0.069376 0.010156 0.900174
0.227582 0.010156 0.900174
0.385789 0.010156 0.900174
0.543995 0.010156 0.900174
0.702201 0.010156 0.900174
0.860407 0.010156 0.900174
0.989844 0.010156 0.888131
1.000000 0.000000 0.889292
0.000000 0.234269 0.900174
0.054315 0.155039 0.900174
0.203189 0.141646 0.900174
0.367204 0.141646 0.900174
0.531218 0.141646 0.900174
0.695232 0.141646 0.900174
0.859246 0.141646 0.900174
0.989844 0.129092 0.883246
1.000000 0.118400 0.883975
0.000000 0.378147 0.900174
0.054315 0.316142 0.900174
0.193096 0.297009 0.900174
0.344774 0.280428 0.900174
0.515798 0.280428 0.900174
0.686821 0.280428 0.900174
0.857844 0.280428 0.900174
0.989844 0.267874 0.879306
1.000000 0.258400 0.879687
0.000000 0.522026 0.900174
0.054315 0.477244 0.900174
0.193096 0.463426 0.900174
0.331878 0.440972 0.900174
0.488516 0.419209 0.900174
0.671940 0.419209 0.900174
0.855364 0.419209 0.900174
0.989844 0.406655 0.872977
1.000000 0.398400 0.872799
0.000000 0.665905 0.900174
0.054315 0.638347 0.900174
0.193096 0.629844 0.900174
0.331878 0.616026 0.900174
0.470659 0.589646 0.900174
0.638458 0.557990 0.900174
0.849784 0.557990 0.900174
0.989844 0.545436 0.861138
1.000000 0.538400 0.859912
0.000000 0.809784 0.900174
0.054315 0.799450 0.900174
0.193096 0.796261 0.900174
0.331878 0.791079 0.900174
0.470659 0.781187 0.900174
0.609440 0.754807 0.900174
0.825602 0.696771 0.900174
0.989844 0.684218 0.831045
1.000000 0.678400 0.827158
0.000000 0.951624 0.898258
0.047112 0.951624 0.891368
0.185893 0.951624 0.889454
0.324675 0.951624 0.886477
0.463456 0.951624 0.881208
0.602237 0.951624 0.869355
0.741018 0.951624 0.817991
0.989844 0.896800 0.771549
1.000000 0.898728 0.762400
0.000000 1.000000 0.898923
0.034400 1.000000 0.885850
0.174400 1.000000 0.882470
0.314400 1.000000 0.877356
0.454400 1.000000 0.868712
0.594400 1.000000 0.850954
0.734400 1.000000 0.793610
1.000000 1.000000 0.762400
1.000000 1.000000 0.762400
0.034400 0.000000 1.000000
0.174400 0.000000 1.000000
0.314400 0.000000 1.000000
0.454400 0.000000 1.000000
0.594400 0.000000 1.000000
0.734400 0.000000 1.000000
0.874400 0.000000 1.000000
1.000000 0.000000 1.000000
1.000000 0.000000 1.000000
0.000000 0.086993 1.000000
0.063521 0.000000 1.000000
0.222323 0.000000 1.000000
0.381125 0.000000 1.000000
0.539927 0.000000 1.000000
0.698730 0.000000 1.000000
0.857532 0.000000 1.000000
1.000000 0.000000 1.000000
1.000000 0.000000 1.000000
0.000000 0.231980 1.000000
0.034400 0.132644 1.000000
0.184972 0.118400 1.000000
0.351401 0.118400 1.000000
0.517830 0.118400 1.000000
0.684260 0.118400 1.000000
0.850689 0.118400 1.000000
1.000000 0.118400 1.000000
1.000000 0.118400 1.000000
0.000000 0.376968 1.000000
0.034400 0.296384 1.000000
0.174400 0.275553 1.000000
0.327432 0.258400 1.000000
0.500012 0.258400 1.000000
0.672592 0.258400 1.000000
0.845171 0.258400 1.000000
1.000000 0.258400 1.000000
1.000000 0.258400 1.000000
0.000000 0.521955 1.000000
0.034400 0.460125 1.000000
0.174400 0.444141 1.000000
0.314400 0.419954 1.000000
0.471384 0.398400 1.000000
0.653845 0.398400 1.000000
0.836306 0.398400 1.000000
1.000000 0.398400 1.000000
1.000000 0.398400 1.000000
0.000000 0.666943 1.000000
0.034400 0.623865 1.000000
0.174400 0.612729 1.000000
0.314400 0.595878 1.000000
0.454400 0.567394 1.000000
0.618778 0.538400 1.000000
0.819723 0.538400 1.000000
1.000000 0.538400 1.000000
1.000000 0.538400 1.000000
0.000000 0.811930 1.000000
0.034400 0.787605 1.000000
0.174400 0.781317 1.000000
0.314400 0.771802 1.000000
0.454400 0.755718 1.000000
0.594400 0.722677 1.000000
0.777572 0.678400 1.000000
1.000000 0.678400 1.000000
1.000000 0.678400 1.000000
0.000000 0.956918 1.000000
0.034400 0.951346 1.000000
0.174400 0.949905 1.000000
0.314400 0.947726 1.000000
0.454400 0.944041 1.000000
0.594400 0.936472 1.000000
0.734400 0.912031 1.000000
1.000000 0.818400 1.000000
1.000000 0.818400 1.000000
0.000000 1.000000 1.000000
0.034400 1.000000 1.000000
0.174400 1.000000 1.000000
0.314400 1.000000 1.000000
0.454400 1.000000 1.000000
0.594400 1.000000 1.000000
0.734400 1.000000 1.000000
1.000000 0.860000 0.860000
1.000000 0.860000 0.860000
