luts/original/hype-block.cube
TITLE "Hype Block"
LUT_3D_SIZE 5
DOMAIN_MIN 0.0 0.0 0.0
DOMAIN_MAX 1.0 1.0 1.0
0.012040 0.000000 0.000000
0.283005 0.000000 0.000000
0.563720 0.000000 0.000000
0.854185 0.000000 0.000000
1.000000 0.000000 0.000000
0.017630 0.254305 0.000000
0.283005 0.254305 0.000000
0.563720 0.255670 0.000000
0.854185 0.257035 0.000000
1.000000 0.258400 0.000000
0.023220 0.525920 0.000000
0.293470 0.525920 0.000000
0.563720 0.525920 0.000000
0.854185 0.532160 0.000000
1.000000 0.538400 0.000000
0.028810 0.807285 0.000000
0.303935 0.807285 0.000000
0.579060 0.807285 0.000000
0.854185 0.807285 0.000000
1.000000 0.818400 0.000000
0.034400 1.000000 0.000000
0.314400 1.000000 0.000000
0.594400 1.000000 0.000000
0.874400 1.000000 0.000000
1.000000 1.000000 0.000000
0.017630 0.000000 0.225605
0.283005 0.000000 0.225605
0.563720 0.000000 0.217870
0.854185 0.000000 0.210135
1.000000 0.000000 0.202400
0.000000 0.254305 0.221198
0.283005 0.243026 0.203047
0.563720 0.207524 0.161699
0.854185 0.163055 0.107612
1.000000 0.128229 0.062400
0.000000 0.525920 0.202390
0.259551 0.525920 0.166991
0.563720 0.517896 0.161699
0.854185 0.480898 0.107612
1.000000 0.457377 0.062400
0.000000 0.807285 0.187499
0.225424 0.807285 0.114178
0.544166 0.807285 0.114178
0.854185 0.798741 0.107612
1.000000 0.786524 0.062400
0.000000 1.000000 0.173985
0.194059 1.000000 0.062400
0.523206 1.000000 0.062400
0.852354 1.000000 0.062400
1.000000 1.000000 0.062400
0.023220 0.000000 0.488120
0.293470 0.000000 0.488120
0.563720 0.000000 0.488120
0.854185 0.000000 0.485260
1.000000 0.000000 0.482400
0.000000 0.244060 0.488120
0.259280 0.210083 0.488120
0.563720 0.199499 0.469396
0.854185 0.154512 0.420018
1.000000 0.118400 0.384687
0.000000 0.525920 0.485540
0.242591 0.525920 0.475400
0.563720 0.497835 0.431949
0.854185 0.444283 0.382737
1.000000 0.413547 0.342400
0.000000 0.807285 0.472913
0.207978 0.807285 0.421288
0.515088 0.807285 0.389303
0.854185 0.792639 0.382737
1.000000 0.769281 0.342400
0.000000 1.000000 0.463960
0.174400 1.000000 0.376706
0.484694 1.000000 0.342400
0.840428 1.000000 0.342400
1.000000 1.000000 0.342400
0.028810 0.000000 0.760385
0.303935 0.000000 0.760385
0.579060 0.000000 0.760385
0.854185 0.000000 0.760385
1.000000 0.000000 0.762400
0.000000 0.237090 0.760385
0.224476 0.167644 0.760385
0.549263 0.167644 0.760385
0.854185 0.154512 0.741744
1.000000 0.118400 0.717546
0.000000 0.523295 0.760385
0.214544 0.487464 0.760385
0.512016 0.442769 0.760385
0.854185 0.429637 0.726211
1.000000 0.398400 0.690338
0.000000 0.807285 0.758327
0.207978 0.807285 0.749723
0.483103 0.807285 0.736396
0.854185 0.756023 0.657862
1.000000 0.711397 0.622400
0.000000 1.000000 0.753935
0.174400 1.000000 0.713882
0.454400 1.000000 0.680388
0.800393 1.000000 0.622400
1.000000 1.000000 0.622400
0.034400 0.000000 1.000000
0.314400 0.000000 1.000000
0.594400 0.000000 1.000000
0.874400 0.000000 1.000000
1.000000 0.000000 1.000000
0.000000 0.231980 1.000000
0.184972 0.118400 1.000000
0.517830 0.118400 1.000000
0.850689 0.118400 1.000000
1.000000 0.118400 1.000000
0.000000 0.521955 1.000000
0.174400 0.444141 1.000000
0.471384 0.398400 1.000000
0.836306 0.398400 1.000000
1.000000 0.398400 1.000000
0.000000 0.811930 1.000000
0.174400 0.781317 1.000000
0.454400 0.755718 1.000000
0.777572 0.678400 1.000000
1.000000 0.678400 1.000000
0.000000 1.000000 1.000000
0.174400 1.000000 1.000000
0.454400 1.000000 1.000000
0.734400 1.000000 1.000000
1.000000 0.860000 0.860000
