luts/original/hype-block.cube
TITLE "Hype Block"
LUT_3D_SIZE 33
DOMAIN_MIN 0.0 0.0 0.0
DOMAIN_MAX 1.0 1.0 1.0
0.012040 0.000000 0.000000
0.045377 0.000000 0.000000
0.078867 0.000000 0.000000
0.112509 0.000000 0.000000
0.146304 0.000000 0.000000
0.180251 0.000000 0.000000
0.214350 0.000000 0.000000
0.248601 0.000000 0.000000
0.283005 0.000000 0.000000
0.317561 0.000000 0.000000
0.352270 0.000000 0.000000
0.387131 0.000000 0.000000
0.422144 0.000000 0.000000
0.457309 0.000000 0.000000
0.492627 0.000000 0.000000
0.528097 0.000000 0.000000
0.563720 0.000000 0.000000
0.599495 0.000000 0.000000
0.635422 0.000000 0.000000
0.671502 0.000000 0.000000
0.707734 0.000000 0.000000
0.744118 0.000000 0.000000
0.780655 0.000000 0.000000
0.817344 0.000000 0.000000
0.854185 0.000000 0.000000
0.891179 0.000000 0.000000
0.928325 0.000000 0.000000
0.965623 0.000000 0.000000
0.989844 0.000000 0.000000
0.994287 0.000000 0.000000
0.997461 0.000000 0.000000
0.999365 0.000000 0.000000
1.000000 0.000000 0.000000
0.012739 0.024640 0.000000
0.045377 0.024640 0.000000
0.078867 0.024277 0.000000
0.112509 0.023915 0.000000
0.146304 0.023552 0.000000
0.180251 0.023190 0.000000
0.214350 0.022827 0.000000
0.248601 0.022464 0.000000
0.283005 0.022102 0.000000
0.317561 0.021739 0.000000
0.352270 0.021377 0.000000
0.387131 0.021014 0.000000
0.422144 0.020652 0.000000
0.457309 0.020289 0.000000
0.492627 0.019926 0.000000
0.528097 0.019564 0.000000
0.563720 0.019201 0.000000
0.599495 0.018839 0.000000
0.635422 0.018476 0.000000
0.671502 0.018114 0.000000
0.707734 0.017751 0.000000
0.744118 0.017388 0.000000
0.780655 0.017026 0.000000
0.817344 0.016663 0.000000
0.854185 0.016301 0.000000
0.891179 0.015938 0.000000
0.928325 0.015575 0.000000
0.965623 0.015213 0.000000
0.989844 0.014850 0.000000
0.994287 0.014488 0.000000
0.997461 0.014125 0.000000
0.999365 0.013763 0.000000
1.000000 0.013400 0.000000
0.013438 0.056992 0.000000
0.046152 0.056992 0.000000
0.078867 0.056992 0.000000
0.112509 0.056706 0.000000
0.146304 0.056419 0.000000
0.180251 0.056133 0.000000
0.214350 0.055847 0.000000
0.248601 0.055560 0.000000
0.283005 0.055274 0.000000
0.317561 0.054987 0.000000
0.352270 0.054701 0.000000
0.387131 0.054415 0.000000
0.422144 0.054128 0.000000
0.457309 0.053842 0.000000
0.492627 0.053555 0.000000
0.528097 0.053269 0.000000
0.563720 0.052983 0.000000
0.599495 0.052696 0.000000
0.635422 0.052410 0.000000
0.671502 0.052123 0.000000
0.707734 0.051837 0.000000
0.744118 0.051550 0.000000
0.780655 0.051264 0.000000
0.817344 0.050978 0.000000
0.854185 0.050691 0.000000
0.891179 0.050405 0.000000
0.928325 0.050118 0.000000
0.965623 0.049832 0.000000
0.989844 0.049546 0.000000
0.994287 0.049259 0.000000
0.997461 0.048973 0.000000
0.999365 0.048686 0.000000
1.000000 0.048400 0.000000
0.014136 0.089497 0.000000
0.046927 0.089497 0.000000
0.079718 0.089497 0.000000
0.112509 0.089497 0.000000
0.146304 0.089287 0.000000
0.180251 0.089076 0.000000
0.214350 0.088866 0.000000
0.248601 0.088656 0.000000
0.283005 0.088446 0.000000
0.317561 0.088235 0.000000
0.352270 0.088025 0.000000
0.387131 0.087815 0.000000
0.422144 0.087605 0.000000
0.457309 0.087394 0.000000
0.492627 0.087184 0.000000
0.528097 0.086974 0.000000
0.563720 0.086764 0.000000
0.599495 0.086554 0.000000
0.635422 0.086343 0.000000
0.671502 0.086133 0.000000
0.707734 0.085923 0.000000
0.744118 0.085713 0.000000
0.780655 0.085502 0.000000
0.817344 0.085292 0.000000
0.854185 0.085082 0.000000
0.891179 0.084872 0.000000
0.928325 0.084661 0.000000
0.965623 0.084451 0.000000
0.989844 0.084241 0.000000
0.994287 0.084031 0.000000
0.997461 0.083820 0.000000
0.999365 0.083610 0.000000
1.000000 0.083400 0.000000
0.014835 0.122154 0.000000
0.047702 0.122154 0.000000
0.080569 0.122154 0.000000
0.113437 0.122154 0.000000
0.146304 0.122154 0.000000
0.180251 0.122020 0.000000
0.214350 0.121886 0.000000
0.248601 0.121752 0.000000
0.283005 0.121618 0.000000
0.317561 0.121483 0.000000
0.352270 0.121349 0.000000
0.387131 0.121215 0.000000
0.422144 0.121081 0.000000
0.457309 0.120947 0.000000
0.492627 0.120813 0.000000
0.528097 0.120679 0.000000
0.563720 0.120545 0.000000
0.599495 0.120411 0.000000
0.635422 0.120277 0.000000
0.671502 0.120143 0.000000
0.707734 0.120009 0.000000
0.744118 0.119875 0.000000
0.780655 0.119741 0.000000
0.817344 0.119607 0.000000
0.854185 0.119473 0.000000
0.891179 0.119338 0.000000
0.928325 0.119204 0.000000
0.965623 0.119070 0.000000
0.989844 0.118936 0.000000
0.994287 0.118802 0.000000
0.997461 0.118668 0.000000
0.999365 0.118534 0.000000
1.000000 0.118400 0.000000
0.015534 0.154963 0.000000
0.048477 0.154963 0.000000
0.081420 0.154963 0.000000
0.114364 0.154963 0.000000
0.147307 0.154963 0.000000
0.180251 0.154963 0.000000
0.214350 0.154905 0.000000
0.248601 0.154847 0.000000
0.283005 0.154789 0.000000
0.317561 0.154731 0.000000
0.352270 0.154674 0.000000
0.387131 0.154616 0.000000
0.422144 0.154558 0.000000
0.457309 0.154500 0.000000
0.492627 0.154442 0.000000
0.528097 0.154384 0.000000
0.563720 0.154326 0.000000
0.599495 0.154268 0.000000
0.635422 0.154210 0.000000
0.671502 0.154153 0.000000
0.707734 0.154095 0.000000
0.744118 0.154037 0.000000
0.780655 0.153979 0.000000
0.817344 0.153921 0.000000
0.854185 0.153863 0.000000
0.891179 0.153805 0.000000
0.928325 0.153747 0.000000
0.965623 0.153689 0.000000
0.989844 0.153632 0.000000
0.994287 0.153574 0.000000
0.997461 0.153516 0.000000
0.999365 0.153458 0.000000
1.000000 0.153400 0.000000
0.016232 0.187925 0.000000
0.049252 0.187925 0.000000
0.082272 0.187925 0.000000
0.115291 0.187925 0.000000
0.148311 0.187925 0.000000
0.181330 0.187925 0.000000
0.214350 0.187925 0.000000
0.248601 0.187943 0.000000
0.283005 0.187961 0.000000
0.317561 0.187980 0.000000
0.352270 0.187998 0.000000
0.387131 0.188016 0.000000
0.422144 0.188034 0.000000
0.457309 0.188053 0.000000
0.492627 0.188071 0.000000
0.528097 0.188089 0.000000
0.563720 0.188108 0.000000
0.599495 0.188126 0.000000
0.635422 0.188144 0.000000
0.671502 0.188162 0.000000
0.707734 0.188181 0.000000
0.744118 0.188199 0.000000
0.780655 0.188217 0.000000
0.817344 0.188235 0.000000
0.854185 0.188254 0.000000
0.891179 0.188272 0.000000
0.928325 0.188290 0.000000
0.965623 0.188309 0.000000
0.989844 0.188327 0.000000
0.994287 0.188345 0.000000
0.997461 0.188363 0.000000
0.999365 0.188382 0.000000
1.000000 0.188400 0.000000
0.016931 0.221039 0.000000
0.050027 0.221039 0.000000
0.083123 0.221039 0.000000
0.116218 0.221039 0.000000
0.149314 0.221039 0.000000
0.182410 0.221039 0.000000
0.215505 0.221039 0.000000
0.248601 0.221039 0.000000
0.283005 0.221133 0.000000
0.317561 0.221228 0.000000
0.352270 0.221322 0.000000
0.387131 0.221416 0.000000
0.422144 0.221511 0.000000
0.457309 0.221605 0.000000
0.492627 0.221700 0.000000
0.528097 0.221794 0.000000
0.563720 0.221889 0.000000
0.599495 0.221983 0.000000
0.635422 0.222078 0.000000
0.671502 0.222172 0.000000
0.707734 0.222267 0.000000
0.744118 0.222361 0.000000
0.780655 0.222455 0.000000
0.817344 0.222550 0.000000
0.854185 0.222644 0.000000
0.891179 0.222739 0.000000
0.928325 0.222833 0.000000
0.965623 0.222928 0.000000
0.989844 0.223022 0.000000
0.994287 0.223117 0.000000
0.997461 0.223211 0.000000
0.999365 0.223306 0.000000
1.000000 0.223400 0.000000
0.017630 0.254305 0.000000
0.050802 0.254305 0.000000
0.083974 0.254305 0.000000
0.117146 0.254305 0.000000
0.150318 0.254305 0.000000
0.183489 0.254305 0.000000
0.216661 0.254305 0.000000
0.249833 0.254305 0.000000
0.283005 0.254305 0.000000
0.317561 0.254476 0.000000
0.352270 0.254646 0.000000
0.387131 0.254817 0.000000
0.422144 0.254988 0.000000
0.457309 0.255158 0.000000
0.492627 0.255329 0.000000
0.528097 0.255499 0.000000
0.563720 0.255670 0.000000
0.599495 0.255841 0.000000
0.635422 0.256011 0.000000
0.671502 0.256182 0.000000
0.707734 0.256353 0.000000
0.744118 0.256523 0.000000
0.780655 0.256694 0.000000
0.817344 0.256864 0.000000
0.854185 0.257035 0.000000
0.891179 0.257206 0.000000
0.928325 0.257376 0.000000
0.965623 0.257547 0.000000
0.989844 0.257717 0.000000
0.994287 0.257888 0.000000
0.997461 0.258059 0.000000
0.999365 0.258229 0.000000
1.000000 0.258400 0.000000
0.018329 0.287724 0.000000
0.051577 0.287724 0.000000
0.084825 0.287724 0.000000
0.118073 0.287724 0.000000
0.151321 0.287724 0.000000
0.184569 0.287724 0.000000
0.217817 0.287724 0.000000
0.251065 0.287724 0.000000
0.284313 0.287724 0.000000
0.317561 0.287724 0.000000
0.352270 0.287970 0.000000
0.387131 0.288217 0.000000
0.422144 0.288464 0.000000
0.457309 0.288711 0.000000
0.492627 0.288958 0.000000
0.528097 0.289204 0.000000
0.563720 0.289451 0.000000
0.599495 0.289698 0.000000
0.635422 0.289945 0.000000
0.671502 0.290192 0.000000
0.707734 0.290438 0.000000
0.744118 0.290685 0.000000
0.780655 0.290932 0.000000
0.817344 0.291179 0.000000
0.854185 0.291426 0.000000
0.891179 0.291672 0.000000
0.928325 0.291919 0.000000
0.965623 0.292166 0.000000
0.989844 0.292413 0.000000
0.994287 0.292660 0.000000
0.997461 0.292906 0.000000
0.999365 0.293153 0.000000
1.000000 0.293400 0.000000
0.019027 0.321295 0.000000
0.052352 0.321295 0.000000
0.085676 0.321295 0.000000
0.119000 0.321295 0.000000
0.152324 0.321295 0.000000
0.185649 0.321295 0.000000
0.218973 0.321295 0.000000
0.252297 0.321295 0.000000
0.285621 0.321295 0.000000
0.318945 0.321295 0.000000
0.352270 0.321295 0.000000
0.387131 0.321618 0.000000
0.422144 0.321941 0.000000
0.457309 0.322264 0.000000
0.492627 0.322587 0.000000
0.528097 0.322910 0.000000
0.563720 0.323233 0.000000
0.599495 0.323555 0.000000
0.635422 0.323878 0.000000
0.671502 0.324201 0.000000
0.707734 0.324524 0.000000
0.744118 0.324847 0.000000
0.780655 0.325170 0.000000
0.817344 0.325493 0.000000
0.854185 0.325816 0.000000
0.891179 0.326139 0.000000
0.928325 0.326462 0.000000
0.965623 0.326785 0.000000
0.989844 0.327108 0.000000
0.994287 0.327431 0.000000
0.997461 0.327754 0.000000
0.999365 0.328077 0.000000
1.000000 0.328400 0.000000
0.019726 0.355018 0.000000
0.053127 0.355018 0.000000
0.086527 0.355018 0.000000
0.119927 0.355018 0.000000
0.153328 0.355018 0.000000
0.186728 0.355018 0.000000
0.220129 0.355018 0.000000
0.253529 0.355018 0.000000
0.286929 0.355018 0.000000
0.320330 0.355018 0.000000
0.353730 0.355018 0.000000
0.387131 0.355018 0.000000
0.422144 0.355417 0.000000
0.457309 0.355816 0.000000
0.492627 0.356215 0.000000
0.528097 0.356615 0.000000
0.563720 0.357014 0.000000
0.599495 0.357413 0.000000
0.635422 0.357812 0.000000
0.671502 0.358211 0.000000
0.707734 0.358610 0.000000
0.744118 0.359009 0.000000
0.780655 0.359409 0.000000
0.817344 0.359808 0.000000
0.854185 0.360207 0.000000
0.891179 0.360606 0.000000
0.928325 0.361005 0.000000
0.965623 0.361404 0.000000
0.989844 0.361803 0.000000
0.994287 0.362203 0.000000
0.997461 0.362602 0.000000
0.999365 0.363001 0.000000
1.000000 0.363400 0.000000
0.020425 0.388894 0.000000
0.053902 0.388894 0.000000
0.087378 0.388894 0.000000
0.120855 0.388894 0.000000
0.154331 0.388894 0.000000
0.187808 0.388894 0.000000
0.221284 0.388894 0.000000
0.254761 0.388894 0.000000
0.288238 0.388894 0.000000
0.321714 0.388894 0.000000
0.355191 0.388894 0.000000
0.388667 0.388894 0.000000
0.422144 0.388894 0.000000
0.457309 0.389369 0.000000
0.492627 0.389844 0.000000
0.528097 0.390320 0.000000
0.563720 0.390795 0.000000
0.599495 0.391270 0.000000
0.635422 0.391746 0.000000
0.671502 0.392221 0.000000
0.707734 0.392696 0.000000
0.744118 0.393172 0.000000
0.780655 0.393647 0.000000
0.817344 0.394122 0.000000
0.854185 0.394598 0.000000
0.891179 0.395073 0.000000
0.928325 0.395548 0.000000
0.965623 0.396023 0.000000
0.989844 0.396499 0.000000
0.994287 0.396974 0.000000
0.997461 0.397449 0.000000
0.999365 0.397925 0.000000
1.000000 0.398400 0.000000
0.021124 0.422922 0.000000
0.054676 0.422922 0.000000
0.088229 0.422922 0.000000
0.121782 0.422922 0.000000
0.155335 0.422922 0.000000
0.188887 0.422922 0.000000
0.222440 0.422922 0.000000
0.255993 0.422922 0.000000
0.289546 0.422922 0.000000
0.323098 0.422922 0.000000
0.356651 0.422922 0.000000
0.390204 0.422922 0.000000
0.423757 0.422922 0.000000
0.457309 0.422922 0.000000
0.492627 0.423473 0.000000
0.528097 0.424025 0.000000
0.563720 0.424576 0.000000
0.599495 0.425128 0.000000
0.635422 0.425679 0.000000
0.671502 0.426231 0.000000
0.707734 0.426782 0.000000
0.744118 0.427334 0.000000
0.780655 0.427885 0.000000
0.817344 0.428437 0.000000
0.854185 0.428988 0.000000
0.891179 0.429540 0.000000
0.928325 0.430091 0.000000
0.965623 0.430643 0.000000
0.989844 0.431194 0.000000
0.994287 0.431746 0.000000
0.997461 0.432297 0.000000
0.999365 0.432849 0.000000
1.000000 0.433400 0.000000
0.021822 0.457102 0.000000
0.055451 0.457102 0.000000
0.089080 0.457102 0.000000
0.122709 0.457102 0.000000
0.156338 0.457102 0.000000
0.189967 0.457102 0.000000
0.223596 0.457102 0.000000
0.257225 0.457102 0.000000
0.290854 0.457102 0.000000
0.324483 0.457102 0.000000
0.358112 0.457102 0.000000
0.391740 0.457102 0.000000
0.425369 0.457102 0.000000
0.458998 0.457102 0.000000
0.492627 0.457102 0.000000
0.528097 0.457730 0.000000
0.563720 0.458358 0.000000
0.599495 0.458985 0.000000
0.635422 0.459613 0.000000
0.671502 0.460240 0.000000
0.707734 0.460868 0.000000
0.744118 0.461496 0.000000
0.780655 0.462123 0.000000
0.817344 0.462751 0.000000
0.854185 0.463379 0.000000
0.891179 0.464006 0.000000
0.928325 0.464634 0.000000
0.965623 0.465262 0.000000
0.989844 0.465889 0.000000
0.994287 0.466517 0.000000
0.997461 0.467145 0.000000
0.999365 0.467772 0.000000
1.000000 0.468400 0.000000
0.022521 0.491435 0.000000
0.056226 0.491435 0.000000
0.089931 0.491435 0.000000
0.123636 0.491435 0.000000
0.157342 0.491435 0.000000
0.191047 0.491435 0.000000
0.224752 0.491435 0.000000
0.258457 0.491435 0.000000
0.292162 0.491435 0.000000
0.325867 0.491435 0.000000
0.359572 0.491435 0.000000
0.393277 0.491435 0.000000
0.426982 0.491435 0.000000
0.460687 0.491435 0.000000
0.494392 0.491435 0.000000
0.528097 0.491435 0.000000
0.563720 0.492139 0.000000
0.599495 0.492843 0.000000
0.635422 0.493546 0.000000
0.671502 0.494250 0.000000
0.707734 0.494954 0.000000
0.744118 0.495658 0.000000
0.780655 0.496362 0.000000
0.817344 0.497066 0.000000
0.854185 0.497769 0.000000
0.891179 0.498473 0.000000
0.928325 0.499177 0.000000
0.965623 0.499881 0.000000
0.989844 0.500585 0.000000
0.994287 0.501289 0.000000
0.997461 0.501992 0.000000
0.999365 0.502696 0.000000
1.000000 0.503400 0.000000
0.023220 0.525920 0.000000
0.057001 0.525920 0.000000
0.090783 0.525920 0.000000
0.124564 0.525920 0.000000
0.158345 0.525920 0.000000
0.192126 0.525920 0.000000
0.225908 0.525920 0.000000
0.259689 0.525920 0.000000
0.293470 0.525920 0.000000
0.327251 0.525920 0.000000
0.361032 0.525920 0.000000
0.394814 0.525920 0.000000
0.428595 0.525920 0.000000
0.462376 0.525920 0.000000
0.496157 0.525920 0.000000
0.529939 0.525920 0.000000
0.563720 0.525920 0.000000
0.599495 0.526700 0.000000
0.635422 0.527480 0.000000
0.671502 0.528260 0.000000
0.707734 0.529040 0.000000
0.744118 0.529820 0.000000
0.780655 0.530600 0.000000
0.817344 0.531380 0.000000
0.854185 0.532160 0.000000
0.891179 0.532940 0.000000
0.928325 0.533720 0.000000
0.965623 0.534500 0.000000
0.989844 0.535280 0.000000
0.994287 0.536060 0.000000
0.997461 0.536840 0.000000
0.999365 0.537620 0.000000
1.000000 0.538400 0.000000
0.023919 0.560557 0.000000
0.057776 0.560557 0.000000
0.091634 0.560557 0.000000
0.125491 0.560557 0.000000
0.159348 0.560557 0.000000
0.193206 0.560557 0.000000
0.227063 0.560557 0.000000
0.260921 0.560557 0.000000
0.294778 0.560557 0.000000
0.328636 0.560557 0.000000
0.362493 0.560557 0.000000
0.396350 0.560557 0.000000
0.430208 0.560557 0.000000
0.464065 0.560557 0.000000
0.497923 0.560557 0.000000
0.531780 0.560557 0.000000
0.565638 0.560557 0.000000
0.599495 0.560557 0.000000
0.635422 0.561414 0.000000
0.671502 0.562270 0.000000
0.707734 0.563126 0.000000
0.744118 0.563982 0.000000
0.780655 0.564838 0.000000
0.817344 0.565694 0.000000
0.854185 0.566551 0.000000
0.891179 0.567407 0.000000
0.928325 0.568263 0.000000
0.965623 0.569119 0.000000
0.989844 0.569975 0.000000
0.994287 0.570831 0.000000
0.997461 0.571688 0.000000
0.999365 0.572544 0.000000
1.000000 0.573400 0.000000
0.024618 0.595347 0.000000
0.058551 0.595347 0.000000
0.092485 0.595347 0.000000
0.126418 0.595347 0.000000
0.160352 0.595347 0.000000
0.194285 0.595347 0.000000
0.228219 0.595347 0.000000
0.262153 0.595347 0.000000
0.296086 0.595347 0.000000
0.330020 0.595347 0.000000
0.363953 0.595347 0.000000
0.397887 0.595347 0.000000
0.431821 0.595347 0.000000
0.465754 0.595347 0.000000
0.499688 0.595347 0.000000
0.533621 0.595347 0.000000
0.567555 0.595347 0.000000
0.601489 0.595347 0.000000
0.635422 0.595347 0.000000
0.671502 0.596280 0.000000
0.707734 0.597212 0.000000
0.744118 0.598144 0.000000
0.780655 0.599077 0.000000
0.817344 0.600009 0.000000
0.854185 0.600941 0.000000
0.891179 0.601874 0.000000
0.928325 0.602806 0.000000
0.965623 0.603738 0.000000
0.989844 0.604671 0.000000
0.994287 0.605603 0.000000
0.997461 0.606535 0.000000
0.999365 0.607468 0.000000
1.000000 0.608400 0.000000
0.025316 0.630289 0.000000
0.059326 0.630289 0.000000
0.093336 0.630289 0.000000
0.127346 0.630289 0.000000
0.161355 0.630289 0.000000
0.195365 0.630289 0.000000
0.229375 0.630289 0.000000
0.263385 0.630289 0.000000
0.297394 0.630289 0.000000
0.331404 0.630289 0.000000
0.365414 0.630289 0.000000
0.399424 0.630289 0.000000
0.433433 0.630289 0.000000
0.467443 0.630289 0.000000
0.501453 0.630289 0.000000
0.535463 0.630289 0.000000
0.569472 0.630289 0.000000
0.603482 0.630289 0.000000
0.637492 0.630289 0.000000
0.671502 0.630289 0.000000
0.707734 0.631298 0.000000
0.744118 0.632306 0.000000
0.780655 0.633315 0.000000
0.817344 0.634323 0.000000
0.854185 0.635332 0.000000
0.891179 0.636340 0.000000
0.928325 0.637349 0.000000
0.965623 0.638357 0.000000
0.989844 0.639366 0.000000
0.994287 0.640374 0.000000
0.997461 0.641383 0.000000
0.999365 0.642392 0.000000
1.000000 0.643400 0.000000
0.026015 0.665384 0.000000
0.060101 0.665384 0.000000
0.094187 0.665384 0.000000
0.128273 0.665384 0.000000
0.162359 0.665384 0.000000
0.196445 0.665384 0.000000
0.230531 0.665384 0.000000
0.264617 0.665384 0.000000
0.298703 0.665384 0.000000
0.332788 0.665384 0.000000
0.366874 0.665384 0.000000
0.400960 0.665384 0.000000
0.435046 0.665384 0.000000
0.469132 0.665384 0.000000
0.503218 0.665384 0.000000
0.537304 0.665384 0.000000
0.571390 0.665384 0.000000
0.605476 0.665384 0.000000
0.639562 0.665384 0.000000
0.673648 0.665384 0.000000
0.707734 0.665384 0.000000
0.744118 0.666468 0.000000
0.780655 0.667553 0.000000
0.817344 0.668638 0.000000
0.854185 0.669722 0.000000
0.891179 0.670807 0.000000
0.928325 0.671892 0.000000
0.965623 0.672977 0.000000
0.989844 0.674061 0.000000
0.994287 0.675146 0.000000
0.997461 0.676231 0.000000
0.999365 0.677315 0.000000
1.000000 0.678400 0.000000
0.026714 0.700631 0.000000
0.060876 0.700631 0.000000
0.095038 0.700631 0.000000
0.129200 0.700631 0.000000
0.163362 0.700631 0.000000
0.197524 0.700631 0.000000
0.231686 0.700631 0.000000
0.265849 0.700631 0.000000
0.300011 0.700631 0.000000
0.334173 0.700631 0.000000
0.368335 0.700631 0.000000
0.402497 0.700631 0.000000
0.436659 0.700631 0.000000
0.470821 0.700631 0.000000
0.504983 0.700631 0.000000
0.539145 0.700631 0.000000
0.573308 0.700631 0.000000
0.607470 0.700631 0.000000
0.641632 0.700631 0.000000
0.675794 0.700631 0.000000
0.709956 0.700631 0.000000
0.744118 0.700631 0.000000
0.780655 0.701791 0.000000
0.817344 0.702952 0.000000
0.854185 0.704113 0.000000
0.891179 0.705274 0.000000
0.928325 0.706435 0.000000
0.965623 0.707596 0.000000
0.989844 0.708757 0.000000
0.994287 0.709917 0.000000
0.997461 0.711078 0.000000
0.999365 0.712239 0.000000
1.000000 0.713400 0.000000
0.027413 0.736030 0.000000
0.061651 0.736030 0.000000
0.095889 0.736030 0.000000
0.130127 0.736030 0.000000
0.164366 0.736030 0.000000
0.198604 0.736030 0.000000
0.232842 0.736030 0.000000
0.267080 0.736030 0.000000
0.301319 0.736030 0.000000
0.335557 0.736030 0.000000
0.369795 0.736030 0.000000
0.404034 0.736030 0.000000
0.438272 0.736030 0.000000
0.472510 0.736030 0.000000
0.506748 0.736030 0.000000
0.540987 0.736030 0.000000
0.575225 0.736030 0.000000
0.609463 0.736030 0.000000
0.643702 0.736030 0.000000
0.677940 0.736030 0.000000
0.712178 0.736030 0.000000
0.746416 0.736030 0.000000
0.780655 0.736030 0.000000
0.817344 0.737267 0.000000
0.854185 0.738504 0.000000
0.891179 0.739741 0.000000
0.928325 0.740978 0.000000
0.965623 0.742215 0.000000
0.989844 0.743452 0.000000
0.994287 0.744689 0.000000
0.997461 0.745926 0.000000
0.999365 0.747163 0.000000
1.000000 0.748400 0.000000
0.028111 0.771581 0.000000
0.062426 0.771581 0.000000
0.096740 0.771581 0.000000
0.131055 0.771581 0.000000
0.165369 0.771581 0.000000
0.199684 0.771581 0.000000
0.233998 0.771581 0.000000
0.268312 0.771581 0.000000
0.302627 0.771581 0.000000
0.336941 0.771581 0.000000
0.371256 0.771581 0.000000
0.405570 0.771581 0.000000
0.439885 0.771581 0.000000
0.474199 0.771581 0.000000
0.508514 0.771581 0.000000
0.542828 0.771581 0.000000
0.577142 0.771581 0.000000
0.611457 0.771581 0.000000
0.645771 0.771581 0.000000
0.680086 0.771581 0.000000
0.714400 0.771581 0.000000
0.748715 0.771581 0.000000
0.783029 0.771581 0.000000
0.817344 0.771581 0.000000
0.854185 0.772894 0.000000
0.891179 0.774208 0.000000
0.928325 0.775521 0.000000
0.965623 0.776834 0.000000
0.989844 0.778147 0.000000
0.994287 0.779460 0.000000
0.997461 0.780774 0.000000
0.999365 0.782087 0.000000
1.000000 0.783400 0.000000
0.028810 0.807285 0.000000
0.063201 0.807285 0.000000
0.097591 0.807285 0.000000
0.131982 0.807285 0.000000
0.166372 0.807285 0.000000
0.200763 0.807285 0.000000
0.235154 0.807285 0.000000
0.269544 0.807285 0.000000
0.303935 0.807285 0.000000
0.338326 0.807285 0.000000
0.372716 0.807285 0.000000
0.407107 0.807285 0.000000
0.441498 0.807285 0.000000
0.475888 0.807285 0.000000
0.510279 0.807285 0.000000
0.544669 0.807285 0.000000
0.579060 0.807285 0.000000
0.613451 0.807285 0.000000
0.647841 0.807285 0.000000
0.682232 0.807285 0.000000
0.716622 0.807285 0.000000
0.751013 0.807285 0.000000
0.785404 0.807285 0.000000
0.819794 0.807285 0.000000
0.854185 0.807285 0.000000
0.891179 0.808674 0.000000
0.928325 0.810064 0.000000
0.965623 0.811453 0.000000
0.989844 0.812842 0.000000
0.994287 0.814232 0.000000
0.997461 0.815621 0.000000
0.999365 0.817011 0.000000
1.000000 0.818400 0.000000
0.029509 0.843141 0.000000
0.063976 0.843141 0.000000
0.098442 0.843141 0.000000
0.132909 0.843141 0.000000
0.167376 0.843141 0.000000
0.201843 0.843141 0.000000
0.236310 0.843141 0.000000
0.270776 0.843141 0.000000
0.305243 0.843141 0.000000
0.339710 0.843141 0.000000
0.374177 0.843141 0.000000
0.408644 0.843141 0.000000
0.443110 0.843141 0.000000
0.477577 0.843141 0.000000
0.512044 0.843141 0.000000
0.546511 0.843141 0.000000
0.580977 0.843141 0.000000
0.615444 0.843141 0.000000
0.649911 0.843141 0.000000
0.684378 0.843141 0.000000
0.718845 0.843141 0.000000
0.753311 0.843141 0.000000
0.787778 0.843141 0.000000
0.822245 0.843141 0.000000
0.856712 0.843141 0.000000
0.891179 0.843141 0.000000
0.928325 0.844607 0.000000
0.965623 0.846072 0.000000
0.989844 0.847538 0.000000
0.994287 0.849003 0.000000
0.997461 0.850469 0.000000
0.999365 0.851934 0.000000
1.000000 0.853400 0.000000
0.030207 0.879150 0.000000
0.064750 0.879150 0.000000
0.099293 0.879150 0.000000
0.133836 0.879150 0.000000
0.168379 0.879150 0.000000
0.202922 0.879150 0.000000
0.237465 0.879150 0.000000
0.272008 0.879150 0.000000
0.306551 0.879150 0.000000
0.341094 0.879150 0.000000
0.375637 0.879150 0.000000
0.410180 0.879150 0.000000
0.444723 0.879150 0.000000
0.479266 0.879150 0.000000
0.513809 0.879150 0.000000
0.548352 0.879150 0.000000
0.582895 0.879150 0.000000
0.617438 0.879150 0.000000
0.651981 0.879150 0.000000
0.686524 0.879150 0.000000
0.721067 0.879150 0.000000
0.755610 0.879150 0.000000
0.790153 0.879150 0.000000
0.824696 0.879150 0.000000
0.859239 0.879150 0.000000
0.893782 0.879150 0.000000
0.928325 0.879150 0.000000
