luts/original/kodak-gold-mood.cube
TITLE "Kodak Gold Mood"
LUT_3D_SIZE 9
DOMAIN_MIN 0.0 0.0 0.0
DOMAIN_MAX 1.0 1.0 1.0
0.049000 0.028000 0.007000
0.181063 0.037864 0.011989
0.311500 0.047355 0.016605
0.440313 0.057594 0.021969
0.567500 0.068580 0.028080
0.693062 0.080314 0.034939
0.817000 0.092795 0.042545
0.939313 0.106024 0.050899
1.000000 0.120000 0.060000
0.063739 0.155188 0.011989
0.181063 0.155188 0.011989
0.311500 0.164053 0.016605
0.440313 0.173292 0.021969
0.567500 0.183185 0.028080
0.693062 0.193788 0.034939
0.817000 0.205121 0.042545
0.939313 0.217190 0.050899
1.000000 0.230000 0.060000
0.078105 0.280750 0.016605
0.194802 0.280750 0.016605
0.311500 0.280750 0.016605
0.440313 0.288990 0.021969
0.567500 0.297790 0.028080
0.693062 0.307263 0.034939
0.817000 0.317447 0.042545
0.939313 0.328356 0.050899
1.000000 0.340000 0.060000
0.093219 0.404687 0.021969
0.208917 0.404687 0.021969
0.324615 0.404687 0.021969
0.440313 0.404687 0.021969
0.567500 0.412395 0.028080
0.693062 0.420738 0.034939
0.817000 0.429772 0.042545
0.939313 0.439523 0.050899
1.000000 0.450000 0.060000
0.109080 0.527000 0.028080
0.223685 0.527000 0.028080
0.338290 0.527000 0.028080
0.452895 0.527000 0.028080
0.567500 0.527000 0.028080
0.693062 0.534213 0.034939
0.817000 0.542098 0.042545
0.939313 0.550689 0.050899
1.000000 0.560000 0.060000
0.125689 0.647687 0.034939
0.239164 0.647687 0.034939
0.352638 0.647687 0.034939
0.466113 0.647687 0.034939
0.579588 0.647687 0.034939
0.693062 0.647687 0.034939
0.817000 0.654424 0.042545
0.939313 0.661855 0.050899
1.000000 0.670000 0.060000
0.143045 0.766750 0.042545
0.255371 0.766750 0.042545
0.367697 0.766750 0.042545
0.480022 0.766750 0.042545
0.592348 0.766750 0.042545
0.704674 0.766750 0.042545
0.817000 0.766750 0.042545
0.939313 0.773021 0.050899
1.000000 0.780000 0.060000
0.161149 0.884188 0.050899
0.272315 0.884188 0.050899
0.383481 0.884188 0.050899
0.494648 0.884188 0.050899
0.605814 0.884188 0.050899
0.716980 0.884188 0.050899
0.828146 0.884188 0.050899
0.939313 0.884188 0.050899
1.000000 0.890000 0.060000
0.180000 1.000000 0.060000
0.290000 1.000000 0.060000
0.400000 1.000000 0.060000
0.510000 1.000000 0.060000
0.620000 1.000000 0.060000
0.730000 1.000000 0.060000
0.840000 1.000000 0.060000
0.950000 1.000000 0.060000
1.000000 1.000000 0.060000
0.063739 0.037864 0.129313
0.181063 0.037864 0.129313
0.311500 0.047355 0.133302
0.440313 0.057594 0.137667
0.567500 0.068580 0.142685
0.693062 0.080314 0.148413
0.817000 0.092795 0.154871
0.939313 0.106024 0.162065
1.000000 0.120000 0.170000
0.063739 0.155188 0.129313
0.181063 0.155188 0.129313
0.311500 0.167230 0.136480
0.440313 0.176656 0.141031
0.567500 0.186830 0.146330
0.693062 0.197751 0.152376
0.817000 0.209420 0.159170
0.939313 0.221836 0.166711
1.000000 0.235000 0.175000
0.078105 0.280750 0.133302
0.197980 0.280750 0.136480
0.311500 0.280750 0.136480
0.440313 0.290672 0.141031
0.567500 0.300220 0.146330
0.693062 0.310235 0.152376
0.817000 0.320886 0.159170
0.939313 0.332228 0.166711
1.000000 0.344286 0.175000
0.093219 0.404687 0.137667
0.212281 0.404687 0.141031
0.326297 0.404687 0.141031
0.440313 0.404687 0.141031
0.567500 0.413610 0.146330
0.693062 0.422719 0.152376
0.817000 0.432352 0.159170
0.939313 0.442620 0.166711
1.000000 0.453571 0.175000
0.109080 0.527000 0.142685
0.227330 0.527000 0.146330
0.340720 0.527000 0.146330
0.454110 0.527000 0.146330
0.567500 0.527000 0.146330
0.693062 0.535203 0.152376
0.817000 0.543818 0.159170
0.939313 0.553012 0.166711
1.000000 0.562857 0.175000
0.125689 0.647687 0.148413
0.243126 0.647687 0.152376
0.355610 0.647687 0.152376
0.468094 0.647687 0.152376
0.580578 0.647687 0.152376
0.693062 0.647687 0.152376
0.817000 0.655284 0.159170
0.939313 0.663404 0.166711
1.000000 0.672143 0.175000
0.143045 0.766750 0.154871
0.259670 0.766750 0.159170
0.371136 0.766750 0.159170
0.482602 0.766750 0.159170
0.594068 0.766750 0.159170
0.705534 0.766750 0.159170
0.817000 0.766750 0.159170
0.939313 0.773796 0.166711
1.000000 0.781429 0.175000
0.161149 0.884188 0.162065
0.276961 0.884188 0.166711
0.387353 0.884188 0.166711
0.497745 0.884188 0.166711
0.608137 0.884188 0.166711
0.718529 0.884188 0.166711
0.828921 0.884188 0.166711
0.939313 0.884188 0.166711
1.000000 0.890714 0.175000
0.180000 1.000000 0.170000
0.295000 1.000000 0.175000
0.404286 1.000000 0.175000
0.513571 1.000000 0.175000
0.622857 1.000000 0.175000
0.732143 1.000000 0.175000
0.841429 1.000000 0.175000
0.950714 1.000000 0.175000
1.000000 1.000000 0.175000
0.078105 0.047355 0.250000
0.194802 0.047355 0.250000
0.311500 0.047355 0.250000
0.440313 0.057594 0.253365
0.567500 0.068580 0.257290
0.693062 0.080314 0.261888
0.817000 0.092795 0.267197
0.939313 0.106024 0.273231
1.000000 0.120000 0.280000
0.078105 0.164053 0.250000
0.197980 0.167230 0.250000
0.311500 0.167230 0.250000
0.440313 0.176656 0.255047
0.567500 0.186830 0.259720
0.693062 0.197751 0.264860
0.817000 0.209420 0.270636
0.939313 0.221836 0.277103
1.000000 0.235000 0.284286
0.078105 0.280750 0.250000
0.197980 0.280750 0.250000
0.311500 0.280750 0.250000
0.440313 0.295719 0.260094
0.567500 0.305080 0.264580
0.693062 0.315189 0.269814
0.817000 0.326045 0.275795
0.939313 0.337649 0.282524
1.000000 0.350000 0.290000
0.093219 0.404687 0.253365
0.212281 0.404687 0.255047
0.331344 0.404687 0.260094
0.440313 0.404687 0.260094
0.567500 0.416040 0.264580
0.693062 0.426022 0.269814
0.817000 0.436221 0.275795
0.939313 0.446956 0.282524
1.000000 0.458333 0.290000
0.109080 0.527000 0.257290
0.227330 0.527000 0.259720
0.345580 0.527000 0.264580
0.456540 0.527000 0.264580
0.567500 0.527000 0.264580
0.693062 0.536855 0.269814
0.817000 0.546398 0.275795
0.939313 0.556264 0.282524
1.000000 0.566667 0.290000
0.125689 0.647687 0.261888
0.243126 0.647687 0.264860
0.360564 0.647687 0.269814
0.471397 0.647687 0.269814
0.582230 0.647687 0.269814
0.693062 0.647687 0.269814
0.817000 0.656574 0.275795
0.939313 0.665572 0.282524
1.000000 0.675000 0.290000
0.143045 0.766750 0.267197
0.259670 0.766750 0.270636
0.376295 0.766750 0.275795
0.486471 0.766750 0.275795
0.596648 0.766750 0.275795
0.706824 0.766750 0.275795
0.817000 0.766750 0.275795
0.939313 0.774880 0.282524
1.000000 0.783333 0.290000
0.161149 0.884188 0.273231
0.276961 0.884188 0.277103
0.392774 0.884188 0.282524
0.502082 0.884188 0.282524
0.611389 0.884188 0.282524
0.720697 0.884188 0.282524
0.830005 0.884188 0.282524
0.939313 0.884188 0.282524
1.000000 0.891667 0.290000
0.180000 1.000000 0.280000
0.295000 1.000000 0.284286
0.410000 1.000000 0.290000
0.518333 1.000000 0.290000
0.626667 1.000000 0.290000
0.735000 1.000000 0.290000
0.843333 1.000000 0.290000
0.951667 1.000000 0.290000
1.000000 1.000000 0.290000
0.093219 0.057594 0.369063
0.208917 0.057594 0.369063
0.324615 0.057594 0.369063
0.440313 0.057594 0.369063
0.567500 0.068580 0.371895
0.693062 0.080314 0.375363
0.817000 0.092795 0.379523
0.939313 0.106024 0.384398
1.000000 0.120000 0.390000
0.093219 0.173292 0.369063
0.212281 0.176656 0.369063
0.326297 0.176656 0.369063
0.440313 0.176656 0.369063
0.567500 0.186830 0.373110
0.693062 0.197751 0.377344
0.817000 0.209420 0.382102
0.939313 0.221836 0.387495
1.000000 0.235000 0.393571
0.093219 0.288990 0.369063
0.212281 0.290672 0.369063
0.331344 0.295719 0.369063
0.440313 0.295719 0.369063
0.567500 0.305080 0.375540
0.693062 0.315189 0.380647
0.817000 0.326045 0.385971
0.939313 0.337649 0.391831
1.000000 0.350000 0.398333
0.093219 0.404687 0.369063
0.212281 0.404687 0.369063
0.331344 0.404687 0.369063
0.440313 0.404687 0.369063
0.567500 0.423330 0.382830
0.693062 0.432626 0.387251
0.817000 0.442670 0.392420
0.939313 0.453461 0.398336
1.000000 0.465000 0.405000
0.109080 0.527000 0.371895
0.227330 0.527000 0.373110
0.345580 0.527000 0.375540
0.463830 0.527000 0.382830
0.567500 0.527000 0.382830
0.693062 0.540157 0.387251
0.817000 0.550697 0.392420
0.939313 0.561143 0.398336
1.000000 0.572000 0.405000
0.125689 0.647687 0.375363
0.243126 0.647687 0.377344
0.360564 0.647687 0.380647
0.478001 0.647687 0.387251
0.585532 0.647687 0.387251
0.693062 0.647687 0.387251
0.817000 0.658723 0.392420
0.939313 0.668824 0.398336
1.000000 0.679000 0.405000
0.143045 0.766750 0.379523
0.259670 0.766750 0.382102
0.376295 0.766750 0.385971
0.492920 0.766750 0.392420
0.600947 0.766750 0.392420
0.708973 0.766750 0.392420
0.817000 0.766750 0.392420
0.939313 0.776506 0.398336
1.000000 0.786000 0.405000
0.161149 0.884188 0.384398
0.276961 0.884188 0.387495
0.392774 0.884188 0.391831
0.508586 0.884188 0.398336
0.616268 0.884188 0.398336
0.723949 0.884188 0.398336
0.831631 0.884188 0.398336
0.939313 0.884188 0.398336
1.000000 0.893000 0.405000
0.180000 1.000000 0.390000
0.295000 1.000000 0.393571
0.410000 1.000000 0.398333
0.525000 1.000000 0.405000
0.632000 1.000000 0.405000
0.739000 1.000000 0.405000
0.846000 1.000000 0.405000
0.953000 1.000000 0.405000
1.000000 1.000000 0.405000
0.109080 0.068580 0.486500
0.223685 0.068580 0.486500
0.338290 0.068580 0.486500
0.452895 0.068580 0.486500
0.567500 0.068580 0.486500
0.693062 0.080314 0.488838
0.817000 0.092795 0.491848
0.939313 0.106024 0.495564
1.000000 0.120000 0.500000
0.109080 0.183185 0.486500
0.227330 0.186830 0.486500
0.340720 0.186830 0.486500
0.454110 0.186830 0.486500
0.567500 0.186830 0.486500
0.693062 0.197751 0.489828
0.817000 0.209420 0.493568
0.939313 0.221836 0.497887
1.000000 0.235000 0.502857
0.109080 0.297790 0.486500
0.227330 0.300220 0.486500
0.345580 0.305080 0.486500
0.456540 0.305080 0.486500
0.567500 0.305080 0.486500
0.693062 0.315189 0.491480
0.817000 0.326045 0.496148
0.939313 0.337649 0.501139
1.000000 0.350000 0.506667
0.109080 0.412395 0.486500
0.227330 0.413610 0.486500
0.345580 0.416040 0.486500
0.463830 0.423330 0.486500
0.567500 0.423330 0.486500
0.693062 0.432626 0.494782
0.817000 0.442670 0.500447
0.939313 0.453461 0.506018
1.000000 0.465000 0.512000
0.109080 0.527000 0.486500
0.227330 0.527000 0.486500
0.345580 0.527000 0.486500
0.463830 0.527000 0.486500
0.567500 0.527000 0.486500
0.693062 0.550064 0.504689
0.817000 0.559295 0.509045
0.939313 0.569274 0.514149
1.000000 0.580000 0.520000
0.125689 0.647687 0.488838
0.243126 0.647687 0.489828
0.360564 0.647687 0.491480
0.478001 0.647687 0.494782
0.595439 0.647687 0.504689
0.693062 0.647687 0.504689
0.817000 0.663023 0.509045
0.939313 0.674245 0.514149
1.000000 0.685000 0.520000
0.143045 0.766750 0.491848
0.259670 0.766750 0.493568
0.376295 0.766750 0.496148
0.492920 0.766750 0.500447
0.609545 0.766750 0.509045
0.713273 0.766750 0.509045
0.817000 0.766750 0.509045
0.939313 0.779216 0.514149
1.000000 0.790000 0.520000
0.161149 0.884188 0.495564
0.276961 0.884188 0.497887
0.392774 0.884188 0.501139
0.508586 0.884188 0.506018
0.624399 0.884188 0.514149
0.729370 0.884188 0.514149
0.834341 0.884188 0.514149
0.939313 0.884188 0.514149
1.000000 0.895000 0.520000
0.180000 1.000000 0.500000
0.295000 1.000000 0.502857
0.410000 1.000000 0.506667
0.525000 1.000000 0.512000
0.640000 1.000000 0.520000
0.745000 1.000000 0.520000
0.850000 1.000000 0.520000
0.955000 1.000000 0.520000
1.000000 1.000000 0.520000
0.125689 0.080314 0.602313
0.239164 0.080314 0.602313
0.352638 0.080314 0.602313
0.466113 0.080314 0.602313
0.579588 0.080314 0.602313
0.693062 0.080314 0.602313
0.817000 0.092795 0.604174
0.939313 0.106024 0.606730
1.000000 0.120000 0.610000
0.125689 0.193788 0.602313
0.243126 0.197751 0.602313
0.355610 0.197751 0.602313
0.468094 0.197751 0.602313
0.580578 0.197751 0.602313
0.693062 0.197751 0.602313
0.817000 0.209420 0.605034
0.939313 0.221836 0.608279
1.000000 0.235000 0.612143
0.125689 0.307263 0.602313
0.243126 0.310235 0.602313
0.360564 0.315189 0.602313
0.471397 0.315189 0.602313
0.582230 0.315189 0.602313
0.693062 0.315189 0.602313
0.817000 0.326045 0.606324
0.939313 0.337649 0.610447
1.000000 0.350000 0.615000
0.125689 0.420738 0.602313
0.243126 0.422719 0.602313
0.360564 0.426022 0.602313
0.478001 0.432626 0.602313
0.585532 0.432626 0.602313
0.693062 0.432626 0.602313
0.817000 0.442670 0.608473
0.939313 0.453461 0.613699
1.000000 0.465000 0.619000
0.125689 0.534213 0.602313
0.243126 0.535203 0.602313
0.360564 0.536855 0.602313
0.478001 0.540157 0.602313
0.595439 0.550064 0.602313
0.693062 0.550064 0.602313
0.817000 0.559295 0.612773
0.939313 0.569274 0.619120
1.000000 0.580000 0.625000
0.125689 0.647687 0.602313
0.243126 0.647687 0.602313
0.360564 0.647687 0.602313
0.478001 0.647687 0.602313
0.595439 0.647687 0.602313
0.693062 0.647687 0.602313
0.817000 0.675920 0.625670
0.939313 0.685086 0.629961
1.000000 0.695000 0.635000
0.143045 0.766750 0.604174
0.259670 0.766750 0.605034
0.376295 0.766750 0.606324
0.492920 0.766750 0.608473
0.609545 0.766750 0.612773
0.726170 0.766750 0.625670
0.817000 0.766750 0.625670
0.939313 0.784637 0.629961
1.000000 0.796667 0.635000
0.161149 0.884188 0.606730
0.276961 0.884188 0.608279
0.392774 0.884188 0.610447
0.508586 0.884188 0.613699
0.624399 0.884188 0.619120
0.740211 0.884188 0.629961
0.839762 0.884188 0.629961
0.939313 0.884188 0.629961
1.000000 0.898333 0.635000
0.180000 1.000000 0.610000
0.295000 1.000000 0.612143
0.410000 1.000000 0.615000
0.525000 1.000000 0.619000
0.640000 1.000000 0.625000
0.755000 1.000000 0.635000
0.856667 1.000000 0.635000
0.958333 1.000000 0.635000
1.000000 1.000000 0.635000
0.143045 0.092795 0.716500
0.255371 0.092795 0.716500
0.367697 0.092795 0.716500
0.480022 0.092795 0.716500
0.592348 0.092795 0.716500
0.704674 0.092795 0.716500
0.817000 0.092795 0.716500
0.939313 0.106024 0.717896
1.000000 0.120000 0.720000
0.143045 0.205121 0.716500
0.259670 0.209420 0.716500
0.371136 0.209420 0.716500
0.482602 0.209420 0.716500
0.594068 0.209420 0.716500
0.705534 0.209420 0.716500
0.817000 0.209420 0.716500
0.939313 0.221836 0.718671
1.000000 0.235000 0.721429
0.143045 0.317447 0.716500
0.259670 0.320886 0.716500
0.376295 0.326045 0.716500
0.486471 0.326045 0.716500
0.596648 0.326045 0.716500
0.706824 0.326045 0.716500
0.817000 0.326045 0.716500
0.939313 0.337649 0.719755
1.000000 0.350000 0.723333
0.143045 0.429772 0.716500
0.259670 0.432352 0.716500
0.376295 0.436221 0.716500
0.492920 0.442670 0.716500
0.600947 0.442670 0.716500
0.708973 0.442670 0.716500
0.817000 0.442670 0.716500
0.939313 0.453461 0.721381
1.000000 0.465000 0.726000
0.143045 0.542098 0.716500
0.259670 0.543818 0.716500
0.376295 0.546398 0.716500
0.492920 0.550697 0.716500
0.609545 0.559295 0.716500
0.713273 0.559295 0.716500
0.817000 0.559295 0.716500
0.939313 0.569274 0.724091
1.000000 0.580000 0.730000
0.143045 0.654424 0.716500
0.259670 0.655284 0.716500
0.376295 0.656574 0.716500
0.492920 0.658723 0.716500
0.609545 0.663023 0.716500
0.726170 0.675920 0.716500
0.817000 0.675920 0.716500
0.939313 0.685086 0.729512
1.000000 0.695000 0.736667
0.143045 0.766750 0.716500
0.259670 0.766750 0.716500
0.376295 0.766750 0.716500
0.492920 0.766750 0.716500
0.609545 0.766750 0.716500
0.726170 0.766750 0.716500
0.817000 0.766750 0.716500
0.939313 0.800899 0.745774
1.000000 0.810000 0.750000
0.161149 0.884188 0.717896
0.276961 0.884188 0.718671
0.392774 0.884188 0.719755
0.508586 0.884188 0.721381
0.624399 0.884188 0.724091
0.740211 0.884188 0.729512
0.856024 0.884188 0.745774
0.939313 0.884188 0.745774
1.000000 0.905000 0.750000
0.180000 1.000000 0.720000
0.295000 1.000000 0.721429
0.410000 1.000000 0.723333
0.525000 1.000000 0.726000
0.640000 1.000000 0.730000
0.755000 1.000000 0.736667
0.870000 1.000000 0.750000
0.965000 1.000000 0.750000
1.000000 1.000000 0.750000
0.161149 0.106024 0.829063
0.272315 0.106024 0.829063
0.383481 0.106024 0.829063
0.494648 0.106024 0.829063
0.605814 0.106024 0.829063
0.716980 0.106024 0.829063
0.828146 0.106024 0.829063
0.939313 0.106024 0.829063
1.000000 0.120000 0.830000
0.161149 0.217190 0.829063
0.276961 0.221836 0.829063
0.387353 0.221836 0.829063
0.497745 0.221836 0.829063
0.608137 0.221836 0.829063
0.718529 0.221836 0.829063
0.828921 0.221836 0.829063
0.939313 0.221836 0.829063
1.000000 0.235000 0.830714
0.161149 0.328356 0.829063
0.276961 0.332228 0.829063
0.392774 0.337649 0.829063
0.502082 0.337649 0.829063
0.611389 0.337649 0.829063
0.720697 0.337649 0.829063
0.830005 0.337649 0.829063
0.939313 0.337649 0.829063
1.000000 0.350000 0.831667
0.161149 0.439523 0.829063
0.276961 0.442620 0.829063
0.392774 0.446956 0.829063
0.508586 0.453461 0.829063
0.616268 0.453461 0.829063
0.723949 0.453461 0.829063
0.831631 0.453461 0.829063
0.939313 0.453461 0.829063
1.000000 0.465000 0.833000
0.161149 0.550689 0.829063
0.276961 0.553012 0.829063
0.392774 0.556264 0.829063
0.508586 0.561143 0.829063
0.624399 0.569274 0.829063
0.729370 0.569274 0.829063
0.834341 0.569274 0.829063
0.939313 0.569274 0.829063
1.000000 0.580000 0.835000
0.161149 0.661855 0.829063
0.276961 0.663404 0.829063
0.392774 0.665572 0.829063
0.508586 0.668824 0.829063
0.624399 0.674245 0.829063
0.740211 0.685086 0.829063
0.839762 0.685086 0.829063
0.939313 0.685086 0.829063
1.000000 0.695000 0.838333
0.161149 0.773021 0.829063
0.276961 0.773796 0.829063
0.392774 0.774880 0.829063
0.508586 0.776506 0.829063
0.624399 0.779216 0.829063
0.740211 0.784637 0.829063
0.856024 0.800899 0.829063
0.939313 0.800899 0.829063
1.000000 0.810000 0.845000
0.161149 0.884188 0.829063
0.276961 0.884188 0.829063
0.392774 0.884188 0.829063
0.508586 0.884188 0.829063
0.624399 0.884188 0.829063
0.740211 0.884188 0.829063
0.856024 0.884188 0.829063
0.939313 0.884188 0.829063
1.000000 0.925000 0.865000
0.180000 1.000000 0.830000
0.295000 1.000000 0.830714
0.410000 1.000000 0.831667
0.525000 1.000000 0.833000
0.640000 1.000000 0.835000
0.755000 1.000000 0.838333
0.870000 1.000000 0.845000
0.985000 1.000000 0.865000
1.000000 1.000000 0.865000
0.180000 0.120000 0.940000
0.290000 0.120000 0.940000
0.400000 0.120000 0.940000
0.510000 0.120000 0.940000
0.620000 0.120000 0.940000
0.730000 0.120000 0.940000
0.840000 0.120000 0.940000
0.950000 0.120000 0.940000
1.000000 0.120000 0.940000
0.180000 0.230000 0.940000
0.295000 0.235000 0.940000
0.404286 0.235000 0.940000
0.513571 0.235000 0.940000
0.622857 0.235000 0.940000
0.732143 0.235000 0.940000
0.841429 0.235000 0.940000
0.950714 0.235000 0.940000
1.000000 0.235000 0.940000
0.180000 0.340000 0.940000
0.295000 0.344286 0.940000
0.410000 0.350000 0.940000
0.518333 0.350000 0.940000
0.626667 0.350000 0.940000
0.735000 0.350000 0.940000
0.843333 0.350000 0.940000
0.951667 0.350000 0.940000
1.000000 0.350000 0.940000
0.180000 0.450000 0.940000
0.295000 0.453571 0.940000
0.410000 0.458333 0.940000
0.525000 0.465000 0.940000
0.632000 0.465000 0.940000
0.739000 0.465000 0.940000
0.846000 0.465000 0.940000
0.953000 0.465000 0.940000
1.000000 0.465000 0.940000
0.180000 0.560000 0.940000
0.295000 0.562857 0.940000
0.410000 0.566667 0.940000
0.525000 0.572000 0.940000
0.640000 0.580000 0.940000
0.745000 0.580000 0.940000
0.850000 0.580000 0.940000
0.955000 0.580000 0.940000
1.000000 0.580000 0.940000
0.180000 0.670000 0.940000
0.295000 0.672143 0.940000
0.410000 0.675000 0.940000
0.525000 0.679000 0.940000
0.640000 0.685000 0.940000
0.755000 0.695000 0.940000
0.856667 0.695000 0.940000
0.958333 0.695000 0.940000
1.000000 0.695000 0.940000
0.180000 0.780000 0.940000
0.295000 0.781429 0.940000
0.410000 0.783333 0.940000
0.525000 0.786000 0.940000
0.640000 0.790000 0.940000
0.755000 0.796667 0.940000
0.870000 0.810000 0.940000
0.965000 0.810000 0.940000
1.000000 0.810000 0.940000
0.180000 0.890000 0.940000
0.295000 0.890714 0.940000
0.410000 0.891667 0.940000
0.525000 0.893000 0.940000
0.640000 0.895000 0.940000
0.755000 0.898333 0.940000
0.870000 0.905000 0.940000
0.985000 0.925000 0.940000
1.000000 0.925000 0.940000
0.180000 1.000000 0.940000
0.295000 1.000000 0.940000
0.410000 1.000000 0.940000
0.525000 1.000000 0.940000
0.640000 1.000000 0.940000
0.755000 1.000000 0.940000
0.870000 1.000000 0.940000
0.985000 1.000000 0.940000
1.000000 1.000000 0.940000
