luts/original/kodak-gold-mood.cube
TITLE "Kodak Gold Mood"
LUT_3D_SIZE 5
DOMAIN_MIN 0.0 0.0 0.0
DOMAIN_MAX 1.0 1.0 1.0
0.049000 0.028000 0.007000
0.311500 0.047355 0.016605
0.567500 0.068580 0.028080
0.817000 0.092795 0.042545
1.000000 0.120000 0.060000
0.078105 0.280750 0.016605
0.311500 0.280750 0.016605
0.567500 0.297790 0.028080
0.817000 0.317447 0.042545
1.000000 0.340000 0.060000
0.109080 0.527000 0.028080
0.338290 0.527000 0.028080
0.567500 0.527000 0.028080
0.817000 0.542098 0.042545
1.000000 0.560000 0.060000
0.143045 0.766750 0.042545
0.367697 0.766750 0.042545
0.592348 0.766750 0.042545
0.817000 0.766750 0.042545
1.000000 0.780000 0.060000
0.180000 1.000000 0.060000
0.400000 1.000000 0.060000
0.620000 1.000000 0.060000
0.840000 1.000000 0.060000
1.000000 1.000000 0.060000
0.078105 0.047355 0.250000
0.311500 0.047355 0.250000
0.567500 0.068580 0.257290
0.817000 0.092795 0.267197
1.000000 0.120000 0.280000
0.078105 0.280750 0.250000
0.311500 0.280750 0.250000
0.567500 0.305080 0.264580
0.817000 0.326045 0.275795
1.000000 0.350000 0.290000
0.109080 0.527000 0.257290
0.345580 0.527000 0.264580
0.567500 0.527000 0.264580
0.817000 0.546398 0.275795
1.000000 0.566667 0.290000
0.143045 0.766750 0.267197
0.376295 0.766750 0.275795
0.596648 0.766750 0.275795
0.817000 0.766750 0.275795
1.000000 0.783333 0.290000
0.180000 1.000000 0.280000
0.410000 1.000000 0.290000
0.626667 1.000000 0.290000
0.843333 1.000000 0.290000
1.000000 1.000000 0.290000
0.109080 0.068580 0.486500
0.338290 0.068580 0.486500
0.567500 0.068580 0.486500
0.817000 0.092795 0.491848
1.000000 0.120000 0.500000
0.109080 0.297790 0.486500
0.345580 0.305080 0.486500
0.567500 0.305080 0.486500
0.817000 0.326045 0.496148
1.000000 0.350000 0.506667
0.109080 0.527000 0.486500
0.345580 0.527000 0.486500
0.567500 0.527000 0.486500
0.817000 0.559295 0.509045
1.000000 0.580000 0.520000
0.143045 0.766750 0.491848
0.376295 0.766750 0.496148
0.609545 0.766750 0.509045
0.817000 0.766750 0.509045
1.000000 0.790000 0.520000
0.180000 1.000000 0.500000
0.410000 1.000000 0.506667
0.640000 1.000000 0.520000
0.850000 1.000000 0.520000
1.000000 1.000000 0.520000
0.143045 0.092795 0.716500
0.367697 0.092795 0.716500
0.592348 0.092795 0.716500
0.817000 0.092795 0.716500
1.000000 0.120000 0.720000
0.143045 0.317447 0.716500
0.376295 0.326045 0.716500
0.596648 0.326045 0.716500
0.817000 0.326045 0.716500
1.000000 0.350000 0.723333
0.143045 0.542098 0.716500
0.376295 0.546398 0.716500
0.609545 0.559295 0.716500
0.817000 0.559295 0.716500
1.000000 0.580000 0.730000
0.143045 0.766750 0.716500
0.376295 0.766750 0.716500
0.609545 0.766750 0.716500
0.817000 0.766750 0.716500
1.000000 0.810000 0.750000
0.180000 1.000000 0.720000
0.410000 1.000000 0.723333
0.640000 1.000000 0.730000
0.870000 1.000000 0.750000
1.000000 1.000000 0.750000
0.180000 0.120000 0.940000
0.400000 0.120000 0.940000
0.620000 0.120000 0.940000
0.840000 0.120000 0.940000
1.000000 0.120000 0.940000
0.180000 0.340000 0.940000
0.410000 0.350000 0.940000
0.626667 0.350000 0.940000
0.843333 0.350000 0.940000
1.000000 0.350000 0.940000
0.180000 0.560000 0.940000
0.410000 0.566667 0.940000
0.640000 0.580000 0.940000
0.850000 0.580000 0.940000
1.000000 0.580000 0.940000
0.180000 0.780000 0.940000
0.410000 0.783333 0.940000
0.640000 0.790000 0.940000
0.870000 0.810000 0.940000
1.000000 0.810000 0.940000
0.180000 1.000000 0.940000
0.410000 1.000000 0.940000
0.640000 1.000000 0.940000
0.870000 1.000000 0.940000
1.000000 1.000000 0.940000
