luts/original/kodak-gold-mood.cube
TITLE "Kodak Gold Mood"
LUT_3D_SIZE 33
DOMAIN_MIN 0.0 0.0 0.0
DOMAIN_MAX 1.0 1.0 1.0
0.049000 0.028000 0.007000
0.082168 0.031236 0.009017
0.115234 0.033398 0.009961
0.148199 0.035608 0.010951
0.181063 0.037864 0.011989
0.213824 0.040166 0.013073
0.246484 0.042516 0.014203
0.279043 0.044912 0.015381
0.311500 0.047355 0.016605
0.343855 0.049845 0.017876
0.376109 0.052381 0.019193
0.408262 0.054964 0.020558
0.440313 0.057594 0.021969
0.472262 0.060270 0.023426
0.504109 0.062993 0.024931
0.535855 0.065763 0.026482
0.567500 0.068580 0.028080
0.599043 0.071443 0.029725
0.630484 0.074353 0.031416
0.661824 0.077310 0.033154
0.693062 0.080314 0.034939
0.724199 0.083364 0.036770
0.755234 0.086461 0.038648
0.786168 0.089605 0.040573
0.817000 0.092795 0.042545
0.847730 0.096032 0.044563
0.878359 0.099316 0.046628
0.908887 0.102646 0.048740
0.939313 0.106024 0.050899
0.969637 0.109448 0.053104
0.997461 0.112918 0.055356
0.999365 0.116436 0.057655
1.000000 0.120000 0.060000
0.053455 0.059949 0.009017
0.082168 0.059949 0.009017
0.115234 0.062598 0.009961
0.148199 0.064919 0.010951
0.181063 0.067195 0.011989
0.213824 0.069479 0.013073
0.246484 0.071792 0.014203
0.279043 0.074141 0.015381
0.311500 0.076529 0.016605
0.343855 0.078960 0.017876
0.376109 0.081435 0.019193
0.408262 0.083954 0.020558
0.440313 0.086518 0.021969
0.472262 0.089128 0.023426
0.504109 0.091783 0.024931
0.535855 0.094484 0.026482
0.567500 0.097231 0.028080
0.599043 0.100025 0.029725
0.630484 0.102864 0.031416
0.661824 0.105750 0.033154
0.693062 0.108682 0.034939
0.724199 0.111661 0.036770
0.755234 0.114686 0.038648
0.786168 0.117758 0.040573
0.817000 0.120876 0.042545
0.847730 0.124041 0.044563
0.878359 0.127253 0.046628
0.908887 0.130511 0.048740
0.939313 0.133815 0.050899
0.969637 0.137167 0.053104
0.997461 0.140564 0.055356
0.999365 0.144009 0.057655
1.000000 0.147500 0.060000
0.056836 0.091797 0.009961
0.086035 0.091797 0.009961
0.115234 0.091797 0.009961
0.148199 0.094231 0.010951
0.181063 0.096526 0.011989
0.213824 0.098792 0.013073
0.246484 0.101068 0.014203
0.279043 0.103369 0.015381
0.311500 0.105704 0.016605
0.343855 0.108076 0.017876
0.376109 0.110489 0.019193
0.408262 0.112944 0.020558
0.440313 0.115443 0.021969
0.472262 0.117985 0.023426
0.504109 0.120572 0.024931
0.535855 0.123205 0.026482
0.567500 0.125883 0.028080
0.599043 0.128606 0.029725
0.630484 0.131375 0.031416
0.661824 0.134190 0.033154
0.693062 0.137051 0.034939
0.724199 0.139958 0.036770
0.755234 0.142912 0.038648
0.786168 0.145912 0.040573
0.817000 0.148958 0.042545
0.847730 0.152050 0.044563
0.878359 0.155189 0.046628
0.908887 0.158375 0.048740
0.939313 0.161607 0.050899
0.969637 0.164885 0.053104
0.997461 0.168210 0.055356
0.999365 0.171582 0.057655
1.000000 0.175000 0.060000
0.060264 0.123543 0.010951
0.089576 0.123543 0.010951
0.118887 0.123543 0.010951
0.148199 0.123543 0.010951
0.181063 0.125857 0.011989
0.213824 0.128105 0.013073
0.246484 0.130344 0.014203
0.279043 0.132598 0.015381
0.311500 0.134878 0.016605
0.343855 0.137192 0.017876
0.376109 0.139543 0.019193
0.408262 0.141934 0.020558
0.440313 0.144367 0.021969
0.472262 0.146843 0.023426
0.504109 0.149362 0.024931
0.535855 0.151926 0.026482
0.567500 0.154534 0.028080
0.599043 0.157187 0.029725
0.630484 0.159886 0.031416
0.661824 0.162630 0.033154
0.693062 0.165420 0.034939
0.724199 0.168256 0.036770
0.755234 0.171137 0.038648
0.786168 0.174065 0.040573
0.817000 0.177039 0.042545
0.847730 0.180060 0.044563
0.878359 0.183126 0.046628
0.908887 0.186239 0.048740
0.939313 0.189398 0.050899
0.969637 0.192604 0.053104
0.997461 0.195856 0.055356
0.999365 0.199155 0.057655
1.000000 0.202500 0.060000
0.063739 0.155188 0.011989
0.093070 0.155188 0.011989
0.122401 0.155188 0.011989
0.151732 0.155188 0.011989
0.181063 0.155188 0.011989
0.213824 0.157418 0.013073
0.246484 0.159620 0.014203
0.279043 0.161826 0.015381
0.311500 0.164053 0.016605
0.343855 0.166308 0.017876
0.376109 0.168597 0.019193
0.408262 0.170925 0.020558
0.440313 0.173292 0.021969
0.472262 0.175700 0.023426
0.504109 0.178152 0.024931
0.535855 0.180646 0.026482
0.567500 0.183185 0.028080
0.599043 0.185768 0.029725
0.630484 0.188396 0.031416
0.661824 0.191070 0.033154
0.693062 0.193788 0.034939
0.724199 0.196553 0.036770
0.755234 0.199363 0.038648
0.786168 0.202219 0.040573
0.817000 0.205121 0.042545
0.847730 0.208069 0.044563
0.878359 0.211063 0.046628
0.908887 0.214103 0.048740
0.939313 0.217190 0.050899
0.969637 0.220323 0.053104
0.997461 0.223502 0.055356
0.999365 0.226728 0.057655
1.000000 0.230000 0.060000
0.067260 0.186730 0.013073
0.096573 0.186730 0.013073
0.125886 0.186730 0.013073
0.155199 0.186730 0.013073
0.184511 0.186730 0.013073
0.213824 0.186730 0.013073
0.246484 0.188896 0.014203
0.279043 0.191055 0.015381
0.311500 0.193227 0.016605
0.343855 0.195424 0.017876
0.376109 0.197651 0.019193
0.408262 0.199915 0.020558
0.440313 0.202216 0.021969
0.472262 0.204558 0.023426
0.504109 0.206941 0.024931
0.535855 0.209367 0.026482
0.567500 0.211836 0.028080
0.599043 0.214349 0.029725
0.630484 0.216907 0.031416
0.661824 0.219510 0.033154
0.693062 0.222157 0.034939
0.724199 0.224850 0.036770
0.755234 0.227588 0.038648
0.786168 0.230372 0.040573
0.817000 0.233202 0.042545
0.847730 0.236078 0.044563
0.878359 0.239000 0.046628
0.908887 0.241968 0.048740
0.939313 0.244982 0.050899
0.969637 0.248042 0.053104
0.997461 0.251148 0.055356
0.999365 0.254301 0.057655
1.000000 0.257500 0.060000
0.070828 0.218172 0.014203
0.100104 0.218172 0.014203
0.129380 0.218172 0.014203
0.158656 0.218172 0.014203
0.187932 0.218172 0.014203
0.217208 0.218172 0.014203
0.246484 0.218172 0.014203
0.279043 0.220283 0.015381
0.311500 0.222401 0.016605
0.343855 0.224539 0.017876
0.376109 0.226706 0.019193
0.408262 0.228905 0.020558
0.440313 0.231141 0.021969
0.472262 0.233415 0.023426
0.504109 0.235731 0.024931
0.535855 0.238088 0.026482
0.567500 0.240488 0.028080
0.599043 0.242931 0.029725
0.630484 0.245418 0.031416
0.661824 0.247950 0.033154
0.693062 0.250526 0.034939
0.724199 0.253147 0.036770
0.755234 0.255814 0.038648
0.786168 0.258526 0.040573
0.817000 0.261284 0.042545
0.847730 0.264087 0.044563
0.878359 0.266937 0.046628
0.908887 0.269832 0.048740
0.939313 0.272773 0.050899
0.969637 0.275761 0.053104
0.997461 0.278794 0.055356
0.999365 0.281874 0.057655
1.000000 0.285000 0.060000
0.074443 0.249512 0.015381
0.103672 0.249512 0.015381
0.132900 0.249512 0.015381
0.162129 0.249512 0.015381
0.191357 0.249512 0.015381
0.220586 0.249512 0.015381
0.249814 0.249512 0.015381
0.279043 0.249512 0.015381
0.311500 0.251576 0.016605
0.343855 0.253655 0.017876
0.376109 0.255760 0.019193
0.408262 0.257895 0.020558
0.440313 0.260065 0.021969
0.472262 0.262273 0.023426
0.504109 0.264520 0.024931
0.535855 0.266808 0.026482
0.567500 0.269139 0.028080
0.599043 0.271512 0.029725
0.630484 0.273929 0.031416
0.661824 0.276389 0.033154
0.693062 0.278895 0.034939
0.724199 0.281444 0.036770
0.755234 0.284039 0.038648
0.786168 0.286680 0.040573
0.817000 0.289365 0.042545
0.847730 0.292096 0.044563
0.878359 0.294873 0.046628
0.908887 0.297696 0.048740
0.939313 0.300565 0.050899
0.969637 0.303479 0.053104
0.997461 0.306440 0.055356
0.999365 0.309447 0.057655
1.000000 0.312500 0.060000
0.078105 0.280750 0.016605
0.107279 0.280750 0.016605
0.136454 0.280750 0.016605
0.165628 0.280750 0.016605
0.194802 0.280750 0.016605
0.223977 0.280750 0.016605
0.253151 0.280750 0.016605
0.282326 0.280750 0.016605
0.311500 0.280750 0.016605
0.343855 0.282771 0.017876
0.376109 0.284814 0.019193
0.408262 0.286885 0.020558
0.440313 0.288990 0.021969
0.472262 0.291130 0.023426
0.504109 0.293310 0.024931
0.535855 0.295529 0.026482
0.567500 0.297790 0.028080
0.599043 0.300093 0.029725
0.630484 0.302439 0.031416
0.661824 0.304829 0.033154
0.693062 0.307263 0.034939
0.724199 0.309742 0.036770
0.755234 0.312265 0.038648
0.786168 0.314833 0.040573
0.817000 0.317447 0.042545
0.847730 0.320106 0.044563
0.878359 0.322810 0.046628
0.908887 0.325560 0.048740
0.939313 0.328356 0.050899
0.969637 0.331198 0.053104
0.997461 0.334086 0.055356
0.999365 0.337020 0.057655
1.000000 0.340000 0.060000
0.081813 0.311887 0.017876
0.110929 0.311887 0.017876
0.140045 0.311887 0.017876
0.169161 0.311887 0.017876
0.198277 0.311887 0.017876
0.227392 0.311887 0.017876
0.256508 0.311887 0.017876
0.285624 0.311887 0.017876
0.314740 0.311887 0.017876
0.343855 0.311887 0.017876
0.376109 0.313868 0.019193
0.408262 0.315875 0.020558
0.440313 0.317914 0.021969
0.472262 0.319988 0.023426
0.504109 0.322099 0.024931
0.535855 0.324250 0.026482
0.567500 0.326441 0.028080
0.599043 0.328674 0.029725
0.630484 0.330950 0.031416
0.661824 0.333269 0.033154
0.693062 0.335632 0.034939
0.724199 0.338039 0.036770
0.755234 0.340490 0.038648
0.786168 0.342987 0.040573
0.817000 0.345528 0.042545
0.847730 0.348115 0.044563
0.878359 0.350747 0.046628
0.908887 0.353424 0.048740
0.939313 0.356148 0.050899
0.969637 0.358917 0.053104
0.997461 0.361732 0.055356
0.999365 0.364593 0.057655
1.000000 0.367500 0.060000
0.085568 0.342922 0.019193
0.114623 0.342922 0.019193
0.143677 0.342922 0.019193
0.172731 0.342922 0.019193
0.201785 0.342922 0.019193
0.230839 0.342922 0.019193
0.259893 0.342922 0.019193
0.288947 0.342922 0.019193
0.318001 0.342922 0.019193
0.347055 0.342922 0.019193
0.376109 0.342922 0.019193
0.408262 0.344865 0.020558
0.440313 0.346839 0.021969
0.472262 0.348845 0.023426
0.504109 0.350889 0.024931
0.535855 0.352971 0.026482
0.567500 0.355092 0.028080
0.599043 0.357256 0.029725
0.630484 0.359461 0.031416
0.661824 0.361709 0.033154
0.693062 0.364001 0.034939
0.724199 0.366336 0.036770
0.755234 0.368716 0.038648
0.786168 0.371140 0.040573
0.817000 0.373610 0.042545
0.847730 0.376124 0.044563
0.878359 0.378684 0.046628
0.908887 0.381289 0.048740
0.939313 0.383939 0.050899
0.969637 0.386636 0.053104
0.997461 0.389378 0.055356
0.999365 0.392166 0.057655
1.000000 0.395000 0.060000
0.089370 0.373855 0.020558
0.118360 0.373855 0.020558
0.147351 0.373855 0.020558
0.176341 0.373855 0.020558
0.205331 0.373855 0.020558
0.234321 0.373855 0.020558
0.263311 0.373855 0.020558
0.292301 0.373855 0.020558
0.321291 0.373855 0.020558
0.350281 0.373855 0.020558
0.379272 0.373855 0.020558
0.408262 0.373855 0.020558
0.440313 0.375763 0.021969
0.472262 0.377703 0.023426
0.504109 0.379678 0.024931
0.535855 0.381691 0.026482
0.567500 0.383744 0.028080
0.599043 0.385837 0.029725
0.630484 0.387972 0.031416
0.661824 0.390149 0.033154
0.693062 0.392369 0.034939
0.724199 0.394633 0.036770
0.755234 0.396941 0.038648
0.786168 0.399294 0.040573
0.817000 0.401691 0.042545
0.847730 0.404133 0.044563
0.878359 0.406620 0.046628
0.908887 0.409153 0.048740
0.939313 0.411731 0.050899
0.969637 0.414355 0.053104
0.997461 0.417024 0.055356
0.999365 0.419739 0.057655
1.000000 0.422500 0.060000
0.093219 0.404687 0.021969
0.122143 0.404687 0.021969
0.151068 0.404687 0.021969
0.179992 0.404687 0.021969
0.208917 0.404687 0.021969
0.237841 0.404687 0.021969
0.266766 0.404687 0.021969
0.295690 0.404687 0.021969
0.324615 0.404687 0.021969
0.353539 0.404687 0.021969
0.382464 0.404687 0.021969
0.411388 0.404687 0.021969
0.440313 0.404687 0.021969
0.472262 0.406560 0.023426
0.504109 0.408468 0.024931
0.535855 0.410412 0.026482
0.567500 0.412395 0.028080
0.599043 0.414418 0.029725
0.630484 0.416482 0.031416
0.661824 0.418589 0.033154
0.693062 0.420738 0.034939
0.724199 0.422931 0.036770
0.755234 0.425167 0.038648
0.786168 0.427447 0.040573
0.817000 0.429772 0.042545
0.847730 0.432142 0.044563
0.878359 0.434557 0.046628
0.908887 0.437017 0.048740
0.939313 0.439523 0.050899
0.969637 0.442073 0.053104
0.997461 0.444670 0.055356
0.999365 0.447312 0.057655
1.000000 0.450000 0.060000
0.097114 0.435418 0.023426
0.125971 0.435418 0.023426
0.154829 0.435418 0.023426
0.183687 0.435418 0.023426
0.212544 0.435418 0.023426
0.241402 0.435418 0.023426
0.270259 0.435418 0.023426
0.299117 0.435418 0.023426
0.327974 0.435418 0.023426
0.356832 0.435418 0.023426
0.385689 0.435418 0.023426
0.414547 0.435418 0.023426
0.443404 0.435418 0.023426
0.472262 0.435418 0.023426
0.504109 0.437257 0.024931
0.535855 0.439133 0.026482
0.567500 0.441046 0.028080
0.599043 0.442999 0.029725
0.630484 0.444993 0.031416
0.661824 0.447029 0.033154
0.693062 0.449107 0.034939
0.724199 0.451228 0.036770
0.755234 0.453392 0.038648
0.786168 0.455601 0.040573
0.817000 0.457854 0.042545
0.847730 0.460151 0.044563
0.878359 0.462494 0.046628
0.908887 0.464881 0.048740
0.939313 0.467314 0.050899
0.969637 0.469792 0.053104
0.997461 0.472316 0.055356
0.999365 0.474885 0.057655
1.000000 0.477500 0.060000
0.101056 0.466047 0.024931
0.129845 0.466047 0.024931
0.158635 0.466047 0.024931
0.187425 0.466047 0.024931
0.216214 0.466047 0.024931
0.245004 0.466047 0.024931
0.273793 0.466047 0.024931
0.302583 0.466047 0.024931
0.331372 0.466047 0.024931
0.360162 0.466047 0.024931
0.388951 0.466047 0.024931
0.417741 0.466047 0.024931
0.446530 0.466047 0.024931
0.475320 0.466047 0.024931
0.504109 0.466047 0.024931
0.535855 0.467853 0.026482
0.567500 0.469698 0.028080
0.599043 0.471581 0.029725
0.630484 0.473504 0.031416
0.661824 0.475469 0.033154
0.693062 0.477475 0.034939
0.724199 0.479525 0.036770
0.755234 0.481618 0.038648
0.786168 0.483755 0.040573
0.817000 0.485935 0.042545
0.847730 0.488161 0.044563
0.878359 0.490431 0.046628
0.908887 0.492746 0.048740
0.939313 0.495106 0.050899
0.969637 0.497511 0.053104
0.997461 0.499962 0.055356
0.999365 0.502458 0.057655
1.000000 0.505000 0.060000
0.105045 0.496574 0.026482
0.133765 0.496574 0.026482
0.162486 0.496574 0.026482
0.191207 0.496574 0.026482
0.219928 0.496574 0.026482
0.248648 0.496574 0.026482
0.277369 0.496574 0.026482
0.306090 0.496574 0.026482
0.334810 0.496574 0.026482
0.363531 0.496574 0.026482
0.392252 0.496574 0.026482
0.420973 0.496574 0.026482
0.449693 0.496574 0.026482
0.478414 0.496574 0.026482
0.507135 0.496574 0.026482
0.535855 0.496574 0.026482
0.567500 0.498349 0.028080
0.599043 0.500162 0.029725
0.630484 0.502015 0.031416
0.661824 0.503908 0.033154
0.693062 0.505844 0.034939
0.724199 0.507822 0.036770
0.755234 0.509843 0.038648
0.786168 0.511908 0.040573
0.817000 0.514017 0.042545
0.847730 0.516170 0.044563
0.878359 0.518367 0.046628
0.908887 0.520610 0.048740
0.939313 0.522897 0.050899
0.969637 0.525230 0.053104
0.997461 0.527608 0.055356
0.999365 0.530031 0.057655
1.000000 0.532500 0.060000
0.109080 0.527000 0.028080
0.137731 0.527000 0.028080
0.166383 0.527000 0.028080
0.195034 0.527000 0.028080
0.223685 0.527000 0.028080
0.252336 0.527000 0.028080
0.280988 0.527000 0.028080
0.309639 0.527000 0.028080
0.338290 0.527000 0.028080
0.366941 0.527000 0.028080
0.395593 0.527000 0.028080
0.424244 0.527000 0.028080
0.452895 0.527000 0.028080
0.481546 0.527000 0.028080
0.510198 0.527000 0.028080
0.538849 0.527000 0.028080
0.567500 0.527000 0.028080
0.599043 0.528743 0.029725
0.630484 0.530525 0.031416
0.661824 0.532348 0.033154
0.693062 0.534213 0.034939
0.724199 0.536119 0.036770
0.755234 0.538069 0.038648
0.786168 0.540062 0.040573
0.817000 0.542098 0.042545
0.847730 0.544179 0.044563
0.878359 0.546304 0.046628
0.908887 0.548474 0.048740
0.939313 0.550689 0.050899
0.969637 0.552949 0.053104
0.997461 0.555254 0.055356
0.999365 0.557604 0.057655
1.000000 0.560000 0.060000
0.113162 0.557324 0.029725
0.141743 0.557324 0.029725
0.170325 0.557324 0.029725
0.198906 0.557324 0.029725
0.227487 0.557324 0.029725
0.256068 0.557324 0.029725
0.284649 0.557324 0.029725
0.313231 0.557324 0.029725
0.341812 0.557324 0.029725
0.370393 0.557324 0.029725
0.398974 0.557324 0.029725
0.427556 0.557324 0.029725
0.456137 0.557324 0.029725
0.484718 0.557324 0.029725
0.513299 0.557324 0.029725
0.541880 0.557324 0.029725
0.570462 0.557324 0.029725
0.599043 0.557324 0.029725
0.630484 0.559036 0.031416
0.661824 0.560788 0.033154
0.693062 0.562581 0.034939
0.724199 0.564417 0.036770
0.755234 0.566294 0.038648
0.786168 0.568215 0.040573
0.817000 0.570180 0.042545
0.847730 0.572188 0.044563
0.878359 0.574241 0.046628
0.908887 0.576338 0.048740
0.939313 0.578480 0.050899
0.969637 0.580667 0.053104
0.997461 0.582900 0.055356
0.999365 0.585177 0.057655
1.000000 0.587500 0.060000
0.117291 0.587547 0.031416
0.145802 0.587547 0.031416
0.174312 0.587547 0.031416
0.202823 0.587547 0.031416
0.231334 0.587547 0.031416
0.259845 0.587547 0.031416
0.288355 0.587547 0.031416
0.316866 0.587547 0.031416
0.345377 0.587547 0.031416
0.373888 0.587547 0.031416
0.402398 0.587547 0.031416
0.430909 0.587547 0.031416
0.459420 0.587547 0.031416
0.487931 0.587547 0.031416
0.516441 0.587547 0.031416
0.544952 0.587547 0.031416
0.573463 0.587547 0.031416
0.601974 0.587547 0.031416
0.630484 0.587547 0.031416
0.661824 0.589228 0.033154
0.693062 0.590950 0.034939
0.724199 0.592714 0.036770
0.755234 0.594520 0.038648
0.786168 0.596369 0.040573
0.817000 0.598261 0.042545
0.847730 0.600197 0.044563
0.878359 0.602178 0.046628
0.908887 0.604202 0.048740
0.939313 0.606272 0.050899
0.969637 0.608386 0.053104
0.997461 0.610546 0.055356
0.999365 0.612750 0.057655
1.000000 0.615000 0.060000
0.121466 0.617668 0.033154
0.149906 0.617668 0.033154
0.178346 0.617668 0.033154
0.206786 0.617668 0.033154
0.235226 0.617668 0.033154
0.263666 0.617668 0.033154
0.292106 0.617668 0.033154
0.320546 0.617668 0.033154
0.348986 0.617668 0.033154
0.377425 0.617668 0.033154
0.405865 0.617668 0.033154
0.434305 0.617668 0.033154
0.462745 0.617668 0.033154
0.491185 0.617668 0.033154
0.519625 0.617668 0.033154
0.548065 0.617668 0.033154
0.576505 0.617668 0.033154
0.604944 0.617668 0.033154
0.633384 0.617668 0.033154
0.661824 0.617668 0.033154
0.693062 0.619319 0.034939
0.724199 0.621011 0.036770
0.755234 0.622745 0.038648
0.786168 0.624522 0.040573
0.817000 0.626343 0.042545
0.847730 0.628207 0.044563
0.878359 0.630114 0.046628
0.908887 0.632067 0.048740
0.939313 0.634063 0.050899
0.969637 0.636105 0.053104
0.997461 0.638191 0.055356
0.999365 0.640323 0.057655
1.000000 0.642500 0.060000
0.125689 0.647687 0.034939
0.154057 0.647687 0.034939
0.182426 0.647687 0.034939
0.210795 0.647687 0.034939
0.239164 0.647687 0.034939
0.267532 0.647687 0.034939
0.295901 0.647687 0.034939
0.324270 0.647687 0.034939
0.352638 0.647687 0.034939
0.381007 0.647687 0.034939
0.409376 0.647687 0.034939
0.437744 0.647687 0.034939
0.466113 0.647687 0.034939
0.494482 0.647687 0.034939
0.522850 0.647687 0.034939
0.551219 0.647687 0.034939
0.579588 0.647687 0.034939
0.607956 0.647687 0.034939
0.636325 0.647687 0.034939
0.664694 0.647687 0.034939
0.693062 0.647687 0.034939
0.724199 0.649308 0.036770
0.755234 0.650971 0.038648
0.786168 0.652676 0.040573
0.817000 0.654424 0.042545
0.847730 0.656216 0.044563
0.878359 0.658051 0.046628
0.908887 0.659931 0.048740
0.939313 0.661855 0.050899
0.969637 0.663824 0.053104
0.997461 0.665837 0.055356
0.999365 0.667896 0.057655
1.000000 0.670000 0.060000
0.129958 0.677605 0.036770
0.158255 0.677605 0.036770
0.186552 0.677605 0.036770
0.214849 0.677605 0.036770
0.243147 0.677605 0.036770
0.271444 0.677605 0.036770
0.299741 0.677605 0.036770
0.328038 0.677605 0.036770
0.356335 0.677605 0.036770
0.384633 0.677605 0.036770
0.412930 0.677605 0.036770
0.441227 0.677605 0.036770
0.469524 0.677605 0.036770
0.497822 0.677605 0.036770
0.526119 0.677605 0.036770
0.554416 0.677605 0.036770
0.582713 0.677605 0.036770
0.611010 0.677605 0.036770
0.639308 0.677605 0.036770
0.667605 0.677605 0.036770
0.695902 0.677605 0.036770
0.724199 0.677605 0.036770
0.755234 0.679196 0.038648
0.786168 0.680830 0.040573
0.817000 0.682506 0.042545
0.847730 0.684225 0.044563
0.878359 0.685988 0.046628
0.908887 0.687795 0.048740
0.939313 0.689647 0.050899
0.969637 0.691543 0.053104
0.997461 0.693483 0.055356
0.999365 0.695469 0.057655
1.000000 0.697500 0.060000
0.134273 0.707422 0.038648
0.162499 0.707422 0.038648
0.190724 0.707422 0.038648
0.218950 0.707422 0.038648
0.247175 0.707422 0.038648
0.275401 0.707422 0.038648
0.303626 0.707422 0.038648
0.331852 0.707422 0.038648
0.360077 0.707422 0.038648
0.388303 0.707422 0.038648
0.416528 0.707422 0.038648
0.444754 0.707422 0.038648
0.472979 0.707422 0.038648
0.501205 0.707422 0.038648
0.529430 0.707422 0.038648
0.557656 0.707422 0.038648
0.585881 0.707422 0.038648
0.614107 0.707422 0.038648
0.642332 0.707422 0.038648
0.670558 0.707422 0.038648
0.698783 0.707422 0.038648
0.727009 0.707422 0.038648
0.755234 0.707422 0.038648
0.786168 0.708983 0.040573
0.817000 0.710587 0.042545
0.847730 0.712234 0.044563
0.878359 0.713925 0.046628
0.908887 0.715659 0.048740
0.939313 0.717438 0.050899
0.969637 0.719261 0.053104
0.997461 0.721129 0.055356
0.999365 0.723042 0.057655
1.000000 0.725000 0.060000
0.138636 0.737137 0.040573
0.166789 0.737137 0.040573
0.194943 0.737137 0.040573
0.223097 0.737137 0.040573
0.251250 0.737137 0.040573
0.279404 0.737137 0.040573
0.307557 0.737137 0.040573
0.335711 0.737137 0.040573
0.363864 0.737137 0.040573
0.392018 0.737137 0.040573
0.420172 0.737137 0.040573
0.448325 0.737137 0.040573
0.476479 0.737137 0.040573
0.504632 0.737137 0.040573
0.532786 0.737137 0.040573
0.560939 0.737137 0.040573
0.589093 0.737137 0.040573
0.617247 0.737137 0.040573
0.645400 0.737137 0.040573
0.673554 0.737137 0.040573
0.701707 0.737137 0.040573
0.729861 0.737137 0.040573
0.758014 0.737137 0.040573
0.786168 0.737137 0.040573
0.817000 0.738669 0.042545
0.847730 0.740243 0.044563
0.878359 0.741862 0.046628
0.908887 0.743524 0.048740
0.939313 0.745230 0.050899
0.969637 0.746980 0.053104
0.997461 0.748775 0.055356
0.999365 0.750615 0.057655
1.000000 0.752500 0.060000
0.143045 0.766750 0.042545
0.171126 0.766750 0.042545
0.199208 0.766750 0.042545
0.227289 0.766750 0.042545
0.255371 0.766750 0.042545
0.283452 0.766750 0.042545
0.311534 0.766750 0.042545
0.339615 0.766750 0.042545
0.367697 0.766750 0.042545
0.395778 0.766750 0.042545
0.423860 0.766750 0.042545
0.451941 0.766750 0.042545
0.480022 0.766750 0.042545
0.508104 0.766750 0.042545
0.536185 0.766750 0.042545
0.564267 0.766750 0.042545
0.592348 0.766750 0.042545
0.620430 0.766750 0.042545
0.648511 0.766750 0.042545
0.676593 0.766750 0.042545
0.704674 0.766750 0.042545
0.732756 0.766750 0.042545
0.760837 0.766750 0.042545
0.788919 0.766750 0.042545
0.817000 0.766750 0.042545
0.847730 0.768253 0.044563
0.878359 0.769798 0.046628
0.908887 0.771388 0.048740
0.939313 0.773021 0.050899
0.969637 0.774699 0.053104
0.997461 0.776421 0.055356
0.999365 0.778188 0.057655
1.000000 0.780000 0.060000
0.147501 0.796262 0.044563
0.175510 0.796262 0.044563
0.203519 0.796262 0.044563
0.231528 0.796262 0.044563
0.259538 0.796262 0.044563
0.287547 0.796262 0.044563
0.315556 0.796262 0.044563
0.343565 0.796262 0.044563
0.371574 0.796262 0.044563
0.399584 0.796262 0.044563
0.427593 0.796262 0.044563
0.455602 0.796262 0.044563
0.483611 0.796262 0.044563
0.511620 0.796262 0.044563
0.539629 0.796262 0.044563
0.567639 0.796262 0.044563
0.595648 0.796262 0.044563
0.623657 0.796262 0.044563
0.651666 0.796262 0.044563
0.679675 0.796262 0.044563
0.707685 0.796262 0.044563
0.735694 0.796262 0.044563
0.763703 0.796262 0.044563
0.791712 0.796262 0.044563
0.819721 0.796262 0.044563
0.847730 0.796262 0.044563
0.878359 0.797735 0.046628
0.908887 0.799252 0.048740
0.939313 0.800813 0.050899
0.969637 0.802418 0.053104
0.997461 0.804067 0.055356
0.999365 0.805761 0.057655
1.000000 0.807500 0.060000
0.152003 0.825672 0.046628
0.179940 0.825672 0.046628
0.207877 0.825672 0.046628
0.235814 0.825672 0.046628
0.263750 0.825672 0.046628
0.291687 0.825672 0.046628
0.319624 0.825672 0.046628
0.347561 0.825672 0.046628
0.375498 0.825672 0.046628
0.403434 0.825672 0.046628
0.431371 0.825672 0.046628
0.459308 0.825672 0.046628
0.487245 0.825672 0.046628
0.515181 0.825672 0.046628
0.543118 0.825672 0.046628
0.571055 0.825672 0.046628
0.598992 0.825672 0.046628
0.626928 0.825672 0.046628
0.654865 0.825672 0.046628
0.682802 0.825672 0.046628
0.710739 0.825672 0.046628
0.738676 0.825672 0.046628
0.766612 0.825672 0.046628
0.794549 0.825672 0.046628
0.822486 0.825672 0.046628
0.850423 0.825672 0.046628
0.878359 0.825672 0.046628
