luts/original/lagos-night.cube
TITLE "Lagos Night"
LUT_3D_SIZE 5
DOMAIN_MIN 0.0 0.0 0.0
DOMAIN_MAX 1.0 1.0 1.0
0.000000 0.000000 0.017572
0.204431 0.000000 0.030691
0.440913 0.011383 0.054853
0.677842 0.032027 0.085962
0.915219 0.059619 0.124019
0.001939 0.241689 0.034944
0.210170 0.242059 0.038183
0.443166 0.252026 0.060886
0.680651 0.271392 0.093461
0.918580 0.297408 0.132980
0.018544 0.491544 0.062014
0.214880 0.492037 0.066287
0.449833 0.492688 0.066938
0.683379 0.505448 0.096189
0.921847 0.529047 0.136247
0.042849 0.742599 0.096784
0.226708 0.743212 0.102087
0.459046 0.744024 0.102899
0.691383 0.744835 0.103710
0.925114 0.760686 0.139514
0.074853 0.994853 0.139253
0.246124 0.995586 0.145586
0.475590 0.996557 0.146557
0.705056 0.997529 0.147529
0.934522 0.998501 0.148501
0.003350 0.003350 0.276105
0.210456 0.003711 0.276466
0.441137 0.011607 0.291577
0.678120 0.032305 0.319490
0.915551 0.059951 0.354351
0.005036 0.244786 0.277791
0.219606 0.248921 0.278236
0.443562 0.264032 0.302252
0.681135 0.285320 0.336528
0.919153 0.313553 0.375894
0.018768 0.491768 0.298738
0.222043 0.492293 0.304730
0.456207 0.492957 0.317207
0.683815 0.515220 0.346625
0.922426 0.544872 0.386826
0.043127 0.742877 0.330312
0.235156 0.743531 0.340064
0.473155 0.744385 0.353260
0.694706 0.745151 0.354026
0.925566 0.767520 0.389966
0.075185 0.995185 0.369585
0.255967 0.995967 0.382309
0.494054 0.996995 0.396995
0.715580 0.997933 0.397933
0.937106 0.998871 0.398871
0.018407 0.018407 0.534877
0.211912 0.018882 0.535352
0.449072 0.019542 0.536012
0.678398 0.032583 0.553018
0.915883 0.060283 0.584683
0.020627 0.257127 0.537097
0.224008 0.265734 0.537728
0.457417 0.271981 0.538451
0.681399 0.285584 0.560304
0.919475 0.313875 0.598863
0.022848 0.495848 0.539318
0.226140 0.498134 0.539860
0.476998 0.508858 0.540718
0.684418 0.538603 0.579510
0.923084 0.567484 0.625372
0.043405 0.743155 0.563840
0.235427 0.743802 0.568295
0.486335 0.744710 0.581600
0.706418 0.745501 0.604376
0.926145 0.783345 0.640545
0.075517 0.995517 0.599917
0.256293 0.996293 0.608244
0.507383 0.997383 0.627734
0.737922 0.998387 0.648387
0.942276 0.999252 0.649252
0.040201 0.040201 0.793886
0.220106 0.040791 0.794476
0.454175 0.041610 0.795295
0.688244 0.042429 0.796114
0.916215 0.060615 0.815015
0.042956 0.276206 0.796641
0.235126 0.287742 0.797436
0.468679 0.294654 0.798339
0.695370 0.295441 0.799126
0.919796 0.314196 0.821831
0.045712 0.512212 0.799397
0.237814 0.518969 0.800124
0.488956 0.537720 0.801266
0.708952 0.548481 0.802166
0.923382 0.567782 0.832415
0.048467 0.748217 0.802152
0.240502 0.750196 0.802812
0.491447 0.754993 0.803757
0.742589 0.773744 0.804899
0.926996 0.821396 0.862463
0.075849 0.995849 0.830249
0.256619 0.996619 0.834180
0.507693 0.997693 0.842956
0.758785 0.998785 0.863785
0.960801 0.999690 0.899690
0.062928 0.062928 0.982928
0.229233 0.063633 0.983633
0.460211 0.064611 0.984611
0.691189 0.065589 0.985589
0.922166 0.066566 0.986566
0.066218 0.296218 0.986218
0.247172 0.310343 0.987172
0.479051 0.318251 0.988251
0.703334 0.319201 0.989201
0.927617 0.320150 0.990150
0.069508 0.529508 0.989508
0.250399 0.539180 0.990399
0.501768 0.561944 0.991768
0.724049 0.572849 0.992849
0.934942 0.573742 0.993742
0.072798 0.762798 0.992798
0.253626 0.768017 0.993626
0.504842 0.779930 0.994842
0.756298 0.808798 0.996298
0.949766 0.827366 0.997366
0.076088 0.996088 0.996088
0.256854 0.996854 0.996854
0.507917 0.997917 0.997917
0.758979 0.998980 0.998980
1.000000 1.000000 1.000000
