luts/original/lagos-night.cube
TITLE "Lagos Night"
LUT_3D_SIZE 33
DOMAIN_MIN 0.0 0.0 0.0
DOMAIN_MAX 1.0 1.0 1.0
0.000000 0.000000 0.017572
0.019678 0.000000 0.018592
0.038086 0.000000 0.019611
0.058409 0.000000 0.020669
0.086886 0.000000 0.021744
0.115866 0.000000 0.023422
0.145381 0.000000 0.025736
0.174902 0.000000 0.028159
0.204431 0.000000 0.030691
0.233967 0.000000 0.033331
0.263510 0.000459 0.036080
0.293059 0.002008 0.038937
0.322616 0.003666 0.041903
0.352180 0.005432 0.044978
0.381750 0.007307 0.048161
0.411328 0.009291 0.051452
0.440913 0.011383 0.054853
0.470504 0.013583 0.058361
0.500103 0.015892 0.061979
0.529709 0.018310 0.065704
0.559321 0.020836 0.069539
0.588941 0.023471 0.073482
0.618568 0.026214 0.077533
0.648201 0.029066 0.081693
0.677842 0.032027 0.085962
0.707490 0.035096 0.090339
0.737144 0.038274 0.094825
0.766806 0.041560 0.099419
0.796474 0.044954 0.104122
0.826150 0.048458 0.108933
0.855833 0.052070 0.113853
0.885522 0.055790 0.118882
0.915219 0.059619 0.124019
0.000000 0.025220 0.018744
0.019678 0.025220 0.018744
0.038086 0.024889 0.019772
0.059371 0.025263 0.020851
0.087498 0.025416 0.021938
0.116068 0.025794 0.023958
0.145593 0.026809 0.026598
0.175124 0.027934 0.029205
0.204662 0.029167 0.031869
0.234206 0.030508 0.034616
0.263758 0.031958 0.037458
0.293317 0.033516 0.040400
0.322883 0.035183 0.043445
0.352456 0.036959 0.046594
0.382036 0.038843 0.049850
0.411623 0.040835 0.053211
0.441216 0.042937 0.056680
0.470817 0.045146 0.060256
0.500425 0.047465 0.063940
0.530040 0.049891 0.067731
0.559662 0.052427 0.071630
0.589291 0.055071 0.075637
0.618926 0.057823 0.079753
0.648569 0.060684 0.083976
0.678219 0.063654 0.088308
0.707876 0.066732 0.092748
0.737540 0.069919 0.097296
0.767210 0.073214 0.101953
0.796888 0.076618 0.106718
0.826573 0.080131 0.111591
0.856265 0.083752 0.116573
0.885964 0.087481 0.121663
0.915669 0.091319 0.126862
0.000000 0.055323 0.019933
0.019043 0.055323 0.019933
0.038086 0.055323 0.019933
0.059532 0.055120 0.021012
0.089160 0.055640 0.022120
0.116272 0.057247 0.025373
0.145806 0.058272 0.028199
0.175346 0.059406 0.030850
0.204893 0.060648 0.033552
0.234447 0.061998 0.036341
0.264008 0.063457 0.039229
0.293576 0.065025 0.042220
0.323151 0.066701 0.045315
0.352733 0.068485 0.048517
0.382322 0.070379 0.051826
0.411918 0.072380 0.055243
0.441521 0.074491 0.058767
0.471131 0.076710 0.062399
0.500748 0.079037 0.066139
0.530372 0.081473 0.069987
0.560003 0.084018 0.073944
0.589641 0.086671 0.078009
0.619286 0.089433 0.082182
0.648938 0.092303 0.086463
0.678597 0.095282 0.090853
0.708263 0.098369 0.095352
0.737935 0.101565 0.099958
0.767615 0.104869 0.104674
0.797302 0.108282 0.109497
0.826996 0.111804 0.114429
0.856697 0.115434 0.119470
0.886405 0.119173 0.124619
0.916120 0.123020 0.129877
0.000000 0.086138 0.021934
0.018408 0.086138 0.021934
0.036816 0.086138 0.021934
0.060496 0.086180 0.022241
0.090161 0.085864 0.024284
0.117505 0.085545 0.026791
0.145986 0.087485 0.028984
0.175541 0.089085 0.031554
0.205100 0.090511 0.034230
0.234664 0.091951 0.037012
0.264235 0.093457 0.039903
0.293812 0.095047 0.042901
0.323396 0.096732 0.046008
0.352987 0.098516 0.049224
0.382585 0.100403 0.052548
0.412190 0.102393 0.055980
0.441801 0.104489 0.059521
0.471420 0.106691 0.063171
0.501046 0.109000 0.066929
0.530678 0.111416 0.070795
0.560318 0.113939 0.074770
0.589965 0.116569 0.078854
0.619618 0.119307 0.083046
0.649279 0.122153 0.087347
0.678946 0.125108 0.091756
0.708621 0.128170 0.096274
0.738302 0.131340 0.100901
0.767991 0.134618 0.105636
0.797687 0.138005 0.110479
0.827389 0.141500 0.115431
0.857099 0.145103 0.120492
0.886815 0.148814 0.125661
0.916539 0.152634 0.130939
0.000000 0.117211 0.024296
0.017773 0.117211 0.024296
0.035547 0.117211 0.024296
0.060130 0.117255 0.024785
0.091439 0.117314 0.025890
0.119830 0.117007 0.028132
0.146811 0.116699 0.029449
0.175728 0.118197 0.031741
0.205299 0.119864 0.034429
0.234874 0.121419 0.037222
0.264454 0.122982 0.040122
0.294041 0.124600 0.043130
0.323634 0.126293 0.046246
0.353234 0.128074 0.049471
0.382840 0.129949 0.052803
0.412454 0.131922 0.056245
0.442074 0.133997 0.059794
0.471702 0.136174 0.063452
0.501336 0.138455 0.067219
0.530977 0.140841 0.071094
0.560625 0.143332 0.075078
0.590280 0.145930 0.079170
0.619942 0.148635 0.083370
0.649611 0.151446 0.087680
0.679287 0.154364 0.092097
0.708970 0.157390 0.096624
0.738660 0.160524 0.101258
0.768357 0.163765 0.106002
0.798061 0.167114 0.110854
0.827772 0.170571 0.115814
0.857490 0.174135 0.120883
0.887215 0.177808 0.126061
0.916947 0.181589 0.131347
0.000000 0.148302 0.026777
0.017139 0.148302 0.026777
0.034277 0.148302 0.026777
0.059884 0.148349 0.027382
0.091195 0.148410 0.028578
0.121439 0.148467 0.029471
0.149039 0.148170 0.030850
0.176460 0.147878 0.032234
0.205498 0.149216 0.034628
0.235083 0.150886 0.037432
0.264673 0.152508 0.040342
0.294269 0.154152 0.043359
0.323872 0.155854 0.046484
0.353480 0.157632 0.049717
0.383096 0.159496 0.053059
0.412718 0.161452 0.056509
0.442347 0.163504 0.060067
0.471983 0.165656 0.063734
0.501626 0.167909 0.067509
0.531276 0.170266 0.071393
0.560932 0.172726 0.075385
0.590596 0.175291 0.079485
0.620266 0.177962 0.083694
0.649944 0.180738 0.088012
0.679628 0.183621 0.092438
0.709320 0.186611 0.096973
0.739018 0.189708 0.101616
0.768724 0.192912 0.106368
0.798436 0.196223 0.111228
0.828155 0.199642 0.116197
0.857882 0.203168 0.121275
0.887615 0.206802 0.126461
0.917355 0.210544 0.131755
0.000000 0.179412 0.029379
0.016504 0.179412 0.029379
0.033008 0.179412 0.029379
0.059758 0.179461 0.030071
0.091072 0.179525 0.031333
0.121403 0.179585 0.032194
0.150825 0.179640 0.032249
0.178590 0.179358 0.033694
0.206197 0.179082 0.035144
0.235293 0.180354 0.037641
0.264893 0.182033 0.040561
0.294498 0.183705 0.043588
0.324109 0.185416 0.046722
0.353727 0.187190 0.049964
0.383351 0.189042 0.053315
0.412982 0.190981 0.056773
0.442620 0.193011 0.060340
0.472264 0.195138 0.064015
0.501916 0.197364 0.067799
0.531574 0.199690 0.071691
0.561239 0.202120 0.075692
0.590911 0.204652 0.079801
0.620590 0.207289 0.084019
0.650276 0.210031 0.088345
0.679969 0.212878 0.092779
0.709669 0.215832 0.097322
0.739376 0.218892 0.101974
0.769090 0.222058 0.106734
0.798811 0.225332 0.111603
0.828538 0.228713 0.116580
0.858273 0.232200 0.121666
0.888015 0.235796 0.126861
0.917764 0.239499 0.132164
0.000404 0.210541 0.032101
0.016274 0.210541 0.032101
0.032143 0.210541 0.032101
0.059752 0.210592 0.032865
0.091069 0.210659 0.034186
0.121441 0.210722 0.035038
0.150939 0.210779 0.035096
0.180437 0.210837 0.035153
0.208282 0.210571 0.036664
0.235982 0.210309 0.038180
0.265112 0.211559 0.040780
0.294727 0.213258 0.043817
0.324347 0.214977 0.046960
0.353974 0.216748 0.050211
0.383607 0.218589 0.053570
0.413247 0.220510 0.057037
0.442893 0.222519 0.060613
0.472546 0.224620 0.064297
0.502206 0.226818 0.068089
0.531873 0.229115 0.071990
0.561546 0.231513 0.075999
0.591227 0.234013 0.080116
0.620914 0.236616 0.084343
0.650609 0.239323 0.088677
0.680310 0.242135 0.093120
0.710019 0.245053 0.097672
0.739734 0.248076 0.102332
0.769456 0.251205 0.107101
0.799185 0.254441 0.111978
0.828922 0.257784 0.116964
0.858665 0.261233 0.122058
0.888415 0.264790 0.127261
0.918172 0.268453 0.132572
0.001939 0.241689 0.034944
0.017173 0.241689 0.034944
0.032407 0.241689 0.034944
0.059867 0.241742 0.035771
0.091187 0.241812 0.037148
0.121577 0.241877 0.038002
0.151108 0.241937 0.038062
0.180639 0.241998 0.038123
0.210170 0.242059 0.038183
0.238054 0.241807 0.039760
0.265802 0.241560 0.041341
0.294956 0.242810 0.044045
0.324585 0.244538 0.047198
0.354221 0.246306 0.050458
0.383862 0.248135 0.053826
0.413511 0.250039 0.057302
0.443166 0.252026 0.060886
0.472827 0.254102 0.064578
0.502496 0.256273 0.068379
0.532171 0.258540 0.072288
0.561853 0.260907 0.076306
0.591543 0.263374 0.080432
0.621239 0.265943 0.084667
0.650941 0.268616 0.089010
0.680651 0.271392 0.093461
0.710368 0.274274 0.098021
0.740092 0.277260 0.102690
0.769822 0.280352 0.107467
0.799560 0.283550 0.112353
0.829305 0.286855 0.117347
0.859056 0.290266 0.122449
0.888815 0.293783 0.127661
0.918580 0.297408 0.132980
0.003593 0.272855 0.037906
0.018193 0.272855 0.037906
0.032793 0.272855 0.037906
0.060101 0.272910 0.038792
0.091424 0.272983 0.040223
0.121820 0.273051 0.041086
0.151360 0.273114 0.041149
0.180900 0.273177 0.041213
0.210440 0.273241 0.041276
0.239979 0.273304 0.041339
0.267881 0.273067 0.042981
0.295652 0.272834 0.044627
0.324823 0.274100 0.047436
0.354467 0.275864 0.050704
0.384118 0.277681 0.054081
0.413775 0.279568 0.057566
0.443439 0.281533 0.061159
0.473109 0.283585 0.064860
0.502786 0.285728 0.068669
0.532470 0.287965 0.072587
0.562161 0.290300 0.076613
0.591858 0.292735 0.080748
0.621563 0.295270 0.084991
0.651274 0.297908 0.089342
0.680992 0.300649 0.093802
0.710717 0.303494 0.098371
0.740450 0.306444 0.103048
0.770189 0.309499 0.107833
0.799935 0.312659 0.112727
0.829688 0.315926 0.117730
0.859448 0.319298 0.122841
0.889215 0.322777 0.128061
0.918989 0.326363 0.133389
0.005368 0.304040 0.040990
0.019333 0.304040 0.040990
0.033298 0.304040 0.040990
0.060457 0.304097 0.041929
0.091782 0.304173 0.043414
0.122176 0.304244 0.044290
0.151710 0.304309 0.044356
0.181244 0.304375 0.044422
0.210778 0.304441 0.044488
0.240312 0.304507 0.044554
0.269846 0.304573 0.044620
0.297751 0.304350 0.046327
0.325529 0.304132 0.048039
0.354714 0.305422 0.050951
0.384374 0.307228 0.054337
0.414039 0.309097 0.057830
0.443712 0.311040 0.061432
0.473390 0.313067 0.065141
0.503076 0.315182 0.068959
0.532768 0.317390 0.072885
0.562468 0.319694 0.076920
0.592174 0.322096 0.081063
0.621887 0.324598 0.085315
0.651606 0.327201 0.089675
0.681333 0.329906 0.094143
0.711067 0.332715 0.098720
0.740807 0.335628 0.103406
0.770555 0.338646 0.108200
0.800309 0.341768 0.113102
0.830071 0.344996 0.118113
0.859839 0.348331 0.123232
0.889615 0.351771 0.128460
0.919397 0.355318 0.133797
0.007264 0.335244 0.044193
0.020594 0.335244 0.044193
0.033924 0.335244 0.044193
0.060932 0.335303 0.045184
0.092260 0.335382 0.046723
0.122648 0.335455 0.047615
0.152166 0.335523 0.047684
0.181684 0.335592 0.047752
0.211203 0.335661 0.047821
0.240721 0.335729 0.047889
0.270240 0.335798 0.047958
0.299758 0.335866 0.048026
0.327657 0.335658 0.049799
0.355433 0.335454 0.051576
0.384629 0.336774 0.054592
0.414304 0.338626 0.058094
0.443984 0.340548 0.061704
0.473672 0.342549 0.065423
0.503366 0.344637 0.069249
0.533067 0.346815 0.073184
0.562775 0.349088 0.077227
0.592489 0.351457 0.081379
0.622211 0.353925 0.085639
0.651939 0.356493 0.090007
0.681674 0.359163 0.094484
0.711416 0.361936 0.099070
0.741165 0.364812 0.103763
0.770921 0.367792 0.108566
0.800684 0.370877 0.113477
0.830454 0.374067 0.118496
0.860231 0.377363 0.123624
0.890015 0.380765 0.128860
0.919805 0.384273 0.134205
0.009279 0.366467 0.047517
0.021974 0.366467 0.047517
0.034670 0.366467 0.047517
0.061528 0.366528 0.048558
0.092859 0.366609 0.050149
0.123236 0.366685 0.051060
0.152732 0.366756 0.051131
0.182228 0.366827 0.051202
0.211724 0.366898 0.051273
0.241220 0.366970 0.051345
0.270716 0.367041 0.051416
0.300213 0.367112 0.051487
0.329709 0.367183 0.051558
0.357595 0.366989 0.053395
0.385362 0.366800 0.055238
0.414568 0.368155 0.058359
0.444257 0.370055 0.061977
0.473953 0.372031 0.065704
0.503656 0.374091 0.069539
0.533366 0.376240 0.073483
0.563082 0.378481 0.077534
0.592805 0.380818 0.081694
0.622535 0.383252 0.085963
0.652272 0.385786 0.090340
0.682015 0.388420 0.094825
0.711766 0.391157 0.099419
0.741523 0.393996 0.104121
0.771288 0.396939 0.108932
0.801059 0.399986 0.113851
0.830837 0.403138 0.118879
0.860622 0.406396 0.124015
0.890415 0.409759 0.129260
0.920214 0.413228 0.134614
0.011415 0.397708 0.050961
0.023475 0.397708 0.050961
0.035536 0.397708 0.050961
0.062244 0.397771 0.052050
0.093578 0.397855 0.053694
0.123942 0.397934 0.054625
0.153411 0.398008 0.054699
0.182880 0.398081 0.054773
0.212349 0.398155 0.054846
0.241818 0.398229 0.054920
0.271287 0.398302 0.054994
0.300756 0.398376 0.055068
0.330225 0.398450 0.055141
0.359694 0.398524 0.055215
0.387564 0.398344 0.057118
0.415316 0.398170 0.059025
0.444530 0.399562 0.062250
0.474235 0.401514 0.065986
0.503946 0.403546 0.069829
0.533664 0.405665 0.073781
0.563389 0.407875 0.077841
0.593120 0.410179 0.082010
0.622859 0.412579 0.086287
0.652604 0.415078 0.090672
0.682356 0.417677 0.095166
0.712115 0.420377 0.099768
0.741881 0.423180 0.104479
0.771654 0.426086 0.109298
0.801434 0.429095 0.114226
0.831220 0.432209 0.119262
0.861014 0.435428 0.124407
0.890814 0.438753 0.129660
0.920622 0.442182 0.135022
0.013671 0.428968 0.054525
0.025097 0.428968 0.054525
0.036523 0.428968 0.054525
0.063080 0.429033 0.055661
0.094417 0.429120 0.057359
0.124767 0.429201 0.058311
0.154205 0.429278 0.058387
0.183643 0.429354 0.058463
0.213081 0.429430 0.058540
0.242520 0.429507 0.058616
0.271958 0.429583 0.058692
0.301396 0.429659 0.058768
0.330834 0.429735 0.058845
0.360273 0.429812 0.058921
0.389711 0.429888 0.058997
0.417561 0.429723 0.060965
0.445295 0.429563 0.062938
0.474516 0.430996 0.066267
0.504236 0.433000 0.070119
0.533963 0.435090 0.074080
0.563696 0.437268 0.078149
0.593436 0.439540 0.082326
0.623183 0.441906 0.086611
0.652937 0.444371 0.091005
0.682697 0.446934 0.095507
0.712465 0.449598 0.100118
0.742239 0.452364 0.104837
0.772020 0.455233 0.109665
0.801808 0.458205 0.114601
0.831603 0.461280 0.119645
0.861405 0.464461 0.124799
0.891214 0.467746 0.130060
0.921030 0.471137 0.135430
0.016047 0.460247 0.058209
0.026838 0.460247 0.058209
0.037629 0.460247 0.058209
0.064037 0.460314 0.059392
0.095376 0.460404 0.061143
0.125710 0.460488 0.062117
0.155115 0.460567 0.062196
0.184519 0.460645 0.062274
0.213924 0.460724 0.062353
0.243329 0.460803 0.062432
0.272734 0.460882 0.062511
0.302139 0.460961 0.062590
0.331543 0.461039 0.062668
0.360948 0.461118 0.062747
0.390353 0.461197 0.062826
0.419758 0.461276 0.062905
0.447585 0.461125 0.064938
0.475298 0.460980 0.066976
0.504526 0.462455 0.070409
0.534261 0.464515 0.074378
0.564003 0.466662 0.078456
0.593752 0.468901 0.082641
0.623507 0.471233 0.086935
0.653269 0.473663 0.091337
0.683038 0.476191 0.095848
0.712814 0.478819 0.100467
0.742597 0.481548 0.105195
0.772386 0.484379 0.110031
0.802183 0.487314 0.114975
0.831986 0.490351 0.120029
0.861797 0.493493 0.125190
0.891614 0.496740 0.130460
0.921439 0.500092 0.135839
0.018544 0.491544 0.062014
0.028700 0.491544 0.062014
0.038857 0.491544 0.062014
0.065114 0.491614 0.063242
0.096456 0.491706 0.065046
0.126772 0.491793 0.066043
0.156142 0.491874 0.066124
0.185511 0.491956 0.066206
0.214880 0.492037 0.066287
0.244249 0.492118 0.066368
0.273618 0.492200 0.066450
0.302987 0.492281 0.066531
0.332356 0.492362 0.066612
0.361726 0.492444 0.066694
0.391095 0.492525 0.066775
0.420464 0.492606 0.066856
0.449833 0.492688 0.066938
0.477636 0.492551 0.069036
0.505326 0.492420 0.071139
0.534560 0.493940 0.074677
0.564310 0.496055 0.078763
0.594067 0.498261 0.082957
0.623831 0.500561 0.087259
0.653602 0.502955 0.091670
0.683379 0.505448 0.096189
0.713163 0.508040 0.100817
0.742955 0.510732 0.105553
0.772753 0.513526 0.110397
0.802558 0.516423 0.115350
0.832370 0.519422 0.120412
0.862188 0.522526 0.125582
0.892014 0.525734 0.130860
0.921847 0.529047 0.136247
0.021161 0.522860 0.065939
0.030683 0.522860 0.065939
0.040204 0.522860 0.065939
0.066311 0.522932 0.067212
0.097656 0.523027 0.069069
0.127954 0.523117 0.070089
0.157286 0.523200 0.070173
0.186618 0.523284 0.070257
0.215950 0.523368 0.070341
0.245282 0.523452 0.070425
0.274613 0.523536 0.070509
0.303945 0.523620 0.070593
0.333277 0.523704 0.070676
0.362609 0.523788 0.070760
0.391941 0.523871 0.070844
0.421272 0.523955 0.070928
0.450604 0.524039 0.071012
0.479936 0.524123 0.071096
0.507713 0.524001 0.073259
0.535377 0.523884 0.075427
0.564617 0.525449 0.079070
0.594383 0.527622 0.083272
0.624155 0.529888 0.087583
0.653934 0.532248 0.092002
0.683720 0.534705 0.096530
0.713513 0.537261 0.101166
0.743312 0.539916 0.105911
0.773119 0.542673 0.110763
0.802932 0.545532 0.115725
0.832753 0.548493 0.120795
0.862580 0.551559 0.125973
0.892414 0.554728 0.131260
0.922255 0.558002 0.136655
0.023899 0.554195 0.069985
0.032785 0.554195 0.069985
0.041672 0.554195 0.069985
0.067629 0.554269 0.071302
0.098977 0.554367 0.073212
0.129256 0.554459 0.074256
0.158549 0.554546 0.074342
0.187842 0.554632 0.074429
0.217135 0.554718 0.074515
0.246428 0.554805 0.074602
0.275721 0.554891 0.074688
0.305014 0.554978 0.074774
0.334307 0.555064 0.074861
0.363600 0.555150 0.074947
0.392893 0.555237 0.075034
0.422186 0.555323 0.075120
0.451480 0.555409 0.075206
0.480773 0.555496 0.075293
0.510066 0.555582 0.075379
0.537815 0.555475 0.077608
0.565453 0.555372 0.079841
0.594698 0.556983 0.083588
0.624479 0.559215 0.087907
0.654267 0.561540 0.092335
0.684061 0.563962 0.096871
0.713862 0.566481 0.101515
0.743670 0.569100 0.106268
0.773485 0.571820 0.111130
0.803307 0.574641 0.116100
0.833136 0.577564 0.121178
0.862971 0.580591 0.126365
0.892814 0.583722 0.131660
0.922664 0.586957 0.137064
0.026756 0.585549 0.074151
0.035008 0.585549 0.074151
0.043260 0.585549 0.074151
0.069067 0.585625 0.075512
0.100417 0.585726 0.077475
0.130677 0.585820 0.078543
0.159930 0.585909 0.078632
0.189184 0.585998 0.078721
0.218437 0.586087 0.078810
0.247690 0.586176 0.078899
0.276943 0.586265 0.078988
0.306196 0.586354 0.079077
0.335449 0.586443 0.079165
0.364703 0.586532 0.079254
0.393956 0.586621 0.079343
0.423209 0.586710 0.079432
0.452462 0.586798 0.079521
0.481715 0.586887 0.079610
0.510969 0.586976 0.079699
0.540222 0.587065 0.079788
0.567942 0.586972 0.082081
0.595553 0.586884 0.084380
0.624803 0.588542 0.088231
0.654599 0.590833 0.092667
0.684402 0.593219 0.097212
0.714212 0.595702 0.101865
0.744028 0.598284 0.106626
0.773852 0.600966 0.111496
0.803682 0.603750 0.116474
0.833519 0.606635 0.121561
0.863363 0.609624 0.126756
0.893214 0.612716 0.132060
0.923072 0.615911 0.137472
0.029734 0.616922 0.078437
0.037351 0.616922 0.078437
0.044968 0.616922 0.078437
0.070625 0.617000 0.079841
0.101978 0.617103 0.081858
0.132218 0.617200 0.082950
0.161431 0.617292 0.083042
0.190643 0.617383 0.083133
0.219855 0.617475 0.083225
0.249068 0.617566 0.083316
0.278280 0.617657 0.083407
0.307492 0.617749 0.083499
0.336705 0.617840 0.083590
0.365917 0.617932 0.083682
0.395129 0.618023 0.083773
0.424342 0.618115 0.083865
0.453554 0.618206 0.083956
0.482766 0.618298 0.084048
0.511979 0.618389 0.084139
0.541191 0.618480 0.084230
0.570403 0.618572 0.084322
0.598095 0.618493 0.086681
0.625676 0.618419 0.089044
0.654932 0.620125 0.093000
0.684743 0.622476 0.097553
0.714561 0.624923 0.102214
0.744386 0.627468 0.106984
0.774218 0.630113 0.111862
0.804056 0.632859 0.116849
0.833902 0.635706 0.121944
0.863755 0.638656 0.127148
0.893614 0.641709 0.132460
0.923480 0.644866 0.137880
0.032832 0.648313 0.082843
0.039815 0.648313 0.082843
0.046797 0.648313 0.082843
0.072303 0.648393 0.084291
0.103659 0.648499 0.086361
0.133879 0.648599 0.087478
0.163050 0.648693 0.087572
0.192221 0.648787 0.087666
0.221391 0.648881 0.087760
0.250562 0.648975 0.087854
0.279733 0.649069 0.087948
0.308904 0.649163 0.088042
0.338074 0.649257 0.088136
0.367245 0.649351 0.088230
0.396416 0.649445 0.088323
0.425586 0.649539 0.088417
0.454757 0.649632 0.088511
0.483928 0.649726 0.088605
0.513099 0.649820 0.088699
0.542269 0.649914 0.088793
0.571440 0.650008 0.088887
0.600611 0.650102 0.088981
0.628272 0.650038 0.091405
0.655824 0.649978 0.093834
0.685084 0.651733 0.097894
0.714910 0.654144 0.102564
0.744744 0.656652 0.107342
0.774584 0.659260 0.112229
0.804431 0.661968 0.117224
0.834285 0.664777 0.122327
0.864146 0.667689 0.127539
0.894014 0.670703 0.132860
0.923889 0.673821 0.138289
0.036051 0.679723 0.087370
0.042398 0.679723 0.087370
0.048746 0.679723 0.087370
0.074102 0.679805 0.088861
0.105461 0.679914 0.090984
0.135660 0.680017 0.092126
0.164788 0.680113 0.092222
0.193917 0.680209 0.092319
0.223045 0.680306 0.092415
0.252174 0.680402 0.092512
0.281302 0.680499 0.092608
0.310431 0.680595 0.092705
0.339559 0.680692 0.092801
0.368687 0.680788 0.092898
0.397816 0.680885 0.092994
0.426944 0.680981 0.093090
0.456073 0.681077 0.093187
0.485201 0.681174 0.093283
0.514330 0.681270 0.093380
0.543458 0.681367 0.093476
0.572586 0.681463 0.093573
0.601715 0.681560 0.093669
0.630843 0.681656 0.093766
0.658473 0.681606 0.096255
0.685996 0.681561 0.098749
0.715260 0.683365 0.102913
0.745102 0.685836 0.107700
0.774950 0.688407 0.112595
0.804806 0.691077 0.117598
0.834668 0.693848 0.122710
0.864538 0.696721 0.127931
0.894414 0.699697 0.133260
0.924297 0.702776 0.138697
0.039390 0.711151 0.092017
0.045103 0.711151 0.092017
0.050815 0.711151 0.092017
0.076021 0.711236 0.093550
0.107383 0.711348 0.095727
0.137561 0.711453 0.096894
0.166646 0.711552 0.096993
0.195732 0.711651 0.097092
0.224818 0.711750 0.097191
0.253903 0.711849 0.097290
0.282989 0.711948 0.097389
0.312074 0.712046 0.097488
0.341160 0.712145 0.097587
0.370245 0.712244 0.097686
0.399331 0.712343 0.097785
0.428416 0.712442 0.097884
0.457502 0.712541 0.097983
0.486588 0.712640 0.098082
0.515673 0.712739 0.098181
0.544759 0.712838 0.098280
0.573844 0.712937 0.098378
0.602930 0.713036 0.098477
0.632015 0.713135 0.098576
0.661101 0.713234 0.098675
0.688700 0.713198 0.101230
0.716191 0.713167 0.103789
0.745459 0.715020 0.108058
0.775317 0.717554 0.112961
0.805181 0.720186 0.117973
0.835051 0.722919 0.123093
0.864929 0.725754 0.128322
0.894814 0.728691 0.133660
0.924705 0.731731 0.139105
0.042849 0.742599 0.096784
0.047927 0.742599 0.096784
0.053005 0.742599 0.096784
0.078061 0.742686 0.098360
0.109425 0.742800 0.100590
0.139582 0.742908 0.101783
0.168624 0.743009 0.101884
0.197666 0.743111 0.101986
0.226708 0.743212 0.102087
0.255751 0.743313 0.102188
0.284793 0.743415 0.102290
0.313835 0.743516 0.102391
0.342877 0.743618 0.102493
0.371919 0.743719 0.102594
0.400961 0.743821 0.102696
0.430004 0.743922 0.102797
0.459046 0.744024 0.102899
0.488088 0.744125 0.103000
0.517130 0.744227 0.103102
0.546172 0.744328 0.103203
0.575215 0.744430 0.103305
0.604257 0.744531 0.103406
0.633299 0.744632 0.103507
0.662341 0.744734 0.103609
0.691383 0.744835 0.103710
0.718950 0.744814 0.106330
0.746410 0.744798 0.108954
0.775683 0.746700 0.113327
0.805555 0.749295 0.118348
0.835434 0.751990 0.123477
0.865321 0.754787 0.128714
0.895214 0.757685 0.134059
0.925114 0.760686 0.139514
0.046428 0.774065 0.101671
0.050872 0.774065 0.101671
0.055315 0.774065 0.101671
0.080220 0.774154 0.103291
0.111587 0.774271 0.105574
0.141723 0.774381 0.106791
0.170721 0.774485 0.106895
0.199720 0.774589 0.106999
0.228718 0.774693 0.107103
0.257716 0.774797 0.107207
0.286715 0.774901 0.107311
0.315713 0.775005 0.107415
0.344711 0.775109 0.107519
0.373710 0.775213 0.107623
0.402708 0.775317 0.107727
0.431707 0.775421 0.107831
0.460705 0.775525 0.107935
0.489703 0.775629 0.108039
0.518702 0.775733 0.108143
0.547700 0.775837 0.108247
0.576698 0.775941 0.108351
0.605697 0.776045 0.108455
0.634695 0.776149 0.108559
0.663693 0.776253 0.108663
0.692692 0.776357 0.108767
0.721690 0.776461 0.108871
0.749225 0.776454 0.111555
0.776653 0.776452 0.114245
0.805930 0.778404 0.118722
0.835818 0.781061 0.123860
0.865712 0.783819 0.129105
0.895614 0.786679 0.134459
0.925522 0.789641 0.139922
0.050128 0.805550 0.106679
0.053937 0.805550 0.106679
0.057745 0.805550 0.106679
0.082500 0.805641 0.108341
0.113870 0.805761 0.110677
0.143984 0.805874 0.111921
0.172938 0.805980 0.112027
0.201892 0.806087 0.112133
0.230846 0.806193 0.112240
0.259801 0.806300 0.112346
0.288755 0.806406 0.112453
0.317709 0.806512 0.112559
0.346663 0.806619 0.112666
0.375617 0.806725 0.112772
0.404572 0.806832 0.112879
0.433526 0.806938 0.112985
0.462480 0.807045 0.113092
0.491434 0.807151 0.113198
0.520388 0.807258 0.113305
0.549343 0.807364 0.113411
0.578297 0.807471 0.113518
0.607251 0.807577 0.113624
0.636205 0.807684 0.113730
0.665159 0.807790 0.113837
0.694113 0.807897 0.113943
0.723068 0.808003 0.114050
0.752022 0.808109 0.114156
