luts/original/lagos-night.cube
TITLE "Lagos Night"
LUT_3D_SIZE 9
DOMAIN_MIN 0.0 0.0 0.0
DOMAIN_MAX 1.0 1.0 1.0
0.000000 0.000000 0.017572
0.086886 0.000000 0.021744
0.204431 0.000000 0.030691
0.322616 0.003666 0.041903
0.440913 0.011383 0.054853
0.559321 0.020836 0.069539
0.677842 0.032027 0.085962
0.796474 0.044954 0.104122
0.915219 0.059619 0.124019
0.000000 0.117211 0.024296
0.091439 0.117314 0.025890
0.205299 0.119864 0.034429
0.323634 0.126293 0.046246
0.442074 0.133997 0.059794
0.560625 0.143332 0.075078
0.679287 0.154364 0.092097
0.798061 0.167114 0.110854
0.916947 0.181589 0.131347
0.001939 0.241689 0.034944
0.091187 0.241812 0.037148
0.210170 0.242059 0.038183
0.324585 0.244538 0.047198
0.443166 0.252026 0.060886
0.561853 0.260907 0.076306
0.680651 0.271392 0.093461
0.799560 0.283550 0.112353
0.918580 0.297408 0.132980
0.009279 0.366467 0.047517
0.092859 0.366609 0.050149
0.211724 0.366898 0.051273
0.329709 0.367183 0.051558
0.444257 0.370055 0.061977
0.563082 0.378481 0.077534
0.682015 0.388420 0.094825
0.801059 0.399986 0.113851
0.920214 0.413228 0.134614
0.018544 0.491544 0.062014
0.096456 0.491706 0.065046
0.214880 0.492037 0.066287
0.332356 0.492362 0.066612
0.449833 0.492688 0.066938
0.564310 0.496055 0.078763
0.683379 0.505448 0.096189
0.802558 0.516423 0.115350
0.921847 0.529047 0.136247
0.029734 0.616922 0.078437
0.101978 0.617103 0.081858
0.219855 0.617475 0.083225
0.336705 0.617840 0.083590
0.453554 0.618206 0.083956
0.570403 0.618572 0.084322
0.684743 0.622476 0.097553
0.804056 0.632859 0.116849
0.923480 0.644866 0.137880
0.042849 0.742599 0.096784
0.109425 0.742800 0.100590
0.226708 0.743212 0.102087
0.342877 0.743618 0.102493
0.459046 0.744024 0.102899
0.575215 0.744430 0.103305
0.691383 0.744835 0.103710
0.805555 0.749295 0.118348
0.925114 0.760686 0.139514
0.057888 0.868576 0.117056
0.118796 0.868796 0.121245
0.235461 0.869249 0.122874
0.350920 0.869695 0.123320
0.466380 0.870141 0.123766
0.581839 0.870587 0.124212
0.697299 0.871032 0.124657
0.812758 0.871478 0.125103
0.926747 0.876505 0.141147
0.074853 0.994853 0.139253
0.130093 0.995093 0.143823
0.246124 0.995586 0.145586
0.360857 0.996072 0.146072
0.475590 0.996557 0.146557
0.590323 0.997043 0.147043
0.705056 0.997529 0.147529
0.819789 0.998015 0.148015
0.934522 0.998501 0.148501
0.000000 0.000000 0.146809
0.091357 0.000000 0.146902
0.205144 0.000000 0.151279
0.322714 0.003764 0.161064
0.441025 0.011495 0.173215
0.559447 0.020962 0.187102
0.677981 0.032166 0.202726
0.796627 0.045107 0.220087
0.915385 0.059785 0.239185
0.000000 0.119746 0.147518
0.093985 0.120809 0.147633
0.207163 0.124320 0.152200
0.323781 0.129831 0.165760
0.442239 0.137709 0.179630
0.560808 0.147323 0.194795
0.679489 0.158674 0.211553
0.798282 0.171762 0.229983
0.917186 0.186586 0.250117
0.002024 0.241774 0.154904
0.091270 0.241895 0.155661
0.216549 0.242174 0.161103
0.324747 0.248554 0.172360
0.443376 0.258411 0.186096
0.562095 0.268480 0.201547
0.680921 0.279939 0.218731
0.799857 0.293002 0.237649
0.918904 0.307737 0.258304
0.009378 0.366565 0.166678
0.092956 0.366706 0.168288
0.218281 0.367031 0.175036
0.332667 0.367302 0.176677
0.444406 0.372091 0.187126
0.563280 0.383006 0.202733
0.682250 0.394526 0.220060
0.801326 0.407347 0.239119
0.920511 0.421691 0.259911
0.018656 0.491656 0.180376
0.096567 0.491817 0.182573
0.221936 0.492186 0.190171
0.337518 0.492505 0.191755
0.451764 0.492817 0.192067
0.564466 0.497533 0.203918
0.683580 0.509114 0.221390
0.802795 0.521692 0.240588
0.922118 0.535645 0.261518
0.029860 0.617047 0.196000
0.102103 0.617228 0.198690
0.227516 0.617641 0.207117
0.343206 0.618004 0.208754
0.457569 0.618359 0.209109
0.571932 0.618714 0.209464
0.684909 0.623701 0.222719
0.804265 0.636037 0.242057
0.923725 0.649598 0.263125
0.042988 0.742738 0.213548
0.109563 0.742938 0.216691
0.235021 0.743396 0.225948
0.350466 0.743801 0.227676
0.464545 0.744198 0.228073
0.578625 0.744595 0.228470
0.692704 0.744992 0.228867
0.805734 0.750381 0.243527
0.925332 0.763552 0.264732
0.058041 0.868728 0.233021
0.118948 0.868948 0.236593
0.244450 0.869450 0.246687
0.359493 0.869896 0.248521
0.473109 0.870334 0.248959
0.586725 0.870772 0.249397
0.700341 0.871211 0.249835
0.813956 0.871649 0.250274
0.926939 0.877506 0.266339
0.075019 0.995019 0.254419
0.130258 0.995258 0.258406
0.255805 0.995804 0.269341
0.370360 0.996292 0.271292
0.483416 0.996770 0.271770
0.596473 0.997249 0.272249
0.709529 0.997728 0.272728
0.822585 0.998206 0.273206
0.935642 0.998685 0.273685
0.003350 0.003350 0.276105
0.090331 0.003461 0.276216
0.210456 0.003711 0.276466
0.323540 0.004590 0.280952
0.441137 0.011607 0.291577
0.559572 0.021087 0.304665
0.678120 0.032305 0.319490
0.796780 0.045260 0.336052
0.915551 0.059951 0.354351
0.004193 0.124068 0.276948
0.093462 0.125871 0.277092
0.215068 0.129643 0.277398
0.325060 0.130653 0.282016
0.442347 0.137817 0.295222
0.560931 0.147446 0.310156
0.679625 0.158810 0.326428
0.798432 0.171912 0.344257
0.917350 0.186750 0.363728
0.005036 0.244786 0.277791
0.094290 0.245510 0.277920
0.219606 0.248921 0.278236
0.328219 0.256724 0.283086
0.443562 0.264032 0.302252
0.562294 0.273809 0.319040
0.681135 0.285320 0.336528
0.800088 0.298568 0.355418
0.919153 0.313553 0.375894
0.009476 0.366664 0.285839
0.093053 0.366803 0.286427
0.218372 0.367122 0.288708
0.343700 0.367450 0.298008
0.444616 0.378476 0.312336
0.563545 0.392201 0.327997
0.682544 0.404768 0.345354
0.801646 0.418416 0.364438
0.920856 0.433548 0.385256
0.018768 0.491768 0.298738
0.096678 0.491928 0.300099
0.222043 0.492293 0.304730
0.347416 0.492666 0.314839
0.456207 0.492957 0.317207
0.564641 0.500437 0.329094
0.683815 0.515220 0.346625
0.803070 0.529591 0.365863
0.922426 0.544872 0.386826
0.029985 0.617173 0.313563
0.102227 0.617352 0.315523
0.227637 0.617762 0.321616
0.353054 0.618179 0.332156
0.464763 0.618525 0.334275
0.574602 0.618861 0.334611
0.685086 0.625672 0.347896
0.804495 0.640767 0.367287
0.923996 0.656196 0.388396
0.043127 0.742877 0.330312
0.109701 0.743076 0.332791
0.235156 0.743531 0.340064
0.360617 0.743992 0.351173
0.473155 0.744385 0.353260
0.583930 0.744768 0.353643
0.694706 0.745151 0.354026
0.805920 0.751942 0.368712
0.925566 0.767520 0.389966
0.058193 0.868881 0.348986
0.119100 0.869100 0.351941
0.244599 0.869599 0.360269
0.370104 0.870104 0.372037
0.482794 0.870541 0.374166
0.593736 0.870967 0.374592
0.704678 0.871394 0.375019
0.815620 0.871821 0.375446
0.927136 0.878844 0.391536
0.075185 0.995185 0.369585
0.130423 0.995423 0.372989
0.255967 0.995967 0.382309
0.381516 0.996516 0.394790
0.494054 0.996995 0.396995
0.604817 0.997464 0.397464
0.715580 0.997933 0.397933
0.826343 0.998402 0.398402
0.937106 0.998871 0.398871
0.010036 0.010036 0.405461
0.090989 0.010164 0.405589
0.210342 0.010454 0.405879
0.329695 0.010745 0.406170
0.442075 0.012545 0.410765
0.559698 0.021213 0.422228
0.678259 0.032444 0.436254
0.796932 0.045412 0.452017
0.915717 0.060117 0.469517
0.011013 0.130075 0.406438
0.094620 0.132389 0.406607
0.216341 0.136537 0.406962
0.333365 0.136817 0.407242
0.443600 0.138753 0.411973
0.561053 0.147568 0.425518
0.679762 0.158947 0.441303
0.798582 0.172062 0.458531
0.917514 0.186914 0.477339
0.011990 0.250115 0.407415
0.095585 0.251578 0.407572
0.220972 0.256951 0.407959
0.340380 0.262904 0.408329
0.445532 0.264963 0.413183
0.562410 0.273925 0.430395
0.681267 0.285452 0.448416
0.800235 0.298715 0.467239
0.919314 0.313714 0.487378
0.012966 0.370154 0.408391
0.096549 0.370768 0.408537
0.221891 0.372899 0.408878
0.347277 0.378271 0.409265
0.450053 0.391184 0.414404
0.563775 0.400290 0.440169
0.682779 0.411964 0.460133
0.801894 0.425374 0.480054
0.921119 0.440519 0.501135
0.018880 0.491880 0.417100
0.096789 0.492039 0.417626
0.222149 0.492399 0.419290
0.347513 0.492763 0.422628
0.472891 0.493141 0.436605
0.564905 0.509632 0.454358
0.684139 0.527661 0.471949
0.803421 0.542862 0.491214
0.922800 0.558763 0.512200
0.030111 0.617298 0.431126
0.102352 0.617477 0.432355
0.227758 0.617884 0.436116
0.353169 0.618294 0.442501
0.478591 0.618716 0.456557
0.580791 0.619024 0.459774
0.685290 0.629578 0.473100
0.804770 0.648666 0.492562
0.924314 0.666101 0.513714
0.043266 0.743016 0.447076
0.109839 0.743214 0.448891
0.235291 0.743666 0.454179
0.360747 0.744122 0.462188
0.486212 0.744587 0.476106
0.593460 0.744958 0.478833
0.698224 0.745316 0.479191
0.806119 0.754471 0.493911
0.925827 0.773440 0.515227
0.058346 0.869034 0.464951
0.119251 0.869251 0.467289
0.244749 0.869749 0.473852
0.370249 0.870249 0.483078
0.495757 0.870757 0.497215
0.604727 0.871179 0.499804
0.711440 0.871588 0.500213
0.818154 0.871997 0.500622
0.927341 0.880778 0.516741
0.075351 0.995351 0.484751
0.130588 0.995588 0.487573
0.256130 0.996130 0.495277
0.381676 0.996676 0.505561
0.507228 0.997228 0.520122
0.616839 0.997695 0.522695
0.724276 0.998150 0.523150
0.831713 0.998604 0.523604
0.939149 0.999059 0.524059
0.018407 0.018407 0.534877
0.093332 0.018552 0.535022
0.211912 0.018882 0.535352
0.330492 0.019212 0.535682
0.449072 0.019542 0.536012
0.560749 0.022264 0.540717
0.678398 0.032583 0.553018
0.797085 0.045565 0.567982
0.915883 0.060283 0.584683
0.019517 0.137767 0.535987
0.097462 0.140528 0.536182
0.219060 0.145114 0.536584
0.335736 0.145436 0.536906
0.452412 0.145758 0.537228
0.562357 0.148617 0.542070
0.679898 0.159083 0.556178
0.798732 0.172212 0.572805
0.917678 0.187078 0.590950
0.020627 0.257127 0.537097
0.098562 0.259157 0.537282
0.224008 0.265734 0.537728
0.344133 0.271673 0.538143
0.457417 0.271981 0.538451
0.564166 0.274972 0.543424
0.681399 0.285584 0.560304
0.800381 0.298861 0.579059
0.919475 0.313875 0.598863
0.021738 0.376488 0.538208
0.099662 0.377786 0.538382
0.225074 0.381934 0.538794
0.350537 0.389656 0.539257
0.467293 0.398225 0.539695
0.566558 0.401328 0.544781
0.682904 0.412089 0.566585
0.802035 0.425515 0.587995
0.921275 0.440675 0.609535
0.022848 0.495848 0.539318
0.100762 0.496415 0.539482
0.226140 0.498134 0.539860
0.351536 0.501136 0.540256
0.476998 0.508858 0.540718
0.572668 0.527700 0.546153
0.684418 0.538603 0.579510
0.803697 0.552177 0.602910
0.923084 0.567484 0.625372
0.030236 0.617424 0.548689
0.102476 0.617601 0.549187
0.227880 0.618005 0.550616
0.353284 0.618409 0.552846
0.478692 0.618817 0.557420
0.604122 0.619247 0.576894
0.685615 0.642020 0.598425
0.805161 0.664793 0.617953
0.924726 0.682760 0.639126
0.043405 0.743155 0.563840
0.109977 0.743352 0.564992
0.235427 0.743802 0.568295
0.360878 0.744253 0.573204
0.486335 0.744710 0.581600
0.611806 0.745181 0.600191
0.706418 0.745501 0.604376
0.806353 0.759514 0.619146
0.926145 0.783345 0.640545
0.058499 0.869186 0.580916
0.119403 0.869403 0.582637
0.244898 0.869898 0.587434
0.370395 0.870395 0.594120
0.495897 0.870897 0.604289
0.621410 0.871410 0.622021
0.723610 0.871804 0.625429
0.822628 0.872181 0.625806
0.927563 0.883930 0.641963
0.075517 0.995517 0.599917
0.130754 0.995754 0.602156
0.256293 0.996293 0.608244
0.381836 0.996836 0.616332
0.507383 0.997383 0.627734
0.632939 0.997939 0.645242
0.737922 0.998387 0.648387
0.840099 0.998820 0.648820
0.942276 0.999252 0.649252
0.028462 0.028462 0.664352
0.097359 0.028624 0.664514
0.215167 0.028994 0.664884
0.332974 0.029364 0.665254
0.450781 0.029734 0.665624
0.568589 0.030104 0.665994
0.679562 0.033747 0.670807
0.797237 0.045717 0.683947
0.916049 0.060449 0.699849
0.029706 0.147143 0.665596
0.101987 0.150326 0.665815
0.223381 0.155375 0.666265
0.339523 0.155738 0.666628
0.455664 0.156101 0.666991
0.571806 0.156464 0.667354
0.681281 0.160246 0.672306
0.798882 0.172362 0.687078
0.917841 0.187242 0.704561
0.030950 0.265825 0.666840
0.103222 0.268348 0.667050
0.228726 0.275948 0.667553
0.348990 0.282125 0.668015
0.462531 0.282476 0.668366
0.576072 0.282828 0.668718
0.683124 0.286745 0.673805
0.800528 0.299008 0.690880
0.919635 0.314035 0.710347
0.032194 0.384506 0.668084
0.104457 0.386371 0.668284
0.229932 0.391948 0.668759
0.355454 0.400844 0.669281
0.473706 0.408870 0.669760
0.582613 0.409202 0.670092
0.685237 0.413245 0.675305
0.802176 0.425656 0.695937
0.921432 0.440832 0.717934
0.033438 0.503188 0.669328
0.105692 0.504393 0.669519
0.231138 0.507949 0.669966
0.356613 0.513527 0.670440
0.482157 0.523987 0.670984
0.595808 0.535605 0.671495
0.688140 0.539748 0.676808
0.803827 0.552307 0.703791
0.923233 0.567633 0.728893
0.034682 0.621869 0.670572
0.106926 0.622415 0.670754
0.232344 0.623949 0.671172
0.357772 0.626209 0.671600
0.483225 0.630222 0.672053
0.608769 0.640683 0.672597
0.696061 0.666273 0.678333
0.805491 0.678971 0.720274
0.925045 0.694445 0.747370
0.043544 0.743294 0.680604
0.110115 0.743490 0.681092
0.235562 0.743937 0.682411
0.361009 0.744384 0.684220
0.486458 0.744833 0.687094
0.611911 0.745286 0.693084
0.737392 0.745767 0.718875
0.806744 0.775640 0.744537
0.926609 0.803596 0.766008
0.058651 0.869339 0.696881
0.119555 0.869555 0.697985
0.245047 0.870047 0.701016
0.370540 0.870540 0.705162
0.496037 0.871037 0.711363
0.621540 0.871540 0.722028
0.747062 0.872062 0.745740
0.833088 0.872390 0.751015
0.927830 0.890243 0.767230
0.075683 0.995683 0.715083
0.130919 0.995919 0.716739
0.256456 0.996456 0.721212
0.381995 0.996995 0.727103
0.507538 0.997538 0.735345
0.633087 0.998087 0.747918
0.758649 0.998649 0.769899
0.855211 0.999063 0.774063
0.947816 0.999456 0.774456
0.040201 0.040201 0.793886
0.103071 0.040381 0.794066
0.220106 0.040791 0.794476
0.337140 0.041200 0.794885
0.454175 0.041610 0.795295
0.571209 0.042019 0.795704
0.688244 0.042429 0.796114
0.798514 0.046994 0.801037
0.916215 0.060615 0.815015
0.041579 0.158204 0.795264
0.108198 0.161795 0.795508
0.229348 0.167321 0.796006
0.344870 0.167724 0.796409
0.460392 0.168127 0.796812
0.575914 0.168530 0.797215
0.691436 0.168934 0.797619
0.800356 0.173638 0.802680
0.918005 0.187405 0.818172
0.042956 0.276206 0.796641
0.109567 0.279187 0.796877
0.235126 0.287742 0.797436
0.355333 0.294260 0.797945
0.468679 0.294654 0.798339
0.582025 0.295047 0.798732
0.695370 0.295441 0.799126
0.802285 0.300282 0.804324
0.919796 0.314196 0.821831
0.044334 0.394209 0.798019
0.110936 0.396579 0.798246
0.236470 0.403356 0.798780
0.362048 0.413205 0.799358
0.480781 0.421196 0.799881
0.590727 0.421575 0.800260
0.700674 0.421955 0.800640
0.804376 0.426927 0.805969
0.921588 0.440988 0.826334
0.045712 0.512212 0.799397
0.112305 0.513971 0.799615
0.237814 0.518969 0.800124
0.363355 0.526177 0.800664
0.488956 0.537720 0.801266
0.605059 0.548127 0.801812
0.708952 0.548481 0.802166
0.806815 0.553573 0.807615
0.923382 0.567782 0.832415
0.047089 0.630214 0.800774
0.113674 0.631363 0.800984
0.239158 0.634582 0.801468
0.364661 0.639149 0.801971
0.490202 0.646357 0.802512
0.615832 0.659945 0.803142
0.725923 0.675044 0.803729
0.810277 0.680223 0.809266
0.925181 0.694581 0.842014
0.048467 0.748217 0.802152
0.115043 0.748755 0.802353
0.240502 0.750196 0.802812
0.365968 0.752120 0.803278
0.491447 0.754993 0.803757
0.616959 0.760156 0.804269
0.742589 0.773744 0.804899
0.820233 0.806901 0.810943
0.926996 0.821396 0.862463
0.058804 0.869491 0.812846
0.119706 0.869707 0.813333
0.245196 0.870196 0.814598
0.370686 0.870686 0.816204
0.496177 0.871177 0.818438
0.621669 0.871669 0.822036
0.747168 0.872168 0.829620
0.872703 0.872703 0.862547
0.928294 0.910494 0.892694
0.075849 0.995849 0.830249
0.131084 0.996084 0.831322
0.256619 0.996619 0.834180
0.382155 0.997155 0.837874
0.507693 0.997693 0.842956
0.633235 0.998235 0.850594
0.758785 0.998785 0.863785
0.884358 0.999358 0.893204
0.960801 0.999690 0.899690
0.053625 0.053625 0.923480
0.110468 0.053823 0.923678
0.226729 0.054272 0.924127
0.342991 0.054721 0.924576
0.459253 0.055170 0.925025
0.575515 0.055620 0.925475
0.691776 0.056069 0.925924
0.808038 0.056518 0.926373
0.917605 0.062005 0.931405
0.055136 0.170949 0.924991
0.116092 0.174942 0.925260
0.236980 0.180951 0.925806
0.351835 0.181394 0.926249
0.466690 0.181838 0.926693
0.581546 0.182281 0.927136
0.696401 0.182724 0.927579
0.811256 0.183168 0.928023
0.919577 0.188794 0.933194
0.056648 0.288273 0.926503
0.117595 0.291689 0.926763
0.243210 0.301167 0.927378
0.363269 0.308079 0.927934
0.476212 0.308514 0.928369
0.589155 0.308949 0.928804
0.702098 0.309384 0.929239
0.815041 0.309819 0.929674
0.921615 0.315583 0.934983
0.058159 0.405596 0.928014
0.119098 0.408437 0.928266
0.244691 0.416298 0.928858
0.370324 0.427039 0.929491
0.489190 0.435205 0.930060
0.599382 0.435628 0.930483
0.709573 0.436052 0.930907
0.819765 0.436475 0.931330
0.923762 0.442373 0.936773
0.059670 0.522920 0.929525
0.120602 0.525185 0.929769
0.246171 0.531429 0.930339
0.371772 0.539922 0.930940
0.497428 0.552300 0.931596
0.614430 0.562328 0.932183
0.720325 0.562733 0.932588
0.826220 0.563138 0.932993
0.926111 0.569163 0.938563
0.061182 0.640244 0.931037
0.122105 0.641933 0.931272
0.247651 0.646561 0.931819
0.373221 0.652805 0.932388
0.498830 0.661843 0.932997
0.624516 0.676362 0.933683
0.738194 0.689444 0.934299
0.836435 0.689817 0.934672
0.928899 0.695955 0.940355
0.062693 0.757568 0.932548
0.123608 0.758681 0.932775
0.249132 0.761692 0.933299
0.374670 0.765687 0.933837
0.500231 0.771386 0.934399
0.625840 0.780424 0.935008
0.751563 0.797528 0.935730
0.857640 0.816543 0.936398
0.932968 0.822753 0.942153
0.064204 0.874892 0.934059
0.125111 0.875429 0.934279
0.250612 0.876823 0.934780
0.376118 0.878570 0.935286
0.501633 0.880929 0.935800
0.627165 0.884486 0.936332
0.752737 0.890939 0.936904
0.878460 0.908043 0.937627
0.943900 0.943900 0.943900
0.076015 0.996015 0.945415
0.131249 0.996249 0.945905
0.256782 0.996782 0.947148
0.382315 0.997315 0.948646
0.507848 0.997848 0.950568
0.633383 0.998383 0.953270
0.758920 0.998920 0.957670
0.884464 0.999464 0.967028
1.000000 1.000000 1.000000
0.062928 0.062928 0.982928
0.113744 0.063144 0.983144
0.229233 0.063633 0.983633
0.344722 0.064122 0.984122
0.460211 0.064611 0.984611
0.575700 0.065100 0.985100
0.691189 0.065589 0.985589
0.806678 0.066078 0.986077
0.922166 0.066566 0.986566
0.064573 0.179573 0.984573
0.119866 0.183940 0.984866
0.240432 0.190460 0.985460
0.354486 0.190943 0.985943
0.468541 0.191426 0.986426
0.582595 0.191909 0.986909
0.696649 0.192392 0.987392
0.810704 0.192875 0.987875
0.924758 0.193358 0.988358
0.066218 0.296218 0.986218
0.121502 0.299994 0.986502
0.247172 0.310343 0.987172
0.366910 0.317776 0.987776
0.479051 0.318251 0.988251
0.591193 0.318726 0.988726
0.703334 0.319201 0.989201
0.815476 0.319676 0.989676
0.927617 0.320150 0.990150
0.067863 0.412863 0.987863
0.123139 0.416049 0.988139
0.248786 0.424761 0.988786
0.374474 0.436417 0.989474
0.493051 0.445091 0.990091
0.602514 0.445554 0.990554
0.711978 0.446018 0.991018
0.821441 0.446481 0.991481
0.930905 0.446945 0.991945
0.069508 0.529508 0.989508
0.124775 0.532104 0.989775
0.250399 0.539180 0.990399
0.376056 0.548610 0.991056
0.501768 0.561944 0.991768
0.618603 0.572403 0.992403
0.724049 0.572849 0.992849
0.829496 0.573296 0.993296
0.934942 0.573742 0.993742
0.071153 0.646153 0.991153
0.126412 0.648158 0.991412
0.252013 0.653598 0.992013
0.377638 0.660804 0.992638
0.503305 0.670937 0.993305
0.629048 0.686464 0.994048
0.742977 0.699710 0.994710
0.841728 0.700128 0.995128
0.940480 0.700546 0.995546
0.072798 0.762798 0.992798
0.128049 0.764213 0.993049
0.253626 0.768017 0.993626
0.379221 0.772998 0.994221
0.504842 0.779930 0.994842
0.630515 0.790459 0.995515
0.756298 0.808798 0.996298
0.864404 0.827004 0.997005
0.949766 0.827366 0.997366
0.074443 0.879443 0.994443
0.129685 0.880267 0.994685
0.255240 0.882435 0.995240
0.380803 0.885191 0.995803
0.506379 0.888923 0.996379
0.631981 0.894453 0.996981
0.757639 0.903889 0.997639
0.883457 0.924739 0.998457
0.974049 0.954249 0.999249
0.076088 0.996088 0.996088
0.131322 0.996322 0.996322
0.256854 0.996854 0.996854
0.382385 0.997385 0.997385
0.507917 0.997917 0.997917
0.633448 0.998448 0.998448
0.758979 0.998980 0.998980
0.884511 0.999511 0.999511
1.000000 1.000000 1.000000
