luts/original/lemonade-bright.cube
TITLE "Lemonade Bright"
LUT_3D_SIZE 33
DOMAIN_MIN 0.0 0.0 0.0
DOMAIN_MAX 1.0 1.0 1.0
0.027883 0.012845 0.012845
0.060640 0.012333 0.012333
0.093386 0.011684 0.011684
0.126119 0.010897 0.010897
0.158840 0.009972 0.009972
0.191549 0.008909 0.008909
0.224246 0.007708 0.007708
0.256930 0.006369 0.006369
0.289603 0.004892 0.004892
0.322263 0.003278 0.003278
0.354911 0.001525 0.001525
0.387547 0.000000 0.000000
0.420171 0.000000 0.000000
0.452783 0.000000 0.000000
0.485382 0.000000 0.000000
0.517970 0.000000 0.000000
0.550545 0.000000 0.000000
0.583108 0.000000 0.000000
0.615659 0.000000 0.000000
0.648198 0.000000 0.000000
0.680725 0.000000 0.000000
0.713239 0.000000 0.000000
0.745742 0.000000 0.000000
0.778232 0.000000 0.000000
0.810710 0.000000 0.000000
0.843176 0.000000 0.000000
0.875630 0.000000 0.000000
0.908072 0.000000 0.000000
0.940501 0.000000 0.000000
0.972919 0.000000 0.000000
0.997461 0.000000 0.000000
0.999365 0.000000 0.000000
1.000000 0.000000 0.000000
0.029129 0.047106 0.013255
0.060268 0.045163 0.011998
0.092993 0.044340 0.011330
0.125706 0.043485 0.010525
0.158406 0.042536 0.009581
0.191095 0.041472 0.008500
0.223771 0.040283 0.007281
0.256435 0.038963 0.005923
0.289087 0.037512 0.004428
0.321727 0.035926 0.002796
0.354355 0.034206 0.001025
0.386970 0.033160 0.000000
0.419574 0.033063 0.000000
0.452165 0.032980 0.000000
0.484744 0.032906 0.000000
0.517311 0.032841 0.000000
0.549866 0.032783 0.000000
0.582409 0.032730 0.000000
0.614940 0.032683 0.000000
0.647458 0.032639 0.000000
0.679964 0.032599 0.000000
0.712458 0.032562 0.000000
0.744940 0.032528 0.000000
0.777410 0.032496 0.000000
0.809868 0.032466 0.000000
0.842314 0.032438 0.000000
0.874747 0.032412 0.000000
0.907168 0.032387 0.000000
0.939577 0.032363 0.000000
0.971974 0.032341 0.000000
0.997461 0.032327 0.000000
0.999365 0.032342 0.000000
1.000000 0.032364 0.000000
0.028526 0.079162 0.012554
0.061467 0.078805 0.012302
0.092600 0.076971 0.010977
0.125292 0.076054 0.010153
0.157972 0.075085 0.009191
0.190640 0.074021 0.008091
0.223296 0.072844 0.006853
0.255940 0.071546 0.005478
0.288572 0.070120 0.003965
0.321191 0.068564 0.002313
0.353799 0.066876 0.000524
0.386394 0.066225 0.000000
0.418977 0.066036 0.000000
0.451548 0.065872 0.000000
0.484106 0.065728 0.000000
0.516653 0.065600 0.000000
0.549187 0.065486 0.000000
0.581710 0.065383 0.000000
0.614220 0.065290 0.000000
0.646718 0.065205 0.000000
0.679204 0.065126 0.000000
0.711677 0.065054 0.000000
0.744139 0.064987 0.000000
0.776588 0.064924 0.000000
0.809026 0.064866 0.000000
0.841451 0.064811 0.000000
0.873864 0.064759 0.000000
0.906265 0.064710 0.000000
0.938653 0.064663 0.000000
0.971030 0.064619 0.000000
0.997461 0.064590 0.000000
0.999365 0.064617 0.000000
1.000000 0.064661 0.000000
0.028011 0.110865 0.011551
0.060996 0.110742 0.011440
0.093752 0.110400 0.011175
0.124879 0.108603 0.009781
0.157539 0.107616 0.008800
0.190186 0.106555 0.007682
0.222822 0.105393 0.006426
0.255445 0.104116 0.005032
0.288056 0.102717 0.003501
0.320655 0.101191 0.001831
0.353242 0.099536 0.000023
0.385817 0.099195 0.000000
0.418380 0.098917 0.000000
0.450930 0.098677 0.000000
0.483468 0.098465 0.000000
0.515994 0.098278 0.000000
0.548508 0.098110 0.000000
0.581010 0.097959 0.000000
0.613500 0.097822 0.000000
0.645978 0.097697 0.000000
0.678443 0.097582 0.000000
0.710896 0.097475 0.000000
0.743338 0.097376 0.000000
0.775766 0.097284 0.000000
0.808183 0.097198 0.000000
0.840588 0.097117 0.000000
0.872981 0.097041 0.000000
0.905361 0.096968 0.000000
0.937729 0.096900 0.000000
0.970085 0.096834 0.000000
0.997461 0.096788 0.000000
0.999365 0.096827 0.000000
1.000000 0.096891 0.000000
0.027477 0.142527 0.010384
0.060390 0.142398 0.010268
0.093297 0.142269 0.010152
0.125984 0.141928 0.009874
0.157105 0.140130 0.008410
0.189732 0.139074 0.007274
0.222347 0.137927 0.005999
0.254950 0.136674 0.004587
0.287541 0.135303 0.003037
0.320119 0.133808 0.001349
0.352686 0.132492 0.000000
0.385240 0.132069 0.000000
0.417782 0.131708 0.000000
0.450312 0.131394 0.000000
0.482830 0.131118 0.000000
0.515336 0.130874 0.000000
0.547830 0.130655 0.000000
0.580311 0.130458 0.000000
0.612780 0.130279 0.000000
0.645237 0.130115 0.000000
0.677682 0.129965 0.000000
0.710115 0.129826 0.000000
0.742536 0.129696 0.000000
0.774945 0.129576 0.000000
0.807341 0.129463 0.000000
0.839725 0.129357 0.000000
0.872097 0.129257 0.000000
0.904457 0.129162 0.000000
0.936805 0.129073 0.000000
0.969141 0.128987 0.000000
0.997461 0.128923 0.000000
0.999365 0.128971 0.000000
1.000000 0.129054 0.000000
0.026839 0.174148 0.009053
0.059731 0.174013 0.008931
0.092617 0.173878 0.008810
0.125498 0.173743 0.008688
0.158163 0.173398 0.008397
0.189278 0.171578 0.006865
0.221873 0.170449 0.005572
0.254455 0.169220 0.004141
0.287025 0.167877 0.002573
0.319584 0.166414 0.000866
0.352130 0.165364 0.000000
0.384663 0.164849 0.000000
0.417185 0.164407 0.000000
0.449695 0.164024 0.000000
0.482192 0.163687 0.000000
0.514678 0.163388 0.000000
0.547151 0.163121 0.000000
0.579612 0.162880 0.000000
0.612061 0.162660 0.000000
0.644497 0.162460 0.000000
0.676922 0.162276 0.000000
0.709334 0.162105 0.000000
0.741735 0.161947 0.000000
0.774123 0.161800 0.000000
0.806499 0.161661 0.000000
0.838863 0.161531 0.000000
0.871214 0.161409 0.000000
0.903554 0.161292 0.000000
0.935881 0.161182 0.000000
0.968197 0.161077 0.000000
0.997461 0.160993 0.000000
0.999365 0.161050 0.000000
1.000000 0.161150 0.000000
0.026066 0.205729 0.007558
0.058962 0.205588 0.007431
0.091854 0.205447 0.007304
0.124741 0.205306 0.007177
0.157623 0.205165 0.007050
0.190289 0.204812 0.006747
0.221398 0.202957 0.005145
0.253960 0.201753 0.003696
0.286510 0.200440 0.002109
0.319048 0.199010 0.000384
0.351573 0.198137 0.000000
0.384087 0.197533 0.000000
0.416588 0.197015 0.000000
0.449077 0.196566 0.000000
0.481554 0.196171 0.000000
0.514019 0.195821 0.000000
0.546472 0.195507 0.000000
0.578912 0.195224 0.000000
0.611341 0.194967 0.000000
0.643757 0.194731 0.000000
0.676161 0.194515 0.000000
0.708553 0.194315 0.000000
0.740933 0.194129 0.000000
0.773301 0.193955 0.000000
0.805656 0.193792 0.000000
0.838000 0.193639 0.000000
0.870331 0.193495 0.000000
0.902650 0.193358 0.000000
0.934957 0.193228 0.000000
0.967252 0.193105 0.000000
0.997461 0.192999 0.000000
0.999365 0.193064 0.000000
1.000000 0.193179 0.000000
0.025146 0.237269 0.005900
0.058061 0.237121 0.005768
0.090973 0.236974 0.005635
0.123880 0.236827 0.005503
0.156783 0.236680 0.005370
0.189682 0.236533 0.005238
0.222362 0.236171 0.004921
0.253465 0.234275 0.003250
0.285994 0.232992 0.001645
0.318512 0.231625 0.000000
0.351017 0.230810 0.000000
0.383510 0.230122 0.000000
0.415991 0.229533 0.000000
0.448460 0.229021 0.000000
0.480916 0.228571 0.000000
0.513361 0.228172 0.000000
0.545793 0.227814 0.000000
0.578213 0.227491 0.000000
0.610621 0.227198 0.000000
0.643017 0.226929 0.000000
0.675401 0.226682 0.000000
0.707772 0.226453 0.000000
0.740132 0.226241 0.000000
0.772479 0.226042 0.000000
0.804814 0.225856 0.000000
0.837137 0.225681 0.000000
0.869448 0.225516 0.000000
0.901747 0.225359 0.000000
0.934033 0.225211 0.000000
0.966308 0.225069 0.000000
0.997461 0.224941 0.000000
0.999365 0.225013 0.000000
1.000000 0.225142 0.000000
0.024072 0.268767 0.004078
0.057016 0.268614 0.003940
0.089957 0.268461 0.003802
0.122893 0.268308 0.003664
0.155826 0.268154 0.003526
0.188755 0.268001 0.003389
0.221680 0.267848 0.003251
0.254382 0.267476 0.002921
0.285479 0.265532 0.001181
0.317976 0.264291 0.000000
0.350461 0.263382 0.000000
0.382933 0.262616 0.000000
0.415394 0.261959 0.000000
0.447842 0.261388 0.000000
0.480278 0.260886 0.000000
0.512702 0.260441 0.000000
0.545114 0.260042 0.000000
0.577514 0.259681 0.000000
0.609901 0.259353 0.000000
0.642277 0.259053 0.000000
0.674640 0.258777 0.000000
0.706991 0.258521 0.000000
0.739330 0.258284 0.000000
0.771657 0.258062 0.000000
0.803972 0.257853 0.000000
0.836274 0.257657 0.000000
0.868565 0.257472 0.000000
0.900843 0.257297 0.000000
0.933109 0.257130 0.000000
0.965363 0.256971 0.000000
0.997461 0.256820 0.000000
0.999365 0.256897 0.000000
1.000000 0.257040 0.000000
0.022842 0.300225 0.002092
0.055821 0.300066 0.001949
0.088796 0.299907 0.001806
0.121767 0.299747 0.001662
0.154736 0.299588 0.001519
0.187700 0.299429 0.001376
0.220661 0.299269 0.001232
0.253619 0.299110 0.001089
0.286349 0.298728 0.000746
0.317440 0.296850 0.000000
0.349904 0.295855 0.000000
0.382357 0.295015 0.000000
0.414797 0.294294 0.000000
0.447224 0.293668 0.000000
0.479640 0.293117 0.000000
0.512044 0.292628 0.000000
0.544435 0.292190 0.000000
0.576814 0.291794 0.000000
0.609182 0.291434 0.000000
0.641537 0.291104 0.000000
0.673880 0.290800 0.000000
0.706210 0.290519 0.000000
0.738529 0.290257 0.000000
0.770835 0.290013 0.000000
0.803129 0.289783 0.000000
0.835412 0.289567 0.000000
0.867682 0.289363 0.000000
0.899939 0.289170 0.000000
0.932185 0.288986 0.000000
0.964419 0.288810 0.000000
0.996640 0.288643 0.000000
0.999365 0.288716 0.000000
1.000000 0.288871 0.000000
0.021503 0.331642 0.000000
0.054632 0.331477 0.000000
0.087729 0.331312 0.000000
0.120792 0.331146 0.000000
0.153822 0.330981 0.000000
0.186818 0.330816 0.000000
0.219782 0.330650 0.000000
0.252713 0.330485 0.000000
0.285611 0.330319 0.000000
0.318263 0.329945 0.000000
0.349348 0.328227 0.000000
0.381780 0.327318 0.000000
0.414199 0.326538 0.000000
0.446607 0.325860 0.000000
0.479002 0.325264 0.000000
0.511385 0.324734 0.000000
0.543756 0.324259 0.000000
0.576115 0.323830 0.000000
0.608462 0.323439 0.000000
0.640796 0.323081 0.000000
0.673119 0.322751 0.000000
0.705429 0.322446 0.000000
0.737727 0.322161 0.000000
0.770013 0.321895 0.000000
0.802287 0.321646 0.000000
0.834549 0.321411 0.000000
0.866798 0.321189 0.000000
0.899036 0.320978 0.000000
0.931261 0.320778 0.000000
0.963474 0.320587 0.000000
0.995675 0.320404 0.000000
0.999365 0.320471 0.000000
1.000000 0.320636 0.000000
0.022032 0.363019 0.000000
0.055001 0.362847 0.000000
0.087938 0.362676 0.000000
0.120845 0.362504 0.000000
0.153720 0.362333 0.000000
0.186564 0.362161 0.000000
0.219377 0.361990 0.000000
0.252158 0.361819 0.000000
0.284909 0.361647 0.000000
0.317628 0.361476 0.000000
0.350125 0.361115 0.000000
0.381203 0.359526 0.000000
0.413602 0.358691 0.000000
0.445989 0.357965 0.000000
0.478364 0.357326 0.000000
0.510727 0.356758 0.000000
0.543077 0.356249 0.000000
0.575416 0.355788 0.000000
0.607742 0.355369 0.000000
0.640056 0.354984 0.000000
0.672358 0.354630 0.000000
0.704648 0.354302 0.000000
0.736926 0.353996 0.000000
0.769191 0.353710 0.000000
0.801445 0.353442 0.000000
0.833686 0.353189 0.000000
0.865915 0.352949 0.000000
0.898132 0.352722 0.000000
0.930337 0.352506 0.000000
0.962530 0.352300 0.000000
0.994710 0.352103 0.000000
0.999365 0.352162 0.000000
1.000000 0.352336 0.000000
0.022588 0.394354 0.000000
0.055419 0.394176 0.000000
0.088221 0.393999 0.000000
0.120993 0.393821 0.000000
0.153736 0.393644 0.000000
0.186449 0.393466 0.000000
0.219133 0.393289 0.000000
0.251787 0.393111 0.000000
0.284411 0.392934 0.000000
0.317006 0.392756 0.000000
0.349571 0.392579 0.000000
0.381933 0.392229 0.000000
0.413005 0.390753 0.000000
0.445372 0.389983 0.000000
0.477726 0.389304 0.000000
0.510068 0.388700 0.000000
0.542399 0.388159 0.000000
0.574717 0.387669 0.000000
0.607022 0.387223 0.000000
0.639316 0.386814 0.000000
0.671598 0.386437 0.000000
0.703867 0.386087 0.000000
0.736124 0.385761 0.000000
0.768369 0.385457 0.000000
0.800602 0.385170 0.000000
0.832823 0.384900 0.000000
0.865032 0.384645 0.000000
0.897229 0.384403 0.000000
0.929413 0.384172 0.000000
0.961585 0.383951 0.000000
0.993745 0.383741 0.000000
0.999365 0.383789 0.000000
1.000000 0.383971 0.000000
0.023163 0.425648 0.000000
0.055876 0.425465 0.000000
0.088560 0.425281 0.000000
0.121215 0.425098 0.000000
0.153843 0.424914 0.000000
0.186442 0.424731 0.000000
0.219013 0.424547 0.000000
0.251556 0.424363 0.000000
0.284071 0.424180 0.000000
0.316557 0.423996 0.000000
0.349015 0.423813 0.000000
0.381445 0.423629 0.000000
0.413688 0.423288 0.000000
0.444754 0.421912 0.000000
0.477088 0.421197 0.000000
0.509410 0.420561 0.000000
0.541720 0.419990 0.000000
0.574017 0.419473 0.000000
0.606303 0.419002 0.000000
0.638576 0.418570 0.000000
0.670837 0.418172 0.000000
0.703086 0.417802 0.000000
0.735323 0.417458 0.000000
0.767548 0.417135 0.000000
0.799760 0.416832 0.000000
0.831961 0.416546 0.000000
0.864149 0.416275 0.000000
0.896325 0.416018 0.000000
0.928489 0.415774 0.000000
0.960641 0.415540 0.000000
0.992780 0.415316 0.000000
0.999365 0.415352 0.000000
1.000000 0.415541 0.000000
0.023755 0.456902 0.000000
0.056362 0.456712 0.000000
0.088942 0.456523 0.000000
0.121495 0.456333 0.000000
0.154021 0.456143 0.000000
0.186520 0.455954 0.000000
0.218992 0.455764 0.000000
0.251436 0.455575 0.000000
0.283854 0.455385 0.000000
0.316244 0.455195 0.000000
0.348608 0.455006 0.000000
0.380944 0.454816 0.000000
0.413253 0.454626 0.000000
0.445390 0.454293 0.000000
0.476450 0.453006 0.000000
0.508752 0.452340 0.000000
0.541041 0.451742 0.000000
0.573318 0.451200 0.000000
0.605583 0.450706 0.000000
0.637836 0.450253 0.000000
0.670076 0.449835 0.000000
0.702305 0.449446 0.000000
0.734521 0.449084 0.000000
0.766726 0.448745 0.000000
0.798918 0.448427 0.000000
0.831098 0.448126 0.000000
0.863266 0.447841 0.000000
0.895421 0.447570 0.000000
0.927565 0.447312 0.000000
0.959696 0.447065 0.000000
0.991816 0.446829 0.000000
0.999365 0.446852 0.000000
1.000000 0.447046 0.000000
0.024360 0.488115 0.000000
0.056873 0.487919 0.000000
0.089361 0.487723 0.000000
0.121822 0.487528 0.000000
0.154257 0.487332 0.000000
0.186666 0.487136 0.000000
0.219049 0.486941 0.000000
0.251405 0.486745 0.000000
0.283736 0.486549 0.000000
0.316040 0.486353 0.000000
0.348319 0.486158 0.000000
0.380571 0.485962 0.000000
0.412798 0.485766 0.000000
0.444998 0.485570 0.000000
0.477039 0.485243 0.000000
0.508093 0.484038 0.000000
0.540362 0.483414 0.000000
0.572619 0.482850 0.000000
0.604863 0.482335 0.000000
0.637096 0.481862 0.000000
0.669316 0.481426 0.000000
0.701524 0.481020 0.000000
0.733720 0.480642 0.000000
0.765904 0.480287 0.000000
0.798076 0.479954 0.000000
0.830235 0.479639 0.000000
0.862383 0.479341 0.000000
0.894518 0.479057 0.000000
0.926641 0.478787 0.000000
0.958752 0.478528 0.000000
0.990851 0.478280 0.000000
0.999365 0.478288 0.000000
1.000000 0.478486 0.000000
0.024975 0.519287 0.000000
0.057404 0.519085 0.000000
0.089807 0.518883 0.000000
0.122185 0.518681 0.000000
0.154538 0.518480 0.000000
0.186866 0.518278 0.000000
0.219169 0.518076 0.000000
0.251446 0.517874 0.000000
0.283698 0.517672 0.000000
0.315925 0.517471 0.000000
0.348127 0.517269 0.000000
0.380303 0.517067 0.000000
0.412454 0.516865 0.000000
0.444580 0.516663 0.000000
0.476681 0.516462 0.000000
0.508635 0.516139 0.000000
0.539683 0.515007 0.000000
0.571919 0.514422 0.000000
0.604143 0.513888 0.000000
0.636355 0.513398 0.000000
0.668555 0.512944 0.000000
0.700743 0.512523 0.000000
0.732919 0.512130 0.000000
0.765082 0.511761 0.000000
0.797233 0.511414 0.000000
0.829372 0.511087 0.000000
0.861499 0.510776 0.000000
0.893614 0.510480 0.000000
0.925717 0.510198 0.000000
0.957807 0.509928 0.000000
0.989886 0.509670 0.000000
0.999365 0.509661 0.000000
1.000000 0.509861 0.000000
0.025599 0.550418 0.000000
0.057950 0.550210 0.000000
0.090278 0.550002 0.000000
0.122580 0.549794 0.000000
0.154858 0.549586 0.000000
0.187112 0.549379 0.000000
0.219342 0.549171 0.000000
0.251546 0.548963 0.000000
0.283727 0.548755 0.000000
0.315883 0.548547 0.000000
0.348014 0.548339 0.000000
0.380121 0.548131 0.000000
0.412204 0.547923 0.000000
0.444262 0.547716 0.000000
0.476296 0.547508 0.000000
0.508305 0.547300 0.000000
0.540178 0.546981 0.000000
0.571220 0.545918 0.000000
0.603424 0.545366 0.000000
0.635615 0.544860 0.000000
0.667795 0.544391 0.000000
0.699962 0.543956 0.000000
0.732117 0.543549 0.000000
0.764260 0.543167 0.000000
0.796391 0.542808 0.000000
0.828510 0.542468 0.000000
0.860616 0.542146 0.000000
0.892711 0.541839 0.000000
0.924793 0.541546 0.000000
0.956863 0.541266 0.000000
0.988921 0.540997 0.000000
0.999365 0.540971 0.000000
1.000000 0.541173 0.000000
0.026230 0.581508 0.000000
0.058510 0.581294 0.000000
0.090767 0.581080 0.000000
0.123001 0.580866 0.000000
0.155210 0.580652 0.000000
0.187396 0.580438 0.000000
0.219558 0.580225 0.000000
0.251696 0.580011 0.000000
0.283810 0.579797 0.000000
0.315901 0.579583 0.000000
0.347968 0.579369 0.000000
0.380011 0.579155 0.000000
0.412030 0.578941 0.000000
0.444026 0.578727 0.000000
0.475998 0.578513 0.000000
0.507946 0.578299 0.000000
0.539870 0.578085 0.000000
0.571668 0.577769 0.000000
0.602704 0.576769 0.000000
0.634875 0.576248 0.000000
0.667034 0.575766 0.000000
0.699181 0.575318 0.000000
0.731316 0.574898 0.000000
0.763438 0.574505 0.000000
0.795549 0.574134 0.000000
0.827647 0.573783 0.000000
0.859733 0.573450 0.000000
0.891807 0.573133 0.000000
0.923869 0.572831 0.000000
0.955918 0.572541 0.000000
0.987956 0.572262 0.000000
0.999365 0.572218 0.000000
1.000000 0.572420 0.000000
0.026866 0.612558 0.000000
0.059082 0.612338 0.000000
0.091274 0.612118 0.000000
0.123443 0.611897 0.000000
0.155589 0.611677 0.000000
0.187711 0.611457 0.000000
0.219811 0.611237 0.000000
0.251887 0.611017 0.000000
0.283941 0.610797 0.000000
0.315971 0.610577 0.000000
0.347977 0.610357 0.000000
0.379961 0.610137 0.000000
0.411922 0.609917 0.000000
0.443859 0.609697 0.000000
0.475773 0.609477 0.000000
0.507664 0.609257 0.000000
0.539532 0.609037 0.000000
0.571377 0.608817 0.000000
0.603105 0.608504 0.000000
0.634135 0.607563 0.000000
0.666273 0.607069 0.000000
0.698400 0.606609 0.000000
0.730514 0.606179 0.000000
0.762616 0.605774 0.000000
0.794706 0.605393 0.000000
0.826784 0.605033 0.000000
0.858850 0.604690 0.000000
0.890903 0.604364 0.000000
0.922945 0.604052 0.000000
0.954974 0.603753 0.000000
0.986991 0.603465 0.000000
0.999365 0.603403 0.000000
1.000000 0.603603 0.000000
0.027508 0.643566 0.000000
0.059663 0.643340 0.000000
0.091795 0.643114 0.000000
0.123904 0.642888 0.000000
0.155990 0.642662 0.000000
0.188054 0.642436 0.000000
0.220095 0.642209 0.000000
0.252114 0.641983 0.000000
0.284110 0.641757 0.000000
0.316084 0.641531 0.000000
0.348034 0.641305 0.000000
0.379963 0.641079 0.000000
0.411868 0.640853 0.000000
0.443751 0.640627 0.000000
0.475612 0.640401 0.000000
0.507450 0.640175 0.000000
0.539265 0.639949 0.000000
0.571057 0.639722 0.000000
0.602827 0.639496 0.000000
0.634489 0.639185 0.000000
0.665513 0.638299 0.000000
0.697619 0.637829 0.000000
0.729713 0.637389 0.000000
0.761794 0.636976 0.000000
0.793864 0.636586 0.000000
0.825921 0.636216 0.000000
0.857967 0.635864 0.000000
0.890000 0.635529 0.000000
0.922021 0.635209 0.000000
0.954030 0.634902 0.000000
0.986026 0.634607 0.000000
0.999365 0.634525 0.000000
1.000000 0.634723 0.000000
0.028155 0.674534 0.000000
0.060252 0.674302 0.000000
0.092327 0.674069 0.000000
0.124380 0.673837 0.000000
0.156411 0.673605 0.000000
0.188420 0.673373 0.000000
0.220406 0.673141 0.000000
0.252371 0.672909 0.000000
0.284313 0.672676 0.000000
0.316234 0.672444 0.000000
0.348132 0.672212 0.000000
0.380008 0.671980 0.000000
0.411862 0.671748 0.000000
0.443694 0.671516 0.000000
0.475504 0.671283 0.000000
0.507291 0.671051 0.000000
0.539057 0.670819 0.000000
0.570800 0.670587 0.000000
0.602522 0.670355 0.000000
0.634221 0.670123 0.000000
0.665820 0.669813 0.000000
0.696838 0.668979 0.000000
0.728911 0.668531 0.000000
0.760973 0.668109 0.000000
0.793022 0.667711 0.000000
0.825059 0.667333 0.000000
0.857083 0.666974 0.000000
0.889096 0.666631 0.000000
0.921097 0.666303 0.000000
0.953085 0.665989 0.000000
0.985061 0.665686 0.000000
0.999365 0.665585 0.000000
1.000000 0.665779 0.000000
0.028805 0.705460 0.000000
0.060848 0.705222 0.000000
0.092870 0.704984 0.000000
0.124870 0.704746 0.000000
0.156849 0.704508 0.000000
0.188806 0.704269 0.000000
0.220741 0.704031 0.000000
0.252654 0.703793 0.000000
0.284546 0.703555 0.000000
0.316416 0.703316 0.000000
0.348265 0.703078 0.000000
0.380091 0.702840 0.000000
0.411897 0.702602 0.000000
0.443680 0.702363 0.000000
0.475442 0.702125 0.000000
0.507182 0.701887 0.000000
0.538901 0.701649 0.000000
0.570598 0.701410 0.000000
0.602273 0.701172 0.000000
0.633927 0.700934 0.000000
0.665558 0.700696 0.000000
0.697098 0.700387 0.000000
0.728110 0.699603 0.000000
0.760151 0.699174 0.000000
0.792179 0.698769 0.000000
0.824196 0.698384 0.000000
0.856200 0.698018 0.000000
0.888193 0.697669 0.000000
0.920173 0.697334 0.000000
0.952141 0.697012 0.000000
0.984096 0.696703 0.000000
0.999365 0.696583 0.000000
1.000000 0.696772 0.000000
0.029458 0.736346 0.000000
0.061451 0.736102 0.000000
0.093422 0.735858 0.000000
0.125372 0.735613 0.000000
0.157301 0.735369 0.000000
0.189209 0.735125 0.000000
0.221095 0.734881 0.000000
0.252960 0.734636 0.000000
0.284804 0.734392 0.000000
0.316627 0.734148 0.000000
0.348428 0.733903 0.000000
0.380208 0.733659 0.000000
0.411967 0.733415 0.000000
0.443704 0.733170 0.000000
0.475421 0.732926 0.000000
0.507116 0.732682 0.000000
0.538790 0.732437 0.000000
0.570442 0.732193 0.000000
0.602074 0.731949 0.000000
0.633684 0.731704 0.000000
0.665273 0.731460 0.000000
0.696840 0.731216 0.000000
0.728323 0.730908 0.000000
0.759329 0.730171 0.000000
0.791337 0.729760 0.000000
0.823333 0.729369 0.000000
0.855317 0.728997 0.000000
0.887289 0.728642 0.000000
0.919249 0.728301 0.000000
0.951196 0.727974 0.000000
0.983132 0.727658 0.000000
0.999365 0.727519 0.000000
1.000000 0.727701 0.000000
0.030115 0.767191 0.000000
0.062059 0.766941 0.000000
0.093982 0.766691 0.000000
0.125885 0.766440 0.000000
0.157766 0.766190 0.000000
0.189627 0.765940 0.000000
0.221467 0.765689 0.000000
0.253286 0.765439 0.000000
0.285084 0.765188 0.000000
0.316861 0.764938 0.000000
0.348618 0.764688 0.000000
0.380353 0.764437 0.000000
0.412068 0.764187 0.000000
0.443762 0.763936 0.000000
0.475435 0.763686 0.000000
0.507087 0.763436 0.000000
0.538718 0.763185 0.000000
0.570328 0.762935 0.000000
0.601918 0.762685 0.000000
0.633486 0.762434 0.000000
0.665034 0.762184 0.000000
0.696561 0.761933 0.000000
0.728067 0.761683 0.000000
0.759495 0.761376 0.000000
0.790495 0.760684 0.000000
0.822470 0.760288 0.000000
0.854434 0.759911 0.000000
0.886385 0.759551 0.000000
0.918325 0.759205 0.000000
0.950252 0.758872 0.000000
0.982167 0.758552 0.000000
0.999365 0.758394 0.000000
1.000000 0.758568 0.000000
0.030774 0.797996 0.000000
0.062672 0.797739 0.000000
0.094549 0.797483 0.000000
0.126406 0.797226 0.000000
0.158243 0.796970 0.000000
0.190059 0.796713 0.000000
0.221854 0.796457 0.000000
0.253629 0.796201 0.000000
0.285384 0.795944 0.000000
0.317118 0.795688 0.000000
0.348831 0.795431 0.000000
0.380524 0.795175 0.000000
0.412197 0.794918 0.000000
0.443848 0.794662 0.000000
0.475480 0.794405 0.000000
0.507091 0.794149 0.000000
0.538681 0.793892 0.000000
0.570251 0.793636 0.000000
0.601800 0.793379 0.000000
0.633329 0.793123 0.000000
0.664837 0.792867 0.000000
0.696325 0.792610 0.000000
0.727792 0.792354 0.000000
0.759239 0.792097 0.000000
0.790614 0.791790 0.000000
0.821608 0.791141 0.000000
0.853551 0.790760 0.000000
0.885482 0.790395 0.000000
0.917401 0.790045 0.000000
0.949307 0.789708 0.000000
0.981202 0.789383 0.000000
0.999365 0.789207 0.000000
1.000000 0.789372 0.000000
0.031435 0.828759 0.000000
0.063289 0.828497 0.000000
0.095122 0.828234 0.000000
0.126936 0.827971 0.000000
0.158729 0.827709 0.000000
0.190503 0.827446 0.000000
0.222255 0.827184 0.000000
0.253988 0.826921 0.000000
0.285701 0.826659 0.000000
0.317393 0.826396 0.000000
0.349065 0.826134 0.000000
0.380717 0.825871 0.000000
0.412349 0.825609 0.000000
0.443961 0.825346 0.000000
0.475552 0.825084 0.000000
0.507123 0.824821 0.000000
0.538674 0.824559 0.000000
0.570205 0.824296 0.000000
0.601716 0.824033 0.000000
0.633206 0.823771 0.000000
0.664677 0.823508 0.000000
0.696127 0.823246 0.000000
0.727557 0.822983 0.000000
0.758966 0.822721 0.000000
0.790356 0.822458 0.000000
0.821680 0.822151 0.000000
0.852668 0.821544 0.000000
