luts/original/lemonade-bright.cube
TITLE "Lemonade Bright"
LUT_3D_SIZE 5
DOMAIN_MIN 0.0 0.0 0.0
DOMAIN_MAX 1.0 1.0 1.0
0.027883 0.012845 0.012845
0.289603 0.004892 0.004892
0.550545 0.000000 0.000000
0.810710 0.000000 0.000000
1.000000 0.000000 0.000000
0.024072 0.268767 0.004078
0.285479 0.265532 0.001181
0.545114 0.260042 0.000000
0.803972 0.257853 0.000000
1.000000 0.257040 0.000000
0.024975 0.519287 0.000000
0.283698 0.517672 0.000000
0.539683 0.515007 0.000000
0.797233 0.511414 0.000000
1.000000 0.509861 0.000000
0.030115 0.767191 0.000000
0.285084 0.765188 0.000000
0.538718 0.763185 0.000000
0.790495 0.760684 0.000000
1.000000 0.758568 0.000000
0.035442 1.000000 0.000000
0.287905 1.000000 0.000000
0.539150 1.000000 0.000000
0.789187 1.000000 0.000000
1.000000 1.000000 0.000000
0.029359 0.009261 0.254595
0.289245 0.004570 0.249259
0.550074 0.000000 0.237004
0.810125 0.000000 0.229127
1.000000 0.000000 0.222737
0.021693 0.268409 0.248086
0.285121 0.259021 0.232921
0.544643 0.236983 0.209178
0.803387 0.210108 0.176611
1.000000 0.181304 0.141688
0.006809 0.518815 0.223352
0.264068 0.517201 0.208106
0.539212 0.511466 0.204290
0.796648 0.483597 0.170546
1.000000 0.455831 0.133642
0.000000 0.766606 0.202935
0.238053 0.764603 0.171018
0.516164 0.762600 0.169215
0.789910 0.756495 0.164481
1.000000 0.729682 0.125596
0.000000 1.000000 0.188834
0.203416 1.000000 0.124391
0.483130 1.000000 0.121999
0.762648 1.000000 0.119607
1.000000 1.000000 0.117550
0.025818 0.000000 0.505504
0.290489 0.000000 0.503890
0.549525 0.000000 0.498886
0.809445 0.000000 0.488537
1.000000 0.000000 0.481328
0.013566 0.256819 0.500073
0.267582 0.238488 0.498459
0.544094 0.232310 0.487472
0.802706 0.205311 0.453359
1.000000 0.175876 0.420567
0.006315 0.518267 0.491964
0.254862 0.516653 0.487262
0.538663 0.496230 0.453797
0.795968 0.456619 0.419934
1.000000 0.424598 0.382830
0.000000 0.765926 0.468581
0.229031 0.763923 0.445259
0.492948 0.761920 0.418603
0.789229 0.752618 0.413869
1.000000 0.714048 0.374784
0.000000 1.000000 0.450720
0.193579 1.000000 0.399059
0.454424 1.000000 0.371187
0.749036 1.000000 0.368795
1.000000 1.000000 0.366738
0.031048 0.000000 0.756149
0.292649 0.000000 0.754146
0.552849 0.000000 0.752143
0.808765 0.000000 0.747513
1.000000 0.000000 0.739484
0.000000 0.239037 0.749411
0.248187 0.214167 0.747407
0.529893 0.212364 0.745404
0.802026 0.204699 0.734502
1.000000 0.175064 0.704208
0.000000 0.505766 0.742672
0.237414 0.489042 0.740669
0.495652 0.456299 0.738666
0.795288 0.448634 0.720123
1.000000 0.417018 0.676533
0.000000 0.765246 0.733752
0.228419 0.763243 0.729103
0.476616 0.761240 0.721519
0.788549 0.725903 0.663257
1.000000 0.671652 0.623972
0.000000 1.000000 0.712160
0.192766 1.000000 0.683567
0.440375 1.000000 0.659537
0.712804 1.000000 0.617983
1.000000 1.000000 0.615926
0.036517 0.000000 1.000000
0.296609 0.000000 1.000000
0.555409 0.000000 1.000000
0.812946 0.000000 0.999355
1.000000 0.000000 0.997208
0.000000 0.230832 0.998484
0.221359 0.181483 0.996092
0.503939 0.179330 0.993700
0.786353 0.177178 0.991309
1.000000 0.174252 0.987771
0.000000 0.495219 0.990438
0.209242 0.455481 0.988046
0.464508 0.422089 0.985654
0.765201 0.419936 0.983263
1.000000 0.416206 0.977321
0.000000 0.755280 0.982392
0.202000 0.734015 0.980000
0.449848 0.713728 0.977608
0.713571 0.662695 0.975217
1.000000 0.658160 0.962061
0.000000 1.000000 0.973155
0.191954 1.000000 0.967993
0.439562 1.000000 0.962952
0.687171 1.000000 0.951745
1.000000 1.000000 0.865114
