luts/original/lemonade-bright.cube
TITLE "Lemonade Bright"
LUT_3D_SIZE 9
DOMAIN_MIN 0.0 0.0 0.0
DOMAIN_MAX 1.0 1.0 1.0
0.027883 0.012845 0.012845
0.158840 0.009972 0.009972
0.289603 0.004892 0.004892
0.420171 0.000000 0.000000
0.550545 0.000000 0.000000
0.680725 0.000000 0.000000
0.810710 0.000000 0.000000
0.940501 0.000000 0.000000
1.000000 0.000000 0.000000
0.027477 0.142527 0.010384
0.157105 0.140130 0.008410
0.287541 0.135303 0.003037
0.417782 0.131708 0.000000
0.547830 0.130655 0.000000
0.677682 0.129965 0.000000
0.807341 0.129463 0.000000
0.936805 0.129073 0.000000
1.000000 0.129054 0.000000
0.024072 0.268767 0.004078
0.155826 0.268154 0.003526
0.285479 0.265532 0.001181
0.415394 0.261959 0.000000
0.545114 0.260042 0.000000
0.674640 0.258777 0.000000
0.803972 0.257853 0.000000
0.933109 0.257130 0.000000
1.000000 0.257040 0.000000
0.022588 0.394354 0.000000
0.153736 0.393644 0.000000
0.284411 0.392934 0.000000
0.413005 0.390753 0.000000
0.542399 0.388159 0.000000
0.671598 0.386437 0.000000
0.800602 0.385170 0.000000
0.929413 0.384172 0.000000
1.000000 0.383971 0.000000
0.024975 0.519287 0.000000
0.154538 0.518480 0.000000
0.283698 0.517672 0.000000
0.412454 0.516865 0.000000
0.539683 0.515007 0.000000
0.668555 0.512944 0.000000
0.797233 0.511414 0.000000
0.925717 0.510198 0.000000
1.000000 0.509861 0.000000
0.027508 0.643566 0.000000
0.155990 0.642662 0.000000
0.284110 0.641757 0.000000
0.411868 0.640853 0.000000
0.539265 0.639949 0.000000
0.665513 0.638299 0.000000
0.793864 0.636586 0.000000
0.922021 0.635209 0.000000
1.000000 0.634723 0.000000
0.030115 0.767191 0.000000
0.157766 0.766190 0.000000
0.285084 0.765188 0.000000
0.412068 0.764187 0.000000
0.538718 0.763185 0.000000
0.665034 0.762184 0.000000
0.790495 0.760684 0.000000
0.918325 0.759205 0.000000
1.000000 0.758568 0.000000
0.032763 0.890163 0.000000
0.159728 0.889064 0.000000
0.286379 0.887966 0.000000
0.412717 0.886867 0.000000
0.538740 0.885768 0.000000
0.664450 0.884670 0.000000
0.789846 0.883571 0.000000
0.914628 0.882185 0.000000
1.000000 0.881410 0.000000
0.035442 1.000000 0.000000
0.161826 1.000000 0.000000
0.287905 1.000000 0.000000
0.413679 1.000000 0.000000
0.539150 1.000000 0.000000
0.664319 1.000000 0.000000
0.789187 1.000000 0.000000
0.913756 1.000000 0.000000
1.000000 1.000000 0.000000
0.030688 0.013341 0.129042
0.158714 0.009858 0.124693
0.289453 0.004757 0.117112
0.419997 0.000000 0.109534
0.550348 0.000000 0.105870
0.680504 0.000000 0.102491
0.810465 0.000000 0.099259
0.940233 0.000000 0.096115
1.000000 0.000000 0.093278
0.025364 0.142401 0.124534
0.156979 0.137591 0.118203
0.287391 0.130873 0.109964
0.417609 0.123202 0.099520
0.547632 0.113523 0.086869
0.677461 0.101705 0.072012
0.807096 0.087712 0.054949
0.936537 0.071530 0.035680
1.000000 0.060100 0.021118
0.021881 0.268617 0.114760
0.152722 0.268005 0.110454
0.285329 0.264458 0.108109
0.415220 0.256295 0.097370
0.544917 0.246800 0.084425
0.674419 0.235397 0.069274
0.803727 0.221926 0.051917
0.932840 0.206324 0.032353
1.000000 0.195217 0.017095
0.015778 0.394180 0.103128
0.146061 0.393470 0.098576
0.280949 0.392760 0.097937
0.412831 0.389201 0.095220
0.542201 0.379924 0.081981
0.671377 0.368956 0.066536
0.800358 0.356020 0.048884
0.929144 0.341006 0.029027
1.000000 0.330205 0.013072
0.007056 0.519090 0.089023
0.137403 0.518282 0.084079
0.272486 0.517475 0.083353
0.407518 0.516668 0.082626
0.539486 0.512896 0.079537
0.668334 0.502381 0.063798
0.796988 0.489991 0.045852
0.925448 0.475574 0.025700
1.000000 0.465067 0.009049
0.000000 0.643345 0.076240
0.126312 0.642441 0.066962
0.261916 0.641536 0.066148
0.397478 0.640632 0.065334
0.532997 0.639727 0.064520
0.665292 0.635673 0.061059
0.793619 0.623842 0.042820
0.921752 0.610030 0.022374
1.000000 0.599804 0.005026
0.000000 0.766947 0.069933
0.112682 0.765945 0.047226
0.248949 0.764943 0.046324
0.385178 0.763942 0.045423
0.521370 0.762940 0.044521
0.657523 0.761939 0.043620
0.790250 0.757571 0.039787
0.918056 0.744374 0.019047
1.000000 0.734418 0.001003
0.000000 0.889895 0.063768
0.096473 0.888796 0.024869
0.233478 0.887697 0.023881
0.370448 0.886598 0.022892
0.507382 0.885500 0.021903
0.644282 0.884401 0.020914
0.781147 0.883302 0.019925
0.914360 0.878604 0.015721
1.000000 0.869305 0.000000
0.000000 1.000000 0.057724
0.078779 1.000000 0.000993
0.216618 1.000000 0.000000
0.355004 1.000000 0.000000
0.493023 1.000000 0.000000
0.630677 1.000000 0.000000
0.767967 1.000000 0.000000
0.904895 1.000000 0.000000
1.000000 1.000000 0.000000
0.029359 0.009261 0.254595
0.161478 0.008709 0.253983
0.289245 0.004570 0.249259
0.419756 0.000000 0.241791
0.550074 0.000000 0.237004
0.680197 0.000000 0.232890
0.810125 0.000000 0.229127
0.939860 0.000000 0.225570
1.000000 0.000000 0.222737
0.025343 0.138938 0.252534
0.154848 0.131854 0.251921
0.287183 0.127715 0.244076
0.417368 0.120084 0.232672
0.547358 0.110247 0.220070
0.677154 0.098204 0.205564
0.806756 0.083955 0.188982
0.936163 0.067500 0.170262
1.000000 0.055711 0.156371
0.021693 0.268409 0.248086
0.146142 0.267796 0.244184
0.285121 0.259021 0.232921
0.414979 0.247648 0.222153
0.544643 0.236983 0.209178
0.674112 0.224570 0.193998
0.803387 0.210108 0.176611
0.932467 0.193512 0.157017
1.000000 0.181304 0.141688
0.015561 0.393939 0.236789
0.139922 0.393229 0.229522
0.274790 0.392519 0.222720
0.412590 0.387138 0.220003
0.541927 0.374331 0.206734
0.671069 0.361379 0.191259
0.800017 0.346926 0.173578
0.928771 0.330592 0.153691
1.000000 0.318654 0.137665
0.006809 0.518815 0.223352
0.131082 0.518008 0.214583
0.264068 0.517201 0.208106
0.403843 0.516394 0.207379
0.539212 0.511466 0.204290
0.668027 0.498017 0.188521
0.796648 0.483597 0.170546
0.925075 0.467540 0.150364
1.000000 0.455831 0.133642
0.000000 0.643038 0.210641
0.119623 0.642133 0.197479
0.252156 0.641229 0.190872
0.391204 0.640325 0.190058
0.530197 0.639420 0.189244
0.664985 0.634484 0.185783
0.793279 0.620120 0.167514
0.921379 0.604355 0.147038
1.000000 0.592840 0.129619
0.000000 0.766606 0.202935
0.105544 0.765605 0.177920
0.238053 0.764603 0.171018
0.377132 0.763602 0.170117
0.516164 0.762600 0.169215
0.655150 0.761599 0.168314
0.789910 0.756495 0.164481
0.917683 0.741037 0.143711
1.000000 0.729682 0.125596
0.000000 0.889521 0.195690
0.088846 0.888423 0.155821
0.221514 0.887324 0.148545
0.360952 0.886225 0.147556
0.500348 0.885127 0.146567
0.639702 0.884028 0.145578
0.779015 0.882929 0.144589
0.913987 0.877586 0.140385
1.000000 0.866360 0.121573
0.000000 1.000000 0.188834
0.070587 1.000000 0.132218
0.203416 1.000000 0.124391
0.343298 1.000000 0.123195
0.483130 1.000000 0.121999
0.622913 1.000000 0.120803
0.762648 1.000000 0.119607
0.902333 1.000000 0.118411
1.000000 1.000000 0.117550
0.026216 0.003090 0.380083
0.158916 0.002451 0.379373
0.291564 0.001812 0.378663
0.419515 0.000000 0.373901
0.549799 0.000000 0.368009
0.679890 0.000000 0.363172
0.809785 0.000000 0.358886
0.939487 0.000000 0.354923
1.000000 0.000000 0.352087
0.021722 0.132590 0.377694
0.149739 0.125301 0.376984
0.287108 0.124662 0.376274
0.417126 0.119867 0.369061
0.547084 0.110001 0.356543
0.676847 0.097928 0.342537
0.806416 0.083649 0.326636
0.935790 0.067164 0.308691
1.000000 0.055305 0.295758
0.019572 0.264508 0.375305
0.143933 0.259264 0.374595
0.276909 0.247512 0.373885
0.414738 0.242717 0.361696
0.544368 0.232557 0.345991
0.673805 0.220190 0.330168
0.803047 0.205617 0.312763
0.932094 0.188838 0.293423
1.000000 0.176282 0.278718
0.015344 0.393698 0.370432
0.139705 0.392988 0.368289
0.264066 0.392278 0.362166
0.412349 0.378568 0.344786
0.541653 0.361918 0.331488
0.670762 0.348122 0.315983
0.799677 0.332916 0.298272
0.928398 0.315776 0.278355
1.000000 0.302747 0.262259
0.006562 0.518541 0.357665
0.130836 0.517734 0.352392
0.255109 0.516927 0.341926
0.394853 0.516120 0.332133
0.538937 0.508556 0.329044
0.667720 0.490482 0.313245
0.796308 0.473802 0.295240
0.924702 0.456146 0.275029
1.000000 0.443168 0.258236
0.000000 0.642731 0.344911
0.119347 0.641826 0.335357
0.243533 0.640922 0.323499
0.379697 0.640018 0.314781
0.525210 0.639113 0.313967
0.664678 0.632605 0.310507
0.792939 0.614498 0.292207
0.921006 0.596354 0.271702
1.000000 0.583346 0.254213
0.000000 0.766266 0.335818
0.105238 0.765265 0.316242
0.229337 0.764263 0.303310
0.364386 0.763262 0.294811
0.507991 0.762260 0.293909
0.651536 0.761259 0.293008
0.789570 0.755006 0.289175
0.917310 0.736400 0.268376
1.000000 0.723286 0.250190
0.000000 0.889148 0.327500
0.088510 0.888050 0.294764
0.212521 0.886951 0.280814
0.347193 0.885852 0.272220
0.490200 0.884753 0.271231
0.633157 0.883655 0.270242
0.776062 0.882556 0.269254
0.913614 0.876284 0.265049
1.000000 0.862993 0.246167
0.000000 1.000000 0.319833
0.070181 1.000000 0.271872
0.193985 1.000000 0.256775
0.328522 1.000000 0.247789
0.471437 1.000000 0.246593
0.614282 1.000000 0.245397
0.757057 1.000000 0.244201
0.899764 1.000000 0.243005
1.000000 1.000000 0.242144
0.025818 0.000000 0.505504
0.158370 0.000000 0.504697
0.290489 0.000000 0.503890
0.422174 0.000000 0.503083
0.549525 0.000000 0.498886
0.679582 0.000000 0.493339
0.809445 0.000000 0.488537
0.939113 0.000000 0.484173
1.000000 0.000000 0.481328
0.016010 0.124507 0.502789
0.143778 0.116658 0.501981
0.280494 0.115932 0.501174
0.417152 0.115205 0.500367
0.546810 0.109754 0.492998
0.676540 0.097652 0.479496
0.806076 0.083343 0.464277
0.935417 0.066829 0.447108
1.000000 0.054899 0.435131
0.013566 0.256819 0.500073
0.137839 0.249152 0.499266
0.267582 0.238488 0.498459
0.411328 0.237761 0.497652
0.544094 0.232310 0.487472
0.673498 0.219913 0.470773
0.802706 0.205311 0.453359
0.931721 0.188502 0.434381
1.000000 0.175876 0.420567
0.011122 0.388974 0.497358
0.135395 0.385318 0.496550
0.259669 0.377706 0.495743
0.396870 0.360317 0.494936
0.541379 0.354866 0.477553
0.670455 0.342175 0.457068
0.799337 0.327278 0.437837
0.928025 0.310176 0.417435
1.000000 0.296853 0.401775
0.006315 0.518267 0.491964
0.130589 0.517460 0.490181
0.254862 0.516653 0.487262
0.379136 0.515845 0.478479
0.538663 0.496230 0.453797
0.667413 0.473682 0.437968
0.795968 0.456619 0.419934
0.924329 0.438560 0.399693
1.000000 0.424598 0.382830
0.000000 0.642424 0.479052
0.119070 0.641519 0.473219
0.243256 0.640615 0.466169
0.367442 0.639710 0.451972
0.512911 0.638806 0.438691
0.664370 0.628711 0.435230
0.792599 0.604750 0.416901
0.920633 0.584068 0.396366
1.000000 0.569506 0.378807
0.000000 0.765926 0.468581
0.104932 0.764925 0.454550
0.229031 0.763923 0.445259
0.353129 0.762922 0.429874
0.492948 0.761920 0.418603
0.645051 0.760918 0.417702
0.789229 0.752618 0.413869
0.916937 0.729368 0.393040
1.000000 0.714048 0.374784
0.000000 0.888775 0.459200
0.088174 0.887676 0.433695
0.212186 0.886578 0.422752
0.336197 0.885479 0.406517
0.474093 0.884380 0.395895
0.622847 0.883282 0.394907
0.771535 0.882183 0.393918
0.913240 0.874461 0.389713
1.000000 0.858231 0.370761
0.000000 1.000000 0.450720
0.069774 1.000000 0.411512
0.193579 1.000000 0.399059
0.317383 1.000000 0.381823
0.454424 1.000000 0.371187
0.601783 1.000000 0.369991
0.749036 1.000000 0.368795
0.896183 1.000000 0.367599
1.000000 1.000000 0.366738
0.028387 0.000000 0.630860
0.159991 0.000000 0.629955
0.291211 0.000000 0.629051
0.422049 0.000000 0.628146
0.552503 0.000000 0.627242
0.679275 0.000000 0.623389
0.809105 0.000000 0.618079
0.938740 0.000000 0.613321
1.000000 0.000000 0.610460
0.008207 0.114449 0.627817
0.135965 0.105925 0.626913
0.272878 0.105111 0.626008
0.409741 0.104297 0.625104
0.546556 0.103483 0.624200
0.676233 0.097375 0.616441
0.805736 0.083037 0.601906
0.935044 0.066493 0.585513
1.000000 0.054493 0.574490
0.005469 0.247302 0.624775
0.129655 0.238056 0.623870
0.258686 0.227373 0.622966
0.400132 0.226559 0.622062
0.541511 0.225745 0.621157
0.673190 0.219637 0.611360
0.802366 0.205005 0.593938
0.931348 0.188166 0.575326
1.000000 0.175470 0.562397
0.002731 0.380018 0.621732
0.126917 0.373873 0.620828
0.251103 0.363432 0.619924
0.382886 0.348820 0.619019
0.534137 0.348007 0.618115
0.670148 0.341899 0.604493
0.798997 0.326972 0.583167
0.927652 0.309840 0.562106
1.000000 0.296447 0.547069
0.000000 0.512598 0.618690
0.124179 0.509513 0.617786
0.248365 0.504642 0.616881
0.372551 0.494264 0.615977
0.514732 0.470268 0.615072
0.667106 0.464161 0.591647
0.795628 0.448940 0.565904
0.923956 0.431513 0.543078
1.000000 0.417424 0.526074
0.000000 0.642116 0.613062
0.118794 0.641212 0.611064
0.242980 0.640308 0.608816
0.367166 0.639403 0.605006
0.491352 0.638499 0.593124
0.664063 0.612009 0.559954
0.792259 0.582940 0.541595
0.920260 0.562474 0.521030
1.000000 0.547226 0.503401
0.000000 0.765586 0.601226
0.104626 0.764585 0.592843
0.228725 0.763583 0.587190
0.352823 0.762581 0.578118
0.476922 0.761580 0.559661
0.628964 0.760578 0.542396
0.788889 0.747605 0.538563
0.916563 0.717134 0.517704
1.000000 0.699316 0.499378
0.000000 0.888402 0.590788
0.087839 0.887303 0.572613
0.211850 0.886205 0.564674
0.335861 0.885106 0.553059
0.459872 0.884007 0.533710
0.603823 0.882908 0.519571
0.763364 0.881810 0.518582
0.912867 0.871504 0.514377
1.000000 0.850787 0.495355
0.000000 1.000000 0.581495
0.069368 1.000000 0.551136
0.193172 1.000000 0.541323
0.316977 1.000000 0.527850
0.440781 1.000000 0.507758
0.581851 1.000000 0.494585
0.736346 1.000000 0.493389
0.890662 1.000000 0.492193
1.000000 1.000000 0.491332
0.031048 0.000000 0.756149
0.162024 0.000000 0.755147
0.292649 0.000000 0.754146
0.422924 0.000000 0.753144
0.552849 0.000000 0.752143
0.682424 0.000000 0.751141
0.808765 0.000000 0.747513
0.938367 0.000000 0.742367
1.000000 0.000000 0.739484
0.000000 0.103815 0.752780
0.126150 0.093100 0.751778
0.263566 0.092199 0.750777
0.400941 0.091298 0.749775
0.538273 0.090396 0.748774
0.675562 0.089495 0.747772
0.805395 0.082731 0.739521
0.934671 0.066157 0.723907
1.000000 0.054087 0.713834
0.000000 0.239037 0.749411
0.119381 0.225228 0.748409
0.248187 0.214167 0.747407
0.389067 0.213265 0.746406
0.529893 0.212364 0.745404
0.670665 0.211462 0.744403
0.802026 0.204699 0.734502
0.930975 0.187830 0.716257
1.000000 0.175064 0.704208
0.000000 0.373021 0.746041
0.116348 0.361176 0.745040
0.240447 0.349156 0.744038
0.370940 0.335233 0.743037
0.517828 0.334332 0.742035
0.664643 0.333430 0.741033
0.798657 0.326666 0.728477
0.927279 0.309504 0.706759
1.000000 0.296041 0.692336
0.000000 0.505766 0.742672
0.113316 0.496973 0.741670
0.237414 0.489042 0.740669
0.361513 0.475431 0.739667
0.495652 0.456299 0.738666
0.655536 0.455398 0.737664
0.795288 0.448634 0.720123
0.923583 0.431177 0.693725
1.000000 0.417018 0.676533
0.000000 0.637272 0.739303
0.110284 0.632618 0.738301
0.234382 0.628731 0.737300
0.358481 0.622480 0.736298
0.482579 0.608938 0.735297
0.630494 0.577365 0.734295
0.791918 0.570602 0.703979
0.919886 0.552851 0.672499
1.000000 0.537995 0.652856
0.000000 0.765246 0.733752
0.104320 0.764244 0.731121
0.228419 0.763243 0.729103
0.352517 0.762241 0.726337
0.476616 0.761240 0.721519
0.600714 0.760238 0.706100
0.788549 0.725903 0.663257
0.916190 0.689693 0.642368
1.000000 0.671652 0.623972
0.000000 0.888029 0.722266
0.087503 0.886930 0.711517
0.211514 0.885831 0.706581
0.335525 0.884733 0.699580
0.459536 0.883634 0.688241
0.583547 0.882535 0.664993
0.743011 0.881437 0.643246
0.912494 0.865236 0.639042
1.000000 0.837081 0.619949
0.000000 1.000000 0.712160
0.068962 1.000000 0.690746
0.192766 1.000000 0.683567
0.316570 1.000000 0.673848
0.440375 1.000000 0.659537
0.564179 1.000000 0.635557
0.712804 1.000000 0.617983
0.880640 1.000000 0.616787
1.000000 1.000000 0.615926
0.033762 0.000000 0.881372
0.164286 0.000000 0.880274
0.294483 0.000000 0.879175
0.424353 0.000000 0.878076
0.553896 0.000000 0.876978
0.683112 0.000000 0.875879
0.812002 0.000000 0.874780
0.937994 0.000000 0.871309
1.000000 0.000000 0.868400
0.000000 0.100333 0.877676
0.114285 0.078185 0.876578
0.252353 0.077197 0.875479
0.390383 0.076208 0.874380
0.528375 0.075219 0.873281
0.666328 0.074230 0.872183
0.804243 0.073241 0.871084
0.934298 0.065821 0.862288
1.000000 0.053681 0.853164
0.000000 0.234748 0.873980
0.107015 0.210471 0.872881
0.235776 0.198870 0.871783
0.376721 0.197881 0.870684
0.517620 0.196892 0.869585
0.658472 0.195904 0.868487
0.799277 0.194915 0.867388
0.930602 0.187495 0.857173
1.000000 0.174658 0.845999
0.000000 0.368015 0.870284
0.103689 0.346766 0.869185
0.227700 0.333468 0.868087
0.357702 0.319555 0.866988
0.503070 0.318566 0.865889
0.648379 0.317577 0.864790
0.793629 0.316588 0.863692
0.926906 0.309168 0.851396
1.000000 0.295635 0.837575
0.000000 0.500134 0.866588
0.100362 0.482926 0.865489
0.224373 0.472948 0.864390
0.348384 0.457809 0.863292
0.480539 0.440239 0.862193
0.633583 0.439251 0.861094
0.786547 0.438262 0.859996
0.923209 0.430842 0.844349
1.000000 0.416612 0.826949
0.000000 0.631105 0.862892
0.097036 0.618949 0.861793
0.221047 0.612262 0.860694
0.345058 0.602327 0.859596
0.469069 0.585148 0.858497
0.605881 0.560924 0.857398
0.775525 0.559935 0.856300
0.919513 0.552515 0.834362
1.000000 0.537589 0.811914
0.000000 0.760929 0.859196
0.093709 0.754837 0.858097
0.217720 0.751410 0.856998
0.341731 0.746630 0.855900
0.465743 0.738831 0.854801
0.589754 0.721728 0.853702
0.744157 0.681609 0.852603
0.915817 0.674189 0.814548
1.000000 0.658566 0.785843
0.000000 0.887656 0.853632
0.087167 0.886557 0.850409
0.211178 0.885458 0.848471
0.335189 0.884360 0.846082
0.459200 0.883261 0.842744
0.583212 0.882162 0.836803
0.707223 0.881064 0.817408
0.912121 0.837913 0.763706
1.000000 0.802057 0.744543
0.000000 1.000000 0.842713
0.068556 1.000000 0.830342
0.192360 1.000000 0.825790
0.316164 1.000000 0.819815
0.439968 1.000000 0.811268
0.563773 1.000000 0.797308
0.687577 1.000000 0.768468
0.855512 1.000000 0.741381
1.000000 1.000000 0.740520
0.036517 0.000000 1.000000
0.166725 0.000000 1.000000
0.296609 0.000000 1.000000
0.426170 0.000000 1.000000
0.555409 0.000000 1.000000
0.684328 0.000000 1.000000
0.812946 0.000000 0.999355
0.941269 0.000000 0.998159
1.000000 0.000000 0.997208
0.000000 0.097036 1.000000
0.100484 0.061311 1.000000
0.239165 0.060115 1.000000
0.377919 0.059027 0.998919
0.516649 0.057951 0.997723
0.655344 0.056875 0.996527
0.794003 0.055798 0.995332
0.932627 0.054722 0.994136
1.000000 0.053275 0.992480
0.000000 0.230832 0.998484
0.092559 0.193709 0.997288
0.221359 0.181483 0.996092
0.362670 0.180407 0.994896
0.503939 0.179330 0.993700
0.645167 0.178254 0.992504
0.786353 0.177178 0.991309
0.927496 0.176101 0.990113
1.000000 0.174252 0.987771
0.000000 0.363566 0.994461
0.088938 0.330467 0.993265
0.212862 0.315993 0.992069
0.342664 0.301786 0.990873
0.487548 0.300710 0.989677
0.632382 0.299633 0.988482
0.777165 0.298557 0.987286
0.921897 0.297481 0.986090
1.000000 0.295229 0.982786
0.000000 0.495219 0.990438
0.085318 0.467099 0.989242
0.209242 0.455481 0.988046
0.333165 0.439168 0.986850
0.464508 0.422089 0.985654
0.614886 0.421013 0.984459
0.765201 0.419936 0.983263
0.915451 0.418860 0.982067
1.000000 0.416206 0.977321
0.000000 0.625790 0.986415
0.081697 0.603607 0.985219
0.205621 0.594822 0.984023
0.329545 0.582618 0.982827
0.453468 0.564014 0.981631
0.587485 0.542392 0.980435
0.747398 0.541316 0.979240
0.907222 0.540239 0.978044
1.000000 0.537183 0.970894
0.000000 0.755280 0.982392
0.078076 0.739990 0.981196
0.202000 0.734015 0.980000
0.325924 0.725887 0.978804
0.449848 0.713728 0.977608
0.573771 0.692583 0.976412
0.713571 0.662695 0.975217
0.894104 0.661619 0.974021
1.000000 0.658160 0.962061
0.000000 0.883688 0.978369
0.074456 0.876248 0.977173
0.198379 0.873060 0.975977
0.322303 0.868974 0.974781
0.446227 0.863208 0.973585
0.570151 0.853696 0.972390
0.694074 0.832634 0.971194
0.855720 0.782998 0.969998
1.000000 0.779137 0.943601
0.000000 1.000000 0.973155
0.068150 1.000000 0.969922
0.191954 1.000000 0.967993
0.315758 1.000000 0.965753
0.439562 1.000000 0.962952
0.563366 1.000000 0.958969
0.687171 1.000000 0.951745
0.810975 1.000000 0.927755
1.000000 1.000000 0.865114
