luts/original/luxury-matte-black.cube
TITLE "Luxury Matte Black"
LUT_3D_SIZE 5
DOMAIN_MIN 0.0 0.0 0.0
DOMAIN_MAX 1.0 1.0 1.0
0.000000 0.000000 0.000000
0.234625 0.000000 0.000000
0.459500 0.000000 0.000000
0.674625 0.000000 0.000000
0.880000 0.000000 0.000000
0.000000 0.232063 0.000000
0.234625 0.232063 0.000000
0.459500 0.226375 0.000000
0.674625 0.220688 0.000000
0.880000 0.215000 0.000000
0.000000 0.452750 0.000000
0.229750 0.452750 0.000000
0.459500 0.452750 0.000000
0.674625 0.441375 0.000000
0.880000 0.430000 0.000000
0.000000 0.662062 0.000000
0.224875 0.662062 0.000000
0.449750 0.662062 0.000000
0.674625 0.662062 0.000000
0.880000 0.645000 0.000000
0.000000 0.860000 0.000000
0.220000 0.860000 0.000000
0.440000 0.860000 0.000000
0.660000 0.860000 0.000000
0.880000 0.860000 0.000000
0.000000 0.000000 0.229500
0.234625 0.000000 0.229500
0.459500 0.000000 0.223000
0.674625 0.000000 0.216500
0.880000 0.000000 0.210000
0.000000 0.232063 0.229500
0.234625 0.232063 0.229500
0.459500 0.226375 0.223000
0.674625 0.220688 0.216500
0.880000 0.215000 0.210000
0.000000 0.452750 0.223000
0.229750 0.452750 0.223000
0.459500 0.452750 0.223000
0.674625 0.441375 0.216500
0.880000 0.430000 0.210000
0.000000 0.662062 0.216500
0.224875 0.662062 0.216500
0.449750 0.662062 0.216500
0.674625 0.662062 0.216500
0.880000 0.645000 0.210000
0.000000 0.860000 0.210000
0.220000 0.860000 0.210000
0.440000 0.860000 0.210000
0.660000 0.860000 0.210000
0.880000 0.860000 0.210000
0.000000 0.000000 0.446000
0.229750 0.000000 0.446000
0.459500 0.000000 0.446000
0.674625 0.000000 0.433000
0.880000 0.000000 0.420000
0.000000 0.226375 0.446000
0.229750 0.226375 0.446000
0.459500 0.226375 0.446000
0.674625 0.220688 0.433000
0.880000 0.215000 0.420000
0.000000 0.452750 0.446000
0.229750 0.452750 0.446000
0.459500 0.452750 0.446000
0.674625 0.441375 0.433000
0.880000 0.430000 0.420000
0.000000 0.662062 0.433000
0.224875 0.662062 0.433000
0.449750 0.662062 0.433000
0.674625 0.662062 0.433000
0.880000 0.645000 0.420000
0.000000 0.860000 0.420000
0.220000 0.860000 0.420000
0.440000 0.860000 0.420000
0.660000 0.860000 0.420000
0.880000 0.860000 0.420000
0.000000 0.000000 0.649500
0.224875 0.000000 0.649500
0.449750 0.000000 0.649500
0.674625 0.000000 0.649500
0.880000 0.000000 0.630000
0.000000 0.220688 0.649500
0.224875 0.220688 0.649500
0.449750 0.220688 0.649500
0.674625 0.220688 0.649500
0.880000 0.215000 0.630000
0.000000 0.441375 0.649500
0.224875 0.441375 0.649500
0.449750 0.441375 0.649500
0.674625 0.441375 0.649500
0.880000 0.430000 0.630000
0.000000 0.662062 0.649500
0.224875 0.662062 0.649500
0.449750 0.662062 0.649500
0.674625 0.662062 0.649500
0.880000 0.645000 0.630000
0.000000 0.860000 0.630000
0.220000 0.860000 0.630000
0.440000 0.860000 0.630000
0.660000 0.860000 0.630000
0.880000 0.860000 0.630000
0.000000 0.000000 0.840000
0.220000 0.000000 0.840000
0.440000 0.000000 0.840000
0.660000 0.000000 0.840000
0.880000 0.000000 0.840000
0.000000 0.215000 0.840000
0.220000 0.215000 0.840000
0.440000 0.215000 0.840000
0.660000 0.215000 0.840000
0.880000 0.215000 0.840000
0.000000 0.430000 0.840000
0.220000 0.430000 0.840000
0.440000 0.430000 0.840000
0.660000 0.430000 0.840000
0.880000 0.430000 0.840000
0.000000 0.645000 0.840000
0.220000 0.645000 0.840000
0.440000 0.645000 0.840000
0.660000 0.645000 0.840000
0.880000 0.645000 0.840000
0.000000 0.860000 0.840000
0.220000 0.860000 0.840000
0.440000 0.860000 0.840000
0.660000 0.860000 0.840000
0.880000 0.860000 0.840000
