luts/original/luxury-matte-black.cube
TITLE "Luxury Matte Black"
LUT_3D_SIZE 33
DOMAIN_MIN 0.0 0.0 0.0
DOMAIN_MAX 1.0 1.0 1.0
0.000000 0.000000 0.000000
0.029861 0.000000 0.000000
0.059570 0.000000 0.000000
0.089127 0.000000 0.000000
0.118531 0.000000 0.000000
0.147783 0.000000 0.000000
0.176883 0.000000 0.000000
0.205830 0.000000 0.000000
0.234625 0.000000 0.000000
0.263268 0.000000 0.000000
0.291758 0.000000 0.000000
0.320096 0.000000 0.000000
0.348281 0.000000 0.000000
0.376314 0.000000 0.000000
0.404195 0.000000 0.000000
0.431924 0.000000 0.000000
0.459500 0.000000 0.000000
0.486924 0.000000 0.000000
0.514195 0.000000 0.000000
0.541314 0.000000 0.000000
0.568281 0.000000 0.000000
0.595096 0.000000 0.000000
0.621758 0.000000 0.000000
0.648268 0.000000 0.000000
0.674625 0.000000 0.000000
0.700830 0.000000 0.000000
0.726883 0.000000 0.000000
0.752783 0.000000 0.000000
0.778531 0.000000 0.000000
0.804127 0.000000 0.000000
0.829570 0.000000 0.000000
0.854861 0.000000 0.000000
0.880000 0.000000 0.000000
0.000000 0.029630 0.000000
0.029861 0.029630 0.000000
0.059570 0.029541 0.000000
0.089127 0.029452 0.000000
0.118531 0.029363 0.000000
0.147783 0.029274 0.000000
0.176883 0.029186 0.000000
0.205830 0.029097 0.000000
0.234625 0.029008 0.000000
0.263268 0.028919 0.000000
0.291758 0.028830 0.000000
0.320096 0.028741 0.000000
0.348281 0.028652 0.000000
0.376314 0.028563 0.000000
0.404195 0.028475 0.000000
0.431924 0.028386 0.000000
0.459500 0.028297 0.000000
0.486924 0.028208 0.000000
0.514195 0.028119 0.000000
0.541314 0.028030 0.000000
0.568281 0.027941 0.000000
0.595096 0.027853 0.000000
0.621758 0.027764 0.000000
0.648268 0.027675 0.000000
0.674625 0.027586 0.000000
0.700830 0.027497 0.000000
0.726883 0.027408 0.000000
0.752783 0.027319 0.000000
0.778531 0.027230 0.000000
0.804127 0.027142 0.000000
0.829570 0.027053 0.000000
0.854861 0.026964 0.000000
0.880000 0.026875 0.000000
0.000000 0.059082 0.000000
0.029785 0.059082 0.000000
0.059570 0.059082 0.000000
0.089127 0.058904 0.000000
0.118531 0.058727 0.000000
0.147783 0.058549 0.000000
0.176883 0.058371 0.000000
0.205830 0.058193 0.000000
0.234625 0.058016 0.000000
0.263268 0.057838 0.000000
0.291758 0.057660 0.000000
0.320096 0.057482 0.000000
0.348281 0.057305 0.000000
0.376314 0.057127 0.000000
0.404195 0.056949 0.000000
0.431924 0.056771 0.000000
0.459500 0.056594 0.000000
0.486924 0.056416 0.000000
0.514195 0.056238 0.000000
0.541314 0.056061 0.000000
0.568281 0.055883 0.000000
0.595096 0.055705 0.000000
0.621758 0.055527 0.000000
0.648268 0.055350 0.000000
0.674625 0.055172 0.000000
0.700830 0.054994 0.000000
0.726883 0.054816 0.000000
0.752783 0.054639 0.000000
0.778531 0.054461 0.000000
0.804127 0.054283 0.000000
0.829570 0.054105 0.000000
0.854861 0.053928 0.000000
0.880000 0.053750 0.000000
0.000000 0.088356 0.000000
0.029709 0.088356 0.000000
0.059418 0.088356 0.000000
0.089127 0.088356 0.000000
0.118531 0.088090 0.000000
0.147783 0.087823 0.000000
0.176883 0.087557 0.000000
0.205830 0.087290 0.000000
0.234625 0.087023 0.000000
0.263268 0.086757 0.000000
0.291758 0.086490 0.000000
0.320096 0.086224 0.000000
0.348281 0.085957 0.000000
0.376314 0.085690 0.000000
0.404195 0.085424 0.000000
0.431924 0.085157 0.000000
0.459500 0.084891 0.000000
0.486924 0.084624 0.000000
0.514195 0.084357 0.000000
0.541314 0.084091 0.000000
0.568281 0.083824 0.000000
0.595096 0.083558 0.000000
0.621758 0.083291 0.000000
0.648268 0.083024 0.000000
0.674625 0.082758 0.000000
0.700830 0.082491 0.000000
0.726883 0.082225 0.000000
0.752783 0.081958 0.000000
0.778531 0.081691 0.000000
0.804127 0.081425 0.000000
0.829570 0.081158 0.000000
0.854861 0.080892 0.000000
0.880000 0.080625 0.000000
0.000000 0.117453 0.000000
0.029633 0.117453 0.000000
0.059266 0.117453 0.000000
0.088898 0.117453 0.000000
0.118531 0.117453 0.000000
0.147783 0.117098 0.000000
0.176883 0.116742 0.000000
0.205830 0.116387 0.000000
0.234625 0.116031 0.000000
0.263268 0.115676 0.000000
0.291758 0.115320 0.000000
0.320096 0.114965 0.000000
0.348281 0.114609 0.000000
0.376314 0.114254 0.000000
0.404195 0.113898 0.000000
0.431924 0.113543 0.000000
0.459500 0.113187 0.000000
0.486924 0.112832 0.000000
0.514195 0.112477 0.000000
0.541314 0.112121 0.000000
0.568281 0.111766 0.000000
0.595096 0.111410 0.000000
0.621758 0.111055 0.000000
0.648268 0.110699 0.000000
0.674625 0.110344 0.000000
0.700830 0.109988 0.000000
0.726883 0.109633 0.000000
0.752783 0.109277 0.000000
0.778531 0.108922 0.000000
0.804127 0.108566 0.000000
0.829570 0.108211 0.000000
0.854861 0.107855 0.000000
0.880000 0.107500 0.000000
0.000000 0.146372 0.000000
0.029557 0.146372 0.000000
0.059113 0.146372 0.000000
0.088670 0.146372 0.000000
0.118227 0.146372 0.000000
0.147783 0.146372 0.000000
0.176883 0.145928 0.000000
0.205830 0.145483 0.000000
0.234625 0.145039 0.000000
0.263268 0.144595 0.000000
0.291758 0.144150 0.000000
0.320096 0.143706 0.000000
0.348281 0.143262 0.000000
0.376314 0.142817 0.000000
0.404195 0.142373 0.000000
0.431924 0.141929 0.000000
0.459500 0.141484 0.000000
0.486924 0.141040 0.000000
0.514195 0.140596 0.000000
0.541314 0.140151 0.000000
0.568281 0.139707 0.000000
0.595096 0.139263 0.000000
0.621758 0.138818 0.000000
0.648268 0.138374 0.000000
0.674625 0.137930 0.000000
0.700830 0.137485 0.000000
0.726883 0.137041 0.000000
0.752783 0.136597 0.000000
0.778531 0.136152 0.000000
0.804127 0.135708 0.000000
0.829570 0.135264 0.000000
0.854861 0.134819 0.000000
0.880000 0.134375 0.000000
0.000000 0.175113 0.000000
0.029480 0.175113 0.000000
0.058961 0.175113 0.000000
0.088441 0.175113 0.000000
0.117922 0.175113 0.000000
0.147402 0.175113 0.000000
0.176883 0.175113 0.000000
0.205830 0.174580 0.000000
0.234625 0.174047 0.000000
0.263268 0.173514 0.000000
0.291758 0.172980 0.000000
0.320096 0.172447 0.000000
0.348281 0.171914 0.000000
0.376314 0.171381 0.000000
0.404195 0.170848 0.000000
0.431924 0.170314 0.000000
0.459500 0.169781 0.000000
0.486924 0.169248 0.000000
0.514195 0.168715 0.000000
0.541314 0.168182 0.000000
0.568281 0.167648 0.000000
0.595096 0.167115 0.000000
0.621758 0.166582 0.000000
0.648268 0.166049 0.000000
0.674625 0.165516 0.000000
0.700830 0.164982 0.000000
0.726883 0.164449 0.000000
0.752783 0.163916 0.000000
0.778531 0.163383 0.000000
0.804127 0.162850 0.000000
0.829570 0.162316 0.000000
0.854861 0.161783 0.000000
0.880000 0.161250 0.000000
0.000000 0.203677 0.000000
0.029404 0.203677 0.000000
0.058809 0.203677 0.000000
0.088213 0.203677 0.000000
0.117617 0.203677 0.000000
0.147021 0.203677 0.000000
0.176426 0.203677 0.000000
0.205830 0.203677 0.000000
0.234625 0.203055 0.000000
0.263268 0.202433 0.000000
0.291758 0.201811 0.000000
0.320096 0.201188 0.000000
0.348281 0.200566 0.000000
0.376314 0.199944 0.000000
0.404195 0.199322 0.000000
0.431924 0.198700 0.000000
0.459500 0.198078 0.000000
0.486924 0.197456 0.000000
0.514195 0.196834 0.000000
0.541314 0.196212 0.000000
0.568281 0.195590 0.000000
0.595096 0.194968 0.000000
0.621758 0.194346 0.000000
0.648268 0.193724 0.000000
0.674625 0.193102 0.000000
0.700830 0.192479 0.000000
0.726883 0.191857 0.000000
0.752783 0.191235 0.000000
0.778531 0.190613 0.000000
0.804127 0.189991 0.000000
0.829570 0.189369 0.000000
0.854861 0.188747 0.000000
0.880000 0.188125 0.000000
0.000000 0.232063 0.000000
0.029328 0.232063 0.000000
0.058656 0.232063 0.000000
0.087984 0.232063 0.000000
0.117313 0.232063 0.000000
0.146641 0.232063 0.000000
0.175969 0.232063 0.000000
0.205297 0.232063 0.000000
0.234625 0.232063 0.000000
0.263268 0.231352 0.000000
0.291758 0.230641 0.000000
0.320096 0.229930 0.000000
0.348281 0.229219 0.000000
0.376314 0.228508 0.000000
0.404195 0.227797 0.000000
0.431924 0.227086 0.000000
0.459500 0.226375 0.000000
0.486924 0.225664 0.000000
0.514195 0.224953 0.000000
0.541314 0.224242 0.000000
0.568281 0.223531 0.000000
0.595096 0.222820 0.000000
0.621758 0.222109 0.000000
0.648268 0.221398 0.000000
0.674625 0.220688 0.000000
0.700830 0.219977 0.000000
0.726883 0.219266 0.000000
0.752783 0.218555 0.000000
0.778531 0.217844 0.000000
0.804127 0.217133 0.000000
0.829570 0.216422 0.000000
0.854861 0.215711 0.000000
0.880000 0.215000 0.000000
0.000000 0.260271 0.000000
0.029252 0.260271 0.000000
0.058504 0.260271 0.000000
0.087756 0.260271 0.000000
0.117008 0.260271 0.000000
0.146260 0.260271 0.000000
0.175512 0.260271 0.000000
0.204764 0.260271 0.000000
0.234016 0.260271 0.000000
0.263268 0.260271 0.000000
0.291758 0.259471 0.000000
0.320096 0.258671 0.000000
0.348281 0.257871 0.000000
0.376314 0.257071 0.000000
0.404195 0.256271 0.000000
0.431924 0.255472 0.000000
0.459500 0.254672 0.000000
0.486924 0.253872 0.000000
0.514195 0.253072 0.000000
0.541314 0.252272 0.000000
0.568281 0.251473 0.000000
0.595096 0.250673 0.000000
0.621758 0.249873 0.000000
0.648268 0.249073 0.000000
0.674625 0.248273 0.000000
0.700830 0.247474 0.000000
0.726883 0.246674 0.000000
0.752783 0.245874 0.000000
0.778531 0.245074 0.000000
0.804127 0.244274 0.000000
0.829570 0.243475 0.000000
0.854861 0.242675 0.000000
0.880000 0.241875 0.000000
0.000000 0.288301 0.000000
0.029176 0.288301 0.000000
0.058352 0.288301 0.000000
0.087527 0.288301 0.000000
0.116703 0.288301 0.000000
0.145879 0.288301 0.000000
0.175055 0.288301 0.000000
0.204230 0.288301 0.000000
0.233406 0.288301 0.000000
0.262582 0.288301 0.000000
0.291758 0.288301 0.000000
0.320096 0.287412 0.000000
0.348281 0.286523 0.000000
0.376314 0.285635 0.000000
0.404195 0.284746 0.000000
0.431924 0.283857 0.000000
0.459500 0.282969 0.000000
0.486924 0.282080 0.000000
0.514195 0.281191 0.000000
0.541314 0.280303 0.000000
0.568281 0.279414 0.000000
0.595096 0.278525 0.000000
0.621758 0.277637 0.000000
0.648268 0.276748 0.000000
0.674625 0.275859 0.000000
0.700830 0.274971 0.000000
0.726883 0.274082 0.000000
0.752783 0.273193 0.000000
0.778531 0.272305 0.000000
0.804127 0.271416 0.000000
0.829570 0.270527 0.000000
0.854861 0.269639 0.000000
0.880000 0.268750 0.000000
0.000000 0.316153 0.000000
0.029100 0.316153 0.000000
0.058199 0.316153 0.000000
0.087299 0.316153 0.000000
0.116398 0.316153 0.000000
0.145498 0.316153 0.000000
0.174598 0.316153 0.000000
0.203697 0.316153 0.000000
0.232797 0.316153 0.000000
0.261896 0.316153 0.000000
0.290996 0.316153 0.000000
0.320096 0.316153 0.000000
0.348281 0.315176 0.000000
0.376314 0.314198 0.000000
0.404195 0.313221 0.000000
0.431924 0.312243 0.000000
0.459500 0.311266 0.000000
0.486924 0.310288 0.000000
0.514195 0.309311 0.000000
0.541314 0.308333 0.000000
0.568281 0.307355 0.000000
0.595096 0.306378 0.000000
0.621758 0.305400 0.000000
0.648268 0.304423 0.000000
0.674625 0.303445 0.000000
0.700830 0.302468 0.000000
0.726883 0.301490 0.000000
0.752783 0.300513 0.000000
0.778531 0.299535 0.000000
0.804127 0.298558 0.000000
0.829570 0.297580 0.000000
0.854861 0.296603 0.000000
0.880000 0.295625 0.000000
0.000000 0.343828 0.000000
0.029023 0.343828 0.000000
0.058047 0.343828 0.000000
0.087070 0.343828 0.000000
0.116094 0.343828 0.000000
0.145117 0.343828 0.000000
0.174141 0.343828 0.000000
0.203164 0.343828 0.000000
0.232187 0.343828 0.000000
0.261211 0.343828 0.000000
0.290234 0.343828 0.000000
0.319258 0.343828 0.000000
0.348281 0.343828 0.000000
0.376314 0.342762 0.000000
0.404195 0.341695 0.000000
0.431924 0.340629 0.000000
0.459500 0.339562 0.000000
0.486924 0.338496 0.000000
0.514195 0.337430 0.000000
0.541314 0.336363 0.000000
0.568281 0.335297 0.000000
0.595096 0.334230 0.000000
0.621758 0.333164 0.000000
0.648268 0.332098 0.000000
0.674625 0.331031 0.000000
0.700830 0.329965 0.000000
0.726883 0.328898 0.000000
0.752783 0.327832 0.000000
0.778531 0.326766 0.000000
0.804127 0.325699 0.000000
0.829570 0.324633 0.000000
0.854861 0.323566 0.000000
0.880000 0.322500 0.000000
0.000000 0.371325 0.000000
0.028947 0.371325 0.000000
0.057895 0.371325 0.000000
0.086842 0.371325 0.000000
0.115789 0.371325 0.000000
0.144736 0.371325 0.000000
0.173684 0.371325 0.000000
0.202631 0.371325 0.000000
0.231578 0.371325 0.000000
0.260525 0.371325 0.000000
0.289473 0.371325 0.000000
0.318420 0.371325 0.000000
0.347367 0.371325 0.000000
0.376314 0.371325 0.000000
0.404195 0.370170 0.000000
0.431924 0.369015 0.000000
0.459500 0.367859 0.000000
0.486924 0.366704 0.000000
0.514195 0.365549 0.000000
0.541314 0.364394 0.000000
0.568281 0.363238 0.000000
0.595096 0.362083 0.000000
0.621758 0.360928 0.000000
0.648268 0.359772 0.000000
0.674625 0.358617 0.000000
0.700830 0.357462 0.000000
0.726883 0.356307 0.000000
0.752783 0.355151 0.000000
0.778531 0.353996 0.000000
0.804127 0.352841 0.000000
0.829570 0.351686 0.000000
0.854861 0.350530 0.000000
0.880000 0.349375 0.000000
0.000000 0.398645 0.000000
0.028871 0.398645 0.000000
0.057742 0.398645 0.000000
0.086613 0.398645 0.000000
0.115484 0.398645 0.000000
0.144355 0.398645 0.000000
0.173227 0.398645 0.000000
0.202098 0.398645 0.000000
0.230969 0.398645 0.000000
0.259840 0.398645 0.000000
0.288711 0.398645 0.000000
0.317582 0.398645 0.000000
0.346453 0.398645 0.000000
0.375324 0.398645 0.000000
0.404195 0.398645 0.000000
0.431924 0.397400 0.000000
0.459500 0.396156 0.000000
0.486924 0.394912 0.000000
0.514195 0.393668 0.000000
0.541314 0.392424 0.000000
0.568281 0.391180 0.000000
0.595096 0.389936 0.000000
0.621758 0.388691 0.000000
0.648268 0.387447 0.000000
0.674625 0.386203 0.000000
0.700830 0.384959 0.000000
0.726883 0.383715 0.000000
0.752783 0.382471 0.000000
0.778531 0.381227 0.000000
0.804127 0.379982 0.000000
0.829570 0.378738 0.000000
0.854861 0.377494 0.000000
0.880000 0.376250 0.000000
0.000000 0.425786 0.000000
0.028795 0.425786 0.000000
0.057590 0.425786 0.000000
0.086385 0.425786 0.000000
0.115180 0.425786 0.000000
0.143975 0.425786 0.000000
0.172770 0.425786 0.000000
0.201564 0.425786 0.000000
0.230359 0.425786 0.000000
0.259154 0.425786 0.000000
0.287949 0.425786 0.000000
0.316744 0.425786 0.000000
0.345539 0.425786 0.000000
0.374334 0.425786 0.000000
0.403129 0.425786 0.000000
0.431924 0.425786 0.000000
0.459500 0.424453 0.000000
0.486924 0.423120 0.000000
0.514195 0.421787 0.000000
0.541314 0.420454 0.000000
0.568281 0.419121 0.000000
0.595096 0.417788 0.000000
0.621758 0.416455 0.000000
0.648268 0.415122 0.000000
0.674625 0.413789 0.000000
0.700830 0.412456 0.000000
0.726883 0.411123 0.000000
0.752783 0.409790 0.000000
0.778531 0.408457 0.000000
0.804127 0.407124 0.000000
0.829570 0.405791 0.000000
0.854861 0.404458 0.000000
0.880000 0.403125 0.000000
0.000000 0.452750 0.000000
0.028719 0.452750 0.000000
0.057438 0.452750 0.000000
0.086156 0.452750 0.000000
0.114875 0.452750 0.000000
0.143594 0.452750 0.000000
0.172313 0.452750 0.000000
0.201031 0.452750 0.000000
0.229750 0.452750 0.000000
0.258469 0.452750 0.000000
0.287188 0.452750 0.000000
0.315906 0.452750 0.000000
0.344625 0.452750 0.000000
0.373344 0.452750 0.000000
0.402062 0.452750 0.000000
0.430781 0.452750 0.000000
0.459500 0.452750 0.000000
0.486924 0.451328 0.000000
0.514195 0.449906 0.000000
0.541314 0.448484 0.000000
0.568281 0.447062 0.000000
0.595096 0.445641 0.000000
0.621758 0.444219 0.000000
0.648268 0.442797 0.000000
0.674625 0.441375 0.000000
0.700830 0.439953 0.000000
0.726883 0.438531 0.000000
0.752783 0.437109 0.000000
0.778531 0.435688 0.000000
0.804127 0.434266 0.000000
0.829570 0.432844 0.000000
0.854861 0.431422 0.000000
0.880000 0.430000 0.000000
0.000000 0.479536 0.000000
0.028643 0.479536 0.000000
0.057285 0.479536 0.000000
0.085928 0.479536 0.000000
0.114570 0.479536 0.000000
0.143213 0.479536 0.000000
0.171855 0.479536 0.000000
0.200498 0.479536 0.000000
0.229141 0.479536 0.000000
0.257783 0.479536 0.000000
0.286426 0.479536 0.000000
0.315068 0.479536 0.000000
0.343711 0.479536 0.000000
0.372354 0.479536 0.000000
0.400996 0.479536 0.000000
0.429639 0.479536 0.000000
0.458281 0.479536 0.000000
0.486924 0.479536 0.000000
0.514195 0.478025 0.000000
0.541314 0.476515 0.000000
0.568281 0.475004 0.000000
0.595096 0.473493 0.000000
0.621758 0.471982 0.000000
0.648268 0.470472 0.000000
0.674625 0.468961 0.000000
0.700830 0.467450 0.000000
0.726883 0.465939 0.000000
0.752783 0.464429 0.000000
0.778531 0.462918 0.000000
0.804127 0.461407 0.000000
0.829570 0.459896 0.000000
0.854861 0.458386 0.000000
0.880000 0.456875 0.000000
0.000000 0.506145 0.000000
0.028566 0.506145 0.000000
0.057133 0.506145 0.000000
0.085699 0.506145 0.000000
0.114266 0.506145 0.000000
0.142832 0.506145 0.000000
0.171398 0.506145 0.000000
0.199965 0.506145 0.000000
0.228531 0.506145 0.000000
0.257098 0.506145 0.000000
0.285664 0.506145 0.000000
0.314230 0.506145 0.000000
0.342797 0.506145 0.000000
0.371363 0.506145 0.000000
0.399930 0.506145 0.000000
0.428496 0.506145 0.000000
0.457062 0.506145 0.000000
0.485629 0.506145 0.000000
0.514195 0.506145 0.000000
0.541314 0.504545 0.000000
0.568281 0.502945 0.000000
0.595096 0.501346 0.000000
0.621758 0.499746 0.000000
0.648268 0.498146 0.000000
0.674625 0.496547 0.000000
0.700830 0.494947 0.000000
0.726883 0.493348 0.000000
0.752783 0.491748 0.000000
0.778531 0.490148 0.000000
0.804127 0.488549 0.000000
0.829570 0.486949 0.000000
0.854861 0.485350 0.000000
0.880000 0.483750 0.000000
0.000000 0.532575 0.000000
0.028490 0.532575 0.000000
0.056980 0.532575 0.000000
0.085471 0.532575 0.000000
0.113961 0.532575 0.000000
0.142451 0.532575 0.000000
0.170941 0.532575 0.000000
0.199432 0.532575 0.000000
0.227922 0.532575 0.000000
0.256412 0.532575 0.000000
0.284902 0.532575 0.000000
0.313393 0.532575 0.000000
0.341883 0.532575 0.000000
0.370373 0.532575 0.000000
0.398863 0.532575 0.000000
0.427354 0.532575 0.000000
0.455844 0.532575 0.000000
0.484334 0.532575 0.000000
0.512824 0.532575 0.000000
0.541314 0.532575 0.000000
0.568281 0.530887 0.000000
0.595096 0.529198 0.000000
0.621758 0.527510 0.000000
0.648268 0.525821 0.000000
0.674625 0.524133 0.000000
0.700830 0.522444 0.000000
0.726883 0.520756 0.000000
0.752783 0.519067 0.000000
0.778531 0.517379 0.000000
0.804127 0.515690 0.000000
0.829570 0.514002 0.000000
0.854861 0.512313 0.000000
0.880000 0.510625 0.000000
0.000000 0.558828 0.000000
0.028414 0.558828 0.000000
0.056828 0.558828 0.000000
0.085242 0.558828 0.000000
0.113656 0.558828 0.000000
0.142070 0.558828 0.000000
0.170484 0.558828 0.000000
0.198898 0.558828 0.000000
0.227313 0.558828 0.000000
0.255727 0.558828 0.000000
0.284141 0.558828 0.000000
0.312555 0.558828 0.000000
0.340969 0.558828 0.000000
0.369383 0.558828 0.000000
0.397797 0.558828 0.000000
0.426211 0.558828 0.000000
0.454625 0.558828 0.000000
0.483039 0.558828 0.000000
0.511453 0.558828 0.000000
0.539867 0.558828 0.000000
0.568281 0.558828 0.000000
0.595096 0.557051 0.000000
0.621758 0.555273 0.000000
0.648268 0.553496 0.000000
0.674625 0.551719 0.000000
0.700830 0.549941 0.000000
0.726883 0.548164 0.000000
0.752783 0.546387 0.000000
0.778531 0.544609 0.000000
0.804127 0.542832 0.000000
0.829570 0.541055 0.000000
0.854861 0.539277 0.000000
0.880000 0.537500 0.000000
0.000000 0.584903 0.000000
0.028338 0.584903 0.000000
0.056676 0.584903 0.000000
0.085014 0.584903 0.000000
0.113352 0.584903 0.000000
0.141689 0.584903 0.000000
0.170027 0.584903 0.000000
0.198365 0.584903 0.000000
0.226703 0.584903 0.000000
0.255041 0.584903 0.000000
0.283379 0.584903 0.000000
0.311717 0.584903 0.000000
0.340055 0.584903 0.000000
0.368393 0.584903 0.000000
0.396730 0.584903 0.000000
0.425068 0.584903 0.000000
0.453406 0.584903 0.000000
0.481744 0.584903 0.000000
0.510082 0.584903 0.000000
0.538420 0.584903 0.000000
0.566758 0.584903 0.000000
0.595096 0.584903 0.000000
0.621758 0.583037 0.000000
0.648268 0.581171 0.000000
0.674625 0.579305 0.000000
0.700830 0.577438 0.000000
0.726883 0.575572 0.000000
0.752783 0.573706 0.000000
0.778531 0.571840 0.000000
0.804127 0.569974 0.000000
0.829570 0.568107 0.000000
0.854861 0.566241 0.000000
0.880000 0.564375 0.000000
0.000000 0.610801 0.000000
0.028262 0.610801 0.000000
0.056523 0.610801 0.000000
0.084785 0.610801 0.000000
0.113047 0.610801 0.000000
0.141309 0.610801 0.000000
0.169570 0.610801 0.000000
0.197832 0.610801 0.000000
0.226094 0.610801 0.000000
0.254355 0.610801 0.000000
0.282617 0.610801 0.000000
0.310879 0.610801 0.000000
0.339141 0.610801 0.000000
0.367402 0.610801 0.000000
0.395664 0.610801 0.000000
0.423926 0.610801 0.000000
0.452188 0.610801 0.000000
0.480449 0.610801 0.000000
0.508711 0.610801 0.000000
0.536973 0.610801 0.000000
0.565234 0.610801 0.000000
0.593496 0.610801 0.000000
0.621758 0.610801 0.000000
0.648268 0.608846 0.000000
0.674625 0.606891 0.000000
0.700830 0.604936 0.000000
0.726883 0.602980 0.000000
0.752783 0.601025 0.000000
0.778531 0.599070 0.000000
0.804127 0.597115 0.000000
0.829570 0.595160 0.000000
0.854861 0.593205 0.000000
0.880000 0.591250 0.000000
0.000000 0.636521 0.000000
0.028186 0.636521 0.000000
0.056371 0.636521 0.000000
0.084557 0.636521 0.000000
0.112742 0.636521 0.000000
0.140928 0.636521 0.000000
0.169113 0.636521 0.000000
0.197299 0.636521 0.000000
0.225484 0.636521 0.000000
0.253670 0.636521 0.000000
0.281855 0.636521 0.000000
0.310041 0.636521 0.000000
0.338227 0.636521 0.000000
0.366412 0.636521 0.000000
0.394598 0.636521 0.000000
0.422783 0.636521 0.000000
0.450969 0.636521 0.000000
0.479154 0.636521 0.000000
0.507340 0.636521 0.000000
0.535525 0.636521 0.000000
0.563711 0.636521 0.000000
0.591896 0.636521 0.000000
0.620082 0.636521 0.000000
0.648268 0.636521 0.000000
0.674625 0.634477 0.000000
0.700830 0.632433 0.000000
0.726883 0.630389 0.000000
0.752783 0.628345 0.000000
0.778531 0.626301 0.000000
0.804127 0.624257 0.000000
0.829570 0.622213 0.000000
0.854861 0.620169 0.000000
0.880000 0.618125 0.000000
0.000000 0.662062 0.000000
0.028109 0.662062 0.000000
0.056219 0.662062 0.000000
0.084328 0.662062 0.000000
0.112437 0.662062 0.000000
0.140547 0.662062 0.000000
0.168656 0.662062 0.000000
0.196766 0.662062 0.000000
0.224875 0.662062 0.000000
0.252984 0.662062 0.000000
0.281094 0.662062 0.000000
0.309203 0.662062 0.000000
0.337313 0.662062 0.000000
0.365422 0.662062 0.000000
0.393531 0.662062 0.000000
0.421641 0.662062 0.000000
0.449750 0.662062 0.000000
0.477859 0.662062 0.000000
0.505969 0.662062 0.000000
0.534078 0.662062 0.000000
0.562188 0.662062 0.000000
0.590297 0.662062 0.000000
0.618406 0.662062 0.000000
0.646516 0.662062 0.000000
0.674625 0.662062 0.000000
0.700830 0.659930 0.000000
0.726883 0.657797 0.000000
0.752783 0.655664 0.000000
0.778531 0.653531 0.000000
0.804127 0.651398 0.000000
0.829570 0.649266 0.000000
0.854861 0.647133 0.000000
0.880000 0.645000 0.000000
0.000000 0.687427 0.000000
0.028033 0.687427 0.000000
0.056066 0.687427 0.000000
0.084100 0.687427 0.000000
0.112133 0.687427 0.000000
0.140166 0.687427 0.000000
0.168199 0.687427 0.000000
0.196232 0.687427 0.000000
0.224266 0.687427 0.000000
0.252299 0.687427 0.000000
0.280332 0.687427 0.000000
0.308365 0.687427 0.000000
0.336398 0.687427 0.000000
0.364432 0.687427 0.000000
0.392465 0.687427 0.000000
0.420498 0.687427 0.000000
0.448531 0.687427 0.000000
0.476564 0.687427 0.000000
0.504598 0.687427 0.000000
0.532631 0.687427 0.000000
0.560664 0.687427 0.000000
0.588697 0.687427 0.000000
0.616730 0.687427 0.000000
0.644764 0.687427 0.000000
0.672797 0.687427 0.000000
0.700830 0.687427 0.000000
0.726883 0.685205 0.000000
0.752783 0.682983 0.000000
0.778531 0.680762 0.000000
0.804127 0.678540 0.000000
0.829570 0.676318 0.000000
0.854861 0.674097 0.000000
0.880000 0.671875 0.000000
0.000000 0.712613 0.000000
0.027957 0.712613 0.000000
0.055914 0.712613 0.000000
0.083871 0.712613 0.000000
0.111828 0.712613 0.000000
0.139785 0.712613 0.000000
0.167742 0.712613 0.000000
0.195699 0.712613 0.000000
0.223656 0.712613 0.000000
0.251613 0.712613 0.000000
0.279570 0.712613 0.000000
0.307527 0.712613 0.000000
0.335484 0.712613 0.000000
0.363441 0.712613 0.000000
0.391398 0.712613 0.000000
0.419355 0.712613 0.000000
0.447313 0.712613 0.000000
0.475270 0.712613 0.000000
0.503227 0.712613 0.000000
0.531184 0.712613 0.000000
0.559141 0.712613 0.000000
0.587098 0.712613 0.000000
0.615055 0.712613 0.000000
0.643012 0.712613 0.000000
0.670969 0.712613 0.000000
0.698926 0.712613 0.000000
0.726883 0.712613 0.000000
