luts/original/luxury-matte-black.cube
TITLE "Luxury Matte Black"
LUT_3D_SIZE 9
DOMAIN_MIN 0.0 0.0 0.0
DOMAIN_MAX 1.0 1.0 1.0
0.000000 0.000000 0.000000
0.118531 0.000000 0.000000
0.234625 0.000000 0.000000
0.348281 0.000000 0.000000
0.459500 0.000000 0.000000
0.568281 0.000000 0.000000
0.674625 0.000000 0.000000
0.778531 0.000000 0.000000
0.880000 0.000000 0.000000
0.000000 0.117453 0.000000
0.118531 0.117453 0.000000
0.234625 0.116031 0.000000
0.348281 0.114609 0.000000
0.459500 0.113187 0.000000
0.568281 0.111766 0.000000
0.674625 0.110344 0.000000
0.778531 0.108922 0.000000
0.880000 0.107500 0.000000
0.000000 0.232063 0.000000
0.117313 0.232063 0.000000
0.234625 0.232063 0.000000
0.348281 0.229219 0.000000
0.459500 0.226375 0.000000
0.568281 0.223531 0.000000
0.674625 0.220688 0.000000
0.778531 0.217844 0.000000
0.880000 0.215000 0.000000
0.000000 0.343828 0.000000
0.116094 0.343828 0.000000
0.232187 0.343828 0.000000
0.348281 0.343828 0.000000
0.459500 0.339562 0.000000
0.568281 0.335297 0.000000
0.674625 0.331031 0.000000
0.778531 0.326766 0.000000
0.880000 0.322500 0.000000
0.000000 0.452750 0.000000
0.114875 0.452750 0.000000
0.229750 0.452750 0.000000
0.344625 0.452750 0.000000
0.459500 0.452750 0.000000
0.568281 0.447062 0.000000
0.674625 0.441375 0.000000
0.778531 0.435688 0.000000
0.880000 0.430000 0.000000
0.000000 0.558828 0.000000
0.113656 0.558828 0.000000
0.227313 0.558828 0.000000
0.340969 0.558828 0.000000
0.454625 0.558828 0.000000
0.568281 0.558828 0.000000
0.674625 0.551719 0.000000
0.778531 0.544609 0.000000
0.880000 0.537500 0.000000
0.000000 0.662062 0.000000
0.112437 0.662062 0.000000
0.224875 0.662062 0.000000
0.337313 0.662062 0.000000
0.449750 0.662062 0.000000
0.562188 0.662062 0.000000
0.674625 0.662062 0.000000
0.778531 0.653531 0.000000
0.880000 0.645000 0.000000
0.000000 0.762453 0.000000
0.111219 0.762453 0.000000
0.222438 0.762453 0.000000
0.333656 0.762453 0.000000
0.444875 0.762453 0.000000
0.556094 0.762453 0.000000
0.667312 0.762453 0.000000
0.778531 0.762453 0.000000
0.880000 0.752500 0.000000
0.000000 0.860000 0.000000
0.110000 0.860000 0.000000
0.220000 0.860000 0.000000
0.330000 0.860000 0.000000
0.440000 0.860000 0.000000
0.550000 0.860000 0.000000
0.660000 0.860000 0.000000
0.770000 0.860000 0.000000
0.880000 0.860000 0.000000
0.000000 0.000000 0.116375
0.118531 0.000000 0.116375
0.234625 0.000000 0.114750
0.348281 0.000000 0.113125
0.459500 0.000000 0.111500
0.568281 0.000000 0.109875
0.674625 0.000000 0.108250
0.778531 0.000000 0.106625
0.880000 0.000000 0.105000
0.000000 0.117453 0.116375
0.118531 0.117453 0.116375
0.234625 0.116031 0.114750
0.348281 0.114609 0.113125
0.459500 0.113187 0.111500
0.568281 0.111766 0.109875
0.674625 0.110344 0.108250
0.778531 0.108922 0.106625
0.880000 0.107500 0.105000
0.000000 0.232063 0.114750
0.117313 0.232063 0.114750
0.234625 0.232063 0.114750
0.348281 0.229219 0.113125
0.459500 0.226375 0.111500
0.568281 0.223531 0.109875
0.674625 0.220688 0.108250
0.778531 0.217844 0.106625
0.880000 0.215000 0.105000
0.000000 0.343828 0.113125
0.116094 0.343828 0.113125
0.232187 0.343828 0.113125
0.348281 0.343828 0.113125
0.459500 0.339562 0.111500
0.568281 0.335297 0.109875
0.674625 0.331031 0.108250
0.778531 0.326766 0.106625
0.880000 0.322500 0.105000
0.000000 0.452750 0.111500
0.114875 0.452750 0.111500
0.229750 0.452750 0.111500
0.344625 0.452750 0.111500
0.459500 0.452750 0.111500
0.568281 0.447062 0.109875
0.674625 0.441375 0.108250
0.778531 0.435688 0.106625
0.880000 0.430000 0.105000
0.000000 0.558828 0.109875
0.113656 0.558828 0.109875
0.227313 0.558828 0.109875
0.340969 0.558828 0.109875
0.454625 0.558828 0.109875
0.568281 0.558828 0.109875
0.674625 0.551719 0.108250
0.778531 0.544609 0.106625
0.880000 0.537500 0.105000
0.000000 0.662062 0.108250
0.112437 0.662062 0.108250
0.224875 0.662062 0.108250
0.337313 0.662062 0.108250
0.449750 0.662062 0.108250
0.562188 0.662062 0.108250
0.674625 0.662062 0.108250
0.778531 0.653531 0.106625
0.880000 0.645000 0.105000
0.000000 0.762453 0.106625
0.111219 0.762453 0.106625
0.222438 0.762453 0.106625
0.333656 0.762453 0.106625
0.444875 0.762453 0.106625
0.556094 0.762453 0.106625
0.667312 0.762453 0.106625
0.778531 0.762453 0.106625
0.880000 0.752500 0.105000
0.000000 0.860000 0.105000
0.110000 0.860000 0.105000
0.220000 0.860000 0.105000
0.330000 0.860000 0.105000
0.440000 0.860000 0.105000
0.550000 0.860000 0.105000
0.660000 0.860000 0.105000
0.770000 0.860000 0.105000
0.880000 0.860000 0.105000
0.000000 0.000000 0.229500
0.117313 0.000000 0.229500
0.234625 0.000000 0.229500
0.348281 0.000000 0.226250
0.459500 0.000000 0.223000
0.568281 0.000000 0.219750
0.674625 0.000000 0.216500
0.778531 0.000000 0.213250
0.880000 0.000000 0.210000
0.000000 0.116031 0.229500
0.117313 0.116031 0.229500
0.234625 0.116031 0.229500
0.348281 0.114609 0.226250
0.459500 0.113187 0.223000
0.568281 0.111766 0.219750
0.674625 0.110344 0.216500
0.778531 0.108922 0.213250
0.880000 0.107500 0.210000
0.000000 0.232063 0.229500
0.117313 0.232063 0.229500
0.234625 0.232063 0.229500
0.348281 0.229219 0.226250
0.459500 0.226375 0.223000
0.568281 0.223531 0.219750
0.674625 0.220688 0.216500
0.778531 0.217844 0.213250
0.880000 0.215000 0.210000
0.000000 0.343828 0.226250
0.116094 0.343828 0.226250
0.232187 0.343828 0.226250
0.348281 0.343828 0.226250
0.459500 0.339562 0.223000
0.568281 0.335297 0.219750
0.674625 0.331031 0.216500
0.778531 0.326766 0.213250
0.880000 0.322500 0.210000
0.000000 0.452750 0.223000
0.114875 0.452750 0.223000
0.229750 0.452750 0.223000
0.344625 0.452750 0.223000
0.459500 0.452750 0.223000
0.568281 0.447062 0.219750
0.674625 0.441375 0.216500
0.778531 0.435688 0.213250
0.880000 0.430000 0.210000
0.000000 0.558828 0.219750
0.113656 0.558828 0.219750
0.227313 0.558828 0.219750
0.340969 0.558828 0.219750
0.454625 0.558828 0.219750
0.568281 0.558828 0.219750
0.674625 0.551719 0.216500
0.778531 0.544609 0.213250
0.880000 0.537500 0.210000
0.000000 0.662062 0.216500
0.112437 0.662062 0.216500
0.224875 0.662062 0.216500
0.337313 0.662062 0.216500
0.449750 0.662062 0.216500
0.562188 0.662062 0.216500
0.674625 0.662062 0.216500
0.778531 0.653531 0.213250
0.880000 0.645000 0.210000
0.000000 0.762453 0.213250
0.111219 0.762453 0.213250
0.222438 0.762453 0.213250
0.333656 0.762453 0.213250
0.444875 0.762453 0.213250
0.556094 0.762453 0.213250
0.667312 0.762453 0.213250
0.778531 0.762453 0.213250
0.880000 0.752500 0.210000
0.000000 0.860000 0.210000
0.110000 0.860000 0.210000
0.220000 0.860000 0.210000
0.330000 0.860000 0.210000
0.440000 0.860000 0.210000
0.550000 0.860000 0.210000
0.660000 0.860000 0.210000
0.770000 0.860000 0.210000
0.880000 0.860000 0.210000
0.000000 0.000000 0.339375
0.116094 0.000000 0.339375
0.232187 0.000000 0.339375
0.348281 0.000000 0.339375
0.459500 0.000000 0.334500
0.568281 0.000000 0.329625
0.674625 0.000000 0.324750
0.778531 0.000000 0.319875
0.880000 0.000000 0.315000
0.000000 0.114609 0.339375
0.116094 0.114609 0.339375
0.232187 0.114609 0.339375
0.348281 0.114609 0.339375
0.459500 0.113187 0.334500
0.568281 0.111766 0.329625
0.674625 0.110344 0.324750
0.778531 0.108922 0.319875
0.880000 0.107500 0.315000
0.000000 0.229219 0.339375
0.116094 0.229219 0.339375
0.232187 0.229219 0.339375
0.348281 0.229219 0.339375
0.459500 0.226375 0.334500
0.568281 0.223531 0.329625
0.674625 0.220688 0.324750
0.778531 0.217844 0.319875
0.880000 0.215000 0.315000
0.000000 0.343828 0.339375
0.116094 0.343828 0.339375
0.232187 0.343828 0.339375
0.348281 0.343828 0.339375
0.459500 0.339562 0.334500
0.568281 0.335297 0.329625
0.674625 0.331031 0.324750
0.778531 0.326766 0.319875
0.880000 0.322500 0.315000
0.000000 0.452750 0.334500
0.114875 0.452750 0.334500
0.229750 0.452750 0.334500
0.344625 0.452750 0.334500
0.459500 0.452750 0.334500
0.568281 0.447062 0.329625
0.674625 0.441375 0.324750
0.778531 0.435688 0.319875
0.880000 0.430000 0.315000
0.000000 0.558828 0.329625
0.113656 0.558828 0.329625
0.227313 0.558828 0.329625
0.340969 0.558828 0.329625
0.454625 0.558828 0.329625
0.568281 0.558828 0.329625
0.674625 0.551719 0.324750
0.778531 0.544609 0.319875
0.880000 0.537500 0.315000
0.000000 0.662062 0.324750
0.112437 0.662062 0.324750
0.224875 0.662062 0.324750
0.337313 0.662062 0.324750
0.449750 0.662062 0.324750
0.562188 0.662062 0.324750
0.674625 0.662062 0.324750
0.778531 0.653531 0.319875
0.880000 0.645000 0.315000
0.000000 0.762453 0.319875
0.111219 0.762453 0.319875
0.222438 0.762453 0.319875
0.333656 0.762453 0.319875
0.444875 0.762453 0.319875
0.556094 0.762453 0.319875
0.667312 0.762453 0.319875
0.778531 0.762453 0.319875
0.880000 0.752500 0.315000
0.000000 0.860000 0.315000
0.110000 0.860000 0.315000
0.220000 0.860000 0.315000
0.330000 0.860000 0.315000
0.440000 0.860000 0.315000
0.550000 0.860000 0.315000
0.660000 0.860000 0.315000
0.770000 0.860000 0.315000
0.880000 0.860000 0.315000
0.000000 0.000000 0.446000
0.114875 0.000000 0.446000
0.229750 0.000000 0.446000
0.344625 0.000000 0.446000
0.459500 0.000000 0.446000
0.568281 0.000000 0.439500
0.674625 0.000000 0.433000
0.778531 0.000000 0.426500
0.880000 0.000000 0.420000
0.000000 0.113187 0.446000
0.114875 0.113187 0.446000
0.229750 0.113187 0.446000
0.344625 0.113187 0.446000
0.459500 0.113187 0.446000
0.568281 0.111766 0.439500
0.674625 0.110344 0.433000
0.778531 0.108922 0.426500
0.880000 0.107500 0.420000
0.000000 0.226375 0.446000
0.114875 0.226375 0.446000
0.229750 0.226375 0.446000
0.344625 0.226375 0.446000
0.459500 0.226375 0.446000
0.568281 0.223531 0.439500
0.674625 0.220688 0.433000
0.778531 0.217844 0.426500
0.880000 0.215000 0.420000
0.000000 0.339562 0.446000
0.114875 0.339562 0.446000
0.229750 0.339562 0.446000
0.344625 0.339562 0.446000
0.459500 0.339562 0.446000
0.568281 0.335297 0.439500
0.674625 0.331031 0.433000
0.778531 0.326766 0.426500
0.880000 0.322500 0.420000
0.000000 0.452750 0.446000
0.114875 0.452750 0.446000
0.229750 0.452750 0.446000
0.344625 0.452750 0.446000
0.459500 0.452750 0.446000
0.568281 0.447062 0.439500
0.674625 0.441375 0.433000
0.778531 0.435688 0.426500
0.880000 0.430000 0.420000
0.000000 0.558828 0.439500
0.113656 0.558828 0.439500
0.227313 0.558828 0.439500
0.340969 0.558828 0.439500
0.454625 0.558828 0.439500
0.568281 0.558828 0.439500
0.674625 0.551719 0.433000
0.778531 0.544609 0.426500
0.880000 0.537500 0.420000
0.000000 0.662062 0.433000
0.112437 0.662062 0.433000
0.224875 0.662062 0.433000
0.337313 0.662062 0.433000
0.449750 0.662062 0.433000
0.562188 0.662062 0.433000
0.674625 0.662062 0.433000
0.778531 0.653531 0.426500
0.880000 0.645000 0.420000
0.000000 0.762453 0.426500
0.111219 0.762453 0.426500
0.222438 0.762453 0.426500
0.333656 0.762453 0.426500
0.444875 0.762453 0.426500
0.556094 0.762453 0.426500
0.667312 0.762453 0.426500
0.778531 0.762453 0.426500
0.880000 0.752500 0.420000
0.000000 0.860000 0.420000
0.110000 0.860000 0.420000
0.220000 0.860000 0.420000
0.330000 0.860000 0.420000
0.440000 0.860000 0.420000
0.550000 0.860000 0.420000
0.660000 0.860000 0.420000
0.770000 0.860000 0.420000
0.880000 0.860000 0.420000
0.000000 0.000000 0.549375
0.113656 0.000000 0.549375
0.227313 0.000000 0.549375
0.340969 0.000000 0.549375
0.454625 0.000000 0.549375
0.568281 0.000000 0.549375
0.674625 0.000000 0.541250
0.778531 0.000000 0.533125
0.880000 0.000000 0.525000
0.000000 0.111766 0.549375
0.113656 0.111766 0.549375
0.227313 0.111766 0.549375
0.340969 0.111766 0.549375
0.454625 0.111766 0.549375
0.568281 0.111766 0.549375
0.674625 0.110344 0.541250
0.778531 0.108922 0.533125
0.880000 0.107500 0.525000
0.000000 0.223531 0.549375
0.113656 0.223531 0.549375
0.227313 0.223531 0.549375
0.340969 0.223531 0.549375
0.454625 0.223531 0.549375
0.568281 0.223531 0.549375
0.674625 0.220688 0.541250
0.778531 0.217844 0.533125
0.880000 0.215000 0.525000
0.000000 0.335297 0.549375
0.113656 0.335297 0.549375
0.227313 0.335297 0.549375
0.340969 0.335297 0.549375
0.454625 0.335297 0.549375
0.568281 0.335297 0.549375
0.674625 0.331031 0.541250
0.778531 0.326766 0.533125
0.880000 0.322500 0.525000
0.000000 0.447062 0.549375
0.113656 0.447062 0.549375
0.227313 0.447062 0.549375
0.340969 0.447062 0.549375
0.454625 0.447062 0.549375
0.568281 0.447062 0.549375
0.674625 0.441375 0.541250
0.778531 0.435688 0.533125
0.880000 0.430000 0.525000
0.000000 0.558828 0.549375
0.113656 0.558828 0.549375
0.227313 0.558828 0.549375
0.340969 0.558828 0.549375
0.454625 0.558828 0.549375
0.568281 0.558828 0.549375
0.674625 0.551719 0.541250
0.778531 0.544609 0.533125
0.880000 0.537500 0.525000
0.000000 0.662062 0.541250
0.112437 0.662062 0.541250
0.224875 0.662062 0.541250
0.337313 0.662062 0.541250
0.449750 0.662062 0.541250
0.562188 0.662062 0.541250
0.674625 0.662062 0.541250
0.778531 0.653531 0.533125
0.880000 0.645000 0.525000
0.000000 0.762453 0.533125
0.111219 0.762453 0.533125
0.222438 0.762453 0.533125
0.333656 0.762453 0.533125
0.444875 0.762453 0.533125
0.556094 0.762453 0.533125
0.667312 0.762453 0.533125
0.778531 0.762453 0.533125
0.880000 0.752500 0.525000
0.000000 0.860000 0.525000
0.110000 0.860000 0.525000
0.220000 0.860000 0.525000
0.330000 0.860000 0.525000
0.440000 0.860000 0.525000
0.550000 0.860000 0.525000
0.660000 0.860000 0.525000
0.770000 0.860000 0.525000
0.880000 0.860000 0.525000
0.000000 0.000000 0.649500
0.112437 0.000000 0.649500
0.224875 0.000000 0.649500
0.337313 0.000000 0.649500
0.449750 0.000000 0.649500
0.562188 0.000000 0.649500
0.674625 0.000000 0.649500
0.778531 0.000000 0.639750
0.880000 0.000000 0.630000
0.000000 0.110344 0.649500
0.112437 0.110344 0.649500
0.224875 0.110344 0.649500
0.337313 0.110344 0.649500
0.449750 0.110344 0.649500
0.562188 0.110344 0.649500
0.674625 0.110344 0.649500
0.778531 0.108922 0.639750
0.880000 0.107500 0.630000
0.000000 0.220688 0.649500
0.112437 0.220688 0.649500
0.224875 0.220688 0.649500
0.337313 0.220688 0.649500
0.449750 0.220688 0.649500
0.562188 0.220688 0.649500
0.674625 0.220688 0.649500
0.778531 0.217844 0.639750
0.880000 0.215000 0.630000
0.000000 0.331031 0.649500
0.112437 0.331031 0.649500
0.224875 0.331031 0.649500
0.337313 0.331031 0.649500
0.449750 0.331031 0.649500
0.562188 0.331031 0.649500
0.674625 0.331031 0.649500
0.778531 0.326766 0.639750
0.880000 0.322500 0.630000
0.000000 0.441375 0.649500
0.112437 0.441375 0.649500
0.224875 0.441375 0.649500
0.337313 0.441375 0.649500
0.449750 0.441375 0.649500
0.562188 0.441375 0.649500
0.674625 0.441375 0.649500
0.778531 0.435688 0.639750
0.880000 0.430000 0.630000
0.000000 0.551719 0.649500
0.112437 0.551719 0.649500
0.224875 0.551719 0.649500
0.337313 0.551719 0.649500
0.449750 0.551719 0.649500
0.562188 0.551719 0.649500
0.674625 0.551719 0.649500
0.778531 0.544609 0.639750
0.880000 0.537500 0.630000
0.000000 0.662062 0.649500
0.112437 0.662062 0.649500
0.224875 0.662062 0.649500
0.337313 0.662062 0.649500
0.449750 0.662062 0.649500
0.562188 0.662062 0.649500
0.674625 0.662062 0.649500
0.778531 0.653531 0.639750
0.880000 0.645000 0.630000
0.000000 0.762453 0.639750
0.111219 0.762453 0.639750
0.222438 0.762453 0.639750
0.333656 0.762453 0.639750
0.444875 0.762453 0.639750
0.556094 0.762453 0.639750
0.667312 0.762453 0.639750
0.778531 0.762453 0.639750
0.880000 0.752500 0.630000
0.000000 0.860000 0.630000
0.110000 0.860000 0.630000
0.220000 0.860000 0.630000
0.330000 0.860000 0.630000
0.440000 0.860000 0.630000
0.550000 0.860000 0.630000
0.660000 0.860000 0.630000
0.770000 0.860000 0.630000
0.880000 0.860000 0.630000
0.000000 0.000000 0.746375
0.111219 0.000000 0.746375
0.222438 0.000000 0.746375
0.333656 0.000000 0.746375
0.444875 0.000000 0.746375
0.556094 0.000000 0.746375
0.667312 0.000000 0.746375
0.778531 0.000000 0.746375
0.880000 0.000000 0.735000
0.000000 0.108922 0.746375
0.111219 0.108922 0.746375
0.222438 0.108922 0.746375
0.333656 0.108922 0.746375
0.444875 0.108922 0.746375
0.556094 0.108922 0.746375
0.667312 0.108922 0.746375
0.778531 0.108922 0.746375
0.880000 0.107500 0.735000
0.000000 0.217844 0.746375
0.111219 0.217844 0.746375
0.222438 0.217844 0.746375
0.333656 0.217844 0.746375
0.444875 0.217844 0.746375
0.556094 0.217844 0.746375
0.667312 0.217844 0.746375
0.778531 0.217844 0.746375
0.880000 0.215000 0.735000
0.000000 0.326766 0.746375
0.111219 0.326766 0.746375
0.222438 0.326766 0.746375
0.333656 0.326766 0.746375
0.444875 0.326766 0.746375
0.556094 0.326766 0.746375
0.667312 0.326766 0.746375
0.778531 0.326766 0.746375
0.880000 0.322500 0.735000
0.000000 0.435688 0.746375
0.111219 0.435688 0.746375
0.222438 0.435688 0.746375
0.333656 0.435688 0.746375
0.444875 0.435688 0.746375
0.556094 0.435688 0.746375
0.667312 0.435688 0.746375
0.778531 0.435688 0.746375
0.880000 0.430000 0.735000
0.000000 0.544609 0.746375
0.111219 0.544609 0.746375
0.222438 0.544609 0.746375
0.333656 0.544609 0.746375
0.444875 0.544609 0.746375
0.556094 0.544609 0.746375
0.667312 0.544609 0.746375
0.778531 0.544609 0.746375
0.880000 0.537500 0.735000
0.000000 0.653531 0.746375
0.111219 0.653531 0.746375
0.222438 0.653531 0.746375
0.333656 0.653531 0.746375
0.444875 0.653531 0.746375
0.556094 0.653531 0.746375
0.667312 0.653531 0.746375
0.778531 0.653531 0.746375
0.880000 0.645000 0.735000
0.000000 0.762453 0.746375
0.111219 0.762453 0.746375
0.222438 0.762453 0.746375
0.333656 0.762453 0.746375
0.444875 0.762453 0.746375
0.556094 0.762453 0.746375
0.667312 0.762453 0.746375
0.778531 0.762453 0.746375
0.880000 0.752500 0.735000
0.000000 0.860000 0.735000
0.110000 0.860000 0.735000
0.220000 0.860000 0.735000
0.330000 0.860000 0.735000
0.440000 0.860000 0.735000
0.550000 0.860000 0.735000
0.660000 0.860000 0.735000
0.770000 0.860000 0.735000
0.880000 0.860000 0.735000
0.000000 0.000000 0.840000
0.110000 0.000000 0.840000
0.220000 0.000000 0.840000
0.330000 0.000000 0.840000
0.440000 0.000000 0.840000
0.550000 0.000000 0.840000
0.660000 0.000000 0.840000
0.770000 0.000000 0.840000
0.880000 0.000000 0.840000
0.000000 0.107500 0.840000
0.110000 0.107500 0.840000
0.220000 0.107500 0.840000
0.330000 0.107500 0.840000
0.440000 0.107500 0.840000
0.550000 0.107500 0.840000
0.660000 0.107500 0.840000
0.770000 0.107500 0.840000
0.880000 0.107500 0.840000
0.000000 0.215000 0.840000
0.110000 0.215000 0.840000
0.220000 0.215000 0.840000
0.330000 0.215000 0.840000
0.440000 0.215000 0.840000
0.550000 0.215000 0.840000
0.660000 0.215000 0.840000
0.770000 0.215000 0.840000
0.880000 0.215000 0.840000
0.000000 0.322500 0.840000
0.110000 0.322500 0.840000
0.220000 0.322500 0.840000
0.330000 0.322500 0.840000
0.440000 0.322500 0.840000
0.550000 0.322500 0.840000
0.660000 0.322500 0.840000
0.770000 0.322500 0.840000
0.880000 0.322500 0.840000
0.000000 0.430000 0.840000
0.110000 0.430000 0.840000
0.220000 0.430000 0.840000
0.330000 0.430000 0.840000
0.440000 0.430000 0.840000
0.550000 0.430000 0.840000
0.660000 0.430000 0.840000
0.770000 0.430000 0.840000
0.880000 0.430000 0.840000
0.000000 0.537500 0.840000
0.110000 0.537500 0.840000
0.220000 0.537500 0.840000
0.330000 0.537500 0.840000
0.440000 0.537500 0.840000
0.550000 0.537500 0.840000
0.660000 0.537500 0.840000
0.770000 0.537500 0.840000
0.880000 0.537500 0.840000
0.000000 0.645000 0.840000
0.110000 0.645000 0.840000
0.220000 0.645000 0.840000
0.330000 0.645000 0.840000
0.440000 0.645000 0.840000
0.550000 0.645000 0.840000
0.660000 0.645000 0.840000
0.770000 0.645000 0.840000
0.880000 0.645000 0.840000
0.000000 0.752500 0.840000
0.110000 0.752500 0.840000
0.220000 0.752500 0.840000
0.330000 0.752500 0.840000
0.440000 0.752500 0.840000
0.550000 0.752500 0.840000
0.660000 0.752500 0.840000
0.770000 0.752500 0.840000
0.880000 0.752500 0.840000
0.000000 0.860000 0.840000
0.110000 0.860000 0.840000
0.220000 0.860000 0.840000
0.330000 0.860000 0.840000
0.440000 0.860000 0.840000
0.550000 0.860000 0.840000
0.660000 0.860000 0.840000
0.770000 0.860000 0.840000
0.880000 0.860000 0.840000
