luts/original/magazine-bw.cube
TITLE "Magazine BW"
LUT_3D_SIZE 33
DOMAIN_MIN 0.0 0.0 0.0
DOMAIN_MAX 1.0 1.0 1.0
0.001400 0.001400 0.001400
0.023811 0.004133 0.004133
0.045244 0.007158 0.007158
0.065698 0.010473 0.010473
0.085173 0.014079 0.014079
0.103670 0.017977 0.017977
0.121188 0.022165 0.022165
0.137728 0.026644 0.026644
0.153289 0.031414 0.031414
0.167872 0.036475 0.036475
0.181476 0.041827 0.041827
0.194101 0.047470 0.047470
0.205748 0.053404 0.053404
0.216416 0.059629 0.059629
0.226106 0.066145 0.066145
0.234817 0.072951 0.072951
0.242549 0.080049 0.080049
0.249303 0.087438 0.087438
0.255078 0.095118 0.095118
0.259875 0.103088 0.103088
0.263693 0.111350 0.111350
0.266533 0.119902 0.119902
0.268394 0.128746 0.128746
0.269277 0.137880 0.137880
0.269180 0.147305 0.147305
0.268106 0.157022 0.157022
0.266052 0.167029 0.167029
0.263021 0.177327 0.177327
0.259010 0.187916 0.187916
0.254021 0.198797 0.198797
0.248054 0.209968 0.209968
0.241108 0.221430 0.221430
0.233183 0.233183 0.233183
0.010403 0.030081 0.010403
0.032733 0.032733 0.013055
0.054655 0.035612 0.016569
0.075599 0.038782 0.020374
0.095563 0.042243 0.024470
0.114550 0.045995 0.028856
0.132557 0.050038 0.033534
0.149586 0.054372 0.038502
0.165637 0.058996 0.043762
0.180709 0.063912 0.049312
0.194802 0.069119 0.055154
0.207917 0.074616 0.061286
0.220053 0.080405 0.067709
0.231211 0.086484 0.074424
0.241390 0.092855 0.081429
0.250590 0.099516 0.088725
0.258812 0.106468 0.096312
0.266055 0.113712 0.104190
0.272320 0.121246 0.112359
0.277606 0.129071 0.120819
0.281914 0.137187 0.129570
0.285243 0.145595 0.138612
0.287593 0.154293 0.147945
0.288965 0.163282 0.157569
0.289359 0.172562 0.167484
0.288773 0.182133 0.177689
0.287209 0.191995 0.188186
0.284667 0.202147 0.198974
0.281146 0.212591 0.210052
0.276646 0.223326 0.221422
0.271168 0.234352 0.233082
0.264711 0.245668 0.245034
0.257276 0.257276 0.257276
0.020385 0.058471 0.020385
0.042226 0.061269 0.023183
0.064067 0.064067 0.025981
0.085499 0.067091 0.030275
0.105954 0.070407 0.034860
0.125429 0.074013 0.039736
0.143926 0.077911 0.044903
0.161445 0.082099 0.050361
0.177985 0.086578 0.056110
0.193546 0.091349 0.062150
0.208129 0.096410 0.068480
0.221733 0.101762 0.075102
0.234359 0.107405 0.082015
0.246006 0.113340 0.089218
0.256674 0.119565 0.096713
0.266364 0.126081 0.104499
0.275075 0.132888 0.112575
0.282808 0.139986 0.120943
0.289562 0.147374 0.129601
0.295338 0.155054 0.138550
0.300135 0.163025 0.147791
0.303953 0.171287 0.157322
0.306793 0.179840 0.167144
0.308654 0.188683 0.177258
0.309537 0.197818 0.187662
0.309441 0.207244 0.198357
0.308366 0.216960 0.209343
0.306313 0.226968 0.220620
0.303282 0.237266 0.232188
0.299271 0.247855 0.244047
0.294283 0.258736 0.256197
0.288315 0.269907 0.268638
0.281369 0.281369 0.281369
0.031346 0.086571 0.031346
0.052698 0.089514 0.034289
0.074049 0.092457 0.037233
0.095400 0.095400 0.040176
0.116344 0.098570 0.045250
0.136309 0.102032 0.050616
0.155295 0.105784 0.056272
0.173303 0.109827 0.062219
0.190333 0.114161 0.068457
0.206383 0.118786 0.074987
0.221455 0.123701 0.081807
0.235549 0.128908 0.088918
0.248664 0.134406 0.096320
0.260800 0.140195 0.104013
0.271958 0.146275 0.111997
0.282137 0.152645 0.120272
0.291338 0.159307 0.128838
0.299560 0.166259 0.137695
0.306804 0.173503 0.146843
0.313069 0.181037 0.156282
0.318355 0.188863 0.166011
0.322663 0.196979 0.176032
0.325992 0.205387 0.186344
0.328343 0.214085 0.196946
0.329715 0.223074 0.207840
0.330108 0.232354 0.219024
0.329523 0.241926 0.230500
0.327960 0.251788 0.242266
0.325417 0.261941 0.254324
0.321897 0.272385 0.266672
0.317397 0.283120 0.279311
0.311919 0.294146 0.292242
0.305463 0.305463 0.305463
0.043286 0.114380 0.043286
0.064148 0.117468 0.046375
0.085010 0.120557 0.049463
0.105872 0.123645 0.052552
0.126734 0.126734 0.055640
0.147188 0.130050 0.061495
0.166664 0.133657 0.067641
0.185162 0.137554 0.074078
0.202680 0.141743 0.080805
0.219220 0.146222 0.087824
0.234782 0.150993 0.095134
0.249365 0.156054 0.102734
0.262969 0.161407 0.110626
0.275595 0.167050 0.118808
0.287242 0.172985 0.127281
0.297911 0.179210 0.136046
0.307601 0.185726 0.145101
0.316313 0.192533 0.154447
0.324046 0.199631 0.164085
0.330800 0.207021 0.174013
0.336576 0.214701 0.184232
0.341373 0.222672 0.194742
0.345191 0.230934 0.205543
0.348032 0.239487 0.216635
0.349893 0.248331 0.228018
0.350776 0.257465 0.239692
0.350680 0.266891 0.251657
0.349606 0.276608 0.263913
0.347553 0.286616 0.276459
0.344522 0.296914 0.289297
0.340512 0.307504 0.302426
0.335523 0.318384 0.315845
0.329556 0.329556 0.329556
0.056204 0.141898 0.056204
0.076577 0.145132 0.059438
0.096950 0.148366 0.062673
0.117323 0.151600 0.065907
0.137695 0.154834 0.069141
0.158068 0.158068 0.072375
0.178033 0.161529 0.079010
0.197020 0.165282 0.085936
0.215028 0.169325 0.093153
0.232058 0.173659 0.100661
0.248109 0.178284 0.108460
0.263181 0.183200 0.116550
0.277275 0.188408 0.124931
0.290390 0.193906 0.133603
0.302527 0.199695 0.142566
0.313685 0.205774 0.151819
0.323864 0.212145 0.161364
0.333065 0.218807 0.171200
0.341287 0.225760 0.181326
0.348531 0.233004 0.191744
0.354796 0.240538 0.202452
0.360083 0.248364 0.213452
0.364391 0.256481 0.224742
0.367720 0.264888 0.236324
0.370071 0.273587 0.248196
0.371443 0.282576 0.260359
0.371837 0.291857 0.272814
0.371252 0.301428 0.285559
0.369689 0.311290 0.298595
0.367147 0.321444 0.311922
0.363626 0.331888 0.325540
0.359127 0.342623 0.339449
0.353649 0.353649 0.353649
0.070102 0.169125 0.070102
0.089985 0.172505 0.073481
0.109869 0.175884 0.076861
0.129752 0.179264 0.080240
0.149635 0.182643 0.083620
0.169519 0.186023 0.086999
0.189402 0.189402 0.090379
0.208878 0.193009 0.097794
0.227376 0.196907 0.105501
0.244895 0.201096 0.113498
0.261435 0.205576 0.121787
0.276997 0.210347 0.130366
0.291580 0.215408 0.139236
0.305185 0.220761 0.148398
0.317811 0.226404 0.157850
0.329458 0.232339 0.167593
0.340127 0.238565 0.177627
0.349817 0.245081 0.187952
0.358529 0.251888 0.198568
0.366262 0.258987 0.209475
0.373017 0.266376 0.220673
0.378793 0.274056 0.232162
0.383590 0.282028 0.243942
0.387409 0.290290 0.256013
0.390249 0.298843 0.268374
0.392111 0.307687 0.281027
0.392994 0.316822 0.293971
0.392899 0.326248 0.307205
0.391825 0.335965 0.320731
0.389772 0.345973 0.334547
0.386741 0.356272 0.348655
0.382731 0.366862 0.363053
0.377743 0.377743 0.377743
0.084978 0.196062 0.084978
0.104372 0.199587 0.088503
0.123766 0.203112 0.092028
0.143160 0.206637 0.095553
0.162554 0.210162 0.099078
0.181949 0.213687 0.102603
0.201343 0.217212 0.106128
0.220737 0.220737 0.109653
0.239724 0.224489 0.117849
0.257732 0.228533 0.126336
0.274762 0.232867 0.135113
0.290813 0.237493 0.144182
0.305886 0.242409 0.153542
0.319980 0.247616 0.163192
0.333095 0.253114 0.173134
0.345232 0.258904 0.183367
0.356390 0.264984 0.193890
0.366570 0.271355 0.204704
0.375771 0.278017 0.215810
0.383993 0.284970 0.227206
0.391237 0.292214 0.238894
0.397503 0.299749 0.250872
0.402790 0.307575 0.263141
0.407098 0.315692 0.275701
0.410427 0.324099 0.288552
0.412778 0.332798 0.301695
0.414151 0.341788 0.315128
0.414545 0.351068 0.328852
0.413960 0.360640 0.342867
0.412397 0.370503 0.357172
0.409855 0.380656 0.371769
0.406335 0.391100 0.386657
0.401836 0.401836 0.401836
0.100833 0.222708 0.100833
0.119737 0.226378 0.104503
0.138642 0.230049 0.108174
0.157547 0.233719 0.111844
0.176452 0.237390 0.115515
0.195357 0.241060 0.119185
0.214262 0.244731 0.122856
0.233167 0.248401 0.126526
0.252072 0.252072 0.130197
0.270569 0.255970 0.139173
0.288088 0.260159 0.148440
0.304629 0.264639 0.157998
0.320191 0.269410 0.167847
0.334774 0.274472 0.177987
0.348379 0.279824 0.188418
0.361005 0.285468 0.199140
0.372653 0.291403 0.210153
0.383322 0.297629 0.221457
0.393013 0.304145 0.233052
0.401725 0.310953 0.244937
0.409458 0.318052 0.257114
0.416213 0.325441 0.269582
0.421989 0.333122 0.282340
0.426787 0.341093 0.295390
0.430606 0.349356 0.308731
0.433446 0.357909 0.322362
0.435308 0.366753 0.336284
0.436191 0.375889 0.350498
0.436096 0.385315 0.365002
0.435022 0.395032 0.379798
0.432970 0.405040 0.394884
0.429939 0.415339 0.410261
0.425929 0.425929 0.425929
0.117666 0.249063 0.117666
0.136082 0.252879 0.121482
0.154497 0.256695 0.125298
0.172913 0.260511 0.129114
0.191329 0.264327 0.132930
0.209744 0.268143 0.136746
0.228160 0.271959 0.140562
0.246575 0.275775 0.144378
0.264991 0.279590 0.148194
0.283406 0.283406 0.152010
0.301415 0.287450 0.161767
0.318445 0.291785 0.171814
0.334496 0.296410 0.182153
0.349569 0.301327 0.192782
0.363663 0.306534 0.203702
0.376779 0.312033 0.214914
0.388916 0.317822 0.226416
0.400074 0.323903 0.238209
0.410254 0.330274 0.250293
0.419456 0.336936 0.262669
0.427678 0.343889 0.275335
0.434923 0.351134 0.288292
0.441188 0.358669 0.301540
0.446475 0.366495 0.315079
0.450784 0.374612 0.328909
0.454114 0.383020 0.343030
0.456465 0.391719 0.357441
0.457838 0.400709 0.372144
0.458232 0.409990 0.387138
0.457647 0.419561 0.402423
0.456084 0.429424 0.417998
0.453543 0.439578 0.433865
0.450022 0.450022 0.450022
0.135479 0.275127 0.135479
0.153405 0.279088 0.139440
0.171331 0.283050 0.143401
0.189257 0.287011 0.147363
0.207184 0.290973 0.151324
0.225110 0.294934 0.155286
0.243036 0.298896 0.159247
0.260963 0.302857 0.163209
0.278889 0.306819 0.167170
0.296815 0.310780 0.171132
0.314742 0.314742 0.175093
0.332261 0.318931 0.185630
0.348802 0.323411 0.196458
0.364364 0.328182 0.207577
0.378947 0.333244 0.218987
0.392553 0.338597 0.230687
0.405179 0.344241 0.242679
0.416827 0.350176 0.254962
0.427496 0.356402 0.267535
0.437187 0.362919 0.280400
0.445899 0.369727 0.293555
0.453633 0.376826 0.307002
0.460388 0.384216 0.320739
0.466164 0.391896 0.334768
0.470962 0.399868 0.349087
0.474781 0.408131 0.363697
0.477622 0.416684 0.378598
0.479484 0.425529 0.393791
0.480367 0.434664 0.409274
0.480272 0.444091 0.425048
0.479199 0.453808 0.441113
0.477147 0.463816 0.457469
0.474116 0.474116 0.474116
0.154270 0.300901 0.154270
0.171707 0.305008 0.158377
0.189144 0.309115 0.162484
0.206581 0.313221 0.166591
0.224018 0.317328 0.170698
0.241455 0.321435 0.174804
0.258892 0.325542 0.178911
0.276329 0.329649 0.183018
0.293766 0.333756 0.187125
0.311203 0.337863 0.191232
0.328640 0.341970 0.195339
0.346077 0.346077 0.199446
0.363107 0.350412 0.210763
0.379159 0.355038 0.222372
0.394232 0.359954 0.234271
0.408326 0.365162 0.246461
0.421442 0.370661 0.258942
0.433579 0.376450 0.271714
0.444738 0.382531 0.284777
0.454918 0.388902 0.298131
0.464120 0.395565 0.311776
0.472343 0.402518 0.325712
0.479587 0.409763 0.339938
0.485853 0.417298 0.354456
0.491140 0.425124 0.369265
0.495449 0.433242 0.384365
0.498779 0.441650 0.399755
0.501130 0.450349 0.415437
0.502503 0.459339 0.431409
0.502898 0.468620 0.447673
0.502313 0.478192 0.464227
0.500750 0.488055 0.481073
0.498209 0.498209 0.498209
0.174040 0.326384 0.174040
0.190987 0.330636 0.178292
0.207935 0.334888 0.182545
0.224883 0.339141 0.186797
0.241831 0.343393 0.191049
0.258778 0.347646 0.195302
0.275726 0.351898 0.199554
0.292674 0.356150 0.203807
0.309622 0.360403 0.208059
0.326569 0.364655 0.212312
0.343517 0.368908 0.216564
0.360465 0.373160 0.220816
0.377412 0.377412 0.225069
0.393953 0.381893 0.237166
0.409516 0.386664 0.249555
0.424100 0.391727 0.262234
0.437705 0.397080 0.275205
0.450332 0.402724 0.288466
0.461980 0.408659 0.302019
0.472649 0.414886 0.315862
0.482340 0.421403 0.329996
0.491052 0.428211 0.344422
0.498786 0.435310 0.359138
0.505542 0.442700 0.374145
0.511318 0.450381 0.389443
0.516116 0.458353 0.405032
0.519936 0.466615 0.420912
0.522777 0.475169 0.437083
0.524639 0.484014 0.453545
0.525523 0.493150 0.470298
0.525428 0.502576 0.487342
0.524354 0.512294 0.504677
0.522302 0.522302 0.522302
0.194789 0.351576 0.194789
0.211247 0.355974 0.199186
0.227705 0.360371 0.203584
0.244164 0.364769 0.207982
0.260622 0.369167 0.212380
0.277081 0.373565 0.216778
0.293539 0.377963 0.221176
0.309998 0.382361 0.225574
0.326456 0.386759 0.229972
0.342914 0.391157 0.234370
0.359373 0.395555 0.238767
0.375831 0.399952 0.243165
0.392290 0.404350 0.247563
0.408748 0.408748 0.251961
0.424800 0.413374 0.264839
0.439873 0.418291 0.278008
0.453968 0.423499 0.291468
0.467084 0.428998 0.305219
0.479221 0.434788 0.319261
0.490380 0.440869 0.333593
0.500561 0.447240 0.348217
0.509762 0.453903 0.363132
0.517986 0.460857 0.378337
0.525230 0.468101 0.393834
0.531496 0.475637 0.409621
0.536784 0.483463 0.425700
0.541093 0.491581 0.442069
0.544423 0.499989 0.458730
0.546775 0.508689 0.475681
0.548148 0.517679 0.492923
0.548542 0.526960 0.510456
0.547958 0.536533 0.528281
0.546396 0.546396 0.546396
0.216516 0.376477 0.216516
0.232485 0.381020 0.221059
0.248454 0.385564 0.225603
0.264424 0.390107 0.230146
0.280393 0.394651 0.234690
0.296362 0.399194 0.239233
0.312331 0.403737 0.243776
0.328300 0.408281 0.248320
0.344269 0.412824 0.252863
0.360238 0.417367 0.257406
0.376208 0.421911 0.261950
0.392177 0.426454 0.266493
0.408146 0.430997 0.271037
0.424115 0.435541 0.275580
0.440084 0.440084 0.280123
0.455647 0.444856 0.293782
0.470231 0.449918 0.307731
0.483836 0.455272 0.321971
0.496463 0.460916 0.336502
0.508112 0.466852 0.351324
0.518781 0.473078 0.366437
0.528472 0.479595 0.381842
0.537185 0.486404 0.397537
0.544919 0.493503 0.413522
0.551674 0.500893 0.429799
0.557451 0.508574 0.446367
0.562249 0.516546 0.463226
0.566069 0.524809 0.480376
0.568910 0.533363 0.497817
0.570773 0.542208 0.515548
0.571657 0.551344 0.533571
0.571562 0.560771 0.551884
0.570489 0.570489 0.570489
0.239222 0.401088 0.239222
0.254702 0.405777 0.243911
0.270182 0.410465 0.248600
0.285662 0.415154 0.253289
0.301142 0.419843 0.257978
0.316622 0.424532 0.262667
0.332102 0.429221 0.267356
0.347582 0.433910 0.272044
0.363061 0.438598 0.276733
0.378541 0.443287 0.281422
0.394021 0.447976 0.286111
0.409501 0.452665 0.290800
0.424981 0.457354 0.295489
0.440461 0.462043 0.300178
0.455941 0.466732 0.304866
0.471420 0.471420 0.309555
0.486494 0.476338 0.323994
0.500589 0.481546 0.338723
0.513705 0.487045 0.353744
0.525843 0.492835 0.369056
0.537002 0.498916 0.384658
0.547182 0.505288 0.400551
0.556384 0.511951 0.416736
0.564608 0.518905 0.433211
0.571853 0.526149 0.449978
0.578119 0.533685 0.467035
0.583406 0.541512 0.484383
0.587716 0.549630 0.502022
0.591046 0.558038 0.519952
0.593398 0.566738 0.538173
0.594771 0.575728 0.556685
0.595166 0.585010 0.575488
0.594582 0.594582 0.594582
0.262908 0.425408 0.262908
0.277898 0.430242 0.267742
0.292889 0.435076 0.272576
0.307879 0.439911 0.277411
0.322870 0.444745 0.282245
0.337861 0.449579 0.287079
0.352851 0.454414 0.291914
0.367842 0.459248 0.296748
0.382832 0.464082 0.301582
0.397823 0.468917 0.306417
0.412813 0.473751 0.311251
0.427804 0.478585 0.316085
0.442795 0.483420 0.320920
0.457785 0.488254 0.325754
0.472776 0.493088 0.330588
0.487766 0.497923 0.335423
0.502757 0.502757 0.340257
0.517341 0.507820 0.355476
0.530947 0.513173 0.370986
0.543574 0.518818 0.386787
0.555222 0.524754 0.402879
0.565892 0.530980 0.419261
0.575584 0.537498 0.435935
0.584296 0.544306 0.452900
0.592031 0.551406 0.470156
0.598786 0.558796 0.487702
0.604563 0.566477 0.505540
0.609362 0.574450 0.523668
0.613182 0.582713 0.542088
0.616023 0.591267 0.560798
0.617886 0.600112 0.579800
0.618770 0.609249 0.599092
0.618676 0.618676 0.618676
0.287572 0.449437 0.287572
0.302073 0.454417 0.292551
0.316574 0.459396 0.297531
0.331075 0.464376 0.302511
0.345577 0.469356 0.307491
0.360078 0.474336 0.312471
0.374579 0.479316 0.317450
0.389081 0.484295 0.322430
0.403582 0.489275 0.327410
0.418083 0.494255 0.332390
0.432584 0.499235 0.337370
0.447086 0.504215 0.342349
0.461587 0.509194 0.347329
0.476088 0.514174 0.352309
0.490590 0.519154 0.357289
0.505091 0.524134 0.362269
0.519592 0.529114 0.367248
0.534093 0.534093 0.372228
0.548189 0.539302 0.388228
0.561305 0.544801 0.404518
0.573443 0.550591 0.421099
0.584602 0.556673 0.437971
0.594783 0.563045 0.455135
0.603985 0.569708 0.472589
0.612209 0.576662 0.490334
0.619454 0.583907 0.508370
0.625720 0.591443 0.526697
0.631008 0.599270 0.545315
0.635317 0.607388 0.564224
0.638648 0.615797 0.583424
0.641000 0.624496 0.602914
0.642374 0.633487 0.622696
0.642769 0.642769 0.642769
0.313214 0.473175 0.313214
0.327226 0.478301 0.318340
0.341238 0.483426 0.323465
0.355250 0.488551 0.328590
0.369262 0.493676 0.333715
0.383274 0.498802 0.338841
0.397286 0.503927 0.343966
0.411298 0.509052 0.349091
0.425310 0.514178 0.354217
0.439322 0.519303 0.359342
0.453334 0.524428 0.364467
0.467346 0.529553 0.369592
0.481358 0.534679 0.374718
0.495370 0.539804 0.379843
0.509382 0.544929 0.384968
0.523394 0.550054 0.390094
0.537406 0.555180 0.395219
0.551418 0.560305 0.400344
0.565430 0.565430 0.405469
0.579036 0.570784 0.422249
0.591663 0.576429 0.439320
0.603312 0.582365 0.456681
0.613982 0.588592 0.474334
0.623674 0.595109 0.492277
0.632387 0.601918 0.510512
0.640121 0.609018 0.529037
0.646877 0.616408 0.547854
0.652654 0.624090 0.566961
0.657453 0.632063 0.586359
0.661273 0.640326 0.606049
0.664115 0.648880 0.626029
0.665978 0.657726 0.646300
0.666862 0.666862 0.666862
0.339836 0.496623 0.339836
0.353359 0.501894 0.345107
0.366881 0.507164 0.350377
0.380404 0.512435 0.355648
0.393927 0.517706 0.360919
0.407449 0.522977 0.366190
0.420972 0.528247 0.371460
0.434495 0.533518 0.376731
0.448018 0.538789 0.382002
0.461540 0.544060 0.387273
0.475063 0.549331 0.392543
0.488586 0.554601 0.397814
0.502108 0.559872 0.403085
0.515631 0.565143 0.408356
0.529154 0.570414 0.413626
0.542677 0.575684 0.418897
0.556199 0.580955 0.424168
0.569722 0.586226 0.429439
0.583245 0.591497 0.434709
0.596767 0.596767 0.439980
0.609884 0.602267 0.457540
0.622022 0.608057 0.475391
0.633182 0.614139 0.493533
0.643363 0.620511 0.511966
0.652565 0.627174 0.530690
0.660789 0.634129 0.549705
0.668034 0.641374 0.569011
0.674301 0.648910 0.588607
0.679589 0.656737 0.608495
0.683898 0.664855 0.628674
0.687229 0.673265 0.649143
0.689582 0.681965 0.669904
0.690956 0.690956 0.690956
0.367436 0.519780 0.367436
0.380470 0.525196 0.372852
0.393503 0.530612 0.378269
0.406536 0.536029 0.383685
0.419570 0.541445 0.389101
0.432603 0.546861 0.394517
0.445637 0.552277 0.399934
0.458670 0.557694 0.405350
0.471704 0.563110 0.410766
0.484737 0.568526 0.416182
0.497770 0.573942 0.421598
0.510804 0.579358 0.427015
0.523837 0.584775 0.432431
0.536871 0.590191 0.437847
0.549904 0.595607 0.443263
0.562937 0.601023 0.448680
0.575971 0.606440 0.454096
0.589004 0.611856 0.459512
0.602038 0.617272 0.464928
0.615071 0.622688 0.470345
0.628105 0.628105 0.475761
0.640732 0.633750 0.494101
0.652381 0.639686 0.512733
0.663051 0.645913 0.531655
0.672743 0.652431 0.550868
0.681456 0.659240 0.570372
0.689191 0.666340 0.590168
0.695947 0.673730 0.610254
0.701725 0.681412 0.630631
0.706524 0.689385 0.651299
0.710344 0.697649 0.672258
0.713186 0.706203 0.693508
0.715049 0.715049 0.715049
0.396015 0.542646 0.396015
0.408559 0.548208 0.401577
0.421104 0.553770 0.407139
0.433648 0.559331 0.412700
0.446192 0.564893 0.418262
0.458736 0.570455 0.423824
0.471280 0.576016 0.429386
0.483824 0.581578 0.434947
0.496368 0.587140 0.440509
0.508912 0.592702 0.446071
0.521457 0.598263 0.451632
0.534001 0.603825 0.457194
0.546545 0.609387 0.462756
0.559089 0.614948 0.468318
0.571633 0.620510 0.473879
0.584177 0.626072 0.479441
0.596721 0.631634 0.485003
0.609266 0.637195 0.490564
0.621810 0.642757 0.496126
0.634354 0.648319 0.501688
0.646898 0.653880 0.507249
0.659442 0.659442 0.512811
0.671580 0.665233 0.531932
0.682740 0.671314 0.551344
0.692921 0.677687 0.571046
0.702124 0.684351 0.591040
0.710348 0.691305 0.611325
0.717593 0.698551 0.631900
0.723860 0.706087 0.652767
0.729149 0.713914 0.673924
0.733458 0.722033 0.695372
0.736790 0.730442 0.717112
0.739142 0.739142 0.739142
0.425573 0.565222 0.425573
0.437628 0.570929 0.431280
0.449683 0.576636 0.436988
0.461738 0.582343 0.442695
0.473793 0.588050 0.448402
0.485847 0.593758 0.454109
0.497902 0.599465 0.459816
0.509957 0.605172 0.465523
0.522012 0.610879 0.471231
0.534067 0.616586 0.476938
0.546122 0.622293 0.482645
0.558176 0.628001 0.488352
0.570231 0.633708 0.494059
0.582286 0.639415 0.499767
0.594341 0.645122 0.505474
0.606396 0.650829 0.511181
0.618451 0.656537 0.516888
0.630506 0.662244 0.522595
0.642560 0.667951 0.528303
0.654615 0.673658 0.534010
0.666670 0.679365 0.539717
0.678725 0.685073 0.545424
0.690780 0.690780 0.551131
0.702429 0.696716 0.571032
0.713099 0.702943 0.591224
0.722791 0.709461 0.611708
0.731505 0.716271 0.632482
0.739240 0.723371 0.653546
0.745996 0.730762 0.674902
0.751774 0.738444 0.696549
0.756573 0.746417 0.718487
0.760393 0.754681 0.740716
0.763235 0.763235 0.763235
0.456110 0.587506 0.456110
0.467675 0.593359 0.461963
0.479241 0.599212 0.467815
0.490807 0.605064 0.473668
0.502372 0.610917 0.479521
0.513938 0.616770 0.485373
0.525503 0.622622 0.491226
0.537069 0.628475 0.497079
0.548634 0.634328 0.502931
0.560200 0.640180 0.508784
0.571765 0.646033 0.514637
0.583331 0.651886 0.520489
0.594897 0.657738 0.526342
0.606462 0.663591 0.532194
0.618028 0.669444 0.538047
0.629593 0.675296 0.543900
0.641159 0.681149 0.549753
0.652724 0.687002 0.555605
0.664290 0.692854 0.561458
0.675855 0.698707 0.567311
0.687421 0.704560 0.573163
0.698987 0.710412 0.579016
0.710552 0.716265 0.584868
0.722118 0.722118 0.590721
0.733278 0.728200 0.611403
0.743459 0.734572 0.632375
0.752662 0.741236 0.653638
0.760886 0.748191 0.675193
0.768132 0.755436 0.697038
0.774399 0.762973 0.719174
0.779687 0.770801 0.741601
0.783997 0.778919 0.764320
0.787329 0.787329 0.787329
0.487625 0.609500 0.487625
0.498702 0.615498 0.493623
0.509778 0.621497 0.499622
0.520854 0.627495 0.505620
0.531930 0.633493 0.511618
0.543007 0.639491 0.517616
0.554083 0.645489 0.523614
0.565159 0.651487 0.529612
0.576235 0.657485 0.535610
0.587312 0.663484 0.541609
0.598388 0.669482 0.547607
0.609464 0.675480 0.553605
0.620541 0.681478 0.559603
0.631617 0.687476 0.565601
0.642693 0.693474 0.571599
0.653769 0.699472 0.577597
0.664846 0.705471 0.583596
0.675922 0.711469 0.589594
0.686998 0.717467 0.595592
0.698074 0.723465 0.601590
0.709151 0.729463 0.607588
0.720227 0.735461 0.613586
0.731303 0.741459 0.619585
0.742379 0.747458 0.625583
0.753456 0.753456 0.631581
0.764127 0.759683 0.653043
0.773819 0.766202 0.674795
0.782532 0.773011 0.696839
0.790268 0.780111 0.719174
0.797024 0.787503 0.741799
0.802802 0.795185 0.764716
0.807601 0.803158 0.787924
0.811422 0.811422 0.811422
0.520120 0.631204 0.520120
0.530707 0.637347 0.526263
0.541294 0.643491 0.532407
0.551881 0.649634 0.538550
0.562468 0.655778 0.544694
0.573054 0.661922 0.550838
0.583641 0.668065 0.556981
0.594228 0.674209 0.563125
0.604815 0.680353 0.569269
0.615402 0.686496 0.575412
0.625989 0.692640 0.581556
0.636576 0.698783 0.587699
0.647163 0.704927 0.593843
0.657750 0.711071 0.599987
0.668337 0.717214 0.606130
0.678924 0.723358 0.612274
0.689511 0.729502 0.618418
0.700098 0.735645 0.624561
0.710685 0.741789 0.630705
0.721272 0.747932 0.636848
0.731859 0.754076 0.642992
0.742446 0.760220 0.649136
0.753033 0.766363 0.655279
0.763620 0.772507 0.661423
0.774207 0.778650 0.667566
0.784794 0.784794 0.673710
0.794976 0.791167 0.695952
0.804179 0.797831 0.718485
0.812403 0.804786 0.741309
0.819649 0.812032 0.764425
0.825916 0.819569 0.787830
0.831205 0.827397 0.811527
0.835515 0.835515 0.835515
0.553593 0.652616 0.553593
0.563690 0.658905 0.559882
0.573788 0.665194 0.566171
0.583886 0.671483 0.572460
0.593983 0.677772 0.578749
0.604081 0.684062 0.585038
0.614179 0.690351 0.591327
0.624277 0.696640 0.597616
0.634374 0.702929 0.603905
0.644472 0.709218 0.610195
0.654570 0.715507 0.616484
0.664667 0.721796 0.622773
0.674765 0.728085 0.629062
0.684863 0.734374 0.635351
0.694960 0.740663 0.641640
0.705058 0.746953 0.647929
0.715156 0.753242 0.654218
0.725253 0.759531 0.660507
0.735351 0.765820 0.666796
0.745449 0.772109 0.673086
0.755547 0.778398 0.679375
0.765644 0.784687 0.685664
0.775742 0.790976 0.691953
0.785840 0.797265 0.698242
0.795937 0.803554 0.704531
0.806035 0.809844 0.710820
0.816133 0.816133 0.717109
