luts/original/magazine-bw.cube
TITLE "Magazine BW"
LUT_3D_SIZE 5
DOMAIN_MIN 0.0 0.0 0.0
DOMAIN_MAX 1.0 1.0 1.0
0.001400 0.001400 0.001400
0.153289 0.031414 0.031414
0.242549 0.080049 0.080049
0.269180 0.147305 0.147305
0.233183 0.233183 0.233183
0.100833 0.222708 0.100833
0.252072 0.252072 0.130197
0.372653 0.291403 0.210153
0.430606 0.349356 0.308731
0.425929 0.425929 0.425929
0.262908 0.425408 0.262908
0.382832 0.464082 0.301582
0.502757 0.502757 0.340257
0.592031 0.551406 0.470156
0.618676 0.618676 0.618676
0.487625 0.609500 0.487625
0.576235 0.657485 0.535610
0.664846 0.705471 0.583596
0.753456 0.753456 0.631581
0.811422 0.811422 0.811422
0.774986 0.774986 0.774986
0.832281 0.832281 0.832281
0.889577 0.889577 0.889577
0.946873 0.946873 0.946873
1.000000 1.000000 1.000000
0.012022 0.012022 0.133897
0.163261 0.041386 0.163261
0.255683 0.093183 0.174433
0.285476 0.163601 0.204226
0.252641 0.252641 0.252641
0.110805 0.232680 0.232680
0.262044 0.262044 0.262044
0.385787 0.304537 0.304537
0.446902 0.365652 0.365652
0.445387 0.445387 0.445387
0.276042 0.438542 0.357292
0.395966 0.477216 0.395966
0.515891 0.515891 0.434641
0.608327 0.567702 0.527077
0.638134 0.638134 0.638134
0.503921 0.625796 0.544546
0.592531 0.673781 0.592531
0.681142 0.721767 0.640517
0.769752 0.769752 0.688502
0.830880 0.830880 0.830880
0.794443 0.794443 0.794443
0.851739 0.851739 0.851739
0.909035 0.909035 0.909035
0.966331 0.966331 0.966331
1.000000 1.000000 1.000000
0.028968 0.028968 0.191468
0.148893 0.067643 0.230143
0.268817 0.106317 0.268817
0.301772 0.179897 0.261147
0.272099 0.272099 0.272099
0.159072 0.240322 0.321572
0.278997 0.278997 0.360247
0.398921 0.317671 0.398921
0.463198 0.381948 0.422573
0.464845 0.464845 0.464845
0.289176 0.451676 0.451676
0.409100 0.490350 0.490350
0.529025 0.529025 0.529025
0.624623 0.583998 0.583998
0.657591 0.657591 0.657591
0.520217 0.642092 0.601467
0.608827 0.690077 0.649452
0.697438 0.738063 0.697438
0.786048 0.786048 0.745423
0.850338 0.850338 0.850338
0.813901 0.813901 0.813901
0.871197 0.871197 0.871197
0.928493 0.928493 0.928493
0.985789 0.985789 0.985789
1.000000 1.000000 1.000000
0.052238 0.052238 0.174113
0.140848 0.100223 0.222098
0.229458 0.148208 0.270083
0.318068 0.196193 0.318068
0.291557 0.291557 0.291557
0.213663 0.254288 0.335538
0.302273 0.302273 0.383523
0.390883 0.350258 0.431508
0.479494 0.398244 0.479494
0.484303 0.484303 0.484303
0.375088 0.456338 0.496963
0.463698 0.504323 0.544948
0.552308 0.552308 0.592933
0.640919 0.600294 0.640919
0.677049 0.677049 0.677049
0.536513 0.658388 0.658388
0.625123 0.706373 0.706373
0.713734 0.754359 0.754359
0.802344 0.802344 0.802344
0.869796 0.869796 0.869796
0.833359 0.833359 0.833359
0.890655 0.890655 0.890655
0.947951 0.947951 0.947951
1.000000 1.000000 1.000000
1.000000 1.000000 1.000000
0.081832 0.081832 0.081832
0.139127 0.139127 0.139127
0.196423 0.196423 0.196423
0.253719 0.253719 0.253719
0.311014 0.311014 0.311014
0.274578 0.274578 0.274578
0.331874 0.331874 0.331874
0.389169 0.389169 0.389169
0.446465 0.446465 0.446465
0.503761 0.503761 0.503761
0.467324 0.467324 0.467324
0.524620 0.524620 0.524620
0.581916 0.581916 0.581916
0.639211 0.639211 0.639211
0.696507 0.696507 0.696507
0.660071 0.660071 0.660071
0.717367 0.717367 0.717367
0.774662 0.774662 0.774662
0.831958 0.831958 0.831958
0.889254 0.889254 0.889254
0.852817 0.852817 0.852817
0.910113 0.910113 0.910113
0.967409 0.967409 0.967409
1.000000 1.000000 1.000000
1.000000 1.000000 1.000000
