luts/original/magazine-bw.cube
TITLE "Magazine BW"
LUT_3D_SIZE 9
DOMAIN_MIN 0.0 0.0 0.0
DOMAIN_MAX 1.0 1.0 1.0
0.001400 0.001400 0.001400
0.085173 0.014079 0.014079
0.153289 0.031414 0.031414
0.205748 0.053404 0.053404
0.242549 0.080049 0.080049
0.263693 0.111350 0.111350
0.269180 0.147305 0.147305
0.259010 0.187916 0.187916
0.233183 0.233183 0.233183
0.043286 0.114380 0.043286
0.126734 0.126734 0.055640
0.202680 0.141743 0.080805
0.262969 0.161407 0.110626
0.307601 0.185726 0.145101
0.336576 0.214701 0.184232
0.349893 0.248331 0.228018
0.347553 0.286616 0.276459
0.329556 0.329556 0.329556
0.100833 0.222708 0.100833
0.176452 0.237390 0.115515
0.252072 0.252072 0.130197
0.320191 0.269410 0.167847
0.372653 0.291403 0.210153
0.409458 0.318052 0.257114
0.430606 0.349356 0.308731
0.436096 0.385315 0.365002
0.425929 0.425929 0.425929
0.174040 0.326384 0.174040
0.241831 0.343393 0.191049
0.309622 0.360403 0.208059
0.377412 0.377412 0.225069
0.437705 0.397080 0.275205
0.482340 0.421403 0.329996
0.511318 0.450381 0.389443
0.524639 0.484014 0.453545
0.522302 0.522302 0.522302
0.262908 0.425408 0.262908
0.322870 0.444745 0.282245
0.382832 0.464082 0.301582
0.442795 0.483420 0.320920
0.502757 0.502757 0.340257
0.555222 0.524754 0.402879
0.592031 0.551406 0.470156
0.613182 0.582713 0.542088
0.618676 0.618676 0.618676
0.367436 0.519780 0.367436
0.419570 0.541445 0.389101
0.471704 0.563110 0.410766
0.523837 0.584775 0.432431
0.575971 0.606440 0.454096
0.628105 0.628105 0.475761
0.672743 0.652431 0.550868
0.701725 0.681412 0.630631
0.715049 0.715049 0.715049
0.487625 0.609500 0.487625
0.531930 0.633493 0.511618
0.576235 0.657485 0.535610
0.620541 0.681478 0.559603
0.664846 0.705471 0.583596
0.709151 0.729463 0.607588
0.753456 0.753456 0.631581
0.790268 0.780111 0.719174
0.811422 0.811422 0.811422
0.623475 0.694569 0.623475
0.659952 0.720889 0.649795
0.696428 0.747209 0.676116
0.732905 0.773530 0.702436
0.769381 0.799850 0.728756
0.805857 0.826170 0.755076
0.842334 0.852490 0.781396
0.878810 0.878810 0.807717
0.907795 0.907795 0.907795
0.774986 0.774986 0.774986
0.803633 0.803633 0.803633
0.832281 0.832281 0.832281
0.860929 0.860929 0.860929
0.889577 0.889577 0.889577
0.918225 0.918225 0.918225
0.946873 0.946873 0.946873
0.975521 0.975521 0.975521
1.000000 1.000000 1.000000
0.005921 0.005921 0.077014
0.089369 0.018275 0.089369
0.158275 0.036400 0.097338
0.211524 0.059181 0.109962
0.249116 0.086616 0.127241
0.271051 0.118707 0.149176
0.277328 0.155453 0.175766
0.267949 0.196855 0.207011
0.242912 0.242912 0.242912
0.047482 0.118575 0.118575
0.130930 0.130930 0.130930
0.207666 0.146729 0.146729
0.268746 0.167183 0.167183
0.314168 0.192293 0.192293
0.343933 0.222058 0.222058
0.358041 0.256478 0.256478
0.356492 0.295554 0.295554
0.339285 0.339285 0.339285
0.105819 0.227694 0.166756
0.181438 0.242376 0.181438
0.257058 0.257058 0.196120
0.325967 0.275186 0.224405
0.379220 0.297970 0.257345
0.416815 0.325409 0.294940
0.438754 0.357504 0.337191
0.445034 0.394253 0.384097
0.435658 0.435658 0.435658
0.179816 0.332160 0.230598
0.247607 0.349170 0.247607
0.315398 0.366179 0.264617
0.383189 0.383189 0.281627
0.444272 0.403647 0.322397
0.489698 0.428760 0.367823
0.519466 0.458529 0.417904
0.533577 0.492952 0.472640
0.532031 0.532031 0.532031
0.269475 0.431975 0.310100
0.329437 0.451312 0.329437
0.389399 0.470649 0.348774
0.449362 0.489987 0.368112
0.509324 0.509324 0.387449
0.562580 0.532111 0.440705
0.600179 0.559554 0.498616
0.622120 0.591651 0.561183
0.628405 0.628405 0.628405
0.374794 0.527137 0.405262
0.426927 0.548802 0.426927
0.479061 0.570467 0.448592
0.531195 0.592132 0.470257
0.583328 0.613797 0.491922
0.635462 0.635462 0.513587
0.680891 0.660579 0.579329
0.710663 0.690351 0.649726
0.724778 0.724778 0.724778
0.495773 0.617648 0.516086
0.540078 0.641641 0.540078
0.584383 0.665633 0.564071
0.628689 0.689626 0.588064
0.672994 0.713619 0.612056
0.717299 0.737611 0.636049
0.761604 0.761604 0.660041
0.799206 0.789050 0.738268
0.821151 0.821151 0.821151
0.632414 0.703507 0.642570
0.668890 0.729828 0.668890
0.705367 0.756148 0.695210
0.741843 0.782468 0.721530
0.778319 0.808788 0.747851
0.814796 0.835108 0.774171
0.851272 0.861429 0.800491
0.887749 0.887749 0.826811
0.917524 0.917524 0.917524
0.784715 0.784715 0.784715
0.813362 0.813362 0.813362
0.842010 0.842010 0.842010
0.870658 0.870658 0.870658
0.899306 0.899306 0.899306
0.927954 0.927954 0.927954
0.956602 0.956602 0.956602
0.985250 0.985250 0.985250
1.000000 1.000000 1.000000
0.012022 0.012022 0.133897
0.087642 0.026704 0.148579
0.163261 0.041386 0.163261
0.217301 0.064957 0.166520
0.255683 0.093183 0.174433
0.278408 0.126065 0.187002
0.285476 0.163601 0.204226
0.276887 0.205793 0.226106
0.252641 0.252641 0.252641
0.061413 0.122351 0.183288
0.137033 0.137033 0.197970
0.212652 0.151715 0.212652
0.274522 0.172960 0.223741
0.320735 0.198860 0.239485
0.351291 0.229416 0.259884
0.366189 0.264627 0.284939
0.365430 0.304493 0.314649
0.349014 0.349014 0.349014
0.110805 0.232680 0.232680
0.186424 0.247362 0.247362
0.262044 0.262044 0.262044
0.331744 0.280963 0.280963
0.385787 0.304537 0.304537
0.424173 0.332767 0.332767
0.446902 0.365652 0.365652
0.453973 0.403192 0.403192
0.445387 0.445387 0.445387
0.185593 0.337937 0.287155
0.253384 0.354946 0.304165
0.321175 0.371956 0.321175
0.388966 0.388966 0.338184
0.450839 0.410214 0.369589
0.497055 0.436118 0.405649
0.527614 0.466677 0.446364
0.542516 0.501891 0.491735
0.541760 0.541760 0.541760
0.276042 0.438542 0.357292
0.336004 0.457879 0.376629
0.395966 0.477216 0.395966
0.455929 0.496554 0.415304
0.515891 0.515891 0.434641
0.569937 0.539469 0.478531
0.608327 0.567702 0.527077
0.631059 0.600590 0.580277
0.638134 0.638134 0.638134
0.382151 0.534495 0.443089
0.434285 0.556160 0.464754
0.486419 0.577825 0.486419
0.538552 0.599490 0.508084
0.590686 0.621155 0.529748
0.642820 0.642820 0.551413
0.689039 0.668727 0.607789
0.719602 0.699289 0.668820
0.734507 0.734507 0.734507
0.503921 0.625796 0.544546
0.548226 0.649789 0.568539
0.592531 0.673781 0.592531
0.636837 0.697774 0.616524
0.681142 0.721767 0.640517
0.725447 0.745759 0.664509
0.769752 0.769752 0.688502
0.808144 0.797988 0.757363
0.830880 0.830880 0.830880
0.641352 0.712446 0.661665
0.677829 0.738766 0.687985
0.714305 0.765086 0.714305
0.750781 0.791406 0.740625
0.787258 0.817727 0.766945
0.823734 0.844047 0.793266
0.860211 0.870367 0.819586
0.896687 0.896687 0.845906
0.927253 0.927253 0.927253
0.794443 0.794443 0.794443
0.823091 0.823091 0.823091
0.851739 0.851739 0.851739
0.880387 0.880387 0.880387
0.909035 0.909035 0.909035
0.937683 0.937683 0.937683
0.966331 0.966331 0.966331
0.994978 0.994978 0.994978
1.000000 1.000000 1.000000
0.019705 0.019705 0.172048
0.087496 0.036714 0.189058
0.155287 0.053724 0.206068
0.223077 0.070734 0.223077
0.262250 0.099750 0.221625
0.285766 0.133422 0.224828
0.293624 0.171749 0.232687
0.285826 0.214732 0.245201
0.262370 0.262370 0.262370
0.076926 0.127708 0.229270
0.144717 0.144717 0.246280
0.212508 0.161727 0.263289
0.280299 0.178737 0.280299
0.327302 0.205427 0.286677
0.358648 0.236773 0.297711
0.374337 0.272774 0.313399
0.374369 0.313431 0.333744
0.358743 0.358743 0.358743
0.134148 0.235710 0.286492
0.201939 0.252720 0.303501
0.269730 0.269730 0.320511
0.337521 0.286739 0.337521
0.392354 0.311104 0.351729
0.431530 0.340124 0.370593
0.455050 0.373800 0.394112
0.462911 0.412130 0.422286
0.455116 0.455116 0.455116
0.191369 0.343713 0.343713
0.259160 0.360723 0.360723
0.326951 0.377733 0.377733
0.394742 0.394742 0.394742
0.457406 0.416781 0.416781
0.504413 0.443475 0.443475
0.535762 0.474825 0.474825
0.551454 0.510829 0.510829
0.551489 0.551489 0.551489
0.282609 0.445109 0.404484
0.342571 0.464446 0.423821
0.402533 0.483783 0.443158
0.462496 0.503121 0.462496
0.522458 0.522458 0.481833
0.577295 0.546826 0.516357
0.616475 0.575850 0.555537
0.639997 0.609528 0.599372
0.647862 0.647862 0.647862
0.389509 0.541852 0.480915
0.441642 0.563517 0.502580
0.493776 0.585182 0.524245
0.545910 0.606847 0.545910
0.598043 0.628512 0.567575
0.650177 0.650177 0.589240
0.697187 0.676875 0.636250
0.728540 0.708228 0.687915
0.744236 0.744236 0.744236
0.512069 0.633944 0.573007
0.556374 0.657937 0.596999
0.600679 0.681929 0.620992
0.644985 0.705922 0.644985
0.689290 0.729915 0.668977
0.733595 0.753907 0.692970
0.777900 0.777900 0.716962
0.817083 0.806927 0.776458
0.840609 0.840609 0.840609
0.650291 0.721384 0.680759
0.686767 0.747705 0.707080
0.723243 0.774025 0.733400
0.759720 0.800345 0.759720
0.796196 0.826665 0.786040
0.832673 0.852985 0.812360
0.869149 0.879306 0.838681
0.905626 0.905626 0.865001
0.936982 0.936982 0.936982
0.804172 0.804172 0.804172
0.832820 0.832820 0.832820
0.861468 0.861468 0.861468
0.890116 0.890116 0.890116
0.918764 0.918764 0.918764
0.947412 0.947412 0.947412
0.976060 0.976060 0.976060
1.000000 1.000000 1.000000
1.000000 1.000000 1.000000
0.028968 0.028968 0.191468
0.088930 0.048305 0.210805
0.148893 0.067643 0.230143
0.208855 0.086980 0.249480
0.268817 0.106317 0.268817
0.293124 0.140780 0.262655
0.301772 0.179897 0.261147
0.294764 0.223670 0.264295
0.272099 0.272099 0.272099
0.094020 0.134645 0.256520
0.153982 0.153982 0.275857
0.213945 0.173320 0.295195
0.273907 0.192657 0.314532
0.333869 0.211994 0.333869
0.366006 0.244131 0.335537
0.382485 0.280922 0.341860
0.383307 0.322370 0.352838
0.368472 0.368472 0.368472
0.159072 0.240322 0.321572
0.219034 0.259659 0.340909
0.278997 0.278997 0.360247
0.338959 0.298334 0.379584
0.398921 0.317671 0.398921
0.438888 0.347482 0.408419
0.463198 0.381948 0.422573
0.471850 0.421069 0.441381
0.464845 0.464845 0.464845
0.224124 0.345999 0.386624
0.284086 0.365336 0.405961
0.344049 0.384674 0.425298
0.404011 0.404011 0.444636
0.463973 0.423348 0.463973
0.511770 0.450833 0.481301
0.543910 0.482973 0.503285
0.560393 0.519768 0.529924
0.561218 0.561218 0.561218
0.289176 0.451676 0.451676
0.349138 0.471013 0.471013
0.409100 0.490350 0.490350
0.469063 0.509688 0.509688
0.529025 0.529025 0.529025
0.584652 0.554184 0.554184
0.624623 0.583998 0.583998
0.648936 0.618467 0.618467
0.657591 0.657591 0.657591
0.396866 0.549210 0.518741
0.449000 0.570875 0.540406
0.501134 0.592540 0.562071
0.553267 0.614205 0.583736
0.605401 0.635870 0.605401
0.657535 0.657535 0.627066
0.705335 0.685023 0.664710
0.737478 0.717166 0.707010
0.753965 0.753965 0.753965
0.520217 0.642092 0.601467
0.564522 0.666085 0.625460
0.608827 0.690077 0.649452
0.653133 0.714070 0.673445
0.697438 0.738063 0.697438
0.741743 0.762055 0.721430
0.786048 0.786048 0.745423
0.826021 0.815865 0.795553
0.850338 0.850338 0.850338
0.659229 0.730323 0.699854
0.695705 0.756643 0.726174
0.732182 0.782963 0.752494
0.768658 0.809283 0.778815
0.805135 0.835604 0.805135
0.841611 0.861924 0.831455
0.878088 0.888244 0.857775
0.914564 0.914564 0.884095
0.946711 0.946711 0.946711
0.813901 0.813901 0.813901
0.842549 0.842549 0.842549
0.871197 0.871197 0.871197
0.899845 0.899845 0.899845
0.928493 0.928493 0.928493
0.957141 0.957141 0.957141
0.985789 0.985789 0.985789
1.000000 1.000000 1.000000
1.000000 1.000000 1.000000
0.039813 0.039813 0.192156
0.091946 0.061478 0.213821
0.144080 0.083142 0.235486
0.196214 0.104807 0.257151
0.248347 0.126472 0.278816
0.300481 0.148137 0.300481
0.309920 0.188045 0.289608
0.303703 0.232609 0.283390
0.281828 0.281828 0.281828
0.112695 0.143164 0.265039
0.164829 0.164829 0.286703
0.216962 0.186493 0.308368
0.269096 0.208158 0.330033
0.321230 0.229823 0.351698
0.373363 0.251488 0.373363
0.390633 0.289070 0.370320
0.392245 0.331308 0.371933
0.378201 0.378201 0.378201
0.185577 0.246515 0.337921
0.237711 0.268180 0.359586
0.289844 0.289844 0.381251
0.341978 0.311509 0.402916
0.394112 0.333174 0.424581
0.446245 0.354839 0.446245
0.471346 0.390096 0.451033
0.480788 0.430007 0.460476
0.474574 0.474574 0.474574
0.258459 0.349866 0.410803
0.310593 0.371530 0.432468
0.362727 0.393195 0.454133
0.414860 0.414860 0.475798
0.466994 0.436525 0.497463
0.519128 0.458190 0.519128
0.552058 0.491121 0.531746
0.569331 0.528706 0.549019
0.570947 0.570947 0.570947
0.331342 0.453217 0.483685
0.383475 0.474881 0.505350
0.435609 0.496546 0.527015
0.487743 0.518211 0.548680
0.539876 0.539876 0.570345
0.592010 0.561541 0.592010
0.632771 0.592146 0.612458
0.657874 0.627405 0.637562
0.667320 0.667320 0.667320
0.404224 0.556567 0.556567
0.456357 0.578232 0.578232
0.508491 0.599897 0.599897
0.560625 0.621562 0.621562
0.612759 0.643227 0.643227
0.664892 0.664892 0.664892
0.713483 0.693171 0.693171
0.746417 0.726104 0.726104
0.763694 0.763694 0.763694
0.528365 0.650240 0.629928
0.572670 0.674233 0.653920
0.616975 0.698225 0.677913
0.661281 0.722218 0.701906
0.705586 0.746211 0.725898
0.749891 0.770203 0.749891
0.794196 0.794196 0.773883
0.834960 0.824804 0.814647
0.860067 0.860067 0.860067
0.668168 0.739261 0.718949
0.704644 0.765581 0.745269
0.741120 0.791902 0.771589
0.777597 0.818222 0.797909
0.814073 0.844542 0.824230
0.850550 0.870862 0.850550
0.887026 0.897183 0.876870
0.923503 0.923503 0.903190
0.956440 0.956440 0.956440
0.823630 0.823630 0.823630
0.852278 0.852278 0.852278
0.880926 0.880926 0.880926
0.909574 0.909574 0.909574
0.938222 0.938222 0.938222
0.966870 0.966870 0.966870
0.995517 0.995517 0.995517
1.000000 1.000000 1.000000
1.000000 1.000000 1.000000
0.052238 0.052238 0.174113
0.096543 0.076231 0.198106
0.140848 0.100223 0.222098
0.185153 0.124216 0.246091
0.229458 0.148208 0.270083
0.273763 0.172201 0.294076
0.318068 0.196193 0.318068
0.312641 0.241547 0.302485
0.291557 0.291557 0.291557
0.132951 0.153263 0.254826
0.177256 0.177256 0.278818
0.221561 0.201248 0.302811
0.265866 0.225241 0.326803
0.310171 0.249233 0.350796
0.354476 0.273226 0.374788
0.398781 0.297218 0.398781
0.401184 0.340246 0.391028
0.387930 0.387930 0.387930
0.213663 0.254288 0.335538
0.257968 0.278281 0.359531
0.302273 0.302273 0.383523
0.346578 0.326266 0.407516
0.390883 0.350258 0.431508
0.435188 0.374251 0.455501
0.479494 0.398244 0.479494
0.489727 0.438946 0.479571
0.484303 0.484303 0.484303
0.294376 0.355313 0.416251
0.338681 0.379306 0.440243
0.382986 0.403298 0.464236
0.427291 0.427291 0.488228
0.471596 0.451283 0.512221
0.515901 0.475276 0.536214
0.560206 0.499269 0.560206
0.578270 0.537645 0.568113
0.580676 0.580676 0.580676
0.375088 0.456338 0.496963
0.419393 0.480331 0.520956
0.463698 0.504323 0.544948
0.508003 0.528316 0.568941
0.552308 0.552308 0.592933
0.596614 0.576301 0.616926
0.640919 0.600294 0.640919
0.666813 0.636344 0.656656
0.677049 0.677049 0.677049
0.455801 0.557363 0.577676
0.500106 0.581356 0.601668
0.544411 0.605348 0.625661
0.588716 0.629341 0.649653
0.633021 0.653334 0.673646
0.677326 0.677326 0.697639
0.721631 0.701319 0.721631
0.755355 0.735043 0.745199
0.773422 0.773422 0.773422
0.536513 0.658388 0.658388
0.580818 0.682381 0.682381
0.625123 0.706373 0.706373
0.669429 0.730366 0.730366
0.713734 0.754359 0.754359
0.758039 0.778351 0.778351
0.802344 0.802344 0.802344
0.843898 0.833742 0.833742
0.869796 0.869796 0.869796
0.677106 0.748200 0.738043
0.713582 0.774520 0.764364
0.750059 0.800840 0.790684
0.786535 0.827160 0.817004
0.823012 0.853481 0.843324
0.859488 0.879801 0.869645
0.895965 0.906121 0.895965
0.932441 0.932441 0.922285
0.966169 0.966169 0.966169
0.833359 0.833359 0.833359
0.862007 0.862007 0.862007
0.890655 0.890655 0.890655
0.919303 0.919303 0.919303
0.947951 0.947951 0.947951
0.976599 0.976599 0.976599
1.000000 1.000000 1.000000
1.000000 1.000000 1.000000
1.000000 1.000000 1.000000
0.066244 0.066244 0.137338
0.102721 0.092565 0.163658
0.139197 0.118885 0.189978
0.175674 0.145205 0.216299
0.212150 0.171525 0.242619
0.248627 0.197845 0.268939
0.285103 0.224166 0.295259
0.321580 0.250486 0.321580
0.301285 0.301285 0.301285
0.154787 0.164943 0.225881
0.191264 0.191264 0.252201
0.227740 0.217584 0.278521
0.264217 0.243904 0.304842
0.300693 0.270224 0.331162
0.337169 0.296544 0.357482
0.373646 0.322865 0.383802
0.410122 0.349185 0.410122
0.397659 0.397659 0.397659
0.243330 0.263643 0.314424
0.279807 0.289963 0.340744
0.316283 0.316283 0.367064
0.352759 0.342603 0.393384
0.389236 0.368923 0.419705
0.425712 0.395244 0.446025
0.462189 0.421564 0.472345
0.498665 0.447884 0.498665
0.494032 0.494032 0.494032
0.331873 0.362342 0.402967
0.368349 0.388662 0.429287
0.404826 0.414982 0.455607
0.441302 0.441302 0.481927
0.477779 0.467623 0.508248
0.514255 0.493943 0.534568
0.550732 0.520263 0.560888
0.587208 0.546583 0.587208
0.590405 0.590405 0.590405
0.420416 0.461041 0.491510
0.456892 0.487361 0.517830
0.493369 0.513681 0.544150
0.529845 0.540001 0.570470
0.566322 0.566322 0.596790
0.602798 0.592642 0.623111
0.639275 0.618962 0.649431
0.675751 0.645282 0.675751
0.686778 0.686778 0.686778
0.508959 0.559740 0.580052
0.545435 0.586060 0.606373
0.581912 0.612380 0.632693
0.618388 0.638701 0.659013
0.654865 0.665021 0.685333
0.691341 0.691341 0.711654
0.727817 0.717661 0.737974
0.764294 0.743981 0.764294
0.783151 0.783151 0.783151
0.597502 0.658439 0.668595
0.633978 0.684759 0.694916
0.670455 0.711079 0.721236
0.706931 0.737400 0.747556
0.743407 0.763720 0.773876
0.779884 0.790040 0.800196
0.816360 0.816360 0.826517
0.852837 0.842681 0.852837
0.879525 0.879525 0.879525
0.686044 0.757138 0.757138
0.722521 0.783458 0.783458
0.758997 0.809779 0.809779
0.795474 0.836099 0.836099
0.831950 0.862419 0.862419
0.868427 0.888739 0.888739
0.904903 0.915059 0.915059
0.941380 0.941380 0.941380
0.975898 0.975898 0.975898
0.843088 0.843088 0.843088
0.871736 0.871736 0.871736
0.900384 0.900384 0.900384
0.929032 0.929032 0.929032
0.957680 0.957680 0.957680
0.986328 0.986328 0.986328
1.000000 1.000000 1.000000
1.000000 1.000000 1.000000
1.000000 1.000000 1.000000
0.081832 0.081832 0.081832
0.110479 0.110479 0.110479
0.139127 0.139127 0.139127
0.167775 0.167775 0.167775
0.196423 0.196423 0.196423
0.225071 0.225071 0.225071
0.253719 0.253719 0.253719
0.282367 0.282367 0.282367
0.311014 0.311014 0.311014
0.178205 0.178205 0.178205
0.206853 0.206853 0.206853
0.235500 0.235500 0.235500
0.264148 0.264148 0.264148
0.292796 0.292796 0.292796
0.321444 0.321444 0.321444
0.350092 0.350092 0.350092
0.378740 0.378740 0.378740
0.407388 0.407388 0.407388
0.274578 0.274578 0.274578
0.303226 0.303226 0.303226
0.331874 0.331874 0.331874
0.360522 0.360522 0.360522
0.389169 0.389169 0.389169
0.417817 0.417817 0.417817
0.446465 0.446465 0.446465
0.475113 0.475113 0.475113
0.503761 0.503761 0.503761
0.370951 0.370951 0.370951
0.399599 0.399599 0.399599
0.428247 0.428247 0.428247
0.456895 0.456895 0.456895
0.485543 0.485543 0.485543
0.514190 0.514190 0.514190
0.542838 0.542838 0.542838
0.571486 0.571486 0.571486
0.600134 0.600134 0.600134
0.467324 0.467324 0.467324
0.495972 0.495972 0.495972
0.524620 0.524620 0.524620
0.553268 0.553268 0.553268
0.581916 0.581916 0.581916
0.610564 0.610564 0.610564
0.639211 0.639211 0.639211
0.667859 0.667859 0.667859
0.696507 0.696507 0.696507
0.563698 0.563698 0.563698
0.592345 0.592345 0.592345
0.620993 0.620993 0.620993
0.649641 0.649641 0.649641
0.678289 0.678289 0.678289
0.706937 0.706937 0.706937
0.735585 0.735585 0.735585
0.764233 0.764233 0.764233
0.792880 0.792880 0.792880
0.660071 0.660071 0.660071
0.688719 0.688719 0.688719
0.717367 0.717367 0.717367
0.746014 0.746014 0.746014
0.774662 0.774662 0.774662
0.803310 0.803310 0.803310
0.831958 0.831958 0.831958
0.860606 0.860606 0.860606
0.889254 0.889254 0.889254
0.756444 0.756444 0.756444
0.785092 0.785092 0.785092
0.813740 0.813740 0.813740
0.842388 0.842388 0.842388
0.871035 0.871035 0.871035
0.899683 0.899683 0.899683
0.928331 0.928331 0.928331
0.956979 0.956979 0.956979
0.985627 0.985627 0.985627
0.852817 0.852817 0.852817
0.881465 0.881465 0.881465
0.910113 0.910113 0.910113
0.938761 0.938761 0.938761
0.967409 0.967409 0.967409
0.996056 0.996056 0.996056
1.000000 1.000000 1.000000
1.000000 1.000000 1.000000
1.000000 1.000000 1.000000
