luts/original/matte-cream.cube
TITLE "Matte Cream"
LUT_3D_SIZE 33
DOMAIN_MIN 0.0 0.0 0.0
DOMAIN_MAX 1.0 1.0 1.0
0.028000 0.021000 0.014000
0.060181 0.024866 0.017460
0.092285 0.027148 0.019336
0.124313 0.029526 0.021307
0.156266 0.031999 0.023374
0.188142 0.034567 0.025536
0.219941 0.037231 0.027793
0.251665 0.039990 0.030146
0.283312 0.042845 0.032595
0.314884 0.045795 0.035139
0.346379 0.048841 0.037778
0.377798 0.051982 0.040513
0.409141 0.055219 0.043344
0.440407 0.058551 0.046270
0.471598 0.061978 0.049291
0.502712 0.065501 0.052408
0.533750 0.069120 0.055620
0.564712 0.072834 0.058928
0.595598 0.076643 0.062331
0.626407 0.080548 0.065830
0.657141 0.084549 0.069424
0.687798 0.088645 0.073113
0.718379 0.092836 0.076898
0.748884 0.097123 0.080779
0.779312 0.101505 0.084755
0.809665 0.105983 0.088826
0.839941 0.110556 0.092993
0.870142 0.115225 0.097256
0.900266 0.119989 0.101614
0.930313 0.124848 0.106067
0.960285 0.129803 0.110616
0.990181 0.134854 0.115260
1.000000 0.140000 0.120000
0.032273 0.052774 0.017460
0.060181 0.052774 0.017460
0.092285 0.055811 0.019336
0.124313 0.058382 0.021307
0.156266 0.060909 0.023374
0.188142 0.063476 0.025536
0.219941 0.066110 0.027793
0.251665 0.068823 0.030146
0.283312 0.071622 0.032595
0.314884 0.074510 0.035139
0.346379 0.077488 0.037778
0.377798 0.080559 0.040513
0.409141 0.083723 0.043344
0.440407 0.086980 0.046270
0.471598 0.090331 0.049291
0.502712 0.093776 0.052408
0.533750 0.097316 0.055620
0.564712 0.100950 0.058928
0.595598 0.104679 0.062331
0.626407 0.108503 0.065830
0.657141 0.112422 0.069424
0.687798 0.116436 0.073113
0.718379 0.120545 0.076898
0.748884 0.124750 0.080779
0.779312 0.129049 0.084755
0.809665 0.133444 0.088826
0.839941 0.137934 0.092993
0.870142 0.142519 0.097256
0.900266 0.147200 0.101614
0.930313 0.151975 0.106067
0.960285 0.156847 0.110616
0.990181 0.161813 0.115260
1.000000 0.166875 0.120000
0.034961 0.084473 0.019336
0.063623 0.084473 0.019336
0.092285 0.084473 0.019336
0.124313 0.087238 0.021307
0.156266 0.089820 0.023374
0.188142 0.092384 0.025536
0.219941 0.094989 0.027793
0.251665 0.097656 0.030146
0.283312 0.100399 0.032595
0.314884 0.103225 0.035139
0.346379 0.106136 0.037778
0.377798 0.109136 0.040513
0.409141 0.112227 0.043344
0.440407 0.115409 0.046270
0.471598 0.118683 0.049291
0.502712 0.122050 0.052408
0.533750 0.125511 0.055620
0.564712 0.129066 0.058928
0.595598 0.132715 0.062331
0.626407 0.136458 0.065830
0.657141 0.140295 0.069424
0.687798 0.144228 0.073113
0.718379 0.148255 0.076898
0.748884 0.152376 0.080779
0.779312 0.156593 0.084755
0.809665 0.160905 0.088826
0.839941 0.165312 0.092993
0.870142 0.169813 0.097256
0.900266 0.174410 0.101614
0.930313 0.179102 0.106067
0.960285 0.183890 0.110616
0.990181 0.188772 0.115260
1.000000 0.193750 0.120000
0.037745 0.116095 0.021307
0.066601 0.116095 0.021307
0.095457 0.116095 0.021307
0.124313 0.116095 0.021307
0.156266 0.118730 0.023374
0.188142 0.121293 0.025536
0.219941 0.123867 0.027793
0.251665 0.126489 0.030146
0.283312 0.129177 0.032595
0.314884 0.131939 0.035139
0.346379 0.134784 0.037778
0.377798 0.137713 0.040513
0.409141 0.140730 0.043344
0.440407 0.143837 0.046270
0.471598 0.147035 0.049291
0.502712 0.150325 0.052408
0.533750 0.153707 0.055620
0.564712 0.157182 0.058928
0.595598 0.160750 0.062331
0.626407 0.164413 0.065830
0.657141 0.168169 0.069424
0.687798 0.172019 0.073113
0.718379 0.175964 0.076898
0.748884 0.180003 0.080779
0.779312 0.184137 0.084755
0.809665 0.188366 0.088826
0.839941 0.192689 0.092993
0.870142 0.197108 0.097256
0.900266 0.201621 0.101614
0.930313 0.206229 0.106067
0.960285 0.210933 0.110616
0.990181 0.215731 0.115260
1.000000 0.220625 0.120000
0.040624 0.147641 0.023374
0.069534 0.147641 0.023374
0.098445 0.147641 0.023374
0.127355 0.147641 0.023374
0.156266 0.147641 0.023374
0.188142 0.150202 0.025536
0.219941 0.152746 0.027793
0.251665 0.155322 0.030146
0.283312 0.157954 0.032595
0.314884 0.160654 0.035139
0.346379 0.163431 0.037778
0.377798 0.166290 0.040513
0.409141 0.169234 0.043344
0.440407 0.172266 0.046270
0.471598 0.175388 0.049291
0.502712 0.178599 0.052408
0.533750 0.181902 0.055620
0.564712 0.185298 0.058928
0.595598 0.188786 0.062331
0.626407 0.192367 0.065830
0.657141 0.196042 0.069424
0.687798 0.199811 0.073113
0.718379 0.203673 0.076898
0.748884 0.207630 0.080779
0.779312 0.211681 0.084755
0.809665 0.215827 0.088826
0.839941 0.220067 0.092993
0.870142 0.224402 0.097256
0.900266 0.228832 0.101614
0.930313 0.233356 0.106067
0.960285 0.237976 0.110616
0.990181 0.242690 0.115260
1.000000 0.247500 0.120000
0.043598 0.179110 0.025536
0.072507 0.179110 0.025536
0.101416 0.179110 0.025536
0.130324 0.179110 0.025536
0.159233 0.179110 0.025536
0.188142 0.179110 0.025536
0.219941 0.181625 0.027793
0.251665 0.184155 0.030146
0.283312 0.186731 0.032595
0.314884 0.189369 0.035139
0.346379 0.192079 0.037778
0.377798 0.194867 0.040513
0.409141 0.197738 0.043344
0.440407 0.200695 0.046270
0.471598 0.203740 0.049291
0.502712 0.206874 0.052408
0.533750 0.210098 0.055620
0.564712 0.213414 0.058928
0.595598 0.216822 0.062331
0.626407 0.220322 0.065830
0.657141 0.223915 0.069424
0.687798 0.227602 0.073113
0.718379 0.231383 0.076898
0.748884 0.235257 0.080779
0.779312 0.239225 0.084755
0.809665 0.243288 0.088826
0.839941 0.247445 0.092993
0.870142 0.251696 0.097256
0.900266 0.256043 0.101614
0.930313 0.260484 0.106067
0.960285 0.265019 0.110616
0.990181 0.269650 0.115260
1.000000 0.274375 0.120000
0.046668 0.210504 0.027793
0.075547 0.210504 0.027793
0.104426 0.210504 0.027793
0.133305 0.210504 0.027793
0.162184 0.210504 0.027793
0.191063 0.210504 0.027793
0.219941 0.210504 0.027793
0.251665 0.212988 0.030146
0.283312 0.215508 0.032595
0.314884 0.218083 0.035139
0.346379 0.220726 0.037778
0.377798 0.223444 0.040513
0.409141 0.226242 0.043344
0.440407 0.229124 0.046270
0.471598 0.232092 0.049291
0.502712 0.235148 0.052408
0.533750 0.238294 0.055620
0.564712 0.241530 0.058928
0.595598 0.244857 0.062331
0.626407 0.248277 0.065830
0.657141 0.251789 0.069424
0.687798 0.255394 0.073113
0.718379 0.259092 0.076898
0.748884 0.262884 0.080779
0.779312 0.266769 0.084755
0.809665 0.270749 0.088826
0.839941 0.274823 0.092993
0.870142 0.278991 0.097256
0.900266 0.283253 0.101614
0.930313 0.287611 0.106067
0.960285 0.292062 0.110616
0.990181 0.296609 0.115260
1.000000 0.301250 0.120000
0.049834 0.241821 0.030146
0.078667 0.241821 0.030146
0.107500 0.241821 0.030146
0.136333 0.241821 0.030146
0.165166 0.241821 0.030146
0.193999 0.241821 0.030146
0.222832 0.241821 0.030146
0.251665 0.241821 0.030146
0.283312 0.244285 0.032595
0.314884 0.246798 0.035139
0.346379 0.249374 0.037778
0.377798 0.252021 0.040513
0.409141 0.254746 0.043344
0.440407 0.257553 0.046270
0.471598 0.260444 0.049291
0.502712 0.263423 0.052408
0.533750 0.266489 0.055620
0.564712 0.269646 0.058928
0.595598 0.272893 0.062331
0.626407 0.276232 0.065830
0.657141 0.279662 0.069424
0.687798 0.283185 0.073113
0.718379 0.286801 0.076898
0.748884 0.290511 0.080779
0.779312 0.294313 0.084755
0.809665 0.298210 0.088826
0.839941 0.302201 0.092993
0.870142 0.306285 0.097256
0.900266 0.310464 0.101614
0.930313 0.314738 0.106067
0.960285 0.319105 0.110616
0.990181 0.323568 0.115260
1.000000 0.328125 0.120000
0.053095 0.273062 0.032595
0.081872 0.273062 0.032595
0.110649 0.273062 0.032595
0.139427 0.273062 0.032595
0.168204 0.273062 0.032595
0.196981 0.273062 0.032595
0.225758 0.273062 0.032595
0.254535 0.273062 0.032595
0.283312 0.273062 0.032595
0.314884 0.275513 0.035139
0.346379 0.278021 0.037778
0.377798 0.280598 0.040513
0.409141 0.283250 0.043344
0.440407 0.285982 0.046270
0.471598 0.288797 0.049291
0.502712 0.291697 0.052408
0.533750 0.294685 0.055620
0.564712 0.297762 0.058928
0.595598 0.300929 0.062331
0.626407 0.304186 0.065830
0.657141 0.307535 0.069424
0.687798 0.310977 0.073113
0.718379 0.314511 0.076898
0.748884 0.318137 0.080779
0.779312 0.321858 0.084755
0.809665 0.325671 0.088826
0.839941 0.329578 0.092993
0.870142 0.333580 0.097256
0.900266 0.337675 0.101614
0.930313 0.341865 0.106067
0.960285 0.346149 0.110616
0.990181 0.350527 0.115260
1.000000 0.355000 0.120000
0.056451 0.304228 0.035139
0.085166 0.304228 0.035139
0.113881 0.304228 0.035139
0.142596 0.304228 0.035139
0.171310 0.304228 0.035139
0.200025 0.304228 0.035139
0.228740 0.304228 0.035139
0.257454 0.304228 0.035139
0.286169 0.304228 0.035139
0.314884 0.304228 0.035139
0.346379 0.306669 0.037778
0.377798 0.309175 0.040513
0.409141 0.311754 0.043344
0.440407 0.314411 0.046270
0.471598 0.317149 0.049291
0.502712 0.319972 0.052408
0.533750 0.322881 0.055620
0.564712 0.325878 0.058928
0.595598 0.328964 0.062331
0.626407 0.332141 0.065830
0.657141 0.335409 0.069424
0.687798 0.338768 0.073113
0.718379 0.342220 0.076898
0.748884 0.345764 0.080779
0.779312 0.349402 0.084755
0.809665 0.353132 0.088826
0.839941 0.356956 0.092993
0.870142 0.360874 0.097256
0.900266 0.364886 0.101614
0.930313 0.368992 0.106067
0.960285 0.373192 0.110616
0.990181 0.377486 0.115260
1.000000 0.381875 0.120000
0.059903 0.335316 0.037778
0.088551 0.335316 0.037778
0.117199 0.335316 0.037778
0.145846 0.335316 0.037778
0.174494 0.335316 0.037778
0.203141 0.335316 0.037778
0.231789 0.335316 0.037778
0.260436 0.335316 0.037778
0.289084 0.335316 0.037778
0.317731 0.335316 0.037778
0.346379 0.335316 0.037778
0.377798 0.337752 0.040513
0.409141 0.340258 0.043344
0.440407 0.342839 0.046270
0.471598 0.345501 0.049291
0.502712 0.348246 0.052408
0.533750 0.351076 0.055620
0.564712 0.353994 0.058928
0.595598 0.357000 0.062331
0.626407 0.360096 0.065830
0.657141 0.363282 0.069424
0.687798 0.366560 0.073113
0.718379 0.369929 0.076898
0.748884 0.373391 0.080779
0.779312 0.376946 0.084755
0.809665 0.380593 0.088826
0.839941 0.384334 0.092993
0.870142 0.388168 0.097256
0.900266 0.392097 0.101614
0.930313 0.396119 0.106067
0.960285 0.400235 0.110616
0.990181 0.404445 0.115260
1.000000 0.408750 0.120000
0.063451 0.366329 0.040513
0.092028 0.366329 0.040513
0.120605 0.366329 0.040513
0.149182 0.366329 0.040513
0.177759 0.366329 0.040513
0.206336 0.366329 0.040513
0.234913 0.366329 0.040513
0.263490 0.366329 0.040513
0.292067 0.366329 0.040513
0.320644 0.366329 0.040513
0.349221 0.366329 0.040513
0.377798 0.366329 0.040513
0.409141 0.368762 0.043344
0.440407 0.371268 0.046270
0.471598 0.373853 0.049291
0.502712 0.376520 0.052408
0.533750 0.379272 0.055620
0.564712 0.382110 0.058928
0.595598 0.385036 0.062331
0.626407 0.388051 0.065830
0.657141 0.391156 0.069424
0.687798 0.394351 0.073113
0.718379 0.397639 0.076898
0.748884 0.401018 0.080779
0.779312 0.404490 0.084755
0.809665 0.408054 0.088826
0.839941 0.411712 0.092993
0.870142 0.415463 0.097256
0.900266 0.419307 0.101614
0.930313 0.423246 0.106067
0.960285 0.427278 0.110616
0.990181 0.431404 0.115260
1.000000 0.435625 0.120000
0.067094 0.397266 0.043344
0.095598 0.397266 0.043344
0.124102 0.397266 0.043344
0.152605 0.397266 0.043344
0.181109 0.397266 0.043344
0.209613 0.397266 0.043344
0.238117 0.397266 0.043344
0.266621 0.397266 0.043344
0.295125 0.397266 0.043344
0.323629 0.397266 0.043344
0.352133 0.397266 0.043344
0.380637 0.397266 0.043344
0.409141 0.397266 0.043344
0.440407 0.399697 0.046270
0.471598 0.402206 0.049291
0.502712 0.404795 0.052408
0.533750 0.407468 0.055620
0.564712 0.410226 0.058928
0.595598 0.413071 0.062331
0.626407 0.416005 0.065830
0.657141 0.419029 0.069424
0.687798 0.422143 0.073113
0.718379 0.425348 0.076898
0.748884 0.428645 0.080779
0.779312 0.432034 0.084755
0.809665 0.435515 0.088826
0.839941 0.439090 0.092993
0.870142 0.442757 0.097256
0.900266 0.446518 0.101614
0.930313 0.450373 0.106067
0.960285 0.454321 0.110616
0.990181 0.458364 0.115260
1.000000 0.462500 0.120000
0.070832 0.428126 0.046270
0.099261 0.428126 0.046270
0.127690 0.428126 0.046270
0.156119 0.428126 0.046270
0.184548 0.428126 0.046270
0.212976 0.428126 0.046270
0.241405 0.428126 0.046270
0.269834 0.428126 0.046270
0.298263 0.428126 0.046270
0.326692 0.428126 0.046270
0.355121 0.428126 0.046270
0.383550 0.428126 0.046270
0.411978 0.428126 0.046270
0.440407 0.428126 0.046270
0.471598 0.430558 0.049291
0.502712 0.433069 0.052408
0.533750 0.435663 0.055620
0.564712 0.438342 0.058928
0.595598 0.441107 0.062331
0.626407 0.443960 0.065830
0.657141 0.446902 0.069424
0.687798 0.449934 0.073113
0.718379 0.453057 0.076898
0.748884 0.456272 0.080779
0.779312 0.459578 0.084755
0.809665 0.462976 0.088826
0.839941 0.466467 0.092993
0.870142 0.470052 0.097256
0.900266 0.473729 0.101614
0.930313 0.477500 0.106067
0.960285 0.481364 0.110616
0.990181 0.485323 0.115260
1.000000 0.489375 0.120000
0.074666 0.458910 0.049291
0.103018 0.458910 0.049291
0.131370 0.458910 0.049291
0.159723 0.458910 0.049291
0.188075 0.458910 0.049291
0.216427 0.458910 0.049291
0.244780 0.458910 0.049291
0.273132 0.458910 0.049291
0.301484 0.458910 0.049291
0.329836 0.458910 0.049291
0.358189 0.458910 0.049291
0.386541 0.458910 0.049291
0.414893 0.458910 0.049291
0.443245 0.458910 0.049291
0.471598 0.458910 0.049291
0.502712 0.461344 0.052408
0.533750 0.463859 0.055620
0.564712 0.466458 0.058928
0.595598 0.469143 0.062331
0.626407 0.471915 0.065830
0.657141 0.474776 0.069424
0.687798 0.477726 0.073113
0.718379 0.480767 0.076898
0.748884 0.483898 0.080779
0.779312 0.487122 0.084755
0.809665 0.490437 0.088826
0.839941 0.493845 0.092993
0.870142 0.497346 0.097256
0.900266 0.500940 0.101614
0.930313 0.504627 0.106067
0.960285 0.508407 0.110616
0.990181 0.512282 0.115260
1.000000 0.516250 0.120000
0.078595 0.489618 0.052408
0.106870 0.489618 0.052408
0.135144 0.489618 0.052408
0.163419 0.489618 0.052408
0.191693 0.489618 0.052408
0.219967 0.489618 0.052408
0.248242 0.489618 0.052408
0.276516 0.489618 0.052408
0.304791 0.489618 0.052408
0.333065 0.489618 0.052408
0.361340 0.489618 0.052408
0.389614 0.489618 0.052408
0.417889 0.489618 0.052408
0.446163 0.489618 0.052408
0.474437 0.489618 0.052408
0.502712 0.489618 0.052408
0.533750 0.492054 0.055620
0.564712 0.494574 0.058928
0.595598 0.497178 0.062331
0.626407 0.499869 0.065830
0.657141 0.502649 0.069424
0.687798 0.505517 0.073113
0.718379 0.508476 0.076898
0.748884 0.511525 0.080779
0.779312 0.514666 0.084755
0.809665 0.517898 0.088826
0.839941 0.521223 0.092993
0.870142 0.524640 0.097256
0.900266 0.528150 0.101614
0.930313 0.531754 0.106067
0.960285 0.535451 0.110616
0.990181 0.539241 0.115260
1.000000 0.543125 0.120000
0.082620 0.520250 0.055620
0.110816 0.520250 0.055620
0.139011 0.520250 0.055620
0.167207 0.520250 0.055620
0.195403 0.520250 0.055620
0.223598 0.520250 0.055620
0.251794 0.520250 0.055620
0.279989 0.520250 0.055620
0.308185 0.520250 0.055620
0.336381 0.520250 0.055620
0.364576 0.520250 0.055620
0.392772 0.520250 0.055620
0.420967 0.520250 0.055620
0.449163 0.520250 0.055620
0.477359 0.520250 0.055620
0.505554 0.520250 0.055620
0.533750 0.520250 0.055620
0.564712 0.522690 0.058928
0.595598 0.525214 0.062331
0.626407 0.527824 0.065830
0.657141 0.530522 0.069424
0.687798 0.533309 0.073113
0.718379 0.536185 0.076898
0.748884 0.539152 0.080779
0.779312 0.542210 0.084755
0.809665 0.545359 0.088826
0.839941 0.548601 0.092993
0.870142 0.551935 0.097256
0.900266 0.555361 0.101614
0.930313 0.558881 0.106067
0.960285 0.562494 0.110616
0.990181 0.566200 0.115260
1.000000 0.570000 0.120000
0.086740 0.550806 0.058928
0.114856 0.550806 0.058928
0.142972 0.550806 0.058928
0.171088 0.550806 0.058928
0.199204 0.550806 0.058928
0.227320 0.550806 0.058928
0.255436 0.550806 0.058928
0.283552 0.550806 0.058928
0.311668 0.550806 0.058928
0.339784 0.550806 0.058928
0.367900 0.550806 0.058928
0.396016 0.550806 0.058928
0.424132 0.550806 0.058928
0.452248 0.550806 0.058928
0.480364 0.550806 0.058928
0.508480 0.550806 0.058928
0.536596 0.550806 0.058928
0.564712 0.550806 0.058928
0.595598 0.553249 0.062331
0.626407 0.555779 0.065830
0.657141 0.558396 0.069424
0.687798 0.561100 0.073113
0.718379 0.563895 0.076898
0.748884 0.566779 0.080779
0.779312 0.569754 0.084755
0.809665 0.572820 0.088826
0.839941 0.575979 0.092993
0.870142 0.579229 0.097256
0.900266 0.582572 0.101614
0.930313 0.586008 0.106067
0.960285 0.589537 0.110616
0.990181 0.593159 0.115260
1.000000 0.596875 0.120000
0.090956 0.581285 0.062331
0.118992 0.581285 0.062331
0.147027 0.581285 0.062331
0.175063 0.581285 0.062331
0.203099 0.581285 0.062331
0.231134 0.581285 0.062331
0.259170 0.581285 0.062331
0.287205 0.581285 0.062331
0.315241 0.581285 0.062331
0.343277 0.581285 0.062331
0.371312 0.581285 0.062331
0.399348 0.581285 0.062331
0.427384 0.581285 0.062331
0.455419 0.581285 0.062331
0.483455 0.581285 0.062331
0.511491 0.581285 0.062331
0.539526 0.581285 0.062331
0.567562 0.581285 0.062331
0.595598 0.581285 0.062331
0.626407 0.583734 0.065830
0.657141 0.586269 0.069424
0.687798 0.588892 0.073113
0.718379 0.591604 0.076898
0.748884 0.594406 0.080779
0.779312 0.597298 0.084755
0.809665 0.600281 0.088826
0.839941 0.603356 0.092993
0.870142 0.606523 0.097256
0.900266 0.609783 0.101614
0.930313 0.613135 0.106067
0.960285 0.616580 0.110616
0.990181 0.620118 0.115260
1.000000 0.623750 0.120000
0.095267 0.611688 0.065830
0.123222 0.611688 0.065830
0.151177 0.611688 0.065830
0.179131 0.611688 0.065830
0.207086 0.611688 0.065830
0.235041 0.611688 0.065830
0.262996 0.611688 0.065830
0.290950 0.611688 0.065830
0.318905 0.611688 0.065830
0.346860 0.611688 0.065830
0.374815 0.611688 0.065830
0.402769 0.611688 0.065830
0.430724 0.611688 0.065830
0.458679 0.611688 0.065830
0.486634 0.611688 0.065830
0.514588 0.611688 0.065830
0.542543 0.611688 0.065830
0.570498 0.611688 0.065830
0.598453 0.611688 0.065830
0.626407 0.611688 0.065830
0.657141 0.614142 0.069424
0.687798 0.616684 0.073113
0.718379 0.619313 0.076898
0.748884 0.622033 0.080779
0.779312 0.624842 0.084755
0.809665 0.627743 0.088826
0.839941 0.630734 0.092993
0.870142 0.633818 0.097256
0.900266 0.636994 0.101614
0.930313 0.640262 0.106067
0.960285 0.643623 0.110616
0.990181 0.647077 0.115260
1.000000 0.650625 0.120000
0.099674 0.642016 0.069424
0.127547 0.642016 0.069424
0.155420 0.642016 0.069424
0.183294 0.642016 0.069424
0.211167 0.642016 0.069424
0.239040 0.642016 0.069424
0.266914 0.642016 0.069424
0.294787 0.642016 0.069424
0.322661 0.642016 0.069424
0.350534 0.642016 0.069424
0.378407 0.642016 0.069424
0.406281 0.642016 0.069424
0.434154 0.642016 0.069424
0.462027 0.642016 0.069424
0.489901 0.642016 0.069424
0.517774 0.642016 0.069424
0.545647 0.642016 0.069424
0.573521 0.642016 0.069424
0.601394 0.642016 0.069424
0.629267 0.642016 0.069424
0.657141 0.642016 0.069424
0.687798 0.644475 0.073113
0.718379 0.647023 0.076898
0.748884 0.649660 0.080779
0.779312 0.652386 0.084755
0.809665 0.655204 0.088826
0.839941 0.658112 0.092993
0.870142 0.661112 0.097256
0.900266 0.664204 0.101614
0.930313 0.667389 0.106067
0.960285 0.670666 0.110616
0.990181 0.674037 0.115260
1.000000 0.677500 0.120000
0.104176 0.672267 0.073113
0.131967 0.672267 0.073113
0.159759 0.672267 0.073113
0.187550 0.672267 0.073113
0.215342 0.672267 0.073113
0.243133 0.672267 0.073113
0.270925 0.672267 0.073113
0.298717 0.672267 0.073113
0.326508 0.672267 0.073113
0.354300 0.672267 0.073113
0.382091 0.672267 0.073113
0.409883 0.672267 0.073113
0.437674 0.672267 0.073113
0.465466 0.672267 0.073113
0.493257 0.672267 0.073113
0.521049 0.672267 0.073113
0.548840 0.672267 0.073113
0.576632 0.672267 0.073113
0.604423 0.672267 0.073113
0.632215 0.672267 0.073113
0.660006 0.672267 0.073113
0.687798 0.672267 0.073113
0.718379 0.674732 0.076898
0.748884 0.677286 0.080779
0.779312 0.679930 0.084755
0.809665 0.682665 0.088826
0.839941 0.685490 0.092993
0.870142 0.688407 0.097256
0.900266 0.691415 0.101614
0.930313 0.694516 0.106067
0.960285 0.697709 0.110616
0.990181 0.700996 0.115260
1.000000 0.704375 0.120000
0.108773 0.702441 0.076898
0.136483 0.702441 0.076898
0.164192 0.702441 0.076898
0.191901 0.702441 0.076898
0.219611 0.702441 0.076898
0.247320 0.702441 0.076898
0.275029 0.702441 0.076898
0.302739 0.702441 0.076898
0.330448 0.702441 0.076898
0.358157 0.702441 0.076898
0.385867 0.702441 0.076898
0.413576 0.702441 0.076898
0.441286 0.702441 0.076898
0.468995 0.702441 0.076898
0.496704 0.702441 0.076898
0.524414 0.702441 0.076898
0.552123 0.702441 0.076898
0.579832 0.702441 0.076898
0.607542 0.702441 0.076898
0.635251 0.702441 0.076898
0.662960 0.702441 0.076898
0.690670 0.702441 0.076898
0.718379 0.702441 0.076898
0.748884 0.704913 0.080779
0.779312 0.707474 0.084755
0.809665 0.710126 0.088826
0.839941 0.712868 0.092993
0.870142 0.715701 0.097256
0.900266 0.718626 0.101614
0.930313 0.721643 0.106067
0.960285 0.724753 0.110616
0.990181 0.727955 0.115260
1.000000 0.731250 0.120000
0.113466 0.732540 0.080779
0.141093 0.732540 0.080779
0.168720 0.732540 0.080779
0.196347 0.732540 0.080779
0.223974 0.732540 0.080779
0.251601 0.732540 0.080779
0.279228 0.732540 0.080779
0.306854 0.732540 0.080779
0.334481 0.732540 0.080779
0.362108 0.732540 0.080779
0.389735 0.732540 0.080779
0.417362 0.732540 0.080779
0.444989 0.732540 0.080779
0.472615 0.732540 0.080779
0.500242 0.732540 0.080779
0.527869 0.732540 0.080779
0.555496 0.732540 0.080779
0.583123 0.732540 0.080779
0.610750 0.732540 0.080779
0.638376 0.732540 0.080779
0.666003 0.732540 0.080779
0.693630 0.732540 0.080779
0.721257 0.732540 0.080779
0.748884 0.732540 0.080779
0.779312 0.735018 0.084755
0.809665 0.737587 0.088826
0.839941 0.740245 0.092993
0.870142 0.742995 0.097256
0.900266 0.745837 0.101614
0.930313 0.748770 0.106067
0.960285 0.751796 0.110616
0.990181 0.754914 0.115260
1.000000 0.758125 0.120000
0.118255 0.762563 0.084755
0.145799 0.762563 0.084755
0.173343 0.762563 0.084755
0.200887 0.762563 0.084755
0.228431 0.762563 0.084755
0.255975 0.762563 0.084755
0.283519 0.762563 0.084755
0.311063 0.762563 0.084755
0.338607 0.762563 0.084755
0.366152 0.762563 0.084755
0.393696 0.762563 0.084755
0.421240 0.762563 0.084755
0.448784 0.762563 0.084755
0.476328 0.762563 0.084755
0.503872 0.762563 0.084755
0.531416 0.762563 0.084755
0.558960 0.762563 0.084755
0.586504 0.762563 0.084755
0.614048 0.762563 0.084755
0.641592 0.762563 0.084755
0.669136 0.762563 0.084755
0.696680 0.762563 0.084755
0.724224 0.762563 0.084755
0.751768 0.762563 0.084755
0.779312 0.762563 0.084755
0.809665 0.765048 0.088826
0.839941 0.767623 0.092993
0.870142 0.770290 0.097256
0.900266 0.773048 0.101614
0.930313 0.775897 0.106067
0.960285 0.778839 0.110616
0.990181 0.781873 0.115260
1.000000 0.785000 0.120000
0.123139 0.792509 0.088826
0.150600 0.792509 0.088826
0.178061 0.792509 0.088826
0.205522 0.792509 0.088826
0.232983 0.792509 0.088826
0.260444 0.792509 0.088826
0.287905 0.792509 0.088826
0.315366 0.792509 0.088826
0.342827 0.792509 0.088826
0.370288 0.792509 0.088826
0.397749 0.792509 0.088826
0.425210 0.792509 0.088826
0.452671 0.792509 0.088826
0.480133 0.792509 0.088826
0.507594 0.792509 0.088826
0.535055 0.792509 0.088826
0.562516 0.792509 0.088826
0.589977 0.792509 0.088826
0.617438 0.792509 0.088826
0.644899 0.792509 0.088826
0.672360 0.792509 0.088826
0.699821 0.792509 0.088826
0.727282 0.792509 0.088826
0.754743 0.792509 0.088826
0.782204 0.792509 0.088826
0.809665 0.792509 0.088826
0.839941 0.795001 0.092993
0.870142 0.797584 0.097256
0.900266 0.800258 0.101614
0.930313 0.803024 0.106067
0.960285 0.805882 0.110616
0.990181 0.808832 0.115260
1.000000 0.811875 0.120000
0.128118 0.822379 0.092993
0.155496 0.822379 0.092993
0.182874 0.822379 0.092993
0.210252 0.822379 0.092993
0.237630 0.822379 0.092993
0.265007 0.822379 0.092993
0.292385 0.822379 0.092993
0.319763 0.822379 0.092993
0.347141 0.822379 0.092993
0.374519 0.822379 0.092993
0.401897 0.822379 0.092993
0.429274 0.822379 0.092993
0.456652 0.822379 0.092993
0.484030 0.822379 0.092993
0.511408 0.822379 0.092993
0.538786 0.822379 0.092993
0.566163 0.822379 0.092993
0.593541 0.822379 0.092993
0.620919 0.822379 0.092993
0.648297 0.822379 0.092993
0.675675 0.822379 0.092993
0.703052 0.822379 0.092993
0.730430 0.822379 0.092993
0.757808 0.822379 0.092993
0.785186 0.822379 0.092993
0.812564 0.822379 0.092993
0.839941 0.822379 0.092993
