luts/original/matte-cream.cube
TITLE "Matte Cream"
LUT_3D_SIZE 9
DOMAIN_MIN 0.0 0.0 0.0
DOMAIN_MAX 1.0 1.0 1.0
0.028000 0.021000 0.014000
0.156266 0.031999 0.023374
0.283312 0.042845 0.032595
0.409141 0.055219 0.043344
0.533750 0.069120 0.055620
0.657141 0.084549 0.069424
0.779312 0.101505 0.084755
0.900266 0.119989 0.101614
1.000000 0.140000 0.120000
0.040624 0.147641 0.023374
0.156266 0.147641 0.023374
0.283312 0.157954 0.032595
0.409141 0.169234 0.043344
0.533750 0.181902 0.055620
0.657141 0.196042 0.069424
0.779312 0.211681 0.084755
0.900266 0.228832 0.101614
1.000000 0.247500 0.120000
0.053095 0.273062 0.032595
0.168204 0.273062 0.032595
0.283312 0.273062 0.032595
0.409141 0.283250 0.043344
0.533750 0.294685 0.055620
0.657141 0.307535 0.069424
0.779312 0.321858 0.084755
0.900266 0.337675 0.101614
1.000000 0.355000 0.120000
0.067094 0.397266 0.043344
0.181109 0.397266 0.043344
0.295125 0.397266 0.043344
0.409141 0.397266 0.043344
0.533750 0.407468 0.055620
0.657141 0.419029 0.069424
0.779312 0.432034 0.084755
0.900266 0.446518 0.101614
1.000000 0.462500 0.120000
0.082620 0.520250 0.055620
0.195403 0.520250 0.055620
0.308185 0.520250 0.055620
0.420967 0.520250 0.055620
0.533750 0.520250 0.055620
0.657141 0.530522 0.069424
0.779312 0.542210 0.084755
0.900266 0.555361 0.101614
1.000000 0.570000 0.120000
0.099674 0.642016 0.069424
0.211167 0.642016 0.069424
0.322661 0.642016 0.069424
0.434154 0.642016 0.069424
0.545647 0.642016 0.069424
0.657141 0.642016 0.069424
0.779312 0.652386 0.084755
0.900266 0.664204 0.101614
1.000000 0.677500 0.120000
0.118255 0.762563 0.084755
0.228431 0.762563 0.084755
0.338607 0.762563 0.084755
0.448784 0.762563 0.084755
0.558960 0.762563 0.084755
0.669136 0.762563 0.084755
0.779312 0.762563 0.084755
0.900266 0.773048 0.101614
1.000000 0.785000 0.120000
0.138364 0.881891 0.101614
0.247207 0.881891 0.101614
0.356050 0.881891 0.101614
0.464893 0.881891 0.101614
0.573736 0.881891 0.101614
0.682579 0.881891 0.101614
0.791422 0.881891 0.101614
0.900266 0.881891 0.101614
1.000000 0.892500 0.120000
0.160000 1.000000 0.120000
0.267500 1.000000 0.120000
0.375000 1.000000 0.120000
0.482500 1.000000 0.120000
0.590000 1.000000 0.120000
0.697500 1.000000 0.120000
0.805000 1.000000 0.120000
0.912500 1.000000 0.120000
1.000000 1.000000 0.120000
0.040624 0.031999 0.139016
0.156266 0.031999 0.139016
0.283312 0.042845 0.147704
0.409141 0.055219 0.157359
0.533750 0.069120 0.168402
0.657141 0.084549 0.180917
0.779312 0.101505 0.194931
0.900266 0.119989 0.210457
1.000000 0.140000 0.227500
0.040624 0.147641 0.139016
0.156266 0.147641 0.139016
0.283312 0.164001 0.153751
0.409141 0.175766 0.163891
0.533750 0.189057 0.175557
0.657141 0.203877 0.188752
0.779312 0.220224 0.203474
0.900266 0.238098 0.219723
1.000000 0.257500 0.237500
0.053095 0.273062 0.147704
0.174251 0.273062 0.153751
0.283312 0.273062 0.153751
0.409141 0.286516 0.163891
0.533750 0.299455 0.175557
0.657141 0.313412 0.188752
0.779312 0.328692 0.203474
0.900266 0.345397 0.219723
1.000000 0.363571 0.237500
0.067094 0.397266 0.157359
0.187641 0.397266 0.163891
0.298391 0.397266 0.163891
0.409141 0.397266 0.163891
0.533750 0.409853 0.175557
0.657141 0.422946 0.188752
0.779312 0.437159 0.203474
0.900266 0.452696 0.219723
1.000000 0.469643 0.237500
0.082620 0.520250 0.168402
0.202558 0.520250 0.175557
0.312955 0.520250 0.175557
0.423353 0.520250 0.175557
0.533750 0.520250 0.175557
0.657141 0.532481 0.188752
0.779312 0.545627 0.203474
0.900266 0.559994 0.219723
1.000000 0.575714 0.237500
0.099674 0.642016 0.180917
0.219002 0.642016 0.188752
0.328537 0.642016 0.188752
0.438071 0.642016 0.188752
0.547606 0.642016 0.188752
0.657141 0.642016 0.188752
0.779312 0.654095 0.203474
0.900266 0.667293 0.219723
1.000000 0.681786 0.237500
0.118255 0.762563 0.194931
0.236974 0.762563 0.203474
0.345441 0.762563 0.203474
0.453909 0.762563 0.203474
0.562377 0.762563 0.203474
0.670845 0.762563 0.203474
0.779312 0.762563 0.203474
0.900266 0.774592 0.219723
1.000000 0.787857 0.237500
0.138364 0.881891 0.210457
0.256473 0.881891 0.219723
0.363772 0.881891 0.219723
0.471071 0.881891 0.219723
0.578369 0.881891 0.219723
0.685668 0.881891 0.219723
0.792967 0.881891 0.219723
0.900266 0.881891 0.219723
1.000000 0.893929 0.237500
0.160000 1.000000 0.227500
0.277500 1.000000 0.237500
0.383571 1.000000 0.237500
0.489643 1.000000 0.237500
0.595714 1.000000 0.237500
0.701786 1.000000 0.237500
0.807857 1.000000 0.237500
0.913929 1.000000 0.237500
1.000000 1.000000 0.237500
0.053095 0.042845 0.262812
0.168204 0.042845 0.262812
0.283312 0.042845 0.262812
0.409141 0.055219 0.271375
0.533750 0.069120 0.281185
0.657141 0.084549 0.292410
0.779312 0.101505 0.305108
0.900266 0.119989 0.319300
1.000000 0.140000 0.335000
0.053095 0.157954 0.262812
0.174251 0.164001 0.262812
0.283312 0.164001 0.262812
0.409141 0.175766 0.274641
0.533750 0.189057 0.285955
0.657141 0.203877 0.298287
0.779312 0.220224 0.311942
0.900266 0.238098 0.327022
1.000000 0.257500 0.343571
0.053095 0.273062 0.262812
0.174251 0.273062 0.262812
0.283312 0.273062 0.262812
0.409141 0.296313 0.284438
0.533750 0.308995 0.295495
0.657141 0.323205 0.308080
0.779312 0.338942 0.322192
0.900266 0.356207 0.337833
1.000000 0.375000 0.355000
0.067094 0.397266 0.271375
0.187641 0.397266 0.274641
0.308188 0.397266 0.284438
0.409141 0.397266 0.284438
0.533750 0.414622 0.295495
0.657141 0.429475 0.308080
0.779312 0.444847 0.322192
0.900266 0.461344 0.337833
1.000000 0.479167 0.355000
0.082620 0.520250 0.281185
0.202558 0.520250 0.285955
0.322495 0.520250 0.295495
0.428122 0.520250 0.295495
0.533750 0.520250 0.295495
0.657141 0.535745 0.308080
0.779312 0.550753 0.322192
0.900266 0.566481 0.337833
1.000000 0.583333 0.355000
0.099674 0.642016 0.292410
0.219002 0.642016 0.298287
0.338330 0.642016 0.308080
0.444600 0.642016 0.308080
0.550870 0.642016 0.308080
0.657141 0.642016 0.308080
0.779312 0.656658 0.322192
0.900266 0.671617 0.337833
1.000000 0.687500 0.355000
0.118255 0.762563 0.305108
0.236974 0.762563 0.311942
0.355693 0.762563 0.322192
0.461598 0.762563 0.322192
0.567502 0.762563 0.322192
0.673407 0.762563 0.322192
0.779312 0.762563 0.322192
0.900266 0.776754 0.337833
1.000000 0.791667 0.355000
0.138364 0.881891 0.319300
0.256473 0.881891 0.327022
0.374582 0.881891 0.337833
0.479719 0.881891 0.337833
0.584856 0.881891 0.337833
0.689992 0.881891 0.337833
0.795129 0.881891 0.337833
0.900266 0.881891 0.337833
1.000000 0.895833 0.355000
0.160000 1.000000 0.335000
0.277500 1.000000 0.343571
0.395000 1.000000 0.355000
0.499167 1.000000 0.355000
0.603333 1.000000 0.355000
0.707500 1.000000 0.355000
0.811667 1.000000 0.355000
0.915833 1.000000 0.355000
1.000000 1.000000 0.355000
0.067094 0.055219 0.385391
0.181109 0.055219 0.385391
0.295125 0.055219 0.385391
0.409141 0.055219 0.385391
0.533750 0.069120 0.393968
0.657141 0.084549 0.403904
0.779312 0.101505 0.415284
0.900266 0.119989 0.428143
1.000000 0.140000 0.442500
0.067094 0.169234 0.385391
0.187641 0.175766 0.385391
0.298391 0.175766 0.385391
0.409141 0.175766 0.385391
0.533750 0.189057 0.396352
0.657141 0.203877 0.407821
0.779312 0.220224 0.420409
0.900266 0.238098 0.434321
1.000000 0.257500 0.449643
0.067094 0.283250 0.385391
0.187641 0.286516 0.385391
0.308188 0.296313 0.385391
0.409141 0.296313 0.385391
0.533750 0.308995 0.401123
0.657141 0.323205 0.414350
0.779312 0.338942 0.428097
0.900266 0.356207 0.442969
1.000000 0.375000 0.459167
0.067094 0.397266 0.385391
0.187641 0.397266 0.385391
0.308188 0.397266 0.385391
0.409141 0.397266 0.385391
0.533750 0.428932 0.415433
0.657141 0.442533 0.427408
0.779312 0.457661 0.440911
0.900266 0.474317 0.455942
1.000000 0.492500 0.472500
0.082620 0.520250 0.393968
0.202558 0.520250 0.396352
0.322495 0.520250 0.401123
0.442432 0.520250 0.415433
0.533750 0.520250 0.415433
0.657141 0.542274 0.427408
0.779312 0.559295 0.440911
0.900266 0.576210 0.455942
1.000000 0.594000 0.472500
0.099674 0.642016 0.403904
0.219002 0.642016 0.407821
0.338330 0.642016 0.414350
0.457658 0.642016 0.427408
0.557399 0.642016 0.427408
0.657141 0.642016 0.427408
0.779312 0.660929 0.440911
0.900266 0.678104 0.455942
1.000000 0.695500 0.472500
0.118255 0.762563 0.415284
0.236974 0.762563 0.420409
0.355693 0.762563 0.428097
0.474411 0.762563 0.440911
0.576045 0.762563 0.440911
0.677679 0.762563 0.440911
0.779312 0.762563 0.440911
0.900266 0.779997 0.455942
1.000000 0.797000 0.472500
0.138364 0.881891 0.428143
0.256473 0.881891 0.434321
0.374582 0.881891 0.442969
0.492692 0.881891 0.455942
0.594585 0.881891 0.455942
0.696479 0.881891 0.455942
0.798372 0.881891 0.455942
0.900266 0.881891 0.455942
1.000000 0.898500 0.472500
0.160000 1.000000 0.442500
0.277500 1.000000 0.449643
0.395000 1.000000 0.459167
0.512500 1.000000 0.472500
0.614000 1.000000 0.472500
0.715500 1.000000 0.472500
0.817000 1.000000 0.472500
0.918500 1.000000 0.472500
1.000000 1.000000 0.472500
0.082620 0.069120 0.506750
0.195403 0.069120 0.506750
0.308185 0.069120 0.506750
0.420967 0.069120 0.506750
0.533750 0.069120 0.506750
0.657141 0.084549 0.515397
0.779312 0.101505 0.525460
0.900266 0.119989 0.536986
1.000000 0.140000 0.550000
0.082620 0.181902 0.506750
0.202558 0.189057 0.506750
0.312955 0.189057 0.506750
0.423353 0.189057 0.506750
0.533750 0.189057 0.506750
0.657141 0.203877 0.517356
0.779312 0.220224 0.528877
0.900266 0.238098 0.541619
1.000000 0.257500 0.555714
0.082620 0.294685 0.506750
0.202558 0.299455 0.506750
0.322495 0.308995 0.506750
0.428122 0.308995 0.506750
0.533750 0.308995 0.506750
0.657141 0.323205 0.520620
0.779312 0.338942 0.534002
0.900266 0.356207 0.548106
1.000000 0.375000 0.563333
0.082620 0.407468 0.506750
0.202558 0.409853 0.506750
0.322495 0.414622 0.506750
0.442432 0.428932 0.506750
0.533750 0.428932 0.506750
0.657141 0.442533 0.527149
0.779312 0.457661 0.542545
0.900266 0.474317 0.557835
1.000000 0.492500 0.574000
0.082620 0.520250 0.506750
0.202558 0.520250 0.506750
0.322495 0.520250 0.506750
0.442432 0.520250 0.506750
0.533750 0.520250 0.506750
0.657141 0.561861 0.546736
0.779312 0.576380 0.559630
0.900266 0.592426 0.574051
1.000000 0.610000 0.590000
0.099674 0.642016 0.515397
0.219002 0.642016 0.517356
0.338330 0.642016 0.520620
0.457658 0.642016 0.527149
0.576986 0.642016 0.546736
0.657141 0.642016 0.546736
0.779312 0.669471 0.559630
0.900266 0.688914 0.574051
1.000000 0.707500 0.590000
0.118255 0.762563 0.525460
0.236974 0.762563 0.528877
0.355693 0.762563 0.534002
0.474411 0.762563 0.542545
0.593130 0.762563 0.559630
0.686221 0.762563 0.559630
0.779312 0.762563 0.559630
0.900266 0.785402 0.574051
1.000000 0.805000 0.590000
0.138364 0.881891 0.536986
0.256473 0.881891 0.541619
0.374582 0.881891 0.548106
0.492692 0.881891 0.557835
0.610801 0.881891 0.574051
0.707289 0.881891 0.574051
0.803778 0.881891 0.574051
0.900266 0.881891 0.574051
1.000000 0.902500 0.590000
0.160000 1.000000 0.550000
0.277500 1.000000 0.555714
0.395000 1.000000 0.563333
0.512500 1.000000 0.574000
0.630000 1.000000 0.590000
0.727500 1.000000 0.590000
0.825000 1.000000 0.590000
0.922500 1.000000 0.590000
1.000000 1.000000 0.590000
0.099674 0.084549 0.626891
0.211167 0.084549 0.626891
0.322661 0.084549 0.626891
0.434154 0.084549 0.626891
0.545647 0.084549 0.626891
0.657141 0.084549 0.626891
0.779312 0.101505 0.635636
0.900266 0.119989 0.645829
1.000000 0.140000 0.657500
0.099674 0.196042 0.626891
0.219002 0.203877 0.626891
0.328537 0.203877 0.626891
0.438071 0.203877 0.626891
0.547606 0.203877 0.626891
0.657141 0.203877 0.626891
0.779312 0.220224 0.637345
0.900266 0.238098 0.648918
1.000000 0.257500 0.661786
0.099674 0.307535 0.626891
0.219002 0.313412 0.626891
0.338330 0.323205 0.626891
0.444600 0.323205 0.626891
0.550870 0.323205 0.626891
0.657141 0.323205 0.626891
0.779312 0.338942 0.639907
0.900266 0.356207 0.653242
1.000000 0.375000 0.667500
0.099674 0.419029 0.626891
0.219002 0.422946 0.626891
0.338330 0.429475 0.626891
0.457658 0.442533 0.626891
0.557399 0.442533 0.626891
0.657141 0.442533 0.626891
0.779312 0.457661 0.644179
0.900266 0.474317 0.659729
1.000000 0.492500 0.675500
0.099674 0.530522 0.626891
0.219002 0.532481 0.626891
0.338330 0.535745 0.626891
0.457658 0.542274 0.626891
0.576986 0.561861 0.626891
0.657141 0.561861 0.626891
0.779312 0.576380 0.652721
0.900266 0.592426 0.670539
1.000000 0.610000 0.687500
0.099674 0.642016 0.626891
0.219002 0.642016 0.626891
0.338330 0.642016 0.626891
0.457658 0.642016 0.626891
0.576986 0.642016 0.626891
0.657141 0.642016 0.626891
0.779312 0.695099 0.678349
0.900266 0.710536 0.692161
1.000000 0.727500 0.707500
0.118255 0.762563 0.635636
0.236974 0.762563 0.637345
0.355693 0.762563 0.639907
0.474411 0.762563 0.644179
0.593130 0.762563 0.652721
0.711849 0.762563 0.678349
0.779312 0.762563 0.678349
0.900266 0.796213 0.692161
1.000000 0.818333 0.707500
0.138364 0.881891 0.645829
0.256473 0.881891 0.648918
0.374582 0.881891 0.653242
0.492692 0.881891 0.659729
0.610801 0.881891 0.670539
0.728911 0.881891 0.692161
0.814588 0.881891 0.692161
0.900266 0.881891 0.692161
1.000000 0.909167 0.707500
0.160000 1.000000 0.657500
0.277500 1.000000 0.661786
0.395000 1.000000 0.667500
0.512500 1.000000 0.675500
0.630000 1.000000 0.687500
0.747500 1.000000 0.707500
0.838333 1.000000 0.707500
0.929167 1.000000 0.707500
1.000000 1.000000 0.707500
0.118255 0.101505 0.745812
0.228431 0.101505 0.745812
0.338607 0.101505 0.745812
0.448784 0.101505 0.745812
0.558960 0.101505 0.745812
0.669136 0.101505 0.745812
0.779312 0.101505 0.745812
0.900266 0.119989 0.754673
1.000000 0.140000 0.765000
0.118255 0.211681 0.745812
0.236974 0.220224 0.745812
0.345441 0.220224 0.745812
0.453909 0.220224 0.745812
0.562377 0.220224 0.745812
0.670845 0.220224 0.745812
0.779312 0.220224 0.745812
0.900266 0.238098 0.756217
1.000000 0.257500 0.767857
0.118255 0.321858 0.745812
0.236974 0.328692 0.745812
0.355693 0.338942 0.745812
0.461598 0.338942 0.745812
0.567502 0.338942 0.745812
0.673407 0.338942 0.745812
0.779312 0.338942 0.745812
0.900266 0.356207 0.758379
1.000000 0.375000 0.771667
0.118255 0.432034 0.745812
0.236974 0.437159 0.745812
0.355693 0.444847 0.745812
0.474411 0.457661 0.745812
0.576045 0.457661 0.745812
0.677679 0.457661 0.745812
0.779312 0.457661 0.745812
0.900266 0.474317 0.761622
1.000000 0.492500 0.777000
0.118255 0.542210 0.745812
0.236974 0.545627 0.745812
0.355693 0.550753 0.745812
0.474411 0.559295 0.745812
0.593130 0.576380 0.745812
0.686221 0.576380 0.745812
0.779312 0.576380 0.745812
0.900266 0.592426 0.767027
1.000000 0.610000 0.785000
0.118255 0.652386 0.745812
0.236974 0.654095 0.745812
0.355693 0.656658 0.745812
0.474411 0.660929 0.745812
0.593130 0.669471 0.745812
0.711849 0.695099 0.745812
0.779312 0.695099 0.745812
0.900266 0.710536 0.777838
1.000000 0.727500 0.798333
0.118255 0.762563 0.745812
0.236974 0.762563 0.745812
0.355693 0.762563 0.745812
0.474411 0.762563 0.745812
0.593130 0.762563 0.745812
0.711849 0.762563 0.745812
0.779312 0.762563 0.745812
0.900266 0.828645 0.810270
1.000000 0.845000 0.825000
0.138364 0.881891 0.754673
0.256473 0.881891 0.756217
0.374582 0.881891 0.758379
0.492692 0.881891 0.761622
0.610801 0.881891 0.767027
0.728911 0.881891 0.777838
0.847020 0.881891 0.810270
0.900266 0.881891 0.810270
1.000000 0.922500 0.825000
0.160000 1.000000 0.765000
0.277500 1.000000 0.767857
0.395000 1.000000 0.771667
0.512500 1.000000 0.777000
0.630000 1.000000 0.785000
0.747500 1.000000 0.798333
0.865000 1.000000 0.825000
0.942500 1.000000 0.825000
1.000000 1.000000 0.825000
0.138364 0.119989 0.863516
0.247207 0.119989 0.863516
0.356050 0.119989 0.863516
0.464893 0.119989 0.863516
0.573736 0.119989 0.863516
0.682579 0.119989 0.863516
0.791422 0.119989 0.863516
0.900266 0.119989 0.863516
1.000000 0.140000 0.872500
0.138364 0.228832 0.863516
0.256473 0.238098 0.863516
0.363772 0.238098 0.863516
0.471071 0.238098 0.863516
0.578369 0.238098 0.863516
0.685668 0.238098 0.863516
0.792967 0.238098 0.863516
0.900266 0.238098 0.863516
1.000000 0.257500 0.873929
0.138364 0.337675 0.863516
0.256473 0.345397 0.863516
0.374582 0.356207 0.863516
0.479719 0.356207 0.863516
0.584856 0.356207 0.863516
0.689992 0.356207 0.863516
0.795129 0.356207 0.863516
0.900266 0.356207 0.863516
1.000000 0.375000 0.875833
0.138364 0.446518 0.863516
0.256473 0.452696 0.863516
0.374582 0.461344 0.863516
0.492692 0.474317 0.863516
0.594585 0.474317 0.863516
0.696479 0.474317 0.863516
0.798372 0.474317 0.863516
0.900266 0.474317 0.863516
1.000000 0.492500 0.878500
0.138364 0.555361 0.863516
0.256473 0.559994 0.863516
0.374582 0.566481 0.863516
0.492692 0.576210 0.863516
0.610801 0.592426 0.863516
0.707289 0.592426 0.863516
0.803778 0.592426 0.863516
0.900266 0.592426 0.863516
1.000000 0.610000 0.882500
0.138364 0.664204 0.863516
0.256473 0.667293 0.863516
0.374582 0.671617 0.863516
0.492692 0.678104 0.863516
0.610801 0.688914 0.863516
0.728911 0.710536 0.863516
0.814588 0.710536 0.863516
0.900266 0.710536 0.863516
1.000000 0.727500 0.889167
0.138364 0.773048 0.863516
0.256473 0.774592 0.863516
0.374582 0.776754 0.863516
0.492692 0.779997 0.863516
0.610801 0.785402 0.863516
0.728911 0.796213 0.863516
0.847020 0.828645 0.863516
0.900266 0.828645 0.863516
1.000000 0.845000 0.902500
0.138364 0.881891 0.863516
0.256473 0.881891 0.863516
0.374582 0.881891 0.863516
0.492692 0.881891 0.863516
0.610801 0.881891 0.863516
0.728911 0.881891 0.863516
0.847020 0.881891 0.863516
0.900266 0.881891 0.863516
1.000000 0.962500 0.942500
0.160000 1.000000 0.872500
0.277500 1.000000 0.873929
0.395000 1.000000 0.875833
0.512500 1.000000 0.878500
0.630000 1.000000 0.882500
0.747500 1.000000 0.889167
0.865000 1.000000 0.902500
0.982500 1.000000 0.942500
1.000000 1.000000 0.942500
0.160000 0.140000 0.980000
0.267500 0.140000 0.980000
0.375000 0.140000 0.980000
0.482500 0.140000 0.980000
0.590000 0.140000 0.980000
0.697500 0.140000 0.980000
0.805000 0.140000 0.980000
0.912500 0.140000 0.980000
1.000000 0.140000 0.980000
0.160000 0.247500 0.980000
0.277500 0.257500 0.980000
0.383571 0.257500 0.980000
0.489643 0.257500 0.980000
0.595714 0.257500 0.980000
0.701786 0.257500 0.980000
0.807857 0.257500 0.980000
0.913929 0.257500 0.980000
1.000000 0.257500 0.980000
0.160000 0.355000 0.980000
0.277500 0.363571 0.980000
0.395000 0.375000 0.980000
0.499167 0.375000 0.980000
0.603333 0.375000 0.980000
0.707500 0.375000 0.980000
0.811667 0.375000 0.980000
0.915833 0.375000 0.980000
1.000000 0.375000 0.980000
0.160000 0.462500 0.980000
0.277500 0.469643 0.980000
0.395000 0.479167 0.980000
0.512500 0.492500 0.980000
0.614000 0.492500 0.980000
0.715500 0.492500 0.980000
0.817000 0.492500 0.980000
0.918500 0.492500 0.980000
1.000000 0.492500 0.980000
0.160000 0.570000 0.980000
0.277500 0.575714 0.980000
0.395000 0.583333 0.980000
0.512500 0.594000 0.980000
0.630000 0.610000 0.980000
0.727500 0.610000 0.980000
0.825000 0.610000 0.980000
0.922500 0.610000 0.980000
1.000000 0.610000 0.980000
0.160000 0.677500 0.980000
0.277500 0.681786 0.980000
0.395000 0.687500 0.980000
0.512500 0.695500 0.980000
0.630000 0.707500 0.980000
0.747500 0.727500 0.980000
0.838333 0.727500 0.980000
0.929167 0.727500 0.980000
1.000000 0.727500 0.980000
0.160000 0.785000 0.980000
0.277500 0.787857 0.980000
0.395000 0.791667 0.980000
0.512500 0.797000 0.980000
0.630000 0.805000 0.980000
0.747500 0.818333 0.980000
0.865000 0.845000 0.980000
0.942500 0.845000 0.980000
1.000000 0.845000 0.980000
0.160000 0.892500 0.980000
0.277500 0.893929 0.980000
0.395000 0.895833 0.980000
0.512500 0.898500 0.980000
0.630000 0.902500 0.980000
0.747500 0.909167 0.980000
0.865000 0.922500 0.980000
0.982500 0.962500 0.980000
1.000000 0.962500 0.980000
0.160000 1.000000 0.980000
0.277500 1.000000 0.980000
0.395000 1.000000 0.980000
0.512500 1.000000 0.980000
0.630000 1.000000 0.980000
0.747500 1.000000 0.980000
0.865000 1.000000 0.980000
0.982500 1.000000 0.980000
1.000000 1.000000 0.980000
