luts/original/matte-cream.cube
TITLE "Matte Cream"
LUT_3D_SIZE 5
DOMAIN_MIN 0.0 0.0 0.0
DOMAIN_MAX 1.0 1.0 1.0
0.028000 0.021000 0.014000
0.283312 0.042845 0.032595
0.533750 0.069120 0.055620
0.779312 0.101505 0.084755
1.000000 0.140000 0.120000
0.053095 0.273062 0.032595
0.283312 0.273062 0.032595
0.533750 0.294685 0.055620
0.779312 0.321858 0.084755
1.000000 0.355000 0.120000
0.082620 0.520250 0.055620
0.308185 0.520250 0.055620
0.533750 0.520250 0.055620
0.779312 0.542210 0.084755
1.000000 0.570000 0.120000
0.118255 0.762563 0.084755
0.338607 0.762563 0.084755
0.558960 0.762563 0.084755
0.779312 0.762563 0.084755
1.000000 0.785000 0.120000
0.160000 1.000000 0.120000
0.375000 1.000000 0.120000
0.590000 1.000000 0.120000
0.805000 1.000000 0.120000
1.000000 1.000000 0.120000
0.053095 0.042845 0.262812
0.283312 0.042845 0.262812
0.533750 0.069120 0.281185
0.779312 0.101505 0.305108
1.000000 0.140000 0.335000
0.053095 0.273062 0.262812
0.283312 0.273062 0.262812
0.533750 0.308995 0.295495
0.779312 0.338942 0.322192
1.000000 0.375000 0.355000
0.082620 0.520250 0.281185
0.322495 0.520250 0.295495
0.533750 0.520250 0.295495
0.779312 0.550753 0.322192
1.000000 0.583333 0.355000
0.118255 0.762563 0.305108
0.355693 0.762563 0.322192
0.567502 0.762563 0.322192
0.779312 0.762563 0.322192
1.000000 0.791667 0.355000
0.160000 1.000000 0.335000
0.395000 1.000000 0.355000
0.603333 1.000000 0.355000
0.811667 1.000000 0.355000
1.000000 1.000000 0.355000
0.082620 0.069120 0.506750
0.308185 0.069120 0.506750
0.533750 0.069120 0.506750
0.779312 0.101505 0.525460
1.000000 0.140000 0.550000
0.082620 0.294685 0.506750
0.322495 0.308995 0.506750
0.533750 0.308995 0.506750
0.779312 0.338942 0.534002
1.000000 0.375000 0.563333
0.082620 0.520250 0.506750
0.322495 0.520250 0.506750
0.533750 0.520250 0.506750
0.779312 0.576380 0.559630
1.000000 0.610000 0.590000
0.118255 0.762563 0.525460
0.355693 0.762563 0.534002
0.593130 0.762563 0.559630
0.779312 0.762563 0.559630
1.000000 0.805000 0.590000
0.160000 1.000000 0.550000
0.395000 1.000000 0.563333
0.630000 1.000000 0.590000
0.825000 1.000000 0.590000
1.000000 1.000000 0.590000
0.118255 0.101505 0.745812
0.338607 0.101505 0.745812
0.558960 0.101505 0.745812
0.779312 0.101505 0.745812
1.000000 0.140000 0.765000
0.118255 0.321858 0.745812
0.355693 0.338942 0.745812
0.567502 0.338942 0.745812
0.779312 0.338942 0.745812
1.000000 0.375000 0.771667
0.118255 0.542210 0.745812
0.355693 0.550753 0.745812
0.593130 0.576380 0.745812
0.779312 0.576380 0.745812
1.000000 0.610000 0.785000
0.118255 0.762563 0.745812
0.355693 0.762563 0.745812
0.593130 0.762563 0.745812
0.779312 0.762563 0.745812
1.000000 0.845000 0.825000
0.160000 1.000000 0.765000
0.395000 1.000000 0.771667
0.630000 1.000000 0.785000
0.865000 1.000000 0.825000
1.000000 1.000000 0.825000
0.160000 0.140000 0.980000
0.375000 0.140000 0.980000
0.590000 0.140000 0.980000
0.805000 0.140000 0.980000
1.000000 0.140000 0.980000
0.160000 0.355000 0.980000
0.395000 0.375000 0.980000
0.603333 0.375000 0.980000
0.811667 0.375000 0.980000
1.000000 0.375000 0.980000
0.160000 0.570000 0.980000
0.395000 0.583333 0.980000
0.630000 0.610000 0.980000
0.825000 0.610000 0.980000
1.000000 0.610000 0.980000
0.160000 0.785000 0.980000
0.395000 0.791667 0.980000
0.630000 0.805000 0.980000
0.865000 0.845000 0.980000
1.000000 0.845000 0.980000
0.160000 1.000000 0.980000
0.395000 1.000000 0.980000
0.630000 1.000000 0.980000
0.865000 1.000000 0.980000
1.000000 1.000000 0.980000
