luts/original/melanin-gold.cube
TITLE "Melanin Gold"
LUT_3D_SIZE 33
DOMAIN_MIN 0.0 0.0 0.0
DOMAIN_MAX 1.0 1.0 1.0
0.000000 0.000000 0.000000
0.032870 0.000000 0.000000
0.065918 0.000000 0.000000
0.099144 0.000000 0.000000
0.132547 0.000000 0.000000
0.166128 0.000000 0.000000
0.199887 0.000000 0.000000
0.233823 0.000000 0.000000
0.267937 0.000000 0.000000
0.302229 0.000000 0.000000
0.336699 0.000000 0.000000
0.371347 0.000000 0.000000
0.406172 0.000000 0.000000
0.441175 0.000000 0.000000
0.476355 0.000000 0.000000
0.511714 0.000000 0.000000
0.547250 0.000000 0.000000
0.582964 0.000000 0.000000
0.618855 0.000000 0.000000
0.654925 0.000000 0.000000
0.691172 0.000000 0.000000
0.727597 0.000000 0.000000
0.764199 0.000000 0.000000
0.800979 0.000000 0.000000
0.837938 0.000000 0.000000
0.875073 0.000000 0.000000
0.912387 0.000000 0.000000
0.949878 0.000000 0.000000
0.987547 0.000000 0.000000
1.000000 0.000000 0.000000
1.000000 0.000000 0.000000
1.000000 0.000000 0.000000
1.000000 0.000000 0.000000
0.000000 0.030556 0.000000
0.032870 0.030556 0.000000
0.065918 0.030518 0.000000
0.099144 0.030479 0.000000
0.132547 0.030441 0.000000
0.166128 0.030403 0.000000
0.199887 0.030365 0.000000
0.233823 0.030327 0.000000
0.267937 0.030289 0.000000
0.302229 0.030251 0.000000
0.336699 0.030213 0.000000
0.371347 0.030175 0.000000
0.406172 0.030137 0.000000
0.441175 0.030099 0.000000
0.476355 0.030061 0.000000
0.511714 0.030022 0.000000
0.547250 0.029984 0.000000
0.582964 0.029946 0.000000
0.618855 0.029908 0.000000
0.654925 0.029870 0.000000
0.691172 0.029832 0.000000
0.727597 0.029794 0.000000
0.764199 0.029756 0.000000
0.800979 0.029718 0.000000
0.837938 0.029680 0.000000
0.875073 0.029642 0.000000
0.912387 0.029604 0.000000
0.949878 0.029565 0.000000
0.987547 0.029527 0.000000
1.000000 0.029489 0.000000
1.000000 0.029451 0.000000
1.000000 0.029413 0.000000
1.000000 0.029375 0.000000
0.000000 0.061035 0.000000
0.032959 0.061035 0.000000
0.065918 0.061035 0.000000
0.099144 0.060959 0.000000
0.132547 0.060883 0.000000
0.166128 0.060807 0.000000
0.199887 0.060730 0.000000
0.233823 0.060654 0.000000
0.267937 0.060578 0.000000
0.302229 0.060502 0.000000
0.336699 0.060426 0.000000
0.371347 0.060350 0.000000
0.406172 0.060273 0.000000
0.441175 0.060197 0.000000
0.476355 0.060121 0.000000
0.511714 0.060045 0.000000
0.547250 0.059969 0.000000
0.582964 0.059893 0.000000
0.618855 0.059816 0.000000
0.654925 0.059740 0.000000
0.691172 0.059664 0.000000
0.727597 0.059588 0.000000
0.764199 0.059512 0.000000
0.800979 0.059436 0.000000
0.837938 0.059359 0.000000
0.875073 0.059283 0.000000
0.912387 0.059207 0.000000
0.949878 0.059131 0.000000
0.987547 0.059055 0.000000
1.000000 0.058979 0.000000
1.000000 0.058902 0.000000
1.000000 0.058826 0.000000
1.000000 0.058750 0.000000
0.000000 0.091438 0.000000
0.033048 0.091438 0.000000
0.066096 0.091438 0.000000
0.099144 0.091438 0.000000
0.132547 0.091324 0.000000
0.166128 0.091210 0.000000
0.199887 0.091096 0.000000
0.233823 0.090981 0.000000
0.267937 0.090867 0.000000
0.302229 0.090753 0.000000
0.336699 0.090639 0.000000
0.371347 0.090524 0.000000
0.406172 0.090410 0.000000
0.441175 0.090296 0.000000
0.476355 0.090182 0.000000
0.511714 0.090067 0.000000
0.547250 0.089953 0.000000
0.582964 0.089839 0.000000
0.618855 0.089725 0.000000
0.654925 0.089610 0.000000
0.691172 0.089496 0.000000
0.727597 0.089382 0.000000
0.764199 0.089268 0.000000
0.800979 0.089153 0.000000
0.837938 0.089039 0.000000
0.875073 0.088925 0.000000
0.912387 0.088811 0.000000
0.949878 0.088696 0.000000
0.987547 0.088582 0.000000
1.000000 0.088468 0.000000
1.000000 0.088354 0.000000
1.000000 0.088239 0.000000
1.000000 0.088125 0.000000
0.000000 0.121766 0.000000
0.033137 0.121766 0.000000
0.066273 0.121766 0.000000
0.099410 0.121766 0.000000
0.132547 0.121766 0.000000
0.166128 0.121613 0.000000
0.199887 0.121461 0.000000
0.233823 0.121309 0.000000
0.267937 0.121156 0.000000
0.302229 0.121004 0.000000
0.336699 0.120852 0.000000
0.371347 0.120699 0.000000
0.406172 0.120547 0.000000
0.441175 0.120395 0.000000
0.476355 0.120242 0.000000
0.511714 0.120090 0.000000
0.547250 0.119937 0.000000
0.582964 0.119785 0.000000
0.618855 0.119633 0.000000
0.654925 0.119480 0.000000
0.691172 0.119328 0.000000
0.727597 0.119176 0.000000
0.764199 0.119023 0.000000
0.800979 0.118871 0.000000
0.837938 0.118719 0.000000
0.875073 0.118566 0.000000
0.912387 0.118414 0.000000
0.949878 0.118262 0.000000
0.987547 0.118109 0.000000
1.000000 0.117957 0.000000
1.000000 0.117805 0.000000
1.000000 0.117652 0.000000
1.000000 0.117500 0.000000
0.000000 0.152017 0.000000
0.033226 0.152017 0.000000
0.066451 0.152017 0.000000
0.099677 0.152017 0.000000
0.132902 0.152017 0.000000
0.166128 0.152017 0.000000
0.199887 0.151826 0.000000
0.233823 0.151636 0.000000
0.267937 0.151445 0.000000
0.302229 0.151255 0.000000
0.336699 0.151064 0.000000
0.371347 0.150874 0.000000
0.406172 0.150684 0.000000
0.441175 0.150493 0.000000
0.476355 0.150303 0.000000
0.511714 0.150112 0.000000
0.547250 0.149922 0.000000
0.582964 0.149731 0.000000
0.618855 0.149541 0.000000
0.654925 0.149351 0.000000
0.691172 0.149160 0.000000
0.727597 0.148970 0.000000
0.764199 0.148779 0.000000
0.800979 0.148589 0.000000
0.837938 0.148398 0.000000
0.875073 0.148208 0.000000
0.912387 0.148018 0.000000
0.949878 0.147827 0.000000
0.987547 0.147637 0.000000
1.000000 0.147446 0.000000
1.000000 0.147256 0.000000
1.000000 0.147065 0.000000
1.000000 0.146875 0.000000
0.000000 0.182191 0.000000
0.033314 0.182191 0.000000
0.066629 0.182191 0.000000
0.099943 0.182191 0.000000
0.133258 0.182191 0.000000
0.166572 0.182191 0.000000
0.199887 0.182191 0.000000
0.233823 0.181963 0.000000
0.267937 0.181734 0.000000
0.302229 0.181506 0.000000
0.336699 0.181277 0.000000
0.371347 0.181049 0.000000
0.406172 0.180820 0.000000
0.441175 0.180592 0.000000
0.476355 0.180363 0.000000
0.511714 0.180135 0.000000
0.547250 0.179906 0.000000
0.582964 0.179678 0.000000
0.618855 0.179449 0.000000
0.654925 0.179221 0.000000
0.691172 0.178992 0.000000
0.727597 0.178764 0.000000
0.764199 0.178535 0.000000
0.800979 0.178307 0.000000
0.837938 0.178078 0.000000
0.875073 0.177850 0.000000
0.912387 0.177621 0.000000
0.949878 0.177393 0.000000
0.987547 0.177164 0.000000
1.000000 0.176936 0.000000
1.000000 0.176707 0.000000
1.000000 0.176479 0.000000
1.000000 0.176250 0.000000
0.000000 0.212290 0.000000
0.033403 0.212290 0.000000
0.066807 0.212290 0.000000
0.100210 0.212290 0.000000
0.133613 0.212290 0.000000
0.167017 0.212290 0.000000
0.200420 0.212290 0.000000
0.233823 0.212290 0.000000
0.267937 0.212023 0.000000
0.302229 0.211757 0.000000
0.336699 0.211490 0.000000
0.371347 0.211224 0.000000
0.406172 0.210957 0.000000
0.441175 0.210690 0.000000
0.476355 0.210424 0.000000
0.511714 0.210157 0.000000
0.547250 0.209891 0.000000
0.582964 0.209624 0.000000
0.618855 0.209357 0.000000
0.654925 0.209091 0.000000
0.691172 0.208824 0.000000
0.727597 0.208558 0.000000
0.764199 0.208291 0.000000
0.800979 0.208024 0.000000
0.837938 0.207758 0.000000
0.875073 0.207491 0.000000
0.912387 0.207225 0.000000
0.949878 0.206958 0.000000
0.987547 0.206691 0.000000
1.000000 0.206425 0.000000
1.000000 0.206158 0.000000
1.000000 0.205892 0.000000
1.000000 0.205625 0.000000
0.000000 0.242312 0.000000
0.033492 0.242312 0.000000
0.066984 0.242312 0.000000
0.100477 0.242312 0.000000
0.133969 0.242312 0.000000
0.167461 0.242312 0.000000
0.200953 0.242312 0.000000
0.234445 0.242312 0.000000
0.267937 0.242312 0.000000
0.302229 0.242008 0.000000
0.336699 0.241703 0.000000
0.371347 0.241398 0.000000
0.406172 0.241094 0.000000
0.441175 0.240789 0.000000
0.476355 0.240484 0.000000
0.511714 0.240180 0.000000
0.547250 0.239875 0.000000
0.582964 0.239570 0.000000
0.618855 0.239266 0.000000
0.654925 0.238961 0.000000
0.691172 0.238656 0.000000
0.727597 0.238352 0.000000
0.764199 0.238047 0.000000
0.800979 0.237742 0.000000
0.837938 0.237437 0.000000
0.875073 0.237133 0.000000
0.912387 0.236828 0.000000
0.949878 0.236523 0.000000
0.987547 0.236219 0.000000
1.000000 0.235914 0.000000
1.000000 0.235609 0.000000
1.000000 0.235305 0.000000
1.000000 0.235000 0.000000
0.000000 0.272259 0.000000
0.033581 0.272259 0.000000
0.067162 0.272259 0.000000
0.100743 0.272259 0.000000
0.134324 0.272259 0.000000
0.167905 0.272259 0.000000
0.201486 0.272259 0.000000
0.235067 0.272259 0.000000
0.268648 0.272259 0.000000
0.302229 0.272259 0.000000
0.336699 0.271916 0.000000
0.371347 0.271573 0.000000
0.406172 0.271230 0.000000
0.441175 0.270888 0.000000
0.476355 0.270545 0.000000
0.511714 0.270202 0.000000
0.547250 0.269859 0.000000
0.582964 0.269517 0.000000
0.618855 0.269174 0.000000
0.654925 0.268831 0.000000
0.691172 0.268488 0.000000
0.727597 0.268146 0.000000
0.764199 0.267803 0.000000
0.800979 0.267460 0.000000
0.837938 0.267117 0.000000
0.875073 0.266774 0.000000
0.912387 0.266432 0.000000
0.949878 0.266089 0.000000
0.987547 0.265746 0.000000
1.000000 0.265403 0.000000
1.000000 0.265061 0.000000
1.000000 0.264718 0.000000
1.000000 0.264375 0.000000
0.000000 0.302129 0.000000
0.033670 0.302129 0.000000
0.067340 0.302129 0.000000
0.101010 0.302129 0.000000
0.134680 0.302129 0.000000
0.168350 0.302129 0.000000
0.202020 0.302129 0.000000
0.235689 0.302129 0.000000
0.269359 0.302129 0.000000
0.303029 0.302129 0.000000
0.336699 0.302129 0.000000
0.371347 0.301748 0.000000
0.406172 0.301367 0.000000
0.441175 0.300986 0.000000
0.476355 0.300605 0.000000
0.511714 0.300225 0.000000
0.547250 0.299844 0.000000
0.582964 0.299463 0.000000
0.618855 0.299082 0.000000
0.654925 0.298701 0.000000
0.691172 0.298320 0.000000
0.727597 0.297939 0.000000
0.764199 0.297559 0.000000
0.800979 0.297178 0.000000
0.837938 0.296797 0.000000
0.875073 0.296416 0.000000
0.912387 0.296035 0.000000
0.949878 0.295654 0.000000
0.987547 0.295273 0.000000
1.000000 0.294893 0.000000
1.000000 0.294512 0.000000
1.000000 0.294131 0.000000
1.000000 0.293750 0.000000
0.000000 0.331923 0.000000
0.033759 0.331923 0.000000
0.067518 0.331923 0.000000
0.101276 0.331923 0.000000
0.135035 0.331923 0.000000
0.168794 0.331923 0.000000
0.202553 0.331923 0.000000
0.236312 0.331923 0.000000
0.270070 0.331923 0.000000
0.303829 0.331923 0.000000
0.337588 0.331923 0.000000
0.371347 0.331923 0.000000
0.406172 0.331504 0.000000
0.441175 0.331085 0.000000
0.476355 0.330666 0.000000
0.511714 0.330247 0.000000
0.547250 0.329828 0.000000
0.582964 0.329409 0.000000
0.618855 0.328990 0.000000
0.654925 0.328571 0.000000
0.691172 0.328152 0.000000
0.727597 0.327733 0.000000
0.764199 0.327314 0.000000
0.800979 0.326896 0.000000
0.837938 0.326477 0.000000
0.875073 0.326058 0.000000
0.912387 0.325639 0.000000
0.949878 0.325220 0.000000
0.987547 0.324801 0.000000
1.000000 0.324382 0.000000
1.000000 0.323963 0.000000
1.000000 0.323544 0.000000
1.000000 0.323125 0.000000
0.000000 0.361641 0.000000
0.033848 0.361641 0.000000
0.067695 0.361641 0.000000
0.101543 0.361641 0.000000
0.135391 0.361641 0.000000
0.169238 0.361641 0.000000
0.203086 0.361641 0.000000
0.236934 0.361641 0.000000
0.270781 0.361641 0.000000
0.304629 0.361641 0.000000
0.338477 0.361641 0.000000
0.372324 0.361641 0.000000
0.406172 0.361641 0.000000
0.441175 0.361184 0.000000
0.476355 0.360727 0.000000
0.511714 0.360270 0.000000
0.547250 0.359812 0.000000
0.582964 0.359355 0.000000
0.618855 0.358898 0.000000
0.654925 0.358441 0.000000
0.691172 0.357984 0.000000
0.727597 0.357527 0.000000
0.764199 0.357070 0.000000
0.800979 0.356613 0.000000
0.837938 0.356156 0.000000
0.875073 0.355699 0.000000
0.912387 0.355242 0.000000
0.949878 0.354785 0.000000
0.987547 0.354328 0.000000
1.000000 0.353871 0.000000
1.000000 0.353414 0.000000
1.000000 0.352957 0.000000
1.000000 0.352500 0.000000
0.000000 0.391282 0.000000
0.033937 0.391282 0.000000
0.067873 0.391282 0.000000
0.101810 0.391282 0.000000
0.135746 0.391282 0.000000
0.169683 0.391282 0.000000
0.203619 0.391282 0.000000
0.237556 0.391282 0.000000
0.271492 0.391282 0.000000
0.305429 0.391282 0.000000
0.339365 0.391282 0.000000
0.373302 0.391282 0.000000
0.407238 0.391282 0.000000
0.441175 0.391282 0.000000
0.476355 0.390787 0.000000
0.511714 0.390292 0.000000
0.547250 0.389797 0.000000
0.582964 0.389302 0.000000
0.618855 0.388807 0.000000
0.654925 0.388312 0.000000
0.691172 0.387816 0.000000
0.727597 0.387321 0.000000
0.764199 0.386826 0.000000
0.800979 0.386331 0.000000
0.837938 0.385836 0.000000
0.875073 0.385341 0.000000
0.912387 0.384846 0.000000
0.949878 0.384351 0.000000
0.987547 0.383855 0.000000
1.000000 0.383360 0.000000
1.000000 0.382865 0.000000
1.000000 0.382370 0.000000
1.000000 0.381875 0.000000
0.000000 0.420848 0.000000
0.034025 0.420848 0.000000
0.068051 0.420848 0.000000
0.102076 0.420848 0.000000
0.136102 0.420848 0.000000
0.170127 0.420848 0.000000
0.204152 0.420848 0.000000
0.238178 0.420848 0.000000
0.272203 0.420848 0.000000
0.306229 0.420848 0.000000
0.340254 0.420848 0.000000
0.374279 0.420848 0.000000
0.408305 0.420848 0.000000
0.442330 0.420848 0.000000
0.476355 0.420848 0.000000
0.511714 0.420314 0.000000
0.547250 0.419781 0.000000
0.582964 0.419248 0.000000
0.618855 0.418715 0.000000
0.654925 0.418182 0.000000
0.691172 0.417648 0.000000
0.727597 0.417115 0.000000
0.764199 0.416582 0.000000
0.800979 0.416049 0.000000
0.837938 0.415516 0.000000
0.875073 0.414982 0.000000
0.912387 0.414449 0.000000
0.949878 0.413916 0.000000
0.987547 0.413383 0.000000
1.000000 0.412850 0.000000
1.000000 0.412316 0.000000
1.000000 0.411783 0.000000
1.000000 0.411250 0.000000
0.000000 0.450337 0.000000
0.034114 0.450337 0.000000
0.068229 0.450337 0.000000
0.102343 0.450337 0.000000
0.136457 0.450337 0.000000
0.170571 0.450337 0.000000
0.204686 0.450337 0.000000
0.238800 0.450337 0.000000
0.272914 0.450337 0.000000
0.307028 0.450337 0.000000
0.341143 0.450337 0.000000
0.375257 0.450337 0.000000
0.409371 0.450337 0.000000
0.443485 0.450337 0.000000
0.477600 0.450337 0.000000
0.511714 0.450337 0.000000
0.547250 0.449766 0.000000
0.582964 0.449194 0.000000
0.618855 0.448623 0.000000
0.654925 0.448052 0.000000
0.691172 0.447480 0.000000
0.727597 0.446909 0.000000
0.764199 0.446338 0.000000
0.800979 0.445767 0.000000
0.837938 0.445195 0.000000
0.875073 0.444624 0.000000
0.912387 0.444053 0.000000
0.949878 0.443481 0.000000
0.987547 0.442910 0.000000
1.000000 0.442339 0.000000
1.000000 0.441768 0.000000
1.000000 0.441196 0.000000
1.000000 0.440625 0.000000
0.000000 0.479750 0.000000
0.034203 0.479750 0.000000
0.068406 0.479750 0.000000
0.102609 0.479750 0.000000
0.136813 0.479750 0.000000
0.171016 0.479750 0.000000
0.205219 0.479750 0.000000
0.239422 0.479750 0.000000
0.273625 0.479750 0.000000
0.307828 0.479750 0.000000
0.342031 0.479750 0.000000
0.376234 0.479750 0.000000
0.410438 0.479750 0.000000
0.444641 0.479750 0.000000
0.478844 0.479750 0.000000
0.513047 0.479750 0.000000
0.547250 0.479750 0.000000
0.582964 0.479141 0.000000
0.618855 0.478531 0.000000
0.654925 0.477922 0.000000
0.691172 0.477312 0.000000
0.727597 0.476703 0.000000
0.764199 0.476094 0.000000
0.800979 0.475484 0.000000
0.837938 0.474875 0.000000
0.875073 0.474266 0.000000
0.912387 0.473656 0.000000
0.949878 0.473047 0.000000
0.987547 0.472437 0.000000
1.000000 0.471828 0.000000
1.000000 0.471219 0.000000
1.000000 0.470609 0.000000
1.000000 0.470000 0.000000
0.000000 0.509087 0.000000
0.034292 0.509087 0.000000
0.068584 0.509087 0.000000
0.102876 0.509087 0.000000
0.137168 0.509087 0.000000
0.171460 0.509087 0.000000
0.205752 0.509087 0.000000
0.240044 0.509087 0.000000
0.274336 0.509087 0.000000
0.308628 0.509087 0.000000
0.342920 0.509087 0.000000
0.377212 0.509087 0.000000
0.411504 0.509087 0.000000
0.445796 0.509087 0.000000
0.480088 0.509087 0.000000
0.514380 0.509087 0.000000
0.548672 0.509087 0.000000
0.582964 0.509087 0.000000
0.618855 0.508439 0.000000
0.654925 0.507792 0.000000
0.691172 0.507145 0.000000
0.727597 0.506497 0.000000
0.764199 0.505850 0.000000
0.800979 0.505202 0.000000
0.837938 0.504555 0.000000
0.875073 0.503907 0.000000
0.912387 0.503260 0.000000
0.949878 0.502612 0.000000
0.987547 0.501965 0.000000
1.000000 0.501317 0.000000
1.000000 0.500670 0.000000
1.000000 0.500022 0.000000
1.000000 0.499375 0.000000
0.000000 0.538348 0.000000
0.034381 0.538348 0.000000
0.068762 0.538348 0.000000
0.103143 0.538348 0.000000
0.137523 0.538348 0.000000
0.171904 0.538348 0.000000
0.206285 0.538348 0.000000
0.240666 0.538348 0.000000
0.275047 0.538348 0.000000
0.309428 0.538348 0.000000
0.343809 0.538348 0.000000
0.378189 0.538348 0.000000
0.412570 0.538348 0.000000
0.446951 0.538348 0.000000
0.481332 0.538348 0.000000
0.515713 0.538348 0.000000
0.550094 0.538348 0.000000
0.584475 0.538348 0.000000
0.618855 0.538348 0.000000
0.654925 0.537662 0.000000
0.691172 0.536977 0.000000
0.727597 0.536291 0.000000
0.764199 0.535605 0.000000
0.800979 0.534920 0.000000
0.837938 0.534234 0.000000
0.875073 0.533549 0.000000
0.912387 0.532863 0.000000
0.949878 0.532178 0.000000
0.987547 0.531492 0.000000
1.000000 0.530807 0.000000
1.000000 0.530121 0.000000
1.000000 0.529436 0.000000
1.000000 0.528750 0.000000
0.000000 0.567532 0.000000
0.034470 0.567532 0.000000
0.068939 0.567532 0.000000
0.103409 0.567532 0.000000
0.137879 0.567532 0.000000
0.172349 0.567532 0.000000
0.206818 0.567532 0.000000
0.241288 0.567532 0.000000
0.275758 0.567532 0.000000
0.310228 0.567532 0.000000
0.344697 0.567532 0.000000
0.379167 0.567532 0.000000
0.413637 0.567532 0.000000
0.448106 0.567532 0.000000
0.482576 0.567532 0.000000
0.517046 0.567532 0.000000
0.551516 0.567532 0.000000
0.585985 0.567532 0.000000
0.620455 0.567532 0.000000
0.654925 0.567532 0.000000
0.691172 0.566809 0.000000
0.727597 0.566085 0.000000
0.764199 0.565361 0.000000
0.800979 0.564638 0.000000
0.837938 0.563914 0.000000
0.875073 0.563190 0.000000
0.912387 0.562467 0.000000
0.949878 0.561743 0.000000
0.987547 0.561020 0.000000
1.000000 0.560296 0.000000
1.000000 0.559572 0.000000
1.000000 0.558849 0.000000
1.000000 0.558125 0.000000
0.000000 0.596641 0.000000
0.034559 0.596641 0.000000
0.069117 0.596641 0.000000
0.103676 0.596641 0.000000
0.138234 0.596641 0.000000
0.172793 0.596641 0.000000
0.207352 0.596641 0.000000
0.241910 0.596641 0.000000
0.276469 0.596641 0.000000
0.311027 0.596641 0.000000
0.345586 0.596641 0.000000
0.380145 0.596641 0.000000
0.414703 0.596641 0.000000
0.449262 0.596641 0.000000
0.483820 0.596641 0.000000
0.518379 0.596641 0.000000
0.552937 0.596641 0.000000
0.587496 0.596641 0.000000
0.622055 0.596641 0.000000
0.656613 0.596641 0.000000
0.691172 0.596641 0.000000
0.727597 0.595879 0.000000
0.764199 0.595117 0.000000
0.800979 0.594355 0.000000
0.837938 0.593594 0.000000
0.875073 0.592832 0.000000
0.912387 0.592070 0.000000
0.949878 0.591309 0.000000
0.987547 0.590547 0.000000
1.000000 0.589785 0.000000
1.000000 0.589023 0.000000
1.000000 0.588262 0.000000
1.000000 0.587500 0.000000
0.000000 0.625673 0.000000
0.034647 0.625673 0.000000
0.069295 0.625673 0.000000
0.103942 0.625673 0.000000
0.138590 0.625673 0.000000
0.173237 0.625673 0.000000
0.207885 0.625673 0.000000
0.242532 0.625673 0.000000
0.277180 0.625673 0.000000
0.311827 0.625673 0.000000
0.346475 0.625673 0.000000
0.381122 0.625673 0.000000
0.415770 0.625673 0.000000
0.450417 0.625673 0.000000
0.485064 0.625673 0.000000
0.519712 0.625673 0.000000
0.554359 0.625673 0.000000
0.589007 0.625673 0.000000
0.623654 0.625673 0.000000
0.658302 0.625673 0.000000
0.692949 0.625673 0.000000
0.727597 0.625673 0.000000
0.764199 0.624873 0.000000
0.800979 0.624073 0.000000
0.837938 0.623273 0.000000
0.875073 0.622474 0.000000
0.912387 0.621674 0.000000
0.949878 0.620874 0.000000
0.987547 0.620074 0.000000
1.000000 0.619274 0.000000
1.000000 0.618475 0.000000
1.000000 0.617675 0.000000
1.000000 0.616875 0.000000
0.000000 0.654629 0.000000
0.034736 0.654629 0.000000
0.069473 0.654629 0.000000
0.104209 0.654629 0.000000
0.138945 0.654629 0.000000
0.173682 0.654629 0.000000
0.208418 0.654629 0.000000
0.243154 0.654629 0.000000
0.277891 0.654629 0.000000
0.312627 0.654629 0.000000
0.347363 0.654629 0.000000
0.382100 0.654629 0.000000
0.416836 0.654629 0.000000
0.451572 0.654629 0.000000
0.486309 0.654629 0.000000
0.521045 0.654629 0.000000
0.555781 0.654629 0.000000
0.590518 0.654629 0.000000
0.625254 0.654629 0.000000
0.659990 0.654629 0.000000
0.694727 0.654629 0.000000
0.729463 0.654629 0.000000
0.764199 0.654629 0.000000
0.800979 0.653791 0.000000
0.837938 0.652953 0.000000
0.875073 0.652115 0.000000
0.912387 0.651277 0.000000
0.949878 0.650439 0.000000
0.987547 0.649602 0.000000
1.000000 0.648764 0.000000
1.000000 0.647926 0.000000
1.000000 0.647088 0.000000
1.000000 0.646250 0.000000
0.000000 0.683509 0.000000
0.034825 0.683509 0.000000
0.069650 0.683509 0.000000
0.104476 0.683509 0.000000
0.139301 0.683509 0.000000
0.174126 0.683509 0.000000
0.208951 0.683509 0.000000
0.243776 0.683509 0.000000
0.278602 0.683509 0.000000
0.313427 0.683509 0.000000
0.348252 0.683509 0.000000
0.383077 0.683509 0.000000
0.417902 0.683509 0.000000
0.452728 0.683509 0.000000
0.487553 0.683509 0.000000
0.522378 0.683509 0.000000
0.557203 0.683509 0.000000
0.592028 0.683509 0.000000
0.626854 0.683509 0.000000
0.661679 0.683509 0.000000
0.696504 0.683509 0.000000
0.731329 0.683509 0.000000
0.766154 0.683509 0.000000
0.800979 0.683509 0.000000
0.837938 0.682633 0.000000
0.875073 0.681757 0.000000
0.912387 0.680881 0.000000
0.949878 0.680005 0.000000
0.987547 0.679129 0.000000
1.000000 0.678253 0.000000
1.000000 0.677377 0.000000
1.000000 0.676501 0.000000
1.000000 0.675625 0.000000
0.000000 0.712312 0.000000
0.034914 0.712312 0.000000
0.069828 0.712312 0.000000
0.104742 0.712312 0.000000
0.139656 0.712312 0.000000
0.174570 0.712312 0.000000
0.209484 0.712312 0.000000
0.244398 0.712312 0.000000
0.279312 0.712312 0.000000
0.314227 0.712312 0.000000
0.349141 0.712312 0.000000
0.384055 0.712312 0.000000
0.418969 0.712312 0.000000
0.453883 0.712312 0.000000
0.488797 0.712312 0.000000
0.523711 0.712312 0.000000
0.558625 0.712312 0.000000
0.593539 0.712312 0.000000
0.628453 0.712312 0.000000
0.663367 0.712312 0.000000
0.698281 0.712312 0.000000
0.733195 0.712312 0.000000
0.768109 0.712312 0.000000
0.803023 0.712312 0.000000
0.837938 0.712312 0.000000
0.875073 0.711398 0.000000
0.912387 0.710484 0.000000
0.949878 0.709570 0.000000
0.987547 0.708656 0.000000
1.000000 0.707742 0.000000
1.000000 0.706828 0.000000
1.000000 0.705914 0.000000
1.000000 0.705000 0.000000
0.000000 0.741040 0.000000
0.035003 0.741040 0.000000
0.070006 0.741040 0.000000
0.105009 0.741040 0.000000
0.140012 0.741040 0.000000
0.175015 0.741040 0.000000
0.210018 0.741040 0.000000
0.245021 0.741040 0.000000
0.280023 0.741040 0.000000
0.315026 0.741040 0.000000
0.350029 0.741040 0.000000
0.385032 0.741040 0.000000
0.420035 0.741040 0.000000
0.455038 0.741040 0.000000
0.490041 0.741040 0.000000
0.525044 0.741040 0.000000
0.560047 0.741040 0.000000
0.595050 0.741040 0.000000
0.630053 0.741040 0.000000
0.665056 0.741040 0.000000
0.700059 0.741040 0.000000
0.735062 0.741040 0.000000
0.770064 0.741040 0.000000
0.805067 0.741040 0.000000
0.840070 0.741040 0.000000
0.875073 0.741040 0.000000
0.912387 0.740088 0.000000
0.949878 0.739136 0.000000
0.987547 0.738184 0.000000
1.000000 0.737231 0.000000
1.000000 0.736279 0.000000
1.000000 0.735327 0.000000
1.000000 0.734375 0.000000
0.000000 0.769691 0.000000
0.035092 0.769691 0.000000
0.070184 0.769691 0.000000
0.105275 0.769691 0.000000
0.140367 0.769691 0.000000
0.175459 0.769691 0.000000
0.210551 0.769691 0.000000
0.245643 0.769691 0.000000
0.280734 0.769691 0.000000
0.315826 0.769691 0.000000
0.350918 0.769691 0.000000
0.386010 0.769691 0.000000
0.421102 0.769691 0.000000
0.456193 0.769691 0.000000
0.491285 0.769691 0.000000
0.526377 0.769691 0.000000
0.561469 0.769691 0.000000
0.596561 0.769691 0.000000
0.631652 0.769691 0.000000
0.666744 0.769691 0.000000
0.701836 0.769691 0.000000
0.736928 0.769691 0.000000
0.772020 0.769691 0.000000
0.807111 0.769691 0.000000
0.842203 0.769691 0.000000
0.877295 0.769691 0.000000
0.912387 0.769691 0.000000
