luts/original/melanin-gold.cube
TITLE "Melanin Gold"
LUT_3D_SIZE 5
DOMAIN_MIN 0.0 0.0 0.0
DOMAIN_MAX 1.0 1.0 1.0
0.000000 0.000000 0.000000
0.267937 0.000000 0.000000
0.547250 0.000000 0.000000
0.837938 0.000000 0.000000
1.000000 0.000000 0.000000
0.000000 0.242312 0.000000
0.267937 0.242312 0.000000
0.547250 0.239875 0.000000
0.837938 0.237437 0.000000
1.000000 0.235000 0.000000
0.000000 0.479750 0.000000
0.273625 0.479750 0.000000
0.547250 0.479750 0.000000
0.837938 0.474875 0.000000
1.000000 0.470000 0.000000
0.000000 0.712312 0.000000
0.279312 0.712312 0.000000
0.558625 0.712312 0.000000
0.837938 0.712312 0.000000
1.000000 0.705000 0.000000
0.000000 0.940000 0.000000
0.285000 0.940000 0.000000
0.570000 0.940000 0.000000
0.855000 0.940000 0.000000
1.000000 0.940000 0.000000
0.000000 0.000000 0.221813
0.267937 0.000000 0.221813
0.547250 0.000000 0.212875
0.837938 0.000000 0.203937
1.000000 0.000000 0.195000
0.000000 0.242312 0.221813
0.267937 0.242312 0.221813
0.547250 0.239875 0.212875
0.837938 0.237437 0.203937
1.000000 0.235000 0.195000
0.000000 0.479750 0.212875
0.273625 0.479750 0.212875
0.547250 0.479750 0.212875
0.837938 0.474875 0.203937
1.000000 0.470000 0.195000
0.000000 0.712312 0.203937
0.279312 0.712312 0.203937
0.558625 0.712312 0.203937
0.837938 0.712312 0.203937
1.000000 0.705000 0.195000
0.000000 0.940000 0.195000
0.285000 0.940000 0.195000
0.570000 0.940000 0.195000
0.855000 0.940000 0.195000
1.000000 0.940000 0.195000
0.000000 0.000000 0.425750
0.273625 0.000000 0.425750
0.547250 0.000000 0.425750
0.837938 0.000000 0.407875
1.000000 0.000000 0.390000
0.000000 0.239875 0.425750
0.273625 0.239875 0.425750
0.547250 0.239875 0.425750
0.837938 0.237437 0.407875
1.000000 0.235000 0.390000
0.000000 0.479750 0.425750
0.273625 0.479750 0.425750
0.547250 0.479750 0.425750
0.837938 0.474875 0.407875
1.000000 0.470000 0.390000
0.000000 0.712312 0.407875
0.279312 0.712312 0.407875
0.558625 0.712312 0.407875
0.837938 0.712312 0.407875
1.000000 0.705000 0.390000
0.000000 0.940000 0.390000
0.285000 0.940000 0.390000
0.570000 0.940000 0.390000
0.855000 0.940000 0.390000
1.000000 0.940000 0.390000
0.000000 0.000000 0.611812
0.279312 0.000000 0.611812
0.558625 0.000000 0.611812
0.837938 0.000000 0.611812
1.000000 0.000000 0.585000
0.000000 0.237437 0.611812
0.279312 0.237437 0.611812
0.558625 0.237437 0.611812
0.837938 0.237437 0.611812
1.000000 0.235000 0.585000
0.000000 0.474875 0.611812
0.279312 0.474875 0.611812
0.558625 0.474875 0.611812
0.837938 0.474875 0.611812
1.000000 0.470000 0.585000
0.000000 0.712312 0.611812
0.279312 0.712312 0.611812
0.558625 0.712312 0.611812
0.837938 0.712312 0.611812
1.000000 0.705000 0.585000
0.000000 0.940000 0.585000
0.285000 0.940000 0.585000
0.570000 0.940000 0.585000
0.855000 0.940000 0.585000
1.000000 0.940000 0.585000
0.000000 0.000000 0.780000
0.285000 0.000000 0.780000
0.570000 0.000000 0.780000
0.855000 0.000000 0.780000
1.000000 0.000000 0.780000
0.000000 0.235000 0.780000
0.285000 0.235000 0.780000
0.570000 0.235000 0.780000
0.855000 0.235000 0.780000
1.000000 0.235000 0.780000
0.000000 0.470000 0.780000
0.285000 0.470000 0.780000
0.570000 0.470000 0.780000
0.855000 0.470000 0.780000
1.000000 0.470000 0.780000
0.000000 0.705000 0.780000
0.285000 0.705000 0.780000
0.570000 0.705000 0.780000
0.855000 0.705000 0.780000
1.000000 0.705000 0.780000
0.000000 0.940000 0.780000
0.285000 0.940000 0.780000
0.570000 0.940000 0.780000
0.855000 0.940000 0.780000
1.000000 0.940000 0.780000
