luts/original/melanin-gold.cube
TITLE "Melanin Gold"
LUT_3D_SIZE 9
DOMAIN_MIN 0.0 0.0 0.0
DOMAIN_MAX 1.0 1.0 1.0
0.000000 0.000000 0.000000
0.132547 0.000000 0.000000
0.267937 0.000000 0.000000
0.406172 0.000000 0.000000
0.547250 0.000000 0.000000
0.691172 0.000000 0.000000
0.837938 0.000000 0.000000
0.987547 0.000000 0.000000
1.000000 0.000000 0.000000
0.000000 0.121766 0.000000
0.132547 0.121766 0.000000
0.267937 0.121156 0.000000
0.406172 0.120547 0.000000
0.547250 0.119937 0.000000
0.691172 0.119328 0.000000
0.837938 0.118719 0.000000
0.987547 0.118109 0.000000
1.000000 0.117500 0.000000
0.000000 0.242312 0.000000
0.133969 0.242312 0.000000
0.267937 0.242312 0.000000
0.406172 0.241094 0.000000
0.547250 0.239875 0.000000
0.691172 0.238656 0.000000
0.837938 0.237437 0.000000
0.987547 0.236219 0.000000
1.000000 0.235000 0.000000
0.000000 0.361641 0.000000
0.135391 0.361641 0.000000
0.270781 0.361641 0.000000
0.406172 0.361641 0.000000
0.547250 0.359812 0.000000
0.691172 0.357984 0.000000
0.837938 0.356156 0.000000
0.987547 0.354328 0.000000
1.000000 0.352500 0.000000
0.000000 0.479750 0.000000
0.136813 0.479750 0.000000
0.273625 0.479750 0.000000
0.410438 0.479750 0.000000
0.547250 0.479750 0.000000
0.691172 0.477312 0.000000
0.837938 0.474875 0.000000
0.987547 0.472437 0.000000
1.000000 0.470000 0.000000
0.000000 0.596641 0.000000
0.138234 0.596641 0.000000
0.276469 0.596641 0.000000
0.414703 0.596641 0.000000
0.552937 0.596641 0.000000
0.691172 0.596641 0.000000
0.837938 0.593594 0.000000
0.987547 0.590547 0.000000
1.000000 0.587500 0.000000
0.000000 0.712312 0.000000
0.139656 0.712312 0.000000
0.279312 0.712312 0.000000
0.418969 0.712312 0.000000
0.558625 0.712312 0.000000
0.698281 0.712312 0.000000
0.837938 0.712312 0.000000
0.987547 0.708656 0.000000
1.000000 0.705000 0.000000
0.000000 0.826766 0.000000
0.141078 0.826766 0.000000
0.282156 0.826766 0.000000
0.423234 0.826766 0.000000
0.564312 0.826766 0.000000
0.705391 0.826766 0.000000
0.846469 0.826766 0.000000
0.987547 0.826766 0.000000
1.000000 0.822500 0.000000
0.000000 0.940000 0.000000
0.142500 0.940000 0.000000
0.285000 0.940000 0.000000
0.427500 0.940000 0.000000
0.570000 0.940000 0.000000
0.712500 0.940000 0.000000
0.855000 0.940000 0.000000
0.997500 0.940000 0.000000
1.000000 0.940000 0.000000
0.000000 0.000000 0.113141
0.132547 0.000000 0.113141
0.267937 0.000000 0.110906
0.406172 0.000000 0.108672
0.547250 0.000000 0.106438
0.691172 0.000000 0.104203
0.837938 0.000000 0.101969
0.987547 0.000000 0.099734
1.000000 0.000000 0.097500
0.000000 0.121766 0.113141
0.132547 0.121766 0.113141
0.267937 0.121156 0.110906
0.406172 0.120547 0.108672
0.547250 0.119937 0.106438
0.691172 0.119328 0.104203
0.837938 0.118719 0.101969
0.987547 0.118109 0.099734
1.000000 0.117500 0.097500
0.000000 0.242312 0.110906
0.133969 0.242312 0.110906
0.267937 0.242312 0.110906
0.406172 0.241094 0.108672
0.547250 0.239875 0.106438
0.691172 0.238656 0.104203
0.837938 0.237437 0.101969
0.987547 0.236219 0.099734
1.000000 0.235000 0.097500
0.000000 0.361641 0.108672
0.135391 0.361641 0.108672
0.270781 0.361641 0.108672
0.406172 0.361641 0.108672
0.547250 0.359812 0.106438
0.691172 0.357984 0.104203
0.837938 0.356156 0.101969
0.987547 0.354328 0.099734
1.000000 0.352500 0.097500
0.000000 0.479750 0.106438
0.136813 0.479750 0.106438
0.273625 0.479750 0.106438
0.410438 0.479750 0.106438
0.547250 0.479750 0.106438
0.691172 0.477312 0.104203
0.837938 0.474875 0.101969
0.987547 0.472437 0.099734
1.000000 0.470000 0.097500
0.000000 0.596641 0.104203
0.138234 0.596641 0.104203
0.276469 0.596641 0.104203
0.414703 0.596641 0.104203
0.552937 0.596641 0.104203
0.691172 0.596641 0.104203
0.837938 0.593594 0.101969
0.987547 0.590547 0.099734
1.000000 0.587500 0.097500
0.000000 0.712312 0.101969
0.139656 0.712312 0.101969
0.279312 0.712312 0.101969
0.418969 0.712312 0.101969
0.558625 0.712312 0.101969
0.698281 0.712312 0.101969
0.837938 0.712312 0.101969
0.987547 0.708656 0.099734
1.000000 0.705000 0.097500
0.000000 0.826766 0.099734
0.141078 0.826766 0.099734
0.282156 0.826766 0.099734
0.423234 0.826766 0.099734
0.564312 0.826766 0.099734
0.705391 0.826766 0.099734
0.846469 0.826766 0.099734
0.987547 0.826766 0.099734
1.000000 0.822500 0.097500
0.000000 0.940000 0.097500
0.142500 0.940000 0.097500
0.285000 0.940000 0.097500
0.427500 0.940000 0.097500
0.570000 0.940000 0.097500
0.712500 0.940000 0.097500
0.855000 0.940000 0.097500
0.997500 0.940000 0.097500
1.000000 0.940000 0.097500
0.000000 0.000000 0.221813
0.133969 0.000000 0.221813
0.267937 0.000000 0.221813
0.406172 0.000000 0.217344
0.547250 0.000000 0.212875
0.691172 0.000000 0.208406
0.837938 0.000000 0.203937
0.987547 0.000000 0.199469
1.000000 0.000000 0.195000
0.000000 0.121156 0.221813
0.133969 0.121156 0.221813
0.267937 0.121156 0.221813
0.406172 0.120547 0.217344
0.547250 0.119937 0.212875
0.691172 0.119328 0.208406
0.837938 0.118719 0.203937
0.987547 0.118109 0.199469
1.000000 0.117500 0.195000
0.000000 0.242312 0.221813
0.133969 0.242312 0.221813
0.267937 0.242312 0.221813
0.406172 0.241094 0.217344
0.547250 0.239875 0.212875
0.691172 0.238656 0.208406
0.837938 0.237437 0.203937
0.987547 0.236219 0.199469
1.000000 0.235000 0.195000
0.000000 0.361641 0.217344
0.135391 0.361641 0.217344
0.270781 0.361641 0.217344
0.406172 0.361641 0.217344
0.547250 0.359812 0.212875
0.691172 0.357984 0.208406
0.837938 0.356156 0.203937
0.987547 0.354328 0.199469
1.000000 0.352500 0.195000
0.000000 0.479750 0.212875
0.136813 0.479750 0.212875
0.273625 0.479750 0.212875
0.410438 0.479750 0.212875
0.547250 0.479750 0.212875
0.691172 0.477312 0.208406
0.837938 0.474875 0.203937
0.987547 0.472437 0.199469
1.000000 0.470000 0.195000
0.000000 0.596641 0.208406
0.138234 0.596641 0.208406
0.276469 0.596641 0.208406
0.414703 0.596641 0.208406
0.552937 0.596641 0.208406
0.691172 0.596641 0.208406
0.837938 0.593594 0.203937
0.987547 0.590547 0.199469
1.000000 0.587500 0.195000
0.000000 0.712312 0.203937
0.139656 0.712312 0.203937
0.279312 0.712312 0.203937
0.418969 0.712312 0.203937
0.558625 0.712312 0.203937
0.698281 0.712312 0.203937
0.837938 0.712312 0.203937
0.987547 0.708656 0.199469
1.000000 0.705000 0.195000
0.000000 0.826766 0.199469
0.141078 0.826766 0.199469
0.282156 0.826766 0.199469
0.423234 0.826766 0.199469
0.564312 0.826766 0.199469
0.705391 0.826766 0.199469
0.846469 0.826766 0.199469
0.987547 0.826766 0.199469
1.000000 0.822500 0.195000
0.000000 0.940000 0.195000
0.142500 0.940000 0.195000
0.285000 0.940000 0.195000
0.427500 0.940000 0.195000
0.570000 0.940000 0.195000
0.712500 0.940000 0.195000
0.855000 0.940000 0.195000
0.997500 0.940000 0.195000
1.000000 0.940000 0.195000
0.000000 0.000000 0.326016
0.135391 0.000000 0.326016
0.270781 0.000000 0.326016
0.406172 0.000000 0.326016
0.547250 0.000000 0.319312
0.691172 0.000000 0.312609
0.837938 0.000000 0.305906
0.987547 0.000000 0.299203
1.000000 0.000000 0.292500
0.000000 0.120547 0.326016
0.135391 0.120547 0.326016
0.270781 0.120547 0.326016
0.406172 0.120547 0.326016
0.547250 0.119937 0.319312
0.691172 0.119328 0.312609
0.837938 0.118719 0.305906
0.987547 0.118109 0.299203
1.000000 0.117500 0.292500
0.000000 0.241094 0.326016
0.135391 0.241094 0.326016
0.270781 0.241094 0.326016
0.406172 0.241094 0.326016
0.547250 0.239875 0.319312
0.691172 0.238656 0.312609
0.837938 0.237437 0.305906
0.987547 0.236219 0.299203
1.000000 0.235000 0.292500
0.000000 0.361641 0.326016
0.135391 0.361641 0.326016
0.270781 0.361641 0.326016
0.406172 0.361641 0.326016
0.547250 0.359812 0.319312
0.691172 0.357984 0.312609
0.837938 0.356156 0.305906
0.987547 0.354328 0.299203
1.000000 0.352500 0.292500
0.000000 0.479750 0.319312
0.136813 0.479750 0.319312
0.273625 0.479750 0.319312
0.410438 0.479750 0.319312
0.547250 0.479750 0.319312
0.691172 0.477312 0.312609
0.837938 0.474875 0.305906
0.987547 0.472437 0.299203
1.000000 0.470000 0.292500
0.000000 0.596641 0.312609
0.138234 0.596641 0.312609
0.276469 0.596641 0.312609
0.414703 0.596641 0.312609
0.552937 0.596641 0.312609
0.691172 0.596641 0.312609
0.837938 0.593594 0.305906
0.987547 0.590547 0.299203
1.000000 0.587500 0.292500
0.000000 0.712312 0.305906
0.139656 0.712312 0.305906
0.279312 0.712312 0.305906
0.418969 0.712312 0.305906
0.558625 0.712312 0.305906
0.698281 0.712312 0.305906
0.837938 0.712312 0.305906
0.987547 0.708656 0.299203
1.000000 0.705000 0.292500
0.000000 0.826766 0.299203
0.141078 0.826766 0.299203
0.282156 0.826766 0.299203
0.423234 0.826766 0.299203
0.564312 0.826766 0.299203
0.705391 0.826766 0.299203
0.846469 0.826766 0.299203
0.987547 0.826766 0.299203
1.000000 0.822500 0.292500
0.000000 0.940000 0.292500
0.142500 0.940000 0.292500
0.285000 0.940000 0.292500
0.427500 0.940000 0.292500
0.570000 0.940000 0.292500
0.712500 0.940000 0.292500
0.855000 0.940000 0.292500
0.997500 0.940000 0.292500
1.000000 0.940000 0.292500
0.000000 0.000000 0.425750
0.136813 0.000000 0.425750
0.273625 0.000000 0.425750
0.410438 0.000000 0.425750
0.547250 0.000000 0.425750
0.691172 0.000000 0.416813
0.837938 0.000000 0.407875
0.987547 0.000000 0.398938
1.000000 0.000000 0.390000
0.000000 0.119937 0.425750
0.136813 0.119937 0.425750
0.273625 0.119937 0.425750
0.410438 0.119937 0.425750
0.547250 0.119937 0.425750
0.691172 0.119328 0.416813
0.837938 0.118719 0.407875
0.987547 0.118109 0.398938
1.000000 0.117500 0.390000
0.000000 0.239875 0.425750
0.136813 0.239875 0.425750
0.273625 0.239875 0.425750
0.410438 0.239875 0.425750
0.547250 0.239875 0.425750
0.691172 0.238656 0.416813
0.837938 0.237437 0.407875
0.987547 0.236219 0.398938
1.000000 0.235000 0.390000
0.000000 0.359812 0.425750
0.136813 0.359812 0.425750
0.273625 0.359812 0.425750
0.410438 0.359812 0.425750
0.547250 0.359812 0.425750
0.691172 0.357984 0.416813
0.837938 0.356156 0.407875
0.987547 0.354328 0.398938
1.000000 0.352500 0.390000
0.000000 0.479750 0.425750
0.136813 0.479750 0.425750
0.273625 0.479750 0.425750
0.410438 0.479750 0.425750
0.547250 0.479750 0.425750
0.691172 0.477312 0.416813
0.837938 0.474875 0.407875
0.987547 0.472437 0.398938
1.000000 0.470000 0.390000
0.000000 0.596641 0.416813
0.138234 0.596641 0.416813
0.276469 0.596641 0.416813
0.414703 0.596641 0.416813
0.552937 0.596641 0.416813
0.691172 0.596641 0.416813
0.837938 0.593594 0.407875
0.987547 0.590547 0.398938
1.000000 0.587500 0.390000
0.000000 0.712312 0.407875
0.139656 0.712312 0.407875
0.279312 0.712312 0.407875
0.418969 0.712312 0.407875
0.558625 0.712312 0.407875
0.698281 0.712312 0.407875
0.837938 0.712312 0.407875
0.987547 0.708656 0.398938
1.000000 0.705000 0.390000
0.000000 0.826766 0.398938
0.141078 0.826766 0.398938
0.282156 0.826766 0.398938
0.423234 0.826766 0.398938
0.564312 0.826766 0.398938
0.705391 0.826766 0.398938
0.846469 0.826766 0.398938
0.987547 0.826766 0.398938
1.000000 0.822500 0.390000
0.000000 0.940000 0.390000
0.142500 0.940000 0.390000
0.285000 0.940000 0.390000
0.427500 0.940000 0.390000
0.570000 0.940000 0.390000
0.712500 0.940000 0.390000
0.855000 0.940000 0.390000
0.997500 0.940000 0.390000
1.000000 0.940000 0.390000
0.000000 0.000000 0.521016
0.138234 0.000000 0.521016
0.276469 0.000000 0.521016
0.414703 0.000000 0.521016
0.552937 0.000000 0.521016
0.691172 0.000000 0.521016
0.837938 0.000000 0.509844
0.987547 0.000000 0.498672
1.000000 0.000000 0.487500
0.000000 0.119328 0.521016
0.138234 0.119328 0.521016
0.276469 0.119328 0.521016
0.414703 0.119328 0.521016
0.552937 0.119328 0.521016
0.691172 0.119328 0.521016
0.837938 0.118719 0.509844
0.987547 0.118109 0.498672
1.000000 0.117500 0.487500
0.000000 0.238656 0.521016
0.138234 0.238656 0.521016
0.276469 0.238656 0.521016
0.414703 0.238656 0.521016
0.552937 0.238656 0.521016
0.691172 0.238656 0.521016
0.837938 0.237437 0.509844
0.987547 0.236219 0.498672
1.000000 0.235000 0.487500
0.000000 0.357984 0.521016
0.138234 0.357984 0.521016
0.276469 0.357984 0.521016
0.414703 0.357984 0.521016
0.552937 0.357984 0.521016
0.691172 0.357984 0.521016
0.837938 0.356156 0.509844
0.987547 0.354328 0.498672
1.000000 0.352500 0.487500
0.000000 0.477312 0.521016
0.138234 0.477312 0.521016
0.276469 0.477312 0.521016
0.414703 0.477312 0.521016
0.552937 0.477312 0.521016
0.691172 0.477312 0.521016
0.837938 0.474875 0.509844
0.987547 0.472437 0.498672
1.000000 0.470000 0.487500
0.000000 0.596641 0.521016
0.138234 0.596641 0.521016
0.276469 0.596641 0.521016
0.414703 0.596641 0.521016
0.552937 0.596641 0.521016
0.691172 0.596641 0.521016
0.837938 0.593594 0.509844
0.987547 0.590547 0.498672
1.000000 0.587500 0.487500
0.000000 0.712312 0.509844
0.139656 0.712312 0.509844
0.279312 0.712312 0.509844
0.418969 0.712312 0.509844
0.558625 0.712312 0.509844
0.698281 0.712312 0.509844
0.837938 0.712312 0.509844
0.987547 0.708656 0.498672
1.000000 0.705000 0.487500
0.000000 0.826766 0.498672
0.141078 0.826766 0.498672
0.282156 0.826766 0.498672
0.423234 0.826766 0.498672
0.564312 0.826766 0.498672
0.705391 0.826766 0.498672
0.846469 0.826766 0.498672
0.987547 0.826766 0.498672
1.000000 0.822500 0.487500
0.000000 0.940000 0.487500
0.142500 0.940000 0.487500
0.285000 0.940000 0.487500
0.427500 0.940000 0.487500
0.570000 0.940000 0.487500
0.712500 0.940000 0.487500
0.855000 0.940000 0.487500
0.997500 0.940000 0.487500
1.000000 0.940000 0.487500
0.000000 0.000000 0.611812
0.139656 0.000000 0.611812
0.279312 0.000000 0.611812
0.418969 0.000000 0.611812
0.558625 0.000000 0.611812
0.698281 0.000000 0.611812
0.837938 0.000000 0.611812
0.987547 0.000000 0.598406
1.000000 0.000000 0.585000
0.000000 0.118719 0.611812
0.139656 0.118719 0.611812
0.279312 0.118719 0.611812
0.418969 0.118719 0.611812
0.558625 0.118719 0.611812
0.698281 0.118719 0.611812
0.837938 0.118719 0.611812
0.987547 0.118109 0.598406
1.000000 0.117500 0.585000
0.000000 0.237437 0.611812
0.139656 0.237437 0.611812
0.279312 0.237437 0.611812
0.418969 0.237437 0.611812
0.558625 0.237437 0.611812
0.698281 0.237437 0.611812
0.837938 0.237437 0.611812
0.987547 0.236219 0.598406
1.000000 0.235000 0.585000
0.000000 0.356156 0.611812
0.139656 0.356156 0.611812
0.279312 0.356156 0.611812
0.418969 0.356156 0.611812
0.558625 0.356156 0.611812
0.698281 0.356156 0.611812
0.837938 0.356156 0.611812
0.987547 0.354328 0.598406
1.000000 0.352500 0.585000
0.000000 0.474875 0.611812
0.139656 0.474875 0.611812
0.279312 0.474875 0.611812
0.418969 0.474875 0.611812
0.558625 0.474875 0.611812
0.698281 0.474875 0.611812
0.837938 0.474875 0.611812
0.987547 0.472437 0.598406
1.000000 0.470000 0.585000
0.000000 0.593594 0.611812
0.139656 0.593594 0.611812
0.279312 0.593594 0.611812
0.418969 0.593594 0.611812
0.558625 0.593594 0.611812
0.698281 0.593594 0.611812
0.837938 0.593594 0.611812
0.987547 0.590547 0.598406
1.000000 0.587500 0.585000
0.000000 0.712312 0.611812
0.139656 0.712312 0.611812
0.279312 0.712312 0.611812
0.418969 0.712312 0.611812
0.558625 0.712312 0.611812
0.698281 0.712312 0.611812
0.837938 0.712312 0.611812
0.987547 0.708656 0.598406
1.000000 0.705000 0.585000
0.000000 0.826766 0.598406
0.141078 0.826766 0.598406
0.282156 0.826766 0.598406
0.423234 0.826766 0.598406
0.564312 0.826766 0.598406
0.705391 0.826766 0.598406
0.846469 0.826766 0.598406
0.987547 0.826766 0.598406
1.000000 0.822500 0.585000
0.000000 0.940000 0.585000
0.142500 0.940000 0.585000
0.285000 0.940000 0.585000
0.427500 0.940000 0.585000
0.570000 0.940000 0.585000
0.712500 0.940000 0.585000
0.855000 0.940000 0.585000
0.997500 0.940000 0.585000
1.000000 0.940000 0.585000
0.000000 0.000000 0.698141
0.141078 0.000000 0.698141
0.282156 0.000000 0.698141
0.423234 0.000000 0.698141
0.564312 0.000000 0.698141
0.705391 0.000000 0.698141
0.846469 0.000000 0.698141
0.987547 0.000000 0.698141
1.000000 0.000000 0.682500
0.000000 0.118109 0.698141
0.141078 0.118109 0.698141
0.282156 0.118109 0.698141
0.423234 0.118109 0.698141
0.564312 0.118109 0.698141
0.705391 0.118109 0.698141
0.846469 0.118109 0.698141
0.987547 0.118109 0.698141
1.000000 0.117500 0.682500
0.000000 0.236219 0.698141
0.141078 0.236219 0.698141
0.282156 0.236219 0.698141
0.423234 0.236219 0.698141
0.564312 0.236219 0.698141
0.705391 0.236219 0.698141
0.846469 0.236219 0.698141
0.987547 0.236219 0.698141
1.000000 0.235000 0.682500
0.000000 0.354328 0.698141
0.141078 0.354328 0.698141
0.282156 0.354328 0.698141
0.423234 0.354328 0.698141
0.564312 0.354328 0.698141
0.705391 0.354328 0.698141
0.846469 0.354328 0.698141
0.987547 0.354328 0.698141
1.000000 0.352500 0.682500
0.000000 0.472437 0.698141
0.141078 0.472437 0.698141
0.282156 0.472437 0.698141
0.423234 0.472437 0.698141
0.564312 0.472437 0.698141
0.705391 0.472437 0.698141
0.846469 0.472437 0.698141
0.987547 0.472437 0.698141
1.000000 0.470000 0.682500
0.000000 0.590547 0.698141
0.141078 0.590547 0.698141
0.282156 0.590547 0.698141
0.423234 0.590547 0.698141
0.564312 0.590547 0.698141
0.705391 0.590547 0.698141
0.846469 0.590547 0.698141
0.987547 0.590547 0.698141
1.000000 0.587500 0.682500
0.000000 0.708656 0.698141
0.141078 0.708656 0.698141
0.282156 0.708656 0.698141
0.423234 0.708656 0.698141
0.564312 0.708656 0.698141
0.705391 0.708656 0.698141
0.846469 0.708656 0.698141
0.987547 0.708656 0.698141
1.000000 0.705000 0.682500
0.000000 0.826766 0.698141
0.141078 0.826766 0.698141
0.282156 0.826766 0.698141
0.423234 0.826766 0.698141
0.564312 0.826766 0.698141
0.705391 0.826766 0.698141
0.846469 0.826766 0.698141
0.987547 0.826766 0.698141
1.000000 0.822500 0.682500
0.000000 0.940000 0.682500
0.142500 0.940000 0.682500
0.285000 0.940000 0.682500
0.427500 0.940000 0.682500
0.570000 0.940000 0.682500
0.712500 0.940000 0.682500
0.855000 0.940000 0.682500
0.997500 0.940000 0.682500
1.000000 0.940000 0.682500
0.000000 0.000000 0.780000
0.142500 0.000000 0.780000
0.285000 0.000000 0.780000
0.427500 0.000000 0.780000
0.570000 0.000000 0.780000
0.712500 0.000000 0.780000
0.855000 0.000000 0.780000
0.997500 0.000000 0.780000
1.000000 0.000000 0.780000
0.000000 0.117500 0.780000
0.142500 0.117500 0.780000
0.285000 0.117500 0.780000
0.427500 0.117500 0.780000
0.570000 0.117500 0.780000
0.712500 0.117500 0.780000
0.855000 0.117500 0.780000
0.997500 0.117500 0.780000
1.000000 0.117500 0.780000
0.000000 0.235000 0.780000
0.142500 0.235000 0.780000
0.285000 0.235000 0.780000
0.427500 0.235000 0.780000
0.570000 0.235000 0.780000
0.712500 0.235000 0.780000
0.855000 0.235000 0.780000
0.997500 0.235000 0.780000
1.000000 0.235000 0.780000
0.000000 0.352500 0.780000
0.142500 0.352500 0.780000
0.285000 0.352500 0.780000
0.427500 0.352500 0.780000
0.570000 0.352500 0.780000
0.712500 0.352500 0.780000
0.855000 0.352500 0.780000
0.997500 0.352500 0.780000
1.000000 0.352500 0.780000
0.000000 0.470000 0.780000
0.142500 0.470000 0.780000
0.285000 0.470000 0.780000
0.427500 0.470000 0.780000
0.570000 0.470000 0.780000
0.712500 0.470000 0.780000
0.855000 0.470000 0.780000
0.997500 0.470000 0.780000
1.000000 0.470000 0.780000
0.000000 0.587500 0.780000
0.142500 0.587500 0.780000
0.285000 0.587500 0.780000
0.427500 0.587500 0.780000
0.570000 0.587500 0.780000
0.712500 0.587500 0.780000
0.855000 0.587500 0.780000
0.997500 0.587500 0.780000
1.000000 0.587500 0.780000
0.000000 0.705000 0.780000
0.142500 0.705000 0.780000
0.285000 0.705000 0.780000
0.427500 0.705000 0.780000
0.570000 0.705000 0.780000
0.712500 0.705000 0.780000
0.855000 0.705000 0.780000
0.997500 0.705000 0.780000
1.000000 0.705000 0.780000
0.000000 0.822500 0.780000
0.142500 0.822500 0.780000
0.285000 0.822500 0.780000
0.427500 0.822500 0.780000
0.570000 0.822500 0.780000
0.712500 0.822500 0.780000
0.855000 0.822500 0.780000
0.997500 0.822500 0.780000
1.000000 0.822500 0.780000
0.000000 0.940000 0.780000
0.142500 0.940000 0.780000
0.285000 0.940000 0.780000
0.427500 0.940000 0.780000
0.570000 0.940000 0.780000
0.712500 0.940000 0.780000
0.855000 0.940000 0.780000
0.997500 0.940000 0.780000
1.000000 0.940000 0.780000
