luts/original/morning-glow.cube
TITLE "Morning Glow"
LUT_3D_SIZE 33
DOMAIN_MIN 0.0 0.0 0.0
DOMAIN_MAX 1.0 1.0 1.0
0.029620 0.010935 0.010935
0.062503 0.011024 0.011024
0.095376 0.011053 0.011053
0.128240 0.011023 0.011023
0.161095 0.010932 0.010932
0.193940 0.010782 0.010782
0.226775 0.010572 0.010572
0.259602 0.010302 0.010302
0.292418 0.009972 0.009972
0.325226 0.009582 0.009582
0.358024 0.009132 0.009132
0.390812 0.008623 0.008623
0.423591 0.008054 0.008054
0.456361 0.007425 0.007425
0.489121 0.006736 0.006736
0.521871 0.005987 0.005987
0.554613 0.005178 0.005178
0.587344 0.004309 0.004309
0.620067 0.003381 0.003381
0.652779 0.002393 0.002393
0.685483 0.001345 0.001345
0.718177 0.000237 0.000237
0.750861 0.000000 0.000000
0.783536 0.000000 0.000000
0.816202 0.000000 0.000000
0.848858 0.000000 0.000000
0.881505 0.000000 0.000000
0.914142 0.000000 0.000000
0.946770 0.000000 0.000000
0.979388 0.000000 0.000000
0.997461 0.000000 0.000000
0.999365 0.000000 0.000000
1.000000 0.000000 0.000000
0.031049 0.043318 0.011292
0.062213 0.042650 0.010746
0.095071 0.042643 0.010760
0.127919 0.042596 0.010714
0.160757 0.042499 0.010608
0.193587 0.042347 0.010443
0.226406 0.042138 0.010217
0.259217 0.041871 0.009932
0.292018 0.041546 0.009587
0.324809 0.041162 0.009182
0.357591 0.040719 0.008717
0.390364 0.040216 0.008192
0.423127 0.039654 0.007608
0.455880 0.039033 0.006963
0.488624 0.038352 0.006259
0.521359 0.037611 0.005495
0.554085 0.036811 0.004671
0.586800 0.035951 0.003787
0.619507 0.035032 0.002844
0.652204 0.034052 0.001840
0.684891 0.033013 0.000777
0.717569 0.032245 0.000000
0.750238 0.032220 0.000000
0.782897 0.032197 0.000000
0.815547 0.032175 0.000000
0.848187 0.032154 0.000000
0.880818 0.032134 0.000000
0.913439 0.032116 0.000000
0.946051 0.032098 0.000000
0.978654 0.032082 0.000000
0.997461 0.032078 0.000000
0.999365 0.032092 0.000000
1.000000 0.032110 0.000000
0.032148 0.075415 0.011422
0.063606 0.074913 0.011042
0.094765 0.074226 0.010467
0.127597 0.074164 0.010405
0.160420 0.074061 0.010284
0.193233 0.073907 0.010104
0.226037 0.073700 0.009863
0.258832 0.073437 0.009562
0.291617 0.073116 0.009202
0.324392 0.072738 0.008782
0.357158 0.072302 0.008302
0.389915 0.071806 0.007762
0.422662 0.071252 0.007162
0.455400 0.070638 0.006502
0.488128 0.069966 0.005783
0.520847 0.069233 0.005003
0.553557 0.068442 0.004164
0.586256 0.067591 0.003265
0.618947 0.066680 0.002306
0.651628 0.065709 0.001288
0.684300 0.064679 0.000209
0.716962 0.064437 0.000000
0.749615 0.064387 0.000000
0.782258 0.064341 0.000000
0.814892 0.064298 0.000000
0.847516 0.064258 0.000000
0.880131 0.064219 0.000000
0.912737 0.064183 0.000000
0.945333 0.064148 0.000000
0.977919 0.064115 0.000000
0.997461 0.064106 0.000000
0.999365 0.064134 0.000000
1.000000 0.064168 0.000000
0.032846 0.107016 0.011194
0.064691 0.106920 0.011102
0.096121 0.106429 0.010702
0.127276 0.105726 0.010097
0.160083 0.105618 0.009961
0.192880 0.105463 0.009764
0.225668 0.105258 0.009509
0.258447 0.104999 0.009193
0.291216 0.104684 0.008817
0.323975 0.104312 0.008382
0.356726 0.103882 0.007886
0.389466 0.103394 0.007331
0.422198 0.102847 0.006716
0.454920 0.102242 0.006041
0.487632 0.101577 0.005306
0.520335 0.100853 0.004512
0.553028 0.100070 0.003657
0.585713 0.099228 0.002743
0.618387 0.098326 0.001769
0.651052 0.097364 0.000735
0.683708 0.096652 0.000000
0.716354 0.096574 0.000000
0.748991 0.096502 0.000000
0.781619 0.096434 0.000000
0.814237 0.096371 0.000000
0.846845 0.096311 0.000000
0.879444 0.096254 0.000000
0.912034 0.096201 0.000000
0.944614 0.096150 0.000000
0.977185 0.096101 0.000000
0.997461 0.096085 0.000000
0.999365 0.096126 0.000000
1.000000 0.096175 0.000000
0.033527 0.138584 0.010884
0.065353 0.138484 0.010788
0.097177 0.138383 0.010692
0.128596 0.137890 0.010272
0.159745 0.137170 0.009637
0.192527 0.137015 0.009425
0.225299 0.136813 0.009154
0.258062 0.136558 0.008823
0.290815 0.136248 0.008432
0.323559 0.135882 0.007981
0.356293 0.135459 0.007471
0.389018 0.134978 0.006900
0.421733 0.134439 0.006270
0.454439 0.133842 0.005580
0.487136 0.133186 0.004830
0.519823 0.132470 0.004020
0.552500 0.131696 0.003150
0.585169 0.130862 0.002221
0.617827 0.129969 0.001231
0.650477 0.129017 0.000182
0.683117 0.128760 0.000000
0.715747 0.128658 0.000000
0.748368 0.128563 0.000000
0.780979 0.128475 0.000000
0.813581 0.128392 0.000000
0.846174 0.128313 0.000000
0.878757 0.128239 0.000000
0.911331 0.128169 0.000000
0.943895 0.128102 0.000000
0.976450 0.128039 0.000000
0.997461 0.128015 0.000000
0.999365 0.128067 0.000000
1.000000 0.128130 0.000000
0.034152 0.170121 0.010493
0.065975 0.170016 0.010393
0.097795 0.169911 0.010292
0.129614 0.169805 0.010191
0.161029 0.169304 0.009752
0.192174 0.168563 0.009086
0.224930 0.168363 0.008800
0.257677 0.168113 0.008454
0.290414 0.167809 0.008047
0.323142 0.167449 0.007581
0.355860 0.167033 0.007056
0.388569 0.166560 0.006470
0.421269 0.166029 0.005824
0.453959 0.165440 0.005119
0.486639 0.164792 0.004354
0.519311 0.164085 0.003528
0.551972 0.163319 0.002644
0.584625 0.162495 0.001699
0.617268 0.161610 0.000694
0.649901 0.160948 0.000000
0.682525 0.160813 0.000000
0.715140 0.160688 0.000000
0.747745 0.160572 0.000000
0.780340 0.160464 0.000000
0.812926 0.160362 0.000000
0.845503 0.160266 0.000000
0.878070 0.160175 0.000000
0.910628 0.160089 0.000000
0.943177 0.160007 0.000000
0.975716 0.159929 0.000000
0.997461 0.159895 0.000000
0.999365 0.159958 0.000000
1.000000 0.160034 0.000000
0.034709 0.201625 0.010021
0.066536 0.201516 0.009916
0.098361 0.201406 0.009811
0.130185 0.201296 0.009705
0.162008 0.201186 0.009600
0.193420 0.200673 0.009141
0.224561 0.199910 0.008445
0.257292 0.199664 0.008084
0.290013 0.199366 0.007663
0.322725 0.199013 0.007181
0.355428 0.198605 0.006640
0.388121 0.198139 0.006039
0.420804 0.197616 0.005378
0.453478 0.197035 0.004658
0.486143 0.196395 0.003877
0.518799 0.195697 0.003037
0.551444 0.194940 0.002137
0.584081 0.194125 0.001177
0.616708 0.193249 0.000157
0.649325 0.192969 0.000000
0.681933 0.192811 0.000000
0.714532 0.192665 0.000000
0.747121 0.192528 0.000000
0.779701 0.192400 0.000000
0.812271 0.192280 0.000000
0.844832 0.192167 0.000000
0.877383 0.192060 0.000000
0.909925 0.191959 0.000000
0.942458 0.191862 0.000000
0.974981 0.191770 0.000000
0.997461 0.191727 0.000000
0.999365 0.191798 0.000000
1.000000 0.191888 0.000000
0.035193 0.233098 0.009468
0.067028 0.232984 0.009358
0.098863 0.232869 0.009248
0.130696 0.232755 0.009138
0.162527 0.232641 0.009028
0.194358 0.232526 0.008918
0.225771 0.231999 0.008439
0.256907 0.231212 0.007714
0.289612 0.230920 0.007278
0.322308 0.230574 0.006781
0.354995 0.230173 0.006225
0.387672 0.229715 0.005609
0.420340 0.229200 0.004932
0.452998 0.228627 0.004197
0.485647 0.227996 0.003401
0.518286 0.227307 0.002545
0.550916 0.226559 0.001630
0.583537 0.225752 0.000654
0.616148 0.225131 0.000000
0.648750 0.224935 0.000000
0.681342 0.224755 0.000000
0.713925 0.224587 0.000000
0.746498 0.224431 0.000000
0.779062 0.224285 0.000000
0.811616 0.224148 0.000000
0.844161 0.224019 0.000000
0.876697 0.223896 0.000000
0.909223 0.223780 0.000000
0.941739 0.223669 0.000000
0.974246 0.223564 0.000000
0.997461 0.223510 0.000000
0.999365 0.223589 0.000000
1.000000 0.223690 0.000000
0.035599 0.264540 0.008833
0.067447 0.264420 0.008719
0.099293 0.264301 0.008604
0.131138 0.264182 0.008490
0.162982 0.264063 0.008375
0.194824 0.263944 0.008261
0.226666 0.263825 0.008147
0.258080 0.263283 0.007648
0.289211 0.262471 0.006893
0.321891 0.262132 0.006381
0.354562 0.261738 0.005809
0.387224 0.261288 0.005178
0.419875 0.260781 0.004487
0.452518 0.260217 0.003735
0.485151 0.259595 0.002924
0.517774 0.258914 0.002054
0.550388 0.258175 0.001123
0.582993 0.257377 0.000132
0.615588 0.257064 0.000000
0.648174 0.256845 0.000000
0.680750 0.256644 0.000000
0.713317 0.256456 0.000000
0.745874 0.256282 0.000000
0.778422 0.256118 0.000000
0.810961 0.255964 0.000000
0.843490 0.255819 0.000000
0.876010 0.255682 0.000000
0.908520 0.255552 0.000000
0.941021 0.255428 0.000000
0.973512 0.255309 0.000000
0.997461 0.255243 0.000000
0.999365 0.255331 0.000000
1.000000 0.255441 0.000000
0.035928 0.295949 0.008117
0.067789 0.295825 0.007998
0.099649 0.295701 0.007879
0.131507 0.295577 0.007760
0.163365 0.295453 0.007641
0.195222 0.295330 0.007522
0.227077 0.295206 0.007403
0.258931 0.295082 0.007284
0.290349 0.294524 0.006766
0.321475 0.293686 0.005981
0.354129 0.293300 0.005394
0.386775 0.292859 0.004747
0.419411 0.292360 0.004041
0.452037 0.291804 0.003274
0.484655 0.291191 0.002448
0.517262 0.290519 0.001562
0.549860 0.289789 0.000616
0.582449 0.289202 0.000000
0.615028 0.288940 0.000000
0.647598 0.288700 0.000000
0.680159 0.288478 0.000000
0.712710 0.288271 0.000000
0.745251 0.288079 0.000000
0.777783 0.287899 0.000000
0.810306 0.287730 0.000000
0.842819 0.287570 0.000000
0.875323 0.287418 0.000000
0.907817 0.287275 0.000000
0.940302 0.287138 0.000000
0.972777 0.287007 0.000000
0.997461 0.286929 0.000000
0.999365 0.287022 0.000000
1.000000 0.287142 0.000000
0.036177 0.327327 0.007320
0.068053 0.327198 0.007196
0.099928 0.327070 0.007073
0.131802 0.326941 0.006949
0.163674 0.326812 0.006826
0.195546 0.326684 0.006702
0.227417 0.326555 0.006579
0.259287 0.326426 0.006455
0.291155 0.326298 0.006332
0.322575 0.325723 0.005794
0.353697 0.324860 0.004979
0.386326 0.324426 0.004317
0.418946 0.323936 0.003595
0.451557 0.323389 0.002813
0.484158 0.322784 0.001972
0.516750 0.322122 0.001070
0.549332 0.321401 0.000109
0.581905 0.321043 0.000000
0.614469 0.320759 0.000000
0.647023 0.320498 0.000000
0.679567 0.320257 0.000000
0.712102 0.320033 0.000000
0.744628 0.319824 0.000000
0.777144 0.319628 0.000000
0.809651 0.319444 0.000000
0.842148 0.319270 0.000000
0.874636 0.319105 0.000000
0.907114 0.318948 0.000000
0.939583 0.318799 0.000000
0.972043 0.318657 0.000000
0.997461 0.318565 0.000000
0.999365 0.318664 0.000000
1.000000 0.318792 0.000000
0.036347 0.358673 0.006441
0.068238 0.358539 0.006313
0.100129 0.358406 0.006185
0.132019 0.358273 0.006057
0.163908 0.358139 0.005929
0.195796 0.358006 0.005801
0.227683 0.357873 0.005673
0.259569 0.357739 0.005545
0.291454 0.357606 0.005417
0.323338 0.357473 0.005289
0.354761 0.356881 0.004731
0.385878 0.355991 0.003886
0.418482 0.355509 0.003149
0.451077 0.354971 0.002352
0.483662 0.354375 0.001495
0.516238 0.353722 0.000579
0.548804 0.353159 0.000000
0.581361 0.352825 0.000000
0.613909 0.352521 0.000000
0.646447 0.352240 0.000000
0.678976 0.351981 0.000000
0.711495 0.351740 0.000000
0.744004 0.351516 0.000000
0.776505 0.351305 0.000000
0.808996 0.351106 0.000000
0.841477 0.350919 0.000000
0.873949 0.350742 0.000000
0.906411 0.350573 0.000000
0.938864 0.350412 0.000000
0.971308 0.350258 0.000000
0.997461 0.350153 0.000000
0.999365 0.350257 0.000000
1.000000 0.350391 0.000000
0.036436 0.389987 0.005481
0.068344 0.389849 0.005349
0.100252 0.389711 0.005216
0.132158 0.389573 0.005083
0.164064 0.389435 0.004951
0.195969 0.389296 0.004818
0.227873 0.389158 0.004686
0.259776 0.389020 0.004553
0.291677 0.388882 0.004421
0.323579 0.388744 0.004288
0.355479 0.388606 0.004156
0.386906 0.387997 0.003578
0.418018 0.387080 0.002703
0.450596 0.386550 0.001891
0.483166 0.385964 0.001019
0.515726 0.385319 0.000087
0.548276 0.384904 0.000000
0.580817 0.384550 0.000000
0.613349 0.384225 0.000000
0.645871 0.383927 0.000000
0.678384 0.383651 0.000000
0.710887 0.383394 0.000000
0.743381 0.383155 0.000000
0.775865 0.382930 0.000000
0.808340 0.382718 0.000000
0.840806 0.382518 0.000000
0.873262 0.382329 0.000000
0.905709 0.382148 0.000000
0.938146 0.381976 0.000000
0.970573 0.381812 0.000000
0.997461 0.381693 0.000000
0.999365 0.381800 0.000000
1.000000 0.381941 0.000000
0.036445 0.421269 0.004440
0.068371 0.421126 0.004303
0.100295 0.420984 0.004166
0.132219 0.420841 0.004029
0.164142 0.420698 0.003892
0.196064 0.420555 0.003755
0.227985 0.420412 0.003617
0.259906 0.420270 0.003480
0.291825 0.420127 0.003343
0.323744 0.419984 0.003206
0.355661 0.419841 0.003069
0.387578 0.419699 0.002932
0.419009 0.419072 0.002334
0.450116 0.418127 0.001430
0.482670 0.417549 0.000542
0.515214 0.417002 0.000000
0.547748 0.416590 0.000000
0.580273 0.416215 0.000000
0.612789 0.415873 0.000000
0.645296 0.415557 0.000000
0.677792 0.415266 0.000000
0.710280 0.414994 0.000000
0.742758 0.414741 0.000000
0.775226 0.414503 0.000000
0.807685 0.414279 0.000000
0.840135 0.414067 0.000000
0.872575 0.413866 0.000000
0.905006 0.413675 0.000000
0.937427 0.413492 0.000000
0.969839 0.413317 0.000000
0.997461 0.413185 0.000000
0.999365 0.413294 0.000000
1.000000 0.413440 0.000000
0.036374 0.452520 0.003317
0.068317 0.452372 0.003176
0.100259 0.452225 0.003034
0.132201 0.452077 0.002893
0.164141 0.451930 0.002751
0.196081 0.451782 0.002609
0.228020 0.451635 0.002468
0.259958 0.451487 0.002326
0.291895 0.451340 0.002185
0.323832 0.451192 0.002043
0.355767 0.451045 0.001901
0.387702 0.450897 0.001760
0.419636 0.450750 0.001618
0.451071 0.450105 0.001001
0.482173 0.449133 0.000066
0.514702 0.448647 0.000000
0.547220 0.448215 0.000000
0.579730 0.447822 0.000000
0.612229 0.447463 0.000000
0.644720 0.447132 0.000000
0.677201 0.446826 0.000000
0.709672 0.446541 0.000000
0.742134 0.446274 0.000000
0.774587 0.446024 0.000000
0.807030 0.445788 0.000000
0.839464 0.445565 0.000000
0.871888 0.445353 0.000000
0.904303 0.445152 0.000000
0.936708 0.444959 0.000000
0.969104 0.444775 0.000000
0.997461 0.444629 0.000000
0.999365 0.444738 0.000000
1.000000 0.444888 0.000000
0.036221 0.483739 0.002114
0.068182 0.483586 0.001967
0.100143 0.483434 0.001821
0.132102 0.483282 0.001675
0.164061 0.483130 0.001529
0.196019 0.482977 0.001383
0.227976 0.482825 0.001237
0.259932 0.482673 0.001091
0.291888 0.482521 0.000944
0.323842 0.482368 0.000798
0.355796 0.482216 0.000652
0.387749 0.482064 0.000506
0.419701 0.481912 0.000360
0.451653 0.481759 0.000214
0.483092 0.481113 0.000000
0.514189 0.480230 0.000000
0.546692 0.479780 0.000000
0.579186 0.479371 0.000000
0.611670 0.478996 0.000000
0.644144 0.478651 0.000000
0.676609 0.478331 0.000000
0.709065 0.478033 0.000000
0.741511 0.477755 0.000000
0.773948 0.477493 0.000000
0.806375 0.477246 0.000000
0.838793 0.477013 0.000000
0.871201 0.476791 0.000000
0.903600 0.476580 0.000000
0.935990 0.476378 0.000000
0.968370 0.476185 0.000000
0.997461 0.476024 0.000000
0.999365 0.476134 0.000000
1.000000 0.476287 0.000000
0.035988 0.514926 0.000829
0.067968 0.514769 0.000678
0.099946 0.514612 0.000527
0.131924 0.514455 0.000377
0.163901 0.514298 0.000226
0.195877 0.514141 0.000075
0.227892 0.513984 0.000000
0.259932 0.513827 0.000000
0.291952 0.513670 0.000000
0.323952 0.513513 0.000000
0.355933 0.513356 0.000000
0.387894 0.513199 0.000000
0.419836 0.513042 0.000000
0.451758 0.512885 0.000000
0.483660 0.512728 0.000000
0.515071 0.512117 0.000000
0.546164 0.511286 0.000000
0.578642 0.510861 0.000000
0.611110 0.510472 0.000000
0.643568 0.510114 0.000000
0.676018 0.509782 0.000000
0.708457 0.509472 0.000000
0.740888 0.509182 0.000000
0.773309 0.508910 0.000000
0.805720 0.508653 0.000000
0.838122 0.508410 0.000000
0.870514 0.508179 0.000000
0.902897 0.507958 0.000000
0.935271 0.507748 0.000000
0.967635 0.507546 0.000000
0.997461 0.507372 0.000000
0.999365 0.507481 0.000000
1.000000 0.507636 0.000000
0.036161 0.546081 0.000000
0.068259 0.545919 0.000000
0.100338 0.545757 0.000000
0.132397 0.545596 0.000000
0.164438 0.545434 0.000000
0.196460 0.545272 0.000000
0.228462 0.545111 0.000000
0.260446 0.544949 0.000000
0.292410 0.544787 0.000000
0.324356 0.544626 0.000000
0.356282 0.544464 0.000000
0.388190 0.544302 0.000000
0.420078 0.544141 0.000000
0.451948 0.543979 0.000000
0.483798 0.543817 0.000000
0.515629 0.543656 0.000000
0.547010 0.543077 0.000000
0.578098 0.542293 0.000000
0.610550 0.541891 0.000000
0.642993 0.541521 0.000000
0.675426 0.541177 0.000000
0.707850 0.540857 0.000000
0.740264 0.540557 0.000000
0.772669 0.540275 0.000000
0.805065 0.540009 0.000000
0.837451 0.539756 0.000000
0.869827 0.539517 0.000000
0.902195 0.539288 0.000000
0.934552 0.539069 0.000000
0.966901 0.538860 0.000000
0.997461 0.538672 0.000000
0.999365 0.538779 0.000000
1.000000 0.538936 0.000000
0.037088 0.577204 0.000000
0.069131 0.577038 0.000000
0.101156 0.576871 0.000000
0.133161 0.576705 0.000000
0.165149 0.576539 0.000000
0.197118 0.576372 0.000000
0.229068 0.576206 0.000000
0.261000 0.576039 0.000000
0.292914 0.575873 0.000000
0.324808 0.575707 0.000000
0.356685 0.575540 0.000000
0.388543 0.575374 0.000000
0.420382 0.575207 0.000000
0.452203 0.575041 0.000000
0.484006 0.574875 0.000000
0.515790 0.574708 0.000000
0.547555 0.574542 0.000000
0.578907 0.573992 0.000000
0.609990 0.573253 0.000000
0.642417 0.572872 0.000000
0.674834 0.572518 0.000000
0.707242 0.572188 0.000000
0.739641 0.571879 0.000000
0.772030 0.571588 0.000000
0.804410 0.571313 0.000000
0.836780 0.571053 0.000000
0.869141 0.570805 0.000000
0.901492 0.570568 0.000000
0.933834 0.570342 0.000000
0.966166 0.570125 0.000000
0.997461 0.569925 0.000000
0.999365 0.570029 0.000000
1.000000 0.570185 0.000000
0.038022 0.608296 0.000000
0.070014 0.608125 0.000000
0.101988 0.607954 0.000000
0.133944 0.607783 0.000000
0.165882 0.607611 0.000000
0.197802 0.607440 0.000000
0.229705 0.607269 0.000000
0.261589 0.607098 0.000000
0.293455 0.606927 0.000000
0.325303 0.606756 0.000000
0.357133 0.606585 0.000000
0.388945 0.606414 0.000000
0.420739 0.606242 0.000000
0.452515 0.606071 0.000000
0.484273 0.605900 0.000000
0.516013 0.605729 0.000000
0.547735 0.605558 0.000000
0.579439 0.605387 0.000000
0.610763 0.604865 0.000000
0.641841 0.604167 0.000000
0.674243 0.603805 0.000000
0.706635 0.603466 0.000000
0.739018 0.603148 0.000000
0.771391 0.602849 0.000000
0.803754 0.602567 0.000000
0.836109 0.602299 0.000000
0.868454 0.602043 0.000000
0.900789 0.601800 0.000000
0.933115 0.601567 0.000000
0.965431 0.601343 0.000000
0.997461 0.601130 0.000000
0.999365 0.601230 0.000000
1.000000 0.601385 0.000000
0.038961 0.639356 0.000000
0.070906 0.639180 0.000000
0.102833 0.639004 0.000000
0.134743 0.638828 0.000000
0.166635 0.638652 0.000000
0.198510 0.638477 0.000000
0.230367 0.638301 0.000000
0.262206 0.638125 0.000000
0.294028 0.637949 0.000000
0.325832 0.637773 0.000000
0.357619 0.637597 0.000000
0.389388 0.637421 0.000000
0.421140 0.637246 0.000000
0.452873 0.637070 0.000000
0.484590 0.636894 0.000000
0.516289 0.636718 0.000000
0.547970 0.636542 0.000000
0.579633 0.636366 0.000000
0.611279 0.636191 0.000000
0.642577 0.635694 0.000000
0.673651 0.635036 0.000000
0.706028 0.634690 0.000000
0.738394 0.634365 0.000000
0.770752 0.634059 0.000000
0.803099 0.633769 0.000000
0.835438 0.633494 0.000000
0.867767 0.633232 0.000000
0.900086 0.632982 0.000000
0.932396 0.632742 0.000000
0.964697 0.632512 0.000000
0.996988 0.632291 0.000000
0.999365 0.632383 0.000000
1.000000 0.632536 0.000000
0.039905 0.670384 0.000000
0.071806 0.670203 0.000000
0.103689 0.670023 0.000000
0.135555 0.669842 0.000000
0.167405 0.669662 0.000000
0.199236 0.669481 0.000000
0.231051 0.669301 0.000000
0.262849 0.669120 0.000000
0.294629 0.668939 0.000000
0.326392 0.668759 0.000000
0.358138 0.668578 0.000000
0.389867 0.668398 0.000000
0.421578 0.668217 0.000000
0.453273 0.668037 0.000000
0.484950 0.667856 0.000000
0.516610 0.667675 0.000000
0.548252 0.667495 0.000000
0.579878 0.667314 0.000000
0.611486 0.667134 0.000000
0.643077 0.666953 0.000000
0.674351 0.666480 0.000000
0.705420 0.665860 0.000000
0.737771 0.665528 0.000000
0.770112 0.665216 0.000000
0.802444 0.664920 0.000000
0.834767 0.664639 0.000000
0.867080 0.664371 0.000000
0.899383 0.664115 0.000000
0.931678 0.663870 0.000000
0.963962 0.663634 0.000000
0.996238 0.663406 0.000000
0.999365 0.663487 0.000000
1.000000 0.663637 0.000000
0.040853 0.701380 0.000000
0.072712 0.701195 0.000000
0.104554 0.701010 0.000000
0.136380 0.700824 0.000000
0.168188 0.700639 0.000000
0.199980 0.700454 0.000000
0.231755 0.700269 0.000000
0.263513 0.700083 0.000000
0.295254 0.699898 0.000000
0.326978 0.699713 0.000000
0.358685 0.699527 0.000000
0.390376 0.699342 0.000000
0.422050 0.699157 0.000000
0.453707 0.698971 0.000000
0.485347 0.698786 0.000000
0.516970 0.698601 0.000000
0.548576 0.698416 0.000000
0.580166 0.698230 0.000000
0.611738 0.698045 0.000000
0.643294 0.697860 0.000000
0.674833 0.697674 0.000000
0.706083 0.697224 0.000000
0.737148 0.696639 0.000000
0.769473 0.696321 0.000000
0.801789 0.696020 0.000000
0.834096 0.695733 0.000000
0.866393 0.695460 0.000000
0.898681 0.695199 0.000000
0.930959 0.694948 0.000000
0.963228 0.694707 0.000000
0.995487 0.694475 0.000000
0.999365 0.694544 0.000000
1.000000 0.694690 0.000000
0.041805 0.732345 0.000000
0.073625 0.732155 0.000000
0.105428 0.731965 0.000000
0.137214 0.731775 0.000000
0.168984 0.731585 0.000000
0.200738 0.731395 0.000000
0.232475 0.731205 0.000000
0.264195 0.731015 0.000000
0.295899 0.730825 0.000000
0.327587 0.730635 0.000000
0.359258 0.730445 0.000000
0.390912 0.730255 0.000000
0.422550 0.730065 0.000000
0.454171 0.729875 0.000000
0.485776 0.729685 0.000000
0.517364 0.729495 0.000000
0.548936 0.729305 0.000000
0.580491 0.729115 0.000000
0.612030 0.728925 0.000000
0.643552 0.728734 0.000000
0.675058 0.728544 0.000000
0.706547 0.728354 0.000000
0.737774 0.727925 0.000000
0.768834 0.727374 0.000000
0.801134 0.727069 0.000000
0.833425 0.726778 0.000000
0.865706 0.726500 0.000000
0.897978 0.726234 0.000000
0.930240 0.725978 0.000000
0.962493 0.725733 0.000000
0.994737 0.725496 0.000000
0.999365 0.725552 0.000000
1.000000 0.725693 0.000000
0.042760 0.763278 0.000000
0.074542 0.763083 0.000000
0.106308 0.762888 0.000000
0.138058 0.762693 0.000000
0.169791 0.762499 0.000000
0.201509 0.762304 0.000000
0.233210 0.762109 0.000000
0.264894 0.761914 0.000000
0.296563 0.761720 0.000000
0.328215 0.761525 0.000000
0.359851 0.761330 0.000000
0.391471 0.761136 0.000000
0.423075 0.760941 0.000000
0.454662 0.760746 0.000000
0.486233 0.760551 0.000000
0.517788 0.760356 0.000000
0.549327 0.760162 0.000000
0.580849 0.759967 0.000000
0.612356 0.759772 0.000000
0.643846 0.759578 0.000000
0.675319 0.759383 0.000000
0.706777 0.759188 0.000000
0.738218 0.758993 0.000000
0.769424 0.758584 0.000000
0.800479 0.758066 0.000000
0.832754 0.757771 0.000000
0.865019 0.757489 0.000000
0.897275 0.757219 0.000000
0.929521 0.756960 0.000000
0.961758 0.756710 0.000000
0.993986 0.756469 0.000000
0.999365 0.756512 0.000000
1.000000 0.756647 0.000000
0.043718 0.794179 0.000000
0.075464 0.793979 0.000000
0.107195 0.793780 0.000000
0.138909 0.793580 0.000000
0.170608 0.793381 0.000000
0.202291 0.793181 0.000000
0.233957 0.792982 0.000000
0.265608 0.792782 0.000000
0.297242 0.792583 0.000000
0.328861 0.792383 0.000000
0.360464 0.792184 0.000000
0.392051 0.791985 0.000000
0.423622 0.791785 0.000000
0.455177 0.791586 0.000000
0.486716 0.791386 0.000000
0.518239 0.791187 0.000000
0.549746 0.790987 0.000000
0.581237 0.790788 0.000000
0.612712 0.790588 0.000000
0.644171 0.790389 0.000000
0.675614 0.790189 0.000000
0.707041 0.789990 0.000000
0.738453 0.789790 0.000000
0.769848 0.789591 0.000000
0.801032 0.789201 0.000000
0.832083 0.788714 0.000000
0.864332 0.788429 0.000000
0.896572 0.788156 0.000000
0.928803 0.787893 0.000000
0.961024 0.787640 0.000000
0.993236 0.787395 0.000000
0.999365 0.787425 0.000000
1.000000 0.787553 0.000000
0.044678 0.825048 0.000000
0.076391 0.824844 0.000000
0.108087 0.824640 0.000000
0.139768 0.824435 0.000000
0.171433 0.824231 0.000000
0.203082 0.824027 0.000000
0.234716 0.823823 0.000000
0.266334 0.823619 0.000000
0.297936 0.823414 0.000000
0.329523 0.823210 0.000000
0.361094 0.823006 0.000000
0.392649 0.822802 0.000000
0.424188 0.822598 0.000000
0.455712 0.822393 0.000000
0.487220 0.822189 0.000000
0.518712 0.821985 0.000000
0.550189 0.821781 0.000000
0.581650 0.821577 0.000000
0.613095 0.821372 0.000000
0.644524 0.821168 0.000000
0.675938 0.820964 0.000000
0.707336 0.820760 0.000000
0.738718 0.820556 0.000000
0.770085 0.820352 0.000000
0.801436 0.820147 0.000000
0.832599 0.819775 0.000000
0.863645 0.819319 0.000000
