luts/original/morning-glow.cube
TITLE "Morning Glow"
LUT_3D_SIZE 9
DOMAIN_MIN 0.0 0.0 0.0
DOMAIN_MAX 1.0 1.0 1.0
0.029620 0.010935 0.010935
0.161095 0.010932 0.010932
0.292418 0.009972 0.009972
0.423591 0.008054 0.008054
0.554613 0.005178 0.005178
0.685483 0.001345 0.001345
0.816202 0.000000 0.000000
0.946770 0.000000 0.000000
1.000000 0.000000 0.000000
0.033527 0.138584 0.010884
0.159745 0.137170 0.009637
0.290815 0.136248 0.008432
0.421733 0.134439 0.006270
0.552500 0.131696 0.003150
0.683117 0.128760 0.000000
0.813581 0.128392 0.000000
0.943895 0.128102 0.000000
1.000000 0.128130 0.000000
0.035599 0.264540 0.008833
0.162982 0.264063 0.008375
0.289211 0.262471 0.006893
0.419875 0.260781 0.004487
0.550388 0.258175 0.001123
0.680750 0.256644 0.000000
0.810961 0.255964 0.000000
0.941021 0.255428 0.000000
1.000000 0.255441 0.000000
0.036436 0.389987 0.005481
0.164064 0.389435 0.004951
0.291677 0.388882 0.004421
0.418018 0.387080 0.002703
0.548276 0.384904 0.000000
0.678384 0.383651 0.000000
0.808340 0.382718 0.000000
0.938146 0.381976 0.000000
1.000000 0.381941 0.000000
0.035988 0.514926 0.000829
0.163901 0.514298 0.000226
0.291952 0.513670 0.000000
0.419836 0.513042 0.000000
0.546164 0.511286 0.000000
0.676018 0.509782 0.000000
0.805720 0.508653 0.000000
0.935271 0.507748 0.000000
1.000000 0.507636 0.000000
0.038961 0.639356 0.000000
0.166635 0.638652 0.000000
0.294028 0.637949 0.000000
0.421140 0.637246 0.000000
0.547970 0.636542 0.000000
0.673651 0.635036 0.000000
0.803099 0.633769 0.000000
0.932396 0.632742 0.000000
1.000000 0.632536 0.000000
0.042760 0.763278 0.000000
0.169791 0.762499 0.000000
0.296563 0.761720 0.000000
0.423075 0.760941 0.000000
0.549327 0.760162 0.000000
0.675319 0.759383 0.000000
0.800479 0.758066 0.000000
0.929521 0.756960 0.000000
1.000000 0.756647 0.000000
0.046606 0.886691 0.000000
0.173105 0.885836 0.000000
0.299360 0.884982 0.000000
0.425371 0.884127 0.000000
0.551138 0.883273 0.000000
0.676660 0.882418 0.000000
0.801939 0.881564 0.000000
0.926647 0.880401 0.000000
1.000000 0.879977 0.000000
0.050484 1.000000 0.000000
0.176530 1.000000 0.000000
0.302339 1.000000 0.000000
0.427912 1.000000 0.000000
0.553251 1.000000 0.000000
0.678355 1.000000 0.000000
0.803225 1.000000 0.000000
0.927863 1.000000 0.000000
1.000000 1.000000 0.000000
0.035785 0.012964 0.118289
0.161013 0.010854 0.115833
0.292321 0.009878 0.110958
0.423479 0.007946 0.105172
0.554485 0.005055 0.098443
0.685340 0.001207 0.090764
0.816043 0.000000 0.085391
0.946596 0.000000 0.081143
1.000000 0.000000 0.077110
0.032368 0.138502 0.115142
0.159664 0.136330 0.112996
0.290718 0.134840 0.107714
0.421621 0.132701 0.101475
0.552373 0.129669 0.094278
0.682973 0.125704 0.086123
0.813423 0.120794 0.077011
0.943721 0.114932 0.066941
1.000000 0.111461 0.059240
0.034365 0.264442 0.108828
0.162155 0.263966 0.107657
0.289114 0.262003 0.106175
0.419763 0.259727 0.099691
0.550260 0.256714 0.092250
0.680607 0.252827 0.083851
0.810802 0.248022 0.074495
0.940846 0.242281 0.064181
1.000000 0.238856 0.056111
0.035061 0.389874 0.101416
0.162690 0.389322 0.100155
0.291093 0.388770 0.099625
0.417905 0.386700 0.097908
0.548148 0.383715 0.090222
0.678241 0.379910 0.081580
0.808182 0.375214 0.071979
0.937972 0.369597 0.061422
1.000000 0.366213 0.052982
0.034456 0.514798 0.092739
0.162163 0.514170 0.091353
0.290684 0.513542 0.090750
0.419191 0.512914 0.090148
0.546036 0.510671 0.088195
0.675874 0.506954 0.079308
0.805561 0.502370 0.069464
0.935097 0.496879 0.058662
1.000000 0.493532 0.049853
0.032550 0.639213 0.082772
0.160411 0.638509 0.081250
0.289144 0.637806 0.080575
0.417864 0.637102 0.079899
0.546571 0.636399 0.079224
0.673508 0.633958 0.077036
0.802941 0.629490 0.066948
0.932222 0.624128 0.055902
1.000000 0.620814 0.046724
0.029344 0.763119 0.071510
0.157392 0.762340 0.069846
0.286378 0.761561 0.069099
0.415352 0.760782 0.068351
0.544315 0.760003 0.067603
0.673266 0.759224 0.066855
0.800320 0.756573 0.064432
0.929347 0.751342 0.053142
1.000000 0.748058 0.043595
0.024837 0.886517 0.058951
0.153090 0.885662 0.057142
0.282351 0.884808 0.056322
0.411601 0.883953 0.055501
0.540841 0.883099 0.054681
0.670070 0.882244 0.053861
0.799289 0.881390 0.053040
0.926473 0.878522 0.050382
1.000000 0.875267 0.040466
0.019406 1.000000 0.045470
0.147841 1.000000 0.043476
0.277356 1.000000 0.042546
0.406860 1.000000 0.041616
0.536354 1.000000 0.040686
0.665836 1.000000 0.039756
0.795307 1.000000 0.038826
0.924768 1.000000 0.037896
1.000000 1.000000 0.037337
0.039513 0.012688 0.241863
0.167039 0.012231 0.241386
0.292159 0.009723 0.238639
0.423291 0.007766 0.233178
0.554271 0.004851 0.226799
0.685101 0.000978 0.219480
0.815779 0.000000 0.214101
0.946306 0.000000 0.209548
1.000000 0.000000 0.205561
0.036774 0.138517 0.240259
0.164460 0.135691 0.239783
0.290556 0.133184 0.235450
0.421433 0.130982 0.228985
0.552159 0.127823 0.221823
0.682734 0.123706 0.213787
0.813158 0.118632 0.204829
0.943431 0.112600 0.194934
1.000000 0.108925 0.187450
0.034209 0.264281 0.237232
0.158752 0.263804 0.234394
0.288952 0.259986 0.231019
0.419575 0.256574 0.224511
0.550047 0.253010 0.217045
0.680368 0.248658 0.208622
0.810538 0.243412 0.199241
0.940556 0.237239 0.188903
1.000000 0.233362 0.180796
0.034881 0.389687 0.229887
0.159350 0.389134 0.226159
0.289220 0.388582 0.224445
0.417717 0.385671 0.222727
0.547935 0.381476 0.215018
0.678002 0.376909 0.206350
0.807917 0.371604 0.196725
0.937681 0.365447 0.186143
1.000000 0.361614 0.177667
0.034251 0.514584 0.221446
0.158648 0.513957 0.217230
0.287723 0.513329 0.215546
0.417949 0.512701 0.214943
0.545823 0.509883 0.212990
0.675635 0.505111 0.204079
0.805297 0.499753 0.194210
0.934807 0.493617 0.183383
1.000000 0.489815 0.174538
0.032321 0.638974 0.211774
0.156646 0.638270 0.207101
0.285537 0.637567 0.205345
0.415556 0.636863 0.204670
0.545557 0.636160 0.203995
0.673269 0.633263 0.201807
0.802676 0.627858 0.191694
0.931932 0.621746 0.180623
1.000000 0.617966 0.171409
0.029090 0.762854 0.200834
0.153342 0.762075 0.195706
0.282245 0.761296 0.193845
0.412297 0.760517 0.193097
0.542335 0.759739 0.192349
0.672360 0.758960 0.191601
0.800056 0.755920 0.189178
0.929057 0.749836 0.177864
1.000000 0.746067 0.168280
0.024559 0.886227 0.188612
0.148739 0.885372 0.183027
0.277738 0.884518 0.181043
0.407932 0.883663 0.180223
0.538113 0.882809 0.179402
0.668281 0.881954 0.178582
0.798437 0.881099 0.177762
0.926182 0.877886 0.175104
1.000000 0.874119 0.165151
0.019091 1.000000 0.175467
0.143160 1.000000 0.169385
0.272276 1.000000 0.167230
0.402639 1.000000 0.166300
0.532988 1.000000 0.165370
0.663322 1.000000 0.164440
0.793642 1.000000 0.163510
0.923947 1.000000 0.162580
1.000000 1.000000 0.162022
0.042550 0.011551 0.365385
0.170285 0.011021 0.364833
0.298004 0.010491 0.364281
0.423103 0.007586 0.361180
0.554058 0.004646 0.355151
0.684862 0.000749 0.348192
0.815514 0.000000 0.342728
0.946016 0.000000 0.337874
1.000000 0.000000 0.333928
0.039455 0.137071 0.363527
0.166031 0.134237 0.362975
0.295747 0.133707 0.362423
0.421246 0.130802 0.358285
0.551946 0.127618 0.351199
0.682495 0.123477 0.343376
0.812894 0.118378 0.334693
0.943141 0.112321 0.325104
1.000000 0.108609 0.318005
0.037671 0.264073 0.361670
0.162141 0.261629 0.361117
0.292164 0.256924 0.360565
0.419388 0.254018 0.353909
0.549834 0.250591 0.345714
0.680129 0.246205 0.337118
0.810273 0.240862 0.327742
0.940266 0.234562 0.317487
1.000000 0.230480 0.309592
0.034700 0.389499 0.358352
0.159170 0.388947 0.356893
0.283640 0.388395 0.352412
0.417530 0.382539 0.347547
0.547722 0.376987 0.339813
0.677763 0.371936 0.331121
0.807653 0.366234 0.321471
0.937391 0.359689 0.310864
1.000000 0.355392 0.302351
0.034046 0.514371 0.350148
0.158444 0.513743 0.347428
0.282841 0.513116 0.342094
0.415238 0.512488 0.339738
0.545610 0.508454 0.337785
0.675397 0.502123 0.328849
0.805032 0.495898 0.318956
0.934516 0.489115 0.308105
1.000000 0.484815 0.299222
0.032092 0.638735 0.340771
0.156416 0.638031 0.337267
0.280741 0.637328 0.331608
0.411523 0.636625 0.329441
0.543898 0.635921 0.328766
0.673030 0.632242 0.326578
0.802411 0.625508 0.316440
0.931642 0.618493 0.305345
1.000000 0.614168 0.296093
0.028836 0.762590 0.330155
0.153088 0.761811 0.326016
0.277341 0.761032 0.320011
0.407601 0.760253 0.317843
0.539347 0.759474 0.317095
0.671075 0.758695 0.316347
0.799791 0.755062 0.313924
0.928767 0.747823 0.302585
1.000000 0.743450 0.292964
0.024280 0.885936 0.318270
0.148460 0.885082 0.313562
0.272640 0.884227 0.307179
0.402727 0.883373 0.304944
0.534277 0.882518 0.304124
0.665811 0.881664 0.303303
0.797330 0.880809 0.302483
0.925892 0.877105 0.299825
1.000000 0.872662 0.289835
0.018775 1.000000 0.305462
0.142845 1.000000 0.300187
0.266914 1.000000 0.293357
0.396963 1.000000 0.290984
0.528488 1.000000 0.290054
0.659992 1.000000 0.289124
0.791476 1.000000 0.288194
0.922939 1.000000 0.287264
1.000000 1.000000 0.286706
0.044753 0.009552 0.488856
0.172766 0.008949 0.488228
0.300766 0.008347 0.487601
0.428752 0.007744 0.486973
0.553845 0.004441 0.483499
0.684623 0.000519 0.476901
0.815250 0.000000 0.471273
0.945725 0.000000 0.466121
1.000000 0.000000 0.462213
0.041274 0.134956 0.486744
0.167663 0.131922 0.486116
0.297026 0.131319 0.485489
0.426369 0.130716 0.484861
0.551733 0.127414 0.480570
0.682257 0.123248 0.472960
0.812629 0.118124 0.464552
0.942851 0.112043 0.455271
1.000000 0.108293 0.448556
0.039247 0.261939 0.484632
0.163644 0.258401 0.484004
0.291250 0.254291 0.483376
0.423647 0.253689 0.482749
0.549621 0.250386 0.476959
0.679890 0.245976 0.468094
0.810009 0.240608 0.458742
0.939976 0.234283 0.448643
1.000000 0.230164 0.441125
0.037219 0.388870 0.482520
0.161617 0.387158 0.481892
0.286014 0.383639 0.481264
0.418895 0.376661 0.480637
0.547509 0.373358 0.471209
0.677524 0.368704 0.461144
0.807388 0.363093 0.451056
0.937101 0.356523 0.440309
1.000000 0.352035 0.431969
0.033842 0.514158 0.478845
0.158239 0.513530 0.477620
0.282636 0.512902 0.475648
0.407034 0.512275 0.469197
0.545397 0.503989 0.462581
0.675158 0.496080 0.453620
0.804767 0.489479 0.443702
0.934226 0.482398 0.432826
1.000000 0.477637 0.423906
0.031862 0.638496 0.469765
0.156187 0.637792 0.467429
0.280512 0.637089 0.463836
0.404836 0.636386 0.456632
0.540209 0.635682 0.453536
0.672791 0.630353 0.451348
0.802147 0.621667 0.441186
0.931351 0.613681 0.430066
1.000000 0.608759 0.420777
0.028582 0.762325 0.459471
0.152834 0.761546 0.456322
0.277087 0.760767 0.451855
0.401339 0.759988 0.444552
0.534089 0.759209 0.441841
0.668940 0.758430 0.441093
0.799526 0.753779 0.438670
0.928477 0.744904 0.427306
1.000000 0.739774 0.417648
0.024002 0.885646 0.447924
0.148181 0.884792 0.444093
0.272361 0.883937 0.438968
0.396541 0.883083 0.431470
0.528354 0.882228 0.428845
0.662059 0.881374 0.428025
0.795743 0.880519 0.427204
0.925602 0.876067 0.424547
1.000000 0.870684 0.414519
0.018459 1.000000 0.435452
0.142529 1.000000 0.430985
0.266599 1.000000 0.425252
0.390668 1.000000 0.417425
0.522074 1.000000 0.414738
0.655286 1.000000 0.413808
0.788467 1.000000 0.412878
0.921616 1.000000 0.411948
1.000000 1.000000 0.411390
0.046104 0.006691 0.612276
0.174419 0.006016 0.611573
0.302722 0.005341 0.610869
0.431014 0.004665 0.610166
0.559292 0.003990 0.609462
0.684384 0.000290 0.605606
0.814985 0.000000 0.599735
0.945435 0.000000 0.594291
1.000000 0.000000 0.590413
0.042232 0.132034 0.609910
0.168587 0.128744 0.609206
0.297977 0.128069 0.608503
0.427352 0.127394 0.607800
0.556711 0.126719 0.607096
0.682018 0.123018 0.602540
0.812365 0.117870 0.594408
0.942560 0.111764 0.585435
1.000000 0.107977 0.579103
0.039960 0.259084 0.607543
0.164285 0.254881 0.606840
0.291402 0.250797 0.606137
0.422693 0.250122 0.605433
0.553963 0.249447 0.604730
0.679651 0.245747 0.599064
0.809744 0.240354 0.589738
0.939686 0.234004 0.579795
1.000000 0.229848 0.572652
0.037689 0.386089 0.605177
0.162014 0.383244 0.604474
0.286338 0.378450 0.603770
0.415170 0.372850 0.603067
0.550738 0.372175 0.602363
0.677285 0.368475 0.594661
0.807123 0.362839 0.583862
0.936811 0.356245 0.572899
1.000000 0.351719 0.564871
0.035417 0.513049 0.602811
0.159742 0.511547 0.602107
0.284067 0.509318 0.601404
0.408391 0.504546 0.600701
0.544653 0.494904 0.599997
0.674919 0.491203 0.587349
0.804503 0.485323 0.575274
0.933936 0.478485 0.563638
1.000000 0.473590 0.554758
0.031633 0.638257 0.598754
0.155958 0.637554 0.597585
0.280282 0.636850 0.596056
0.404607 0.636147 0.593496
0.528932 0.635443 0.584748
0.672552 0.624336 0.576119
0.801882 0.613852 0.565932
0.931061 0.605639 0.554788
1.000000 0.600286 0.545461
0.028328 0.762061 0.588784
0.152581 0.761282 0.586623
0.276833 0.760503 0.583694
0.401085 0.759724 0.579111
0.525337 0.758945 0.569772
0.664133 0.758166 0.565839
0.799262 0.751366 0.563416
0.928186 0.740107 0.552028
1.000000 0.734092 0.542332
0.023723 0.885356 0.577575
0.147903 0.884502 0.574620
0.272082 0.883647 0.570752
0.396262 0.882792 0.565210
0.520442 0.881938 0.556062
0.655421 0.881083 0.552746
0.793075 0.880229 0.551926
0.925312 0.874493 0.549268
1.000000 0.867720 0.539203
0.018143 1.000000 0.565439
0.142213 1.000000 0.561778
0.266283 1.000000 0.557139
0.390353 1.000000 0.550885
0.514422 1.000000 0.541667
0.647982 1.000000 0.538492
0.783867 1.000000 0.537562
0.919700 1.000000 0.536632
1.000000 1.000000 0.536074
0.046597 0.002969 0.735644
0.175226 0.002221 0.734865
0.303843 0.001473 0.734087
0.432449 0.000725 0.733308
0.561049 0.000000 0.732529
0.689656 0.000000 0.731750
0.814721 0.000000 0.728115
0.945145 0.000000 0.722382
1.000000 0.000000 0.718531
0.042328 0.128274 0.733024
0.168703 0.124705 0.732245
0.298253 0.123957 0.731466
0.427790 0.123209 0.730687
0.557313 0.122462 0.729908
0.686823 0.121714 0.729129
0.812100 0.117616 0.724260
0.942270 0.111486 0.715594
1.000000 0.107661 0.709646
0.039812 0.255427 0.730403
0.164064 0.250662 0.729624
0.291014 0.246442 0.728845
0.421998 0.245694 0.728066
0.552965 0.244946 0.727287
0.683915 0.244198 0.726508
0.809479 0.240100 0.720729
0.939395 0.233726 0.710943
1.000000 0.229532 0.704174
0.037297 0.382540 0.727783
0.161549 0.378895 0.727004
0.285801 0.373459 0.726225
0.413767 0.368178 0.725446
0.547288 0.367430 0.724667
0.680786 0.366682 0.723888
0.806859 0.362585 0.716662
0.936521 0.355966 0.705484
1.000000 0.351403 0.697764
0.034781 0.509612 0.725162
0.159033 0.507077 0.724383
0.283285 0.503445 0.723604
0.407537 0.497218 0.722825
0.537791 0.489915 0.722046
0.677020 0.489167 0.721267
0.804238 0.485069 0.711390
0.933646 0.478206 0.698505
1.000000 0.473274 0.689710
0.032265 0.636644 0.722542
0.156517 0.635210 0.721763
0.280769 0.633366 0.720984
0.405022 0.630553 0.720205
0.529274 0.624350 0.719426
0.669440 0.611651 0.718647
0.801618 0.607553 0.702331
0.930771 0.600446 0.688106
1.000000 0.595145 0.678368
0.028074 0.761796 0.718093
0.152327 0.761017 0.716919
0.276579 0.760238 0.715526
0.400831 0.759459 0.713661
0.525083 0.758680 0.710437
0.649335 0.757901 0.699066
0.798997 0.743580 0.688162
0.927896 0.730303 0.676749
1.000000 0.723842 0.667016
0.023444 0.885066 0.707222
0.147624 0.884211 0.705143
0.271804 0.883357 0.702531
0.395983 0.882502 0.698943
0.520163 0.881648 0.693252
0.644343 0.880793 0.681516
0.787010 0.879939 0.676647
0.925022 0.871494 0.673989
1.000000 0.862527 0.663887
0.017827 1.000000 0.695423
0.141897 1.000000 0.692566
0.265967 1.000000 0.689020
0.390037 1.000000 0.684336
0.514107 1.000000 0.677563
0.638176 1.000000 0.666284
0.775680 1.000000 0.662246
0.916448 1.000000 0.661316
1.000000 1.000000 0.660758
0.047750 0.000000 0.858962
0.177098 0.000000 0.858107
0.306188 0.000000 0.857252
0.435019 0.000000 0.856398
0.563591 0.000000 0.855543
0.691904 0.000000 0.854689
0.819959 0.000000 0.853834
0.944855 0.000000 0.850394
1.000000 0.000000 0.846566
0.041562 0.123663 0.856087
0.167982 0.119804 0.855232
0.297754 0.118984 0.854378
0.427514 0.118163 0.853523
0.557262 0.117343 0.852669
0.686997 0.116523 0.851814
0.816720 0.115702 0.850959
0.941980 0.111207 0.845750
1.000000 0.107345 0.840184
0.038802 0.250938 0.853212
0.162982 0.245650 0.852357
0.289876 0.241224 0.851503
0.420831 0.240404 0.850648
0.551772 0.239583 0.849794
0.682698 0.238763 0.848939
0.813608 0.237943 0.848085
0.939105 0.233447 0.842086
1.000000 0.229216 0.835689
0.036042 0.378176 0.850337
0.160222 0.373865 0.849483
0.284402 0.367907 0.848628
0.412033 0.362644 0.847774
0.544829 0.361824 0.846919
0.677607 0.361003 0.846064
0.810365 0.360183 0.845210
0.936230 0.355687 0.838063
1.000000 0.351087 0.830648
0.033283 0.505377 0.847462
0.157462 0.502035 0.846608
0.281642 0.497509 0.845753
0.405822 0.490688 0.844899
0.534758 0.484064 0.844044
0.670811 0.483243 0.843190
0.806837 0.482423 0.842335
0.933356 0.477928 0.833365
1.000000 0.472958 0.824650
0.030523 0.632541 0.844588
0.154703 0.630161 0.843733
0.278882 0.627056 0.842879
0.403062 0.622543 0.842024
0.527241 0.614705 0.841169
0.659113 0.605484 0.840315
0.802494 0.604663 0.839460
0.930481 0.600168 0.827147
1.000000 0.594829 0.816737
0.027763 0.759667 0.841713
0.151943 0.758243 0.840858
0.276122 0.756548 0.840004
0.400302 0.754326 0.839149
0.524482 0.750863 0.838295
0.648661 0.743051 0.837440
0.793254 0.726903 0.836586
0.927606 0.722408 0.816154
1.000000 0.716700 0.804031
0.023166 0.884776 0.836866
0.147346 0.883921 0.835661
0.271525 0.883067 0.834305
0.395705 0.882212 0.832670
0.519884 0.881357 0.830434
0.644064 0.880503 0.826471
0.768244 0.879648 0.812149
0.924731 0.861721 0.798711
1.000000 0.850238 0.788571
0.017511 1.000000 0.825403
0.141581 1.000000 0.823350
0.265651 1.000000 0.820895
0.389721 1.000000 0.817777
0.513791 1.000000 0.813443
0.637861 1.000000 0.806486
0.761930 1.000000 0.791979
0.908989 1.000000 0.786000
1.000000 1.000000 0.785442
0.051696 0.000000 0.982227
0.180765 0.000000 0.981297
0.309590 0.000000 0.980367
0.438169 0.000000 0.979437
0.566504 0.000000 0.978507
0.694594 0.000000 0.977577
0.822439 0.000000 0.976647
0.950040 0.000000 0.975716
1.000000 0.000000 0.974517
0.039934 0.118198 0.979098
0.166413 0.114041 0.978168
0.296440 0.113149 0.977238
0.426456 0.112256 0.976308
0.556461 0.111363 0.975378
0.686455 0.110470 0.974448
0.816437 0.109577 0.973518
0.946409 0.108684 0.972587
1.000000 0.107029 0.970718
0.036931 0.245606 0.975969
0.161038 0.239812 0.975039
0.287928 0.235145 0.974109
0.418984 0.234252 0.973179
0.550026 0.233359 0.972249
0.681055 0.232466 0.971319
0.812071 0.231573 0.970389
0.943074 0.230680 0.969458
1.000000 0.228900 0.967199
0.033927 0.372979 0.972840
0.158034 0.368066 0.971910
0.282141 0.361622 0.970980
0.409622 0.356248 0.970050
0.542153 0.355355 0.969120
0.674668 0.354462 0.968190
0.807166 0.353569 0.967260
0.939649 0.352676 0.966329
1.000000 0.350771 0.963524
0.030923 0.500317 0.969711
0.155030 0.496280 0.968781
0.279137 0.491049 0.967851
0.403244 0.483769 0.966921
0.531644 0.477351 0.965991
0.666470 0.476458 0.965061
0.801275 0.475565 0.964131
0.936060 0.474672 0.963200
1.000000 0.472642 0.959576
0.027919 0.627621 0.966582
0.152026 0.624454 0.965652
0.276133 0.620428 0.964722
0.400240 0.614927 0.963792
0.524347 0.606569 0.962862
0.654374 0.598454 0.961932
0.793260 0.597561 0.961002
0.932117 0.596669 0.960071
1.000000 0.594513 0.955082
0.024915 0.754889 0.963453
0.149022 0.752587 0.962523
0.273129 0.749758 0.961593
0.397236 0.746024 0.960663
0.521343 0.740538 0.959733
0.645451 0.730910 0.958803
0.779136 0.719558 0.957873
0.927158 0.718665 0.956942
1.000000 0.716384 0.949223
0.021911 0.882123 0.960324
0.146018 0.880680 0.959394
0.270125 0.879040 0.958464
0.394233 0.877062 0.957534
0.518340 0.874429 0.956604
0.642447 0.870248 0.955674
0.766554 0.860649 0.954744
0.916096 0.840661 0.953813
1.000000 0.838255 0.937897
0.017195 1.000000 0.955379
0.141265 1.000000 0.954128
0.265335 1.000000 0.952763
0.389405 1.000000 0.951209
0.513475 1.000000 0.949307
0.637545 1.000000 0.946658
0.761615 1.000000 0.941859
0.885684 1.000000 0.924141
1.000000 1.000000 0.910126
