luts/original/morning-glow.cube
TITLE "Morning Glow"
LUT_3D_SIZE 5
DOMAIN_MIN 0.0 0.0 0.0
DOMAIN_MAX 1.0 1.0 1.0
0.029620 0.010935 0.010935
0.292418 0.009972 0.009972
0.554613 0.005178 0.005178
0.816202 0.000000 0.000000
1.000000 0.000000 0.000000
0.035599 0.264540 0.008833
0.289211 0.262471 0.006893
0.550388 0.258175 0.001123
0.810961 0.255964 0.000000
1.000000 0.255441 0.000000
0.035988 0.514926 0.000829
0.291952 0.513670 0.000000
0.546164 0.511286 0.000000
0.805720 0.508653 0.000000
1.000000 0.507636 0.000000
0.042760 0.763278 0.000000
0.296563 0.761720 0.000000
0.549327 0.760162 0.000000
0.800479 0.758066 0.000000
1.000000 0.756647 0.000000
0.050484 1.000000 0.000000
0.302339 1.000000 0.000000
0.553251 1.000000 0.000000
0.803225 1.000000 0.000000
1.000000 1.000000 0.000000
0.039513 0.012688 0.241863
0.292159 0.009723 0.238639
0.554271 0.004851 0.226799
0.815779 0.000000 0.214101
1.000000 0.000000 0.205561
0.034209 0.264281 0.237232
0.288952 0.259986 0.231019
0.550047 0.253010 0.217045
0.810538 0.243412 0.199241
1.000000 0.233362 0.180796
0.034251 0.514584 0.221446
0.287723 0.513329 0.215546
0.545823 0.509883 0.212990
0.805297 0.499753 0.194210
1.000000 0.489815 0.174538
0.029090 0.762854 0.200834
0.282245 0.761296 0.193845
0.542335 0.759739 0.192349
0.800056 0.755920 0.189178
1.000000 0.746067 0.168280
0.019091 1.000000 0.175467
0.272276 1.000000 0.167230
0.532988 1.000000 0.165370
0.793642 1.000000 0.163510
1.000000 1.000000 0.162022
0.044753 0.009552 0.488856
0.300766 0.008347 0.487601
0.553845 0.004441 0.483499
0.815250 0.000000 0.471273
1.000000 0.000000 0.462213
0.039247 0.261939 0.484632
0.291250 0.254291 0.483376
0.549621 0.250386 0.476959
0.810009 0.240608 0.458742
1.000000 0.230164 0.441125
0.033842 0.514158 0.478845
0.282636 0.512902 0.475648
0.545397 0.503989 0.462581
0.804767 0.489479 0.443702
1.000000 0.477637 0.423906
0.028582 0.762325 0.459471
0.277087 0.760767 0.451855
0.534089 0.759209 0.441841
0.799526 0.753779 0.438670
1.000000 0.739774 0.417648
0.018459 1.000000 0.435452
0.266599 1.000000 0.425252
0.522074 1.000000 0.414738
0.788467 1.000000 0.412878
1.000000 1.000000 0.411390
0.046597 0.002969 0.735644
0.303843 0.001473 0.734087
0.561049 0.000000 0.732529
0.814721 0.000000 0.728115
1.000000 0.000000 0.718531
0.039812 0.255427 0.730403
0.291014 0.246442 0.728845
0.552965 0.244946 0.727287
0.809479 0.240100 0.720729
1.000000 0.229532 0.704174
0.034781 0.509612 0.725162
0.283285 0.503445 0.723604
0.537791 0.489915 0.722046
0.804238 0.485069 0.711390
1.000000 0.473274 0.689710
0.028074 0.761796 0.718093
0.276579 0.760238 0.715526
0.525083 0.758680 0.710437
0.798997 0.743580 0.688162
1.000000 0.723842 0.667016
0.017827 1.000000 0.695423
0.265967 1.000000 0.689020
0.514107 1.000000 0.677563
0.775680 1.000000 0.662246
1.000000 1.000000 0.660758
0.051696 0.000000 0.982227
0.309590 0.000000 0.980367
0.566504 0.000000 0.978507
0.822439 0.000000 0.976647
1.000000 0.000000 0.974517
0.036931 0.245606 0.975969
0.287928 0.235145 0.974109
0.550026 0.233359 0.972249
0.812071 0.231573 0.970389
1.000000 0.228900 0.967199
0.030923 0.500317 0.969711
0.279137 0.491049 0.967851
0.531644 0.477351 0.965991
0.801275 0.475565 0.964131
1.000000 0.472642 0.959576
0.024915 0.754889 0.963453
0.273129 0.749758 0.961593
0.521343 0.740538 0.959733
0.779136 0.719558 0.957873
1.000000 0.716384 0.949223
0.017195 1.000000 0.955379
0.265335 1.000000 0.952763
0.513475 1.000000 0.949307
0.761615 1.000000 0.941859
1.000000 1.000000 0.910126
