luts/original/muted-street.cube
TITLE "Muted Street"
LUT_3D_SIZE 5
DOMAIN_MIN 0.0 0.0 0.0
DOMAIN_MAX 1.0 1.0 1.0
0.003418 0.003418 0.012238
0.236992 0.020407 0.033322
0.482582 0.053592 0.070602
0.728034 0.099639 0.120744
0.973349 0.158549 0.183749
0.022570 0.252070 0.035485
0.239389 0.251969 0.037844
0.482068 0.277698 0.073328
0.727394 0.318237 0.124124
0.972583 0.371460 0.187783
0.056085 0.502085 0.073095
0.263869 0.501949 0.076199
0.484997 0.501800 0.076050
0.726770 0.532657 0.123500
0.971837 0.579437 0.187037
0.102291 0.751791 0.123396
0.300476 0.751621 0.127246
0.515394 0.751436 0.127061
0.730313 0.751251 0.126876
0.971090 0.787414 0.186290
0.161187 1.000000 0.186387
0.349645 1.000000 0.190985
0.558186 1.000000 0.190763
0.766726 1.000000 0.190541
0.975267 1.000000 0.190319
0.025364 0.025364 0.267779
0.241849 0.025264 0.267678
0.482531 0.053541 0.293551
0.727971 0.099576 0.337181
0.973273 0.158473 0.393673
0.024979 0.254479 0.267394
0.259452 0.263347 0.267242
0.481919 0.302929 0.316257
0.727211 0.348816 0.367782
0.972365 0.407565 0.431098
0.056034 0.502034 0.296044
0.285619 0.501869 0.314548
0.488849 0.501735 0.325985
0.726632 0.549997 0.373362
0.971646 0.607362 0.436846
0.102227 0.751727 0.339832
0.326897 0.751522 0.365769
0.536086 0.751338 0.376963
0.732462 0.751173 0.376798
0.970953 0.800437 0.436153
0.161111 1.000000 0.396311
0.380866 1.000000 0.428558
0.588418 1.000000 0.440640
0.782656 1.000000 0.440434
0.976894 1.000000 0.440227
0.060220 0.060220 0.523230
0.266078 0.060088 0.523098
0.488927 0.059937 0.522947
0.727907 0.099512 0.553617
0.973197 0.158397 0.603597
0.059713 0.282713 0.522723
0.289229 0.303939 0.522489
0.494103 0.309327 0.522337
0.727153 0.348758 0.566406
0.972294 0.407494 0.627139
0.059207 0.505207 0.522216
0.288790 0.507340 0.522050
0.521836 0.521836 0.521836
0.726389 0.597994 0.609962
0.971382 0.656582 0.676676
0.102164 0.751664 0.556269
0.326838 0.751463 0.568305
0.576602 0.751227 0.605317
0.739669 0.751089 0.626714
0.970762 0.828362 0.685962
0.161035 1.000000 0.606235
0.380794 1.000000 0.627204
0.630512 1.000000 0.672399
0.815627 1.000000 0.690308
0.980346 1.000000 0.690133
0.107987 0.107987 0.778592
0.303217 0.107822 0.778427
0.519530 0.107635 0.778240
0.735843 0.107448 0.778053
0.973121 0.158321 0.813521
0.107358 0.323858 0.777963
0.331937 0.351463 0.777667
0.538355 0.356866 0.777471
0.738883 0.356696 0.777301
0.972224 0.407424 0.823179
0.106729 0.539729 0.777334
0.331355 0.554220 0.777085
0.580982 0.595992 0.776712
0.748688 0.605936 0.776541
0.971322 0.656522 0.844062
0.106100 0.755600 0.776705
0.330774 0.756978 0.776504
0.580535 0.761255 0.776265
0.776046 0.776046 0.776046
0.970402 0.905602 0.914438
0.160960 1.000000 0.816160
0.380722 1.000000 0.825850
0.630449 1.000000 0.846864
0.880162 1.000000 0.905876
0.991849 1.000000 0.940030
0.163897 0.163897 1.000000
0.348500 0.163700 1.000000
0.558277 0.163477 1.000000
0.768054 0.163254 1.000000
0.977831 0.163031 1.000000
0.163146 0.373146 1.000000
0.382791 0.406637 1.000000
0.585620 0.412553 1.000000
0.782077 0.412344 1.000000
0.978535 0.412135 1.000000
0.162395 0.582395 1.000000
0.382080 0.604644 1.000000
0.631642 0.652585 1.000000
0.811018 0.661418 1.000000
0.980838 0.661238 1.000000
0.161644 0.791644 1.000000
0.381370 0.802652 1.000000
0.631017 0.826489 1.000000
0.880511 0.893368 1.000000
0.989533 0.910333 1.000000
0.160893 1.000000 1.000000
0.380659 1.000000 1.000000
0.630393 1.000000 1.000000
0.880128 1.000000 1.000000
1.000000 1.000000 1.000000
