luts/original/muted-street.cube
TITLE "Muted Street"
LUT_3D_SIZE 9
DOMAIN_MIN 0.0 0.0 0.0
DOMAIN_MAX 1.0 1.0 1.0
0.003418 0.003418 0.012238
0.114145 0.008638 0.019505
0.236992 0.020407 0.033322
0.359804 0.035392 0.050354
0.482582 0.053592 0.070602
0.605325 0.075008 0.094065
0.728034 0.099639 0.120744
0.850709 0.127486 0.150639
0.973349 0.158549 0.183749
0.010572 0.126947 0.021440
0.116695 0.126909 0.023472
0.236794 0.136189 0.035584
0.359573 0.150276 0.052973
0.482318 0.167369 0.073578
0.605029 0.187606 0.097399
0.727706 0.211027 0.124436
0.850348 0.237647 0.154688
0.972956 0.267471 0.188156
0.022570 0.252070 0.035485
0.126092 0.252024 0.037899
0.239389 0.251969 0.037844
0.359354 0.262051 0.052754
0.482068 0.277698 0.073328
0.604748 0.296397 0.097118
0.727394 0.318237 0.124124
0.850006 0.343253 0.154346
0.972583 0.371460 0.187783
0.037741 0.377116 0.052704
0.138163 0.377063 0.055500
0.250190 0.376997 0.055435
0.362218 0.376932 0.055370
0.481818 0.388027 0.073078
0.604467 0.405188 0.096837
0.727082 0.425447 0.123812
0.849663 0.448859 0.154003
0.972210 0.475448 0.187410
0.056085 0.502085 0.073095
0.153306 0.502024 0.076274
0.263869 0.501949 0.076199
0.374433 0.501875 0.076125
0.484997 0.501800 0.076050
0.604186 0.513979 0.096556
0.726770 0.532657 0.123500
0.849320 0.554465 0.153660
0.971837 0.579437 0.187037
0.077601 0.626976 0.096659
0.171584 0.626908 0.100220
0.280612 0.626824 0.100136
0.389641 0.626740 0.100053
0.498670 0.626657 0.099969
0.607699 0.626573 0.099886
0.726458 0.639867 0.123188
0.848978 0.660071 0.153318
0.971463 0.683425 0.186663
0.102291 0.751791 0.123396
0.193016 0.751714 0.127339
0.300476 0.751621 0.127246
0.407935 0.751529 0.127154
0.515394 0.751436 0.127061
0.622854 0.751343 0.126968
0.730313 0.751251 0.126876
0.848635 0.765677 0.152975
0.971090 0.787414 0.186290
0.130152 0.876527 0.153305
0.217612 0.876444 0.157631
0.323483 0.876342 0.157529
0.429353 0.876240 0.157427
0.535224 0.876138 0.157326
0.641095 0.876036 0.157224
0.746966 0.875934 0.157122
0.852837 0.875832 0.157020
0.970717 0.891402 0.185917
0.161187 1.000000 0.186387
0.245374 1.000000 0.191096
0.349645 1.000000 0.190985
0.453915 1.000000 0.190874
0.558186 1.000000 0.190763
0.662456 1.000000 0.190652
0.766726 1.000000 0.190541
0.870997 1.000000 0.190430
0.975267 1.000000 0.190319
0.012778 0.012778 0.140020
0.118248 0.012741 0.139983
0.236973 0.020388 0.148053
0.359782 0.035369 0.163457
0.482556 0.053566 0.182076
0.605296 0.074979 0.203911
0.728002 0.099607 0.228962
0.850674 0.127451 0.257229
0.973311 0.158511 0.288711
0.012616 0.128991 0.139858
0.124623 0.132213 0.139803
0.236741 0.145156 0.154834
0.359512 0.160100 0.173443
0.482250 0.178260 0.194096
0.604953 0.199636 0.217728
0.727622 0.224227 0.244488
0.850257 0.252034 0.274421
0.972857 0.283057 0.307547
0.022551 0.252051 0.150216
0.132123 0.251998 0.154937
0.243040 0.251942 0.162817
0.359304 0.268504 0.177704
0.482001 0.287703 0.198261
0.604669 0.308807 0.222039
0.727304 0.332687 0.249034
0.849905 0.359581 0.279245
0.972473 0.389582 0.312673
0.037719 0.377094 0.165806
0.144844 0.377031 0.172835
0.259248 0.376961 0.180398
0.363949 0.376904 0.180341
0.481772 0.392330 0.198032
0.604404 0.413089 0.221774
0.727006 0.436044 0.248736
0.849575 0.461748 0.278915
0.972111 0.490416 0.312311
0.056059 0.502059 0.184569
0.160738 0.501988 0.193238
0.275482 0.501906 0.201156
0.380848 0.501837 0.201088
0.486214 0.501769 0.201019
0.604139 0.517371 0.221509
0.726708 0.539400 0.248438
0.849245 0.563915 0.278585
0.971749 0.591251 0.311949
0.077573 0.626948 0.206505
0.179805 0.626868 0.216619
0.294254 0.626775 0.225088
0.399062 0.626696 0.225009
0.503870 0.626617 0.224930
0.608678 0.626538 0.224850
0.726410 0.642757 0.248140
0.848915 0.666082 0.278255
0.971387 0.692085 0.311587
0.102259 0.751759 0.231614
0.202045 0.751670 0.243089
0.315963 0.751567 0.252192
0.419761 0.751478 0.252103
0.523559 0.751390 0.252014
0.627356 0.751301 0.251926
0.731154 0.751212 0.251837
0.848584 0.768249 0.277925
0.971025 0.792920 0.311225
0.130118 0.876493 0.259895
0.227458 0.876395 0.272688
0.340732 0.876282 0.282469
0.443303 0.876184 0.282371
0.545874 0.876085 0.282273
0.648445 0.875987 0.282174
0.751016 0.875889 0.282076
0.853587 0.875790 0.281978
0.970663 0.893754 0.310863
0.161149 1.000000 0.291349
0.256043 1.000000 0.305435
0.368612 1.000000 0.315919
0.469835 1.000000 0.315812
0.571059 1.000000 0.315704
0.672283 1.000000 0.315596
0.773506 1.000000 0.315489
0.874730 1.000000 0.315381
0.975954 1.000000 0.315273
0.025364 0.025364 0.267779
0.127156 0.025321 0.267736
0.241849 0.025264 0.267678
0.359759 0.035347 0.276559
0.482531 0.053541 0.293551
0.605268 0.074950 0.313758
0.727971 0.099576 0.337181
0.850639 0.127416 0.363819
0.973273 0.158473 0.393673
0.025172 0.139922 0.267587
0.134722 0.146373 0.267512
0.245583 0.150030 0.267445
0.359492 0.160080 0.279801
0.482226 0.178236 0.300681
0.604926 0.199609 0.323553
0.727592 0.224197 0.349188
0.850223 0.252001 0.377822
0.972820 0.283020 0.409551
0.024979 0.254479 0.267394
0.134548 0.255686 0.267338
0.259452 0.263347 0.267242
0.359222 0.284810 0.292272
0.481919 0.302929 0.316257
0.604582 0.324264 0.340691
0.727211 0.348816 0.367782
0.849805 0.376583 0.397882
0.972365 0.407565 0.431098
0.037696 0.377071 0.278909
0.144823 0.377010 0.281910
0.269740 0.376928 0.291575
0.370307 0.376870 0.305307
0.481705 0.402335 0.322965
0.604319 0.427289 0.346689
0.726908 0.452682 0.373638
0.849467 0.480359 0.403807
0.971992 0.510824 0.437192
0.056034 0.502034 0.296044
0.160714 0.501964 0.301547
0.285619 0.501869 0.314548
0.394588 0.501792 0.326042
0.488849 0.501735 0.325985
0.604083 0.523483 0.346453
0.726632 0.549997 0.373362
0.849154 0.577565 0.403494
0.971646 0.607362 0.436846
0.077544 0.626919 0.316352
0.179778 0.626840 0.323755
0.304672 0.626734 0.338843
0.415334 0.626645 0.349957
0.512862 0.626573 0.349886
0.610391 0.626502 0.349814
0.726356 0.647312 0.373086
0.848842 0.674771 0.403182
0.971299 0.703899 0.436499
0.102227 0.751727 0.339832
0.202014 0.751639 0.348879
0.326897 0.751522 0.365769
0.437897 0.751421 0.377046
0.536086 0.751338 0.376963
0.634274 0.751255 0.376880
0.732462 0.751173 0.376798
0.848530 0.771978 0.402870
0.970953 0.800437 0.436153
0.130083 0.876458 0.366485
0.227424 0.876361 0.377041
0.352295 0.876232 0.395637
0.463132 0.876121 0.407308
0.561017 0.876028 0.407215
0.658901 0.875934 0.407122
0.756786 0.875841 0.407028
0.854670 0.875748 0.406935
0.970606 0.896975 0.435806
0.161111 1.000000 0.396311
0.256006 1.000000 0.408299
0.380866 1.000000 0.428558
0.491299 1.000000 0.440744
0.588418 1.000000 0.440640
0.685537 1.000000 0.440537
0.782656 1.000000 0.440434
0.879775 1.000000 0.440330
0.976894 1.000000 0.440227
0.041178 0.041178 0.395516
0.139291 0.041128 0.395466
0.252349 0.041062 0.395399
0.365408 0.040996 0.395333
0.482505 0.053515 0.405025
0.605239 0.074922 0.423604
0.727939 0.099544 0.445399
0.850604 0.127382 0.470409
0.973235 0.158435 0.498635
0.040956 0.154081 0.395293
0.148054 0.162143 0.395204
0.259922 0.165788 0.395126
0.367685 0.165727 0.395065
0.482202 0.178212 0.407266
0.604899 0.199581 0.429378
0.727561 0.224166 0.453889
0.850189 0.251967 0.481224
0.972783 0.282983 0.511556
0.040733 0.266983 0.395070
0.147844 0.271419 0.394994
0.272719 0.284292 0.394869
0.374061 0.290455 0.394792
0.481899 0.302909 0.412396
0.604557 0.324240 0.439581
0.727182 0.348787 0.467094
0.849773 0.376550 0.496754
0.972330 0.407530 0.529119
0.040510 0.379885 0.394847
0.147634 0.380695 0.394784
0.272546 0.383123 0.394696
0.394579 0.394579 0.394579
0.481590 0.427600 0.431820
0.604211 0.448893 0.461763
0.726799 0.473404 0.490140
0.849353 0.501131 0.520765
0.971873 0.532073 0.554248
0.056008 0.502008 0.407518
0.160689 0.501939 0.409856
0.285598 0.501848 0.415419
0.410503 0.501752 0.430099
0.498497 0.501695 0.450945
0.603998 0.537683 0.471368
0.726526 0.569034 0.498256
0.849036 0.598994 0.528376
0.971517 0.630621 0.561717
0.077515 0.626890 0.426198
0.179750 0.626812 0.430891
0.304646 0.626708 0.440476
0.429539 0.626601 0.458708
0.532112 0.626519 0.474831
0.614089 0.626464 0.474776
0.726288 0.655510 0.498018
0.848751 0.688421 0.528091
0.971193 0.720961 0.561393
0.102195 0.751695 0.448050
0.201983 0.751608 0.454668
0.326868 0.751493 0.467037
0.451749 0.751374 0.487110
0.557718 0.751277 0.501902
0.646232 0.751205 0.501830
0.734746 0.751132 0.501757
0.848467 0.777848 0.527807
0.970869 0.811300 0.561069
0.130048 0.876423 0.473075
0.227390 0.876327 0.481394
0.352262 0.876200 0.496058
0.477132 0.876070 0.517696
0.584235 0.875961 0.532149
0.674941 0.875876 0.532063
0.765646 0.875790 0.531977
0.856352 0.875704 0.531892
0.970544 0.901640 0.560744
0.161073 1.000000 0.501273
0.255969 1.000000 0.511162
0.380830 1.000000 0.527881
0.505688 1.000000 0.551032
0.613090 1.000000 0.565569
0.704379 1.000000 0.565472
0.795669 1.000000 0.565375
0.886958 1.000000 0.565278
0.978248 1.000000 0.565180
0.060220 0.060220 0.523230
0.154653 0.060163 0.523173
0.266078 0.060088 0.523098
0.377502 0.060012 0.523022
0.488927 0.059937 0.522947
0.605210 0.074893 0.533450
0.727907 0.099512 0.553617
0.850569 0.127347 0.576999
0.973197 0.158397 0.603597
0.059967 0.171467 0.522977
0.164615 0.180917 0.522875
0.276098 0.184775 0.522785
0.383361 0.184704 0.522714
0.490623 0.184633 0.522643
0.604872 0.199554 0.535203
0.727531 0.224136 0.558590
0.850156 0.251933 0.584625
0.972746 0.282946 0.613561
0.059713 0.282713 0.522723
0.164372 0.289226 0.522632
0.289229 0.303939 0.522489
0.394719 0.309390 0.522400
0.494103 0.309327 0.522337
0.604532 0.324215 0.538472
0.727153 0.348758 0.566406
0.849741 0.376518 0.595627
0.972294 0.407494 0.627139
0.059460 0.393960 0.522470
0.164129 0.397535 0.522389
0.289010 0.405640 0.522270
0.413851 0.424819 0.522111
0.503683 0.434015 0.522025
0.604191 0.448874 0.545838
0.726774 0.473379 0.580158
0.849324 0.501101 0.612699
0.971840 0.532040 0.646610
0.059207 0.505207 0.522216
0.163886 0.505843 0.522146
0.288790 0.507340 0.522050
0.413687 0.510980 0.521947
0.521836 0.521836 0.521836
0.603844 0.573375 0.573375
0.726389 0.597994 0.609962
0.848902 0.625680 0.642441
0.971382 0.656582 0.676676
0.077487 0.626862 0.536044
0.179722 0.626785 0.538028
0.304620 0.626683 0.542109
0.429517 0.626579 0.549925
0.554409 0.626471 0.570510
0.626418 0.626418 0.595949
0.726182 0.674547 0.622912
0.848622 0.712938 0.652962
0.971051 0.747742 0.686251
0.102164 0.751664 0.556269
0.201952 0.751577 0.560458
0.326838 0.751463 0.568305
0.451722 0.751347 0.581065
0.576602 0.751227 0.605317
0.671822 0.751140 0.626765
0.739669 0.751089 0.626714
0.848387 0.788411 0.652727
0.970762 0.828362 0.685962
0.130013 0.876388 0.579666
0.227356 0.876293 0.585747
0.352230 0.876167 0.596479
0.477102 0.876039 0.612329
0.601970 0.875908 0.638040
0.702634 0.875805 0.656992
0.780958 0.875732 0.656920
0.859282 0.875660 0.656847
0.970473 0.908982 0.685673
0.161035 1.000000 0.606235
0.255932 1.000000 0.614026
0.380794 1.000000 0.627204
0.505654 1.000000 0.645464
0.630512 1.000000 0.672399
0.733268 1.000000 0.690396
0.815627 1.000000 0.690308
0.897987 1.000000 0.690221
0.980346 1.000000 0.690133
0.082490 0.082490 0.650922
0.173243 0.082426 0.650858
0.283034 0.082341 0.650774
0.392824 0.082257 0.650689
0.502615 0.082172 0.650605
0.612405 0.082088 0.650521
0.727875 0.099480 0.661835
0.850534 0.127312 0.683589
0.973159 0.158359 0.708559
0.082206 0.192081 0.650638
0.184403 0.202845 0.650523
0.295096 0.206990 0.650422
0.401324 0.206909 0.650342
0.507551 0.206829 0.650261
0.613778 0.206748 0.650181
0.727500 0.224105 0.663290
0.850122 0.251900 0.688026
0.972710 0.282910 0.715565
0.081922 0.301672 0.650354
0.184128 0.309879 0.650248
0.308969 0.326191 0.650089
0.415278 0.331556 0.649989
0.515742 0.331482 0.649914
0.616206 0.331407 0.649840
0.727125 0.348730 0.665718
0.849709 0.376486 0.694499
0.972259 0.407459 0.725159
0.081638 0.411263 0.650070
0.183853 0.416913 0.649973
0.308712 0.428159 0.649832
0.433538 0.448556 0.649658
0.531549 0.456126 0.649559
0.621104 0.456064 0.649496
0.726749 0.473354 0.670176
0.849294 0.501072 0.704634
0.971807 0.532007 0.738971
0.081354 0.520854 0.649786
0.183579 0.523948 0.649699
0.308456 0.530128 0.649576
0.433314 0.541374 0.649434
0.558118 0.567954 0.649238
0.634448 0.580711 0.649143
0.726371 0.597976 0.680126
0.848877 0.625655 0.722410
0.971352 0.656552 0.760369
0.081070 0.630445 0.649502
0.183304 0.630982 0.649424
0.308199 0.632097 0.649319
0.433091 0.634193 0.649211
0.557972 0.639256 0.649092
0.648992 0.648992 0.648992
0.726048 0.705735 0.705735
0.848452 0.750230 0.760854
0.970891 0.781091 0.797596
0.102132 0.751632 0.664487
0.201922 0.751547 0.666248
0.326809 0.751434 0.669573
0.451696 0.751321 0.675020
0.576581 0.751206 0.685429
0.701460 0.751085 0.712806
0.751047 0.751047 0.730734
0.848258 0.812928 0.777598
0.970607 0.859000 0.810807
0.129978 0.876353 0.686256
0.227322 0.876259 0.690100
0.352197 0.876135 0.696899
0.477071 0.876009 0.706963
0.601943 0.875881 0.723314
0.726810 0.875747 0.754372
0.813715 0.875656 0.781843
0.865589 0.875611 0.781799
0.970380 0.922186 0.810580
0.160998 1.000000 0.711198
0.255894 1.000000 0.716889
0.380758 1.000000 0.726527
0.505620 1.000000 0.739895
0.630480 1.000000 0.759631
0.755336 1.000000 0.791632
0.850081 1.000000 0.815226
0.917039 1.000000 0.815155
0.983997 1.000000 0.815084
0.107987 0.107987 0.778592
0.195061 0.107916 0.778521
0.303217 0.107822 0.778427
0.411374 0.107729 0.778334
0.519530 0.107635 0.778240
0.627687 0.107542 0.778147
0.735843 0.107448 0.778053
0.850500 0.127277 0.790180
0.973121 0.158321 0.813521
0.107672 0.215922 0.778277
0.207419 0.227967 0.778149
0.317148 0.232433 0.778038
0.422112 0.232343 0.777948
0.527075 0.232253 0.777858
0.632038 0.232162 0.777767
0.737002 0.232072 0.777677
0.850088 0.251866 0.791427
0.972673 0.282873 0.817570
0.107358 0.323858 0.777963
0.207113 0.333588 0.777843
0.331937 0.351463 0.777667
0.438091 0.356951 0.777556
0.538355 0.356866 0.777471
0.638619 0.356781 0.777386
0.738883 0.356696 0.777301
0.849677 0.376454 0.793372
0.972224 0.407424 0.823179
0.107043 0.431793 0.777648
0.206807 0.439208 0.777537
0.331646 0.452842 0.777376
0.456457 0.474374 0.777187
0.556829 0.481471 0.777076
0.649493 0.481394 0.776999
0.742157 0.481317 0.776922
0.849265 0.501042 0.796569
0.971773 0.531973 0.831333
0.106729 0.539729 0.777334
0.206501 0.544829 0.777231
0.331355 0.554220 0.777085
0.456190 0.569073 0.776920
0.580982 0.595992 0.776712
0.670410 0.605997 0.776602
0.748688 0.605936 0.776541
0.848852 0.625629 0.802380
0.971322 0.656522 0.844062
0.106414 0.647664 0.777020
0.206195 0.650450 0.776925
0.331064 0.655599 0.776794
0.455923 0.663771 0.776653
0.580758 0.678623 0.776488
0.705521 0.713697 0.776251
0.766356 0.730542 0.776147
0.848436 0.750214 0.815261
0.970866 0.781066 0.866339
0.106100 0.755600 0.776705
0.205888 0.756071 0.776618
0.330774 0.756978 0.776504
0.455656 0.758470 0.776386
0.580535 0.761255 0.776265
0.705399 0.767953 0.776129
0.776046 0.776046 0.776046
0.848150 0.837993 0.837993
0.970402 0.905602 0.914438
0.129944 0.876319 0.792846
0.227288 0.876225 0.794454
0.352164 0.876102 0.797320
0.477041 0.875978 0.801596
0.601916 0.875854 0.808587
0.726789 0.875727 0.821930
0.851654 0.875592 0.856989
0.875574 0.875574 0.865418
0.970225 0.952825 0.935425
0.160960 1.000000 0.816160
0.255857 1.000000 0.819752
0.380722 1.000000 0.825850
0.505586 1.000000 0.834327
0.630449 1.000000 0.846864
0.755309 1.000000 0.867222
0.880162 1.000000 0.905876
0.957794 1.000000 0.940067
0.991849 1.000000 0.940030
0.136711 0.136711 0.906239
0.220106 0.136634 0.906161
0.326628 0.136531 0.906058
0.433151 0.136428 0.905956
0.539673 0.136326 0.905853
0.646196 0.136223 0.905751
0.752718 0.136121 0.905648
0.859241 0.136018 0.905546
0.973083 0.158283 0.918483
0.136366 0.242991 0.905894
0.233663 0.256298 0.905753
0.342338 0.261103 0.905631
0.445919 0.261004 0.905531
0.549499 0.260904 0.905432
0.653080 0.260805 0.905332
0.756661 0.260705 0.905233
0.860242 0.260606 0.905134
0.972636 0.282836 0.919574
0.136021 0.349272 0.905549
0.233326 0.360431 0.905416
0.358134 0.379870 0.905224
0.463716 0.385574 0.905101
0.563233 0.385479 0.905006
0.662749 0.385383 0.904911
0.762266 0.385288 0.904816
0.861782 0.385193 0.904721
0.972188 0.407388 0.921199
0.135677 0.455552 0.905204
0.232989 0.464564 0.905079
0.357810 0.480269 0.904900
0.482605 0.503041 0.904695
0.583637 0.510046 0.904573
0.677172 0.509957 0.904485
0.770708 0.509868 0.904396
0.864243 0.509780 0.904307
0.971740 0.531940 0.923695
0.135332 0.561832 0.904859
0.232651 0.568696 0.904741
0.357486 0.580669 0.904576
0.482301 0.598041 0.904391
0.607080 0.625468 0.904170
0.700753 0.634521 0.904048
0.784614 0.634442 0.903970
0.868475 0.634364 0.903891
0.971291 0.656491 0.927755
0.134987 0.668112 0.904514
0.232314 0.672829 0.904404
0.357162 0.681069 0.904252
0.481996 0.693041 0.904086
0.606806 0.711965 0.903896
0.731560 0.746249 0.903650
0.811303 0.759003 0.903530
0.876854 0.758944 0.903471
0.970842 0.781042 0.935082
0.134642 0.774392 0.904169
0.231977 0.776962 0.904067
0.356838 0.781468 0.903928
0.481692 0.788042 0.903782
0.606532 0.798463 0.903622
0.731342 0.817387 0.903432
0.856059 0.862048 0.903149
0.899409 0.883509 0.903036
0.970389 0.905589 0.951243
0.134297 0.880672 0.903824
0.231640 0.881094 0.903729
0.356514 0.881868 0.903604
0.481387 0.883042 0.903477
0.606258 0.884960 0.903348
0.731123 0.888525 0.903213
0.855970 0.897070 0.903060
0.902999 0.902999 0.902999
0.970150 0.970150 0.970150
0.160922 1.000000 0.921122
0.255820 1.000000 0.922616
0.380686 1.000000 0.925174
0.505552 1.000000 0.928758
0.630417 1.000000 0.934097
0.755281 1.000000 0.942812
0.880142 1.000000 0.959428
1.000000 1.000000 1.000000
1.000000 1.000000 1.000000
0.163897 0.163897 1.000000
0.243612 0.163812 1.000000
0.348500 0.163700 1.000000
0.453389 0.163589 1.000000
0.558277 0.163477 1.000000
0.663165 0.163365 1.000000
0.768054 0.163254 1.000000
0.872942 0.163142 1.000000
0.977831 0.163031 1.000000
0.163521 0.268521 1.000000
0.258368 0.283064 1.000000
0.365863 0.288234 1.000000
0.467897 0.288126 1.000000
0.569932 0.288017 1.000000
0.671966 0.287909 1.000000
0.774000 0.287800 1.000000
0.876034 0.287691 1.000000
0.978069 0.287583 1.000000
0.163146 0.373146 1.000000
0.258000 0.385596 1.000000
0.382791 0.406637 1.000000
0.487391 0.412658 1.000000
0.585620 0.412553 1.000000
0.683849 0.412449 1.000000
0.782077 0.412344 1.000000
0.880306 0.412239 1.000000
0.978535 0.412135 1.000000
0.162770 0.477770 1.000000
0.257632 0.488129 1.000000
0.382436 0.505641 1.000000
0.507215 0.529887 1.000000
0.607762 0.537082 1.000000
0.700663 0.536983 1.000000
0.793564 0.536884 1.000000
0.886465 0.536785 1.000000
0.979367 0.536687 1.000000
0.162395 0.582395 1.000000
0.257264 0.590662 1.000000
0.382080 0.604644 1.000000
0.506877 0.624015 1.000000
0.631642 0.652585 1.000000
0.726109 0.661509 1.000000
0.811018 0.661418 1.000000
0.895928 0.661328 1.000000
0.980838 0.661238 1.000000
0.162019 0.687019 1.000000
0.256896 0.693194 1.000000
0.381725 0.703648 1.000000
0.506540 0.718143 1.000000
0.631329 0.739537 1.000000
0.756072 0.774220 1.000000
0.840406 0.785940 1.000000
0.911997 0.785863 1.000000
0.983587 0.785787 1.000000
0.161644 0.791644 1.000000
0.256528 0.795727 1.000000
0.381370 0.802652 1.000000
0.506202 0.812271 1.000000
0.631017 0.826489 1.000000
0.755801 0.849567 1.000000
0.880511 0.893368 1.000000
0.944581 0.910381 1.000000
0.989533 0.910333 1.000000
0.161268 0.896268 1.000000
0.256160 0.898259 1.000000
0.381014 0.901655 1.000000
0.505864 0.906398 1.000000
0.630705 0.913441 1.000000
0.755531 0.924914 1.000000
0.880319 0.946748 1.000000
1.000000 1.000000 1.000000
1.000000 1.000000 1.000000
0.160893 1.000000 1.000000
0.255792 1.000000 1.000000
0.380659 1.000000 1.000000
0.505526 1.000000 1.000000
0.630393 1.000000 1.000000
0.755260 1.000000 1.000000
0.880128 1.000000 1.000000
1.000000 1.000000 1.000000
1.000000 1.000000 1.000000
