luts/original/muted-blockbuster.cube
TITLE "Muted Blockbuster"
LUT_3D_SIZE 5
DOMAIN_MIN 0.0 0.0 0.0
DOMAIN_MAX 1.0 1.0 1.0
0.017640 0.010080 0.002520
0.280545 0.033358 0.022288
0.546440 0.064930 0.050350
0.815325 0.106610 0.088520
1.000000 0.158400 0.136800
0.044428 0.269475 0.022288
0.280545 0.269475 0.022288
0.546440 0.298395 0.050350
0.815325 0.336819 0.088520
1.000000 0.385200 0.136800
0.079510 0.531860 0.050350
0.312975 0.531860 0.050350
0.546440 0.531860 0.050350
0.815325 0.567027 0.088520
1.000000 0.612000 0.136800
0.124700 0.797235 0.088520
0.354909 0.797235 0.088520
0.585117 0.797235 0.088520
0.815325 0.797235 0.088520
1.000000 0.838800 0.136800
0.180000 1.000000 0.136800
0.406800 1.000000 0.136800
0.633600 1.000000 0.136800
0.860400 1.000000 0.136800
1.000000 1.000000 0.136800
0.044428 0.033358 0.258405
0.280545 0.033358 0.258405
0.546440 0.064930 0.283815
0.815325 0.106610 0.318729
1.000000 0.158400 0.363600
0.044428 0.269475 0.258405
0.280545 0.269475 0.258405
0.546440 0.321140 0.306560
0.815325 0.364315 0.346225
1.000000 0.417600 0.396000
0.079510 0.531860 0.283815
0.335720 0.531860 0.306560
0.546440 0.531860 0.306560
0.815325 0.580775 0.346225
1.000000 0.633600 0.396000
0.124700 0.797235 0.318729
0.382405 0.797235 0.346225
0.598865 0.797235 0.346225
0.815325 0.797235 0.346225
1.000000 0.849600 0.396000
0.180000 1.000000 0.363600
0.439200 1.000000 0.396000
0.655200 1.000000 0.396000
0.871200 1.000000 0.396000
1.000000 1.000000 0.396000
0.079510 0.064930 0.517280
0.312975 0.064930 0.517280
0.546440 0.064930 0.517280
0.815325 0.106610 0.548937
1.000000 0.158400 0.590400
0.079510 0.298395 0.517280
0.335720 0.321140 0.517280
0.546440 0.321140 0.517280
0.815325 0.364315 0.562685
1.000000 0.417600 0.612000
0.079510 0.531860 0.517280
0.335720 0.531860 0.517280
0.546440 0.531860 0.517280
0.815325 0.622020 0.603930
1.000000 0.676800 0.655200
0.124700 0.797235 0.548937
0.382405 0.797235 0.562685
0.640110 0.797235 0.603930
0.815325 0.797235 0.603930
1.000000 0.871200 0.655200
0.180000 1.000000 0.590400
0.439200 1.000000 0.612000
0.698400 1.000000 0.655200
0.892800 1.000000 0.655200
1.000000 1.000000 0.655200
0.124700 0.106610 0.779145
0.354909 0.106610 0.779145
0.585117 0.106610 0.779145
0.815325 0.106610 0.779145
1.000000 0.158400 0.817200
0.124700 0.336819 0.779145
0.382405 0.364315 0.779145
0.598865 0.364315 0.779145
0.815325 0.364315 0.779145
1.000000 0.417600 0.828000
0.124700 0.567027 0.779145
0.382405 0.580775 0.779145
0.640110 0.622020 0.779145
0.815325 0.622020 0.779145
1.000000 0.676800 0.849600
0.124700 0.797235 0.779145
0.382405 0.797235 0.779145
0.640110 0.797235 0.779145
0.815325 0.797235 0.779145
1.000000 0.936000 0.914400
0.180000 1.000000 0.817200
0.439200 1.000000 0.828000
0.698400 1.000000 0.849600
0.957600 1.000000 0.914400
1.000000 1.000000 0.914400
0.180000 0.158400 1.000000
0.406800 0.158400 1.000000
0.633600 0.158400 1.000000
0.860400 0.158400 1.000000
1.000000 0.158400 1.000000
0.180000 0.385200 1.000000
0.439200 0.417600 1.000000
0.655200 0.417600 1.000000
0.871200 0.417600 1.000000
1.000000 0.417600 1.000000
0.180000 0.612000 1.000000
0.439200 0.633600 1.000000
0.698400 0.676800 1.000000
0.892800 0.676800 1.000000
1.000000 0.676800 1.000000
0.180000 0.838800 1.000000
0.439200 0.849600 1.000000
0.698400 0.871200 1.000000
0.957600 0.936000 1.000000
1.000000 0.936000 1.000000
0.180000 1.000000 1.000000
0.439200 1.000000 1.000000
0.698400 1.000000 1.000000
0.957600 1.000000 1.000000
1.000000 1.000000 1.000000
