luts/original/muted-blockbuster.cube
TITLE "Muted Blockbuster"
LUT_3D_SIZE 9
DOMAIN_MIN 0.0 0.0 0.0
DOMAIN_MAX 1.0 1.0 1.0
0.017640 0.010080 0.002520
0.148719 0.021362 0.012047
0.280545 0.033358 0.022288
0.413119 0.047880 0.035055
0.546440 0.064930 0.050350
0.680509 0.084506 0.068171
0.815325 0.106610 0.088520
0.950889 0.131242 0.111397
1.000000 0.158400 0.136800
0.030677 0.139404 0.012047
0.148719 0.139404 0.012047
0.280545 0.151416 0.022288
0.413119 0.165351 0.035055
0.546440 0.181662 0.050350
0.680509 0.200440 0.068171
0.815325 0.221714 0.088520
0.950889 0.245499 0.111397
1.000000 0.271800 0.136800
0.044428 0.269475 0.022288
0.162486 0.269475 0.022288
0.280545 0.269475 0.022288
0.413119 0.282822 0.035055
0.546440 0.298395 0.050350
0.680509 0.316373 0.068171
0.815325 0.336819 0.088520
0.950889 0.359756 0.111397
1.000000 0.385200 0.136800
0.060705 0.400294 0.035055
0.178176 0.400294 0.035055
0.295648 0.400294 0.035055
0.413119 0.400294 0.035055
0.546440 0.415127 0.050350
0.680509 0.432307 0.068171
0.815325 0.451923 0.088520
0.950889 0.474014 0.111397
1.000000 0.498600 0.136800
0.079510 0.531860 0.050350
0.196242 0.531860 0.050350
0.312975 0.531860 0.050350
0.429707 0.531860 0.050350
0.546440 0.531860 0.050350
0.680509 0.548240 0.068171
0.815325 0.567027 0.088520
0.950889 0.588271 0.111397
1.000000 0.612000 0.136800
0.100841 0.664174 0.068171
0.216775 0.664174 0.068171
0.332708 0.664174 0.068171
0.448642 0.664174 0.068171
0.564575 0.664174 0.068171
0.680509 0.664174 0.068171
0.815325 0.682131 0.088520
0.950889 0.702529 0.111397
1.000000 0.725400 0.136800
0.124700 0.797235 0.088520
0.239805 0.797235 0.088520
0.354909 0.797235 0.088520
0.470013 0.797235 0.088520
0.585117 0.797235 0.088520
0.700221 0.797235 0.088520
0.815325 0.797235 0.088520
0.950889 0.816786 0.111397
1.000000 0.838800 0.136800
0.151087 0.931044 0.111397
0.265344 0.931044 0.111397
0.379602 0.931044 0.111397
0.493859 0.931044 0.111397
0.608116 0.931044 0.111397
0.722374 0.931044 0.111397
0.836631 0.931044 0.111397
0.950889 0.931044 0.111397
1.000000 0.952200 0.136800
0.180000 1.000000 0.136800
0.293400 1.000000 0.136800
0.406800 1.000000 0.136800
0.520200 1.000000 0.136800
0.633600 1.000000 0.136800
0.747000 1.000000 0.136800
0.860400 1.000000 0.136800
0.973800 1.000000 0.136800
1.000000 1.000000 0.136800
0.030677 0.021362 0.130089
0.148719 0.021362 0.130089
0.280545 0.033358 0.140346
0.413119 0.047880 0.152526
0.546440 0.064930 0.167082
0.680509 0.084506 0.184105
0.815325 0.106610 0.203625
0.950889 0.131242 0.225654
1.000000 0.158400 0.250200
0.030677 0.139404 0.130089
0.148719 0.139404 0.130089
0.280545 0.160715 0.149645
0.413119 0.175611 0.162786
0.546440 0.193035 0.178455
0.680509 0.212985 0.196650
0.815325 0.235463 0.217373
0.950889 0.260468 0.240623
1.000000 0.288000 0.266400
0.044428 0.269475 0.140346
0.171785 0.269475 0.149645
0.280545 0.269475 0.149645
0.413119 0.287953 0.162786
0.546440 0.305976 0.178455
0.680509 0.325782 0.196650
0.815325 0.347817 0.217373
0.950889 0.372230 0.240623
1.000000 0.399086 0.266400
0.060705 0.400294 0.152526
0.188436 0.400294 0.162786
0.300777 0.400294 0.162786
0.413119 0.400294 0.162786
0.546440 0.418918 0.178455
0.680509 0.438579 0.196650
0.815325 0.460172 0.217373
0.950889 0.483993 0.240623
1.000000 0.510171 0.266400
0.079510 0.531860 0.167082
0.207615 0.531860 0.178455
0.320556 0.531860 0.178455
0.433498 0.531860 0.178455
0.546440 0.531860 0.178455
0.680509 0.551377 0.196650
0.815325 0.572526 0.217373
0.950889 0.595756 0.240623
1.000000 0.621257 0.266400
0.100841 0.664174 0.184105
0.229320 0.664174 0.196650
0.342117 0.664174 0.196650
0.454914 0.664174 0.196650
0.567712 0.664174 0.196650
0.680509 0.664174 0.196650
0.815325 0.684881 0.217373
0.950889 0.707518 0.240623
1.000000 0.732343 0.266400
0.124700 0.797235 0.203625
0.253553 0.797235 0.217373
0.365907 0.797235 0.217373
0.478262 0.797235 0.217373
0.590616 0.797235 0.217373
0.702971 0.797235 0.217373
0.815325 0.797235 0.217373
0.950889 0.819281 0.240623
1.000000 0.843429 0.266400
0.151087 0.931044 0.225654
0.280313 0.931044 0.240623
0.392076 0.931044 0.240623
0.503838 0.931044 0.240623
0.615601 0.931044 0.240623
0.727363 0.931044 0.240623
0.839126 0.931044 0.240623
0.950889 0.931044 0.240623
1.000000 0.954514 0.266400
0.180000 1.000000 0.250200
0.309600 1.000000 0.266400
0.420686 1.000000 0.266400
0.531771 1.000000 0.266400
0.642857 1.000000 0.266400
0.753943 1.000000 0.266400
0.865029 1.000000 0.266400
0.976114 1.000000 0.266400
1.000000 1.000000 0.266400
0.044428 0.033358 0.258405
0.162486 0.033358 0.258405
0.280545 0.033358 0.258405
0.413119 0.047880 0.269998
0.546440 0.064930 0.283815
0.680509 0.084506 0.300038
0.815325 0.106610 0.318729
0.950889 0.131242 0.339911
1.000000 0.158400 0.363600
0.044428 0.151416 0.258405
0.171785 0.160715 0.258405
0.280545 0.160715 0.258405
0.413119 0.175611 0.275128
0.546440 0.193035 0.291396
0.680509 0.212985 0.309447
0.815325 0.235463 0.329727
0.950889 0.260468 0.352385
1.000000 0.288000 0.377486
0.044428 0.269475 0.258405
0.171785 0.269475 0.258405
0.280545 0.269475 0.258405
0.413119 0.303342 0.290518
0.546440 0.321140 0.306560
0.680509 0.341464 0.325129
0.815325 0.364315 0.346225
0.950889 0.389694 0.369849
1.000000 0.417600 0.396000
0.060705 0.400294 0.269998
0.188436 0.400294 0.275128
0.316168 0.400294 0.290518
0.413119 0.400294 0.290518
0.546440 0.426500 0.306560
0.680509 0.449034 0.325129
0.815325 0.472545 0.346225
0.950889 0.497964 0.369849
1.000000 0.525600 0.396000
0.079510 0.531860 0.283815
0.207615 0.531860 0.291396
0.335720 0.531860 0.306560
0.441080 0.531860 0.306560
0.546440 0.531860 0.306560
0.680509 0.556604 0.325129
0.815325 0.580775 0.346225
0.950889 0.606234 0.369849
1.000000 0.633600 0.396000
0.100841 0.664174 0.300038
0.229320 0.664174 0.309447
0.357799 0.664174 0.325129
0.465369 0.664174 0.325129
0.572939 0.664174 0.325129
0.680509 0.664174 0.325129
0.815325 0.689005 0.346225
0.950889 0.714504 0.369849
1.000000 0.741600 0.396000
0.124700 0.797235 0.318729
0.253553 0.797235 0.329727
0.382405 0.797235 0.346225
0.490635 0.797235 0.346225
0.598865 0.797235 0.346225
0.707095 0.797235 0.346225
0.815325 0.797235 0.346225
0.950889 0.822774 0.369849
1.000000 0.849600 0.396000
0.151087 0.931044 0.339911
0.280313 0.931044 0.352385
0.409539 0.931044 0.369849
0.517809 0.931044 0.369849
0.626079 0.931044 0.369849
0.734349 0.931044 0.369849
0.842619 0.931044 0.369849
0.950889 0.931044 0.369849
1.000000 0.957600 0.396000
0.180000 1.000000 0.363600
0.309600 1.000000 0.377486
0.439200 1.000000 0.396000
0.547200 1.000000 0.396000
0.655200 1.000000 0.396000
0.763200 1.000000 0.396000
0.871200 1.000000 0.396000
0.979200 1.000000 0.396000
1.000000 1.000000 0.396000
0.060705 0.047880 0.387469
0.178176 0.047880 0.387469
0.295648 0.047880 0.387469
0.413119 0.047880 0.387469
0.546440 0.064930 0.400547
0.680509 0.084506 0.415972
0.815325 0.106610 0.433833
0.950889 0.131242 0.454169
1.000000 0.158400 0.477000
0.060705 0.165351 0.387469
0.188436 0.175611 0.387469
0.300777 0.175611 0.387469
0.413119 0.175611 0.387469
0.546440 0.193035 0.404338
0.680509 0.212985 0.422244
0.815325 0.235463 0.442082
0.950889 0.260468 0.464148
1.000000 0.288000 0.488571
0.060705 0.282822 0.387469
0.188436 0.287953 0.387469
0.316168 0.303342 0.387469
0.413119 0.303342 0.387469
0.546440 0.321140 0.411920
0.680509 0.341464 0.432699
0.815325 0.364315 0.454455
0.950889 0.389694 0.478119
1.000000 0.417600 0.504000
0.060705 0.400294 0.387469
0.188436 0.400294 0.387469
0.316168 0.400294 0.387469
0.413119 0.400294 0.387469
0.546440 0.449245 0.434665
0.680509 0.469943 0.453608
0.815325 0.493168 0.475078
0.950889 0.518920 0.499075
1.000000 0.547200 0.525600
0.079510 0.531860 0.400547
0.207615 0.531860 0.404338
0.335720 0.531860 0.411920
0.463825 0.531860 0.434665
0.546440 0.531860 0.434665
0.680509 0.567058 0.453608
0.815325 0.594524 0.475078
0.950889 0.621951 0.499075
1.000000 0.650880 0.525600
0.100841 0.664174 0.415972
0.229320 0.664174 0.422244
0.357799 0.664174 0.432699
0.486278 0.664174 0.453608
0.583393 0.664174 0.453608
0.680509 0.664174 0.453608
0.815325 0.695879 0.475078
0.950889 0.724982 0.499075
1.000000 0.754560 0.525600
0.124700 0.797235 0.433833
0.253553 0.797235 0.442082
0.382405 0.797235 0.454455
0.511258 0.797235 0.475078
0.612614 0.797235 0.475078
0.713969 0.797235 0.475078
0.815325 0.797235 0.475078
0.950889 0.828013 0.499075
1.000000 0.858240 0.525600
0.151087 0.931044 0.454169
0.280313 0.931044 0.464148
0.409539 0.931044 0.478119
0.538765 0.931044 0.499075
0.641796 0.931044 0.499075
0.744827 0.931044 0.499075
0.847858 0.931044 0.499075
0.950889 0.931044 0.499075
1.000000 0.961920 0.525600
0.180000 1.000000 0.477000
0.309600 1.000000 0.488571
0.439200 1.000000 0.504000
0.568800 1.000000 0.525600
0.672480 1.000000 0.525600
0.776160 1.000000 0.525600
0.879840 1.000000 0.525600
0.983520 1.000000 0.525600
1.000000 1.000000 0.525600
0.079510 0.064930 0.517280
0.196242 0.064930 0.517280
0.312975 0.064930 0.517280
0.429707 0.064930 0.517280
0.546440 0.064930 0.517280
0.680509 0.084506 0.531905
0.815325 0.106610 0.548937
0.950889 0.131242 0.568426
1.000000 0.158400 0.590400
0.079510 0.181662 0.517280
0.207615 0.193035 0.517280
0.320556 0.193035 0.517280
0.433498 0.193035 0.517280
0.546440 0.193035 0.517280
0.680509 0.212985 0.535042
0.815325 0.235463 0.554436
0.950889 0.260468 0.575911
1.000000 0.288000 0.599657
0.079510 0.298395 0.517280
0.207615 0.305976 0.517280
0.335720 0.321140 0.517280
0.441080 0.321140 0.517280
0.546440 0.321140 0.517280
0.680509 0.341464 0.540269
0.815325 0.364315 0.562685
0.950889 0.389694 0.586389
1.000000 0.417600 0.612000
0.079510 0.415127 0.517280
0.207615 0.418918 0.517280
0.335720 0.426500 0.517280
0.463825 0.449245 0.517280
0.546440 0.449245 0.517280
0.680509 0.469943 0.550723
0.815325 0.493168 0.576434
0.950889 0.518920 0.602106
1.000000 0.547200 0.629280
0.079510 0.531860 0.517280
0.207615 0.531860 0.517280
0.335720 0.531860 0.517280
0.463825 0.531860 0.517280
0.546440 0.531860 0.517280
0.680509 0.598421 0.582086
0.815325 0.622020 0.603930
0.950889 0.648147 0.628302
1.000000 0.676800 0.655200
0.100841 0.664174 0.531905
0.229320 0.664174 0.535042
0.357799 0.664174 0.540269
0.486278 0.664174 0.550723
0.614756 0.664174 0.582086
0.680509 0.664174 0.582086
0.815325 0.709628 0.603930
0.950889 0.742446 0.628302
1.000000 0.774000 0.655200
0.124700 0.797235 0.548937
0.253553 0.797235 0.554436
0.382405 0.797235 0.562685
0.511258 0.797235 0.576434
0.640110 0.797235 0.603930
0.727718 0.797235 0.603930
0.815325 0.797235 0.603930
0.950889 0.836745 0.628302
1.000000 0.871200 0.655200
0.151087 0.931044 0.568426
0.280313 0.931044 0.575911
0.409539 0.931044 0.586389
0.538765 0.931044 0.602106
0.667992 0.931044 0.628302
0.762291 0.931044 0.628302
0.856590 0.931044 0.628302
0.950889 0.931044 0.628302
1.000000 0.968400 0.655200
0.180000 1.000000 0.590400
0.309600 1.000000 0.599657
0.439200 1.000000 0.612000
0.568800 1.000000 0.629280
0.698400 1.000000 0.655200
0.795600 1.000000 0.655200
0.892800 1.000000 0.655200
0.990000 1.000000 0.655200
1.000000 1.000000 0.655200
0.100841 0.084506 0.647839
0.216775 0.084506 0.647839
0.332708 0.084506 0.647839
0.448642 0.084506 0.647839
0.564575 0.084506 0.647839
0.680509 0.084506 0.647839
0.815325 0.106610 0.664041
0.950889 0.131242 0.682684
1.000000 0.158400 0.703800
0.100841 0.200440 0.647839
0.229320 0.212985 0.647839
0.342117 0.212985 0.647839
0.454914 0.212985 0.647839
0.567712 0.212985 0.647839
0.680509 0.212985 0.647839
0.815325 0.235463 0.666791
0.950889 0.260468 0.687673
1.000000 0.288000 0.710743
0.100841 0.316373 0.647839
0.229320 0.325782 0.647839
0.357799 0.341464 0.647839
0.465369 0.341464 0.647839
0.572939 0.341464 0.647839
0.680509 0.341464 0.647839
0.815325 0.364315 0.670915
0.950889 0.389694 0.694659
1.000000 0.417600 0.720000
0.100841 0.432307 0.647839
0.229320 0.438579 0.647839
0.357799 0.449034 0.647839
0.486278 0.469943 0.647839
0.583393 0.469943 0.647839
0.680509 0.469943 0.647839
0.815325 0.493168 0.677789
0.950889 0.518920 0.705137
1.000000 0.547200 0.732960
0.100841 0.548240 0.647839
0.229320 0.551377 0.647839
0.357799 0.556604 0.647839
0.486278 0.567058 0.647839
0.614756 0.598421 0.647839
0.680509 0.598421 0.647839
0.815325 0.622020 0.691538
0.950889 0.648147 0.722601
1.000000 0.676800 0.752400
0.100841 0.664174 0.647839
0.229320 0.664174 0.647839
0.357799 0.664174 0.647839
0.486278 0.664174 0.647839
0.614756 0.664174 0.647839
0.680509 0.664174 0.647839
0.815325 0.750873 0.732783
0.950889 0.777373 0.757528
1.000000 0.806400 0.784800
0.124700 0.797235 0.664041
0.253553 0.797235 0.666791
0.382405 0.797235 0.670915
0.511258 0.797235 0.677789
0.640110 0.797235 0.691538
0.768963 0.797235 0.732783
0.815325 0.797235 0.732783
0.950889 0.854208 0.757528
1.000000 0.892800 0.784800
0.151087 0.931044 0.682684
0.280313 0.931044 0.687673
0.409539 0.931044 0.694659
0.538765 0.931044 0.705137
0.667992 0.931044 0.722601
0.797218 0.931044 0.757528
0.874053 0.931044 0.757528
0.950889 0.931044 0.757528
1.000000 0.979200 0.784800
0.180000 1.000000 0.703800
0.309600 1.000000 0.710743
0.439200 1.000000 0.720000
0.568800 1.000000 0.732960
0.698400 1.000000 0.752400
0.828000 1.000000 0.784800
0.914400 1.000000 0.784800
1.000000 1.000000 0.784800
1.000000 1.000000 0.784800
0.124700 0.106610 0.779145
0.239805 0.106610 0.779145
0.354909 0.106610 0.779145
0.470013 0.106610 0.779145
0.585117 0.106610 0.779145
0.700221 0.106610 0.779145
0.815325 0.106610 0.779145
0.950889 0.131242 0.796941
1.000000 0.158400 0.817200
0.124700 0.221714 0.779145
0.253553 0.235463 0.779145
0.365907 0.235463 0.779145
0.478262 0.235463 0.779145
0.590616 0.235463 0.779145
0.702971 0.235463 0.779145
0.815325 0.235463 0.779145
0.950889 0.260468 0.799436
1.000000 0.288000 0.821829
0.124700 0.336819 0.779145
0.253553 0.347817 0.779145
0.382405 0.364315 0.779145
0.490635 0.364315 0.779145
0.598865 0.364315 0.779145
0.707095 0.364315 0.779145
0.815325 0.364315 0.779145
0.950889 0.389694 0.802929
1.000000 0.417600 0.828000
0.124700 0.451923 0.779145
0.253553 0.460172 0.779145
0.382405 0.472545 0.779145
0.511258 0.493168 0.779145
0.612614 0.493168 0.779145
0.713969 0.493168 0.779145
0.815325 0.493168 0.779145
0.950889 0.518920 0.808168
1.000000 0.547200 0.836640
0.124700 0.567027 0.779145
0.253553 0.572526 0.779145
0.382405 0.580775 0.779145
0.511258 0.594524 0.779145
0.640110 0.622020 0.779145
0.727718 0.622020 0.779145
0.815325 0.622020 0.779145
0.950889 0.648147 0.816900
1.000000 0.676800 0.849600
0.124700 0.682131 0.779145
0.253553 0.684881 0.779145
0.382405 0.689005 0.779145
0.511258 0.695879 0.779145
0.640110 0.709628 0.779145
0.768963 0.750873 0.779145
0.815325 0.750873 0.779145
0.950889 0.777373 0.834363
1.000000 0.806400 0.871200
0.124700 0.797235 0.779145
0.253553 0.797235 0.779145
0.382405 0.797235 0.779145
0.511258 0.797235 0.779145
0.640110 0.797235 0.779145
0.768963 0.797235 0.779145
0.815325 0.797235 0.779145
0.950889 0.906599 0.886754
1.000000 0.936000 0.914400
0.151087 0.931044 0.796941
0.280313 0.931044 0.799436
0.409539 0.931044 0.802929
0.538765 0.931044 0.808168
0.667992 0.931044 0.816900
0.797218 0.931044 0.834363
0.926444 0.931044 0.886754
0.950889 0.931044 0.886754
1.000000 1.000000 0.914400
0.180000 1.000000 0.817200
0.309600 1.000000 0.821829
0.439200 1.000000 0.828000
0.568800 1.000000 0.836640
0.698400 1.000000 0.849600
0.828000 1.000000 0.871200
0.957600 1.000000 0.914400
1.000000 1.000000 0.914400
1.000000 1.000000 0.914400
0.151087 0.131242 0.911199
0.265344 0.131242 0.911199
0.379602 0.131242 0.911199
0.493859 0.131242 0.911199
0.608116 0.131242 0.911199
0.722374 0.131242 0.911199
0.836631 0.131242 0.911199
0.950889 0.131242 0.911199
1.000000 0.158400 0.930600
0.151087 0.245499 0.911199
0.280313 0.260468 0.911199
0.392076 0.260468 0.911199
0.503838 0.260468 0.911199
0.615601 0.260468 0.911199
0.727363 0.260468 0.911199
0.839126 0.260468 0.911199
0.950889 0.260468 0.911199
1.000000 0.288000 0.932914
0.151087 0.359756 0.911199
0.280313 0.372230 0.911199
0.409539 0.389694 0.911199
0.517809 0.389694 0.911199
0.626079 0.389694 0.911199
0.734349 0.389694 0.911199
0.842619 0.389694 0.911199
0.950889 0.389694 0.911199
1.000000 0.417600 0.936000
0.151087 0.474014 0.911199
0.280313 0.483993 0.911199
0.409539 0.497964 0.911199
0.538765 0.518920 0.911199
0.641796 0.518920 0.911199
0.744827 0.518920 0.911199
0.847858 0.518920 0.911199
0.950889 0.518920 0.911199
1.000000 0.547200 0.940320
0.151087 0.588271 0.911199
0.280313 0.595756 0.911199
0.409539 0.606234 0.911199
0.538765 0.621951 0.911199
0.667992 0.648147 0.911199
0.762291 0.648147 0.911199
0.856590 0.648147 0.911199
0.950889 0.648147 0.911199
1.000000 0.676800 0.946800
0.151087 0.702529 0.911199
0.280313 0.707518 0.911199
0.409539 0.714504 0.911199
0.538765 0.724982 0.911199
0.667992 0.742446 0.911199
0.797218 0.777373 0.911199
0.874053 0.777373 0.911199
0.950889 0.777373 0.911199
1.000000 0.806400 0.957600
0.151087 0.816786 0.911199
0.280313 0.819281 0.911199
0.409539 0.822774 0.911199
0.538765 0.828013 0.911199
0.667992 0.836745 0.911199
0.797218 0.854208 0.911199
0.926444 0.906599 0.911199
0.950889 0.906599 0.911199
1.000000 0.936000 0.979200
0.151087 0.931044 0.911199
0.280313 0.931044 0.911199
0.409539 0.931044 0.911199
0.538765 0.931044 0.911199
0.667992 0.931044 0.911199
0.797218 0.931044 0.911199
0.926444 0.931044 0.911199
0.950889 0.931044 0.911199
1.000000 1.000000 1.000000
0.180000 1.000000 0.930600
0.309600 1.000000 0.932914
0.439200 1.000000 0.936000
0.568800 1.000000 0.940320
0.698400 1.000000 0.946800
0.828000 1.000000 0.957600
0.957600 1.000000 0.979200
1.000000 1.000000 1.000000
1.000000 1.000000 1.000000
0.180000 0.158400 1.000000
0.293400 0.158400 1.000000
0.406800 0.158400 1.000000
0.520200 0.158400 1.000000
0.633600 0.158400 1.000000
0.747000 0.158400 1.000000
0.860400 0.158400 1.000000
0.973800 0.158400 1.000000
1.000000 0.158400 1.000000
0.180000 0.271800 1.000000
0.309600 0.288000 1.000000
0.420686 0.288000 1.000000
0.531771 0.288000 1.000000
0.642857 0.288000 1.000000
0.753943 0.288000 1.000000
0.865029 0.288000 1.000000
0.976114 0.288000 1.000000
1.000000 0.288000 1.000000
0.180000 0.385200 1.000000
0.309600 0.399086 1.000000
0.439200 0.417600 1.000000
0.547200 0.417600 1.000000
0.655200 0.417600 1.000000
0.763200 0.417600 1.000000
0.871200 0.417600 1.000000
0.979200 0.417600 1.000000
1.000000 0.417600 1.000000
0.180000 0.498600 1.000000
0.309600 0.510171 1.000000
0.439200 0.525600 1.000000
0.568800 0.547200 1.000000
0.672480 0.547200 1.000000
0.776160 0.547200 1.000000
0.879840 0.547200 1.000000
0.983520 0.547200 1.000000
1.000000 0.547200 1.000000
0.180000 0.612000 1.000000
0.309600 0.621257 1.000000
0.439200 0.633600 1.000000
0.568800 0.650880 1.000000
0.698400 0.676800 1.000000
0.795600 0.676800 1.000000
0.892800 0.676800 1.000000
0.990000 0.676800 1.000000
1.000000 0.676800 1.000000
0.180000 0.725400 1.000000
0.309600 0.732343 1.000000
0.439200 0.741600 1.000000
0.568800 0.754560 1.000000
0.698400 0.774000 1.000000
0.828000 0.806400 1.000000
0.914400 0.806400 1.000000
1.000000 0.806400 1.000000
1.000000 0.806400 1.000000
0.180000 0.838800 1.000000
0.309600 0.843429 1.000000
0.439200 0.849600 1.000000
0.568800 0.858240 1.000000
0.698400 0.871200 1.000000
0.828000 0.892800 1.000000
0.957600 0.936000 1.000000
1.000000 0.936000 1.000000
1.000000 0.936000 1.000000
0.180000 0.952200 1.000000
0.309600 0.954514 1.000000
0.439200 0.957600 1.000000
0.568800 0.961920 1.000000
0.698400 0.968400 1.000000
0.828000 0.979200 1.000000
0.957600 1.000000 1.000000
1.000000 1.000000 1.000000
1.000000 1.000000 1.000000
0.180000 1.000000 1.000000
0.309600 1.000000 1.000000
0.439200 1.000000 1.000000
0.568800 1.000000 1.000000
0.698400 1.000000 1.000000
0.828000 1.000000 1.000000
0.957600 1.000000 1.000000
1.000000 1.000000 1.000000
1.000000 1.000000 1.000000
