luts/original/muted-blockbuster.cube
TITLE "Muted Blockbuster"
LUT_3D_SIZE 33
DOMAIN_MIN 0.0 0.0 0.0
DOMAIN_MAX 1.0 1.0 1.0
0.017640 0.010080 0.002520
0.050340 0.014024 0.006026
0.083086 0.016313 0.007875
0.115879 0.018758 0.009882
0.148719 0.021362 0.012047
0.181605 0.024124 0.014371
0.214538 0.027044 0.016852
0.247518 0.030122 0.019491
0.280545 0.033358 0.022288
0.313618 0.036751 0.025243
0.346738 0.040303 0.028355
0.379905 0.044012 0.031626
0.413119 0.047880 0.035055
0.446379 0.051905 0.038642
0.479686 0.056089 0.042386
0.513040 0.060430 0.046289
0.546440 0.064930 0.050350
0.579887 0.069587 0.054568
0.613381 0.074402 0.058945
0.646921 0.079375 0.063479
0.680509 0.084506 0.068171
0.714143 0.089795 0.073022
0.747823 0.095243 0.078030
0.781551 0.100847 0.083196
0.815325 0.106610 0.088520
0.849146 0.112531 0.094003
0.883013 0.118610 0.099643
0.916928 0.124847 0.105441
0.950889 0.131242 0.111397
0.984896 0.137794 0.117511
0.997461 0.144505 0.123782
0.999365 0.151373 0.130212
1.000000 0.158400 0.136800
0.022023 0.042341 0.006026
0.050340 0.042341 0.006026
0.083086 0.045480 0.007875
0.115879 0.048173 0.009882
0.148719 0.050873 0.012047
0.181605 0.053670 0.014371
0.214538 0.056594 0.016852
0.247518 0.059660 0.019491
0.280545 0.062872 0.022288
0.313618 0.066236 0.025243
0.346738 0.069752 0.028355
0.379905 0.073422 0.031626
0.413119 0.077248 0.035055
0.446379 0.081229 0.038642
0.479686 0.085367 0.042386
0.513040 0.089661 0.046289
0.546440 0.094113 0.050350
0.579887 0.098721 0.054568
0.613381 0.103487 0.058945
0.646921 0.108409 0.063479
0.680509 0.113490 0.068171
0.714143 0.118728 0.073022
0.747823 0.124123 0.078030
0.781551 0.129676 0.083196
0.815325 0.135386 0.088520
0.849146 0.141255 0.094003
0.883013 0.147281 0.099643
0.916928 0.153464 0.105441
0.950889 0.159806 0.111397
0.984896 0.166305 0.117511
0.997461 0.172962 0.123782
0.999365 0.179777 0.130212
1.000000 0.186750 0.136800
0.024750 0.074648 0.007875
0.053918 0.074648 0.007875
0.083086 0.074648 0.007875
0.115879 0.077588 0.009882
0.148719 0.080383 0.012047
0.181605 0.083215 0.014371
0.214538 0.086145 0.016852
0.247518 0.089198 0.019491
0.280545 0.092387 0.022288
0.313618 0.095720 0.025243
0.346738 0.099201 0.028355
0.379905 0.102832 0.031626
0.413119 0.106616 0.035055
0.446379 0.110553 0.038642
0.479686 0.114645 0.042386
0.513040 0.118893 0.046289
0.546440 0.123296 0.050350
0.579887 0.127855 0.054568
0.613381 0.132571 0.058945
0.646921 0.137444 0.063479
0.680509 0.142473 0.068171
0.714143 0.147660 0.073022
0.747823 0.153003 0.078030
0.781551 0.158504 0.083196
0.815325 0.164162 0.088520
0.849146 0.169978 0.094003
0.883013 0.175951 0.099643
0.916928 0.182082 0.105441
0.950889 0.188370 0.111397
0.984896 0.194816 0.117511
0.997461 0.201420 0.123782
0.999365 0.208181 0.130212
1.000000 0.215100 0.136800
0.027635 0.107003 0.009882
0.057049 0.107003 0.009882
0.086464 0.107003 0.009882
0.115879 0.107003 0.009882
0.148719 0.109893 0.012047
0.181605 0.112761 0.014371
0.214538 0.115695 0.016852
0.247518 0.118736 0.019491
0.280545 0.121902 0.022288
0.313618 0.125204 0.025243
0.346738 0.128649 0.028355
0.379905 0.132242 0.031626
0.413119 0.135983 0.035055
0.446379 0.139877 0.038642
0.479686 0.143923 0.042386
0.513040 0.148124 0.046289
0.546440 0.152479 0.050350
0.579887 0.156989 0.054568
0.613381 0.161656 0.058945
0.646921 0.166478 0.063479
0.680509 0.171457 0.068171
0.714143 0.176592 0.073022
0.747823 0.181884 0.078030
0.781551 0.187333 0.083196
0.815325 0.192938 0.088520
0.849146 0.198702 0.094003
0.883013 0.204622 0.099643
0.916928 0.210700 0.105441
0.950889 0.216935 0.111397
0.984896 0.223327 0.117511
0.997461 0.229877 0.123782
0.999365 0.236585 0.130212
1.000000 0.243450 0.136800
0.030677 0.139404 0.012047
0.060188 0.139404 0.012047
0.089698 0.139404 0.012047
0.119208 0.139404 0.012047
0.148719 0.139404 0.012047
0.181605 0.142306 0.014371
0.214538 0.145245 0.016852
0.247518 0.148273 0.019491
0.280545 0.151416 0.022288
0.313618 0.154688 0.025243
0.346738 0.158098 0.028355
0.379905 0.161651 0.031626
0.413119 0.165351 0.035055
0.446379 0.169201 0.038642
0.479686 0.173202 0.042386
0.513040 0.177355 0.046289
0.546440 0.181662 0.050350
0.579887 0.186124 0.054568
0.613381 0.190740 0.058945
0.646921 0.195512 0.063479
0.680509 0.200440 0.068171
0.714143 0.205524 0.073022
0.747823 0.210764 0.078030
0.781551 0.216161 0.083196
0.815325 0.221714 0.088520
0.849146 0.227425 0.094003
0.883013 0.233293 0.099643
0.916928 0.239317 0.105441
0.950889 0.245499 0.111397
0.984896 0.251838 0.117511
0.997461 0.258335 0.123782
0.999365 0.264989 0.130212
1.000000 0.271800 0.136800
0.033878 0.171851 0.014371
0.063423 0.171851 0.014371
0.092969 0.171851 0.014371
0.122514 0.171851 0.014371
0.152060 0.171851 0.014371
0.181605 0.171851 0.014371
0.214538 0.174796 0.016852
0.247518 0.177811 0.019491
0.280545 0.180931 0.022288
0.313618 0.184173 0.025243
0.346738 0.187547 0.028355
0.379905 0.191061 0.031626
0.413119 0.194719 0.035055
0.446379 0.198525 0.038642
0.479686 0.202480 0.042386
0.513040 0.206586 0.046289
0.546440 0.210845 0.050350
0.579887 0.215258 0.054568
0.613381 0.219825 0.058945
0.646921 0.224546 0.063479
0.680509 0.229423 0.068171
0.714143 0.234456 0.073022
0.747823 0.239644 0.078030
0.781551 0.244989 0.083196
0.815325 0.250491 0.088520
0.849146 0.256148 0.094003
0.883013 0.261963 0.099643
0.916928 0.267935 0.105441
0.950889 0.274063 0.111397
0.984896 0.280349 0.117511
0.997461 0.286792 0.123782
0.999365 0.293392 0.130212
1.000000 0.300150 0.136800
0.037237 0.204346 0.016852
0.066787 0.204346 0.016852
0.096337 0.204346 0.016852
0.125888 0.204346 0.016852
0.155438 0.204346 0.016852
0.184988 0.204346 0.016852
0.214538 0.204346 0.016852
0.247518 0.207349 0.019491
0.280545 0.210446 0.022288
0.313618 0.213657 0.025243
0.346738 0.216996 0.028355
0.379905 0.220471 0.031626
0.413119 0.224087 0.035055
0.446379 0.227848 0.038642
0.479686 0.231758 0.042386
0.513040 0.235818 0.046289
0.546440 0.240029 0.050350
0.579887 0.244392 0.054568
0.613381 0.248909 0.058945
0.646921 0.253581 0.063479
0.680509 0.258407 0.068171
0.714143 0.263388 0.073022
0.747823 0.268525 0.078030
0.781551 0.273818 0.083196
0.815325 0.279267 0.088520
0.849146 0.284872 0.094003
0.883013 0.290634 0.099643
0.916928 0.296552 0.105441
0.950889 0.302628 0.111397
0.984896 0.308860 0.117511
0.997461 0.315250 0.123782
0.999365 0.321796 0.130212
1.000000 0.328500 0.136800
0.040753 0.236887 0.019491
0.070291 0.236887 0.019491
0.099829 0.236887 0.019491
0.129367 0.236887 0.019491
0.158905 0.236887 0.019491
0.188443 0.236887 0.019491
0.217980 0.236887 0.019491
0.247518 0.236887 0.019491
0.280545 0.239960 0.022288
0.313618 0.243141 0.025243
0.346738 0.246445 0.028355
0.379905 0.249880 0.031626
0.413119 0.253455 0.035055
0.446379 0.257172 0.038642
0.479686 0.261036 0.042386
0.513040 0.265049 0.046289
0.546440 0.269212 0.050350
0.579887 0.273526 0.054568
0.613381 0.277994 0.058945
0.646921 0.282615 0.063479
0.680509 0.287390 0.068171
0.714143 0.292320 0.073022
0.747823 0.297405 0.078030
0.781551 0.302646 0.083196
0.815325 0.308043 0.088520
0.849146 0.313595 0.094003
0.883013 0.319304 0.099643
0.916928 0.325170 0.105441
0.950889 0.331192 0.111397
0.984896 0.337371 0.117511
0.997461 0.343707 0.123782
0.999365 0.350200 0.130212
1.000000 0.356850 0.136800
0.044428 0.269475 0.022288
0.073942 0.269475 0.022288
0.103457 0.269475 0.022288
0.132972 0.269475 0.022288
0.162486 0.269475 0.022288
0.192001 0.269475 0.022288
0.221516 0.269475 0.022288
0.251030 0.269475 0.022288
0.280545 0.269475 0.022288
0.313618 0.272625 0.025243
0.346738 0.275893 0.028355
0.379905 0.279290 0.031626
0.413119 0.282822 0.035055
0.446379 0.286496 0.038642
0.479686 0.290314 0.042386
0.513040 0.294280 0.046289
0.546440 0.298395 0.050350
0.579887 0.302661 0.054568
0.613381 0.307078 0.058945
0.646921 0.311649 0.063479
0.680509 0.316373 0.068171
0.714143 0.321252 0.073022
0.747823 0.326286 0.078030
0.781551 0.331474 0.083196
0.815325 0.336819 0.088520
0.849146 0.342319 0.094003
0.883013 0.347975 0.099643
0.916928 0.353788 0.105441
0.950889 0.359756 0.111397
0.984896 0.365882 0.117511
0.997461 0.372165 0.123782
0.999365 0.378604 0.130212
1.000000 0.385200 0.136800
0.048260 0.302110 0.025243
0.077744 0.302110 0.025243
0.107229 0.302110 0.025243
0.136713 0.302110 0.025243
0.166197 0.302110 0.025243
0.195681 0.302110 0.025243
0.225166 0.302110 0.025243
0.254650 0.302110 0.025243
0.284134 0.302110 0.025243
0.313618 0.302110 0.025243
0.346738 0.305342 0.028355
0.379905 0.308700 0.031626
0.413119 0.312190 0.035055
0.446379 0.315820 0.038642
0.479686 0.319593 0.042386
0.513040 0.323511 0.046289
0.546440 0.327578 0.050350
0.579887 0.331795 0.054568
0.613381 0.336163 0.058945
0.646921 0.340683 0.063479
0.680509 0.345357 0.068171
0.714143 0.350184 0.073022
0.747823 0.355166 0.078030
0.781551 0.360303 0.083196
0.815325 0.365595 0.088520
0.849146 0.371042 0.094003
0.883013 0.376646 0.099643
0.916928 0.382405 0.105441
0.950889 0.388321 0.111397
0.984896 0.394393 0.117511
0.997461 0.400622 0.123782
0.999365 0.407008 0.130212
1.000000 0.413550 0.136800
0.052250 0.334791 0.028355
0.081699 0.334791 0.028355
0.111148 0.334791 0.028355
0.140597 0.334791 0.028355
0.170046 0.334791 0.028355
0.199494 0.334791 0.028355
0.228943 0.334791 0.028355
0.258392 0.334791 0.028355
0.287841 0.334791 0.028355
0.317290 0.334791 0.028355
0.346738 0.334791 0.028355
0.379905 0.338109 0.031626
0.413119 0.341558 0.035055
0.446379 0.345144 0.038642
0.479686 0.348871 0.042386
0.513040 0.352742 0.046289
0.546440 0.356761 0.050350
0.579887 0.360929 0.054568
0.613381 0.365247 0.058945
0.646921 0.369717 0.063479
0.680509 0.374340 0.068171
0.714143 0.379116 0.073022
0.747823 0.384046 0.078030
0.781551 0.389131 0.083196
0.815325 0.394371 0.088520
0.849146 0.399766 0.094003
0.883013 0.405316 0.099643
0.916928 0.411023 0.105441
0.950889 0.416885 0.111397
0.984896 0.422904 0.117511
0.997461 0.429079 0.123782
0.999365 0.435411 0.130212
1.000000 0.441900 0.136800
0.056399 0.367519 0.031626
0.085808 0.367519 0.031626
0.115218 0.367519 0.031626
0.144628 0.367519 0.031626
0.174037 0.367519 0.031626
0.203447 0.367519 0.031626
0.232857 0.367519 0.031626
0.262267 0.367519 0.031626
0.291676 0.367519 0.031626
0.321086 0.367519 0.031626
0.350496 0.367519 0.031626
0.379905 0.367519 0.031626
0.413119 0.370926 0.035055
0.446379 0.374468 0.038642
0.479686 0.378149 0.042386
0.513040 0.381974 0.046289
0.546440 0.385944 0.050350
0.579887 0.390063 0.054568
0.613381 0.394332 0.058945
0.646921 0.398752 0.063479
0.680509 0.403323 0.068171
0.714143 0.408048 0.073022
0.747823 0.412927 0.078030
0.781551 0.417959 0.083196
0.815325 0.423147 0.088520
0.849146 0.428489 0.094003
0.883013 0.433987 0.099643
0.916928 0.439640 0.105441
0.950889 0.445450 0.111397
0.984896 0.451415 0.117511
0.997461 0.457537 0.123782
0.999365 0.463815 0.130212
1.000000 0.470250 0.136800
0.060705 0.400294 0.035055
0.090073 0.400294 0.035055
0.119441 0.400294 0.035055
0.148808 0.400294 0.035055
0.178176 0.400294 0.035055
0.207544 0.400294 0.035055
0.236912 0.400294 0.035055
0.266280 0.400294 0.035055
0.295648 0.400294 0.035055
0.325015 0.400294 0.035055
0.354383 0.400294 0.035055
0.383751 0.400294 0.035055
0.413119 0.400294 0.035055
0.446379 0.403791 0.038642
0.479686 0.407427 0.042386
0.513040 0.411205 0.046289
0.546440 0.415127 0.050350
0.579887 0.419197 0.054568
0.613381 0.423416 0.058945
0.646921 0.427786 0.063479
0.680509 0.432307 0.068171
0.714143 0.436980 0.073022
0.747823 0.441807 0.078030
0.781551 0.446788 0.083196
0.815325 0.451923 0.088520
0.849146 0.457212 0.094003
0.883013 0.462657 0.099643
0.916928 0.468258 0.105441
0.950889 0.474014 0.111397
0.984896 0.479926 0.117511
0.997461 0.485994 0.123782
0.999365 0.492219 0.130212
1.000000 0.498600 0.136800
0.065169 0.433115 0.038642
0.094493 0.433115 0.038642
0.123817 0.433115 0.038642
0.153141 0.433115 0.038642
0.182465 0.433115 0.038642
0.211788 0.433115 0.038642
0.241112 0.433115 0.038642
0.270436 0.433115 0.038642
0.299760 0.433115 0.038642
0.329084 0.433115 0.038642
0.358407 0.433115 0.038642
0.387731 0.433115 0.038642
0.417055 0.433115 0.038642
0.446379 0.433115 0.038642
0.479686 0.436705 0.042386
0.513040 0.440436 0.046289
0.546440 0.444311 0.050350
0.579887 0.448332 0.054568
0.613381 0.452501 0.058945
0.646921 0.456820 0.063479
0.680509 0.461290 0.068171
0.714143 0.465912 0.073022
0.747823 0.470687 0.078030
0.781551 0.475616 0.083196
0.815325 0.480699 0.088520
0.849146 0.485936 0.094003
0.883013 0.491328 0.099643
0.916928 0.496875 0.105441
0.950889 0.502578 0.111397
0.984896 0.508437 0.117511
0.997461 0.514452 0.123782
0.999365 0.520623 0.130212
1.000000 0.526950 0.136800
0.069791 0.465983 0.042386
0.099070 0.465983 0.042386
0.128348 0.465983 0.042386
0.157626 0.465983 0.042386
0.186904 0.465983 0.042386
0.216182 0.465983 0.042386
0.245460 0.465983 0.042386
0.274739 0.465983 0.042386
0.304017 0.465983 0.042386
0.333295 0.465983 0.042386
0.362573 0.465983 0.042386
0.391851 0.465983 0.042386
0.421130 0.465983 0.042386
0.450408 0.465983 0.042386
0.479686 0.465983 0.042386
0.513040 0.469667 0.046289
0.546440 0.473494 0.050350
0.579887 0.477466 0.054568
0.613381 0.481585 0.058945
0.646921 0.485854 0.063479
0.680509 0.490274 0.068171
0.714143 0.494844 0.073022
0.747823 0.499568 0.078030
0.781551 0.504444 0.083196
0.815325 0.509475 0.088520
0.849146 0.514659 0.094003
0.883013 0.519999 0.099643
0.916928 0.525493 0.105441
0.950889 0.531143 0.111397
0.984896 0.536948 0.117511
0.997461 0.542909 0.123782
0.999365 0.549026 0.130212
1.000000 0.555300 0.136800
0.074572 0.498898 0.046289
0.103803 0.498898 0.046289
0.133034 0.498898 0.046289
0.162265 0.498898 0.046289
0.191496 0.498898 0.046289
0.220728 0.498898 0.046289
0.249959 0.498898 0.046289
0.279190 0.498898 0.046289
0.308421 0.498898 0.046289
0.337652 0.498898 0.046289
0.366884 0.498898 0.046289
0.396115 0.498898 0.046289
0.425346 0.498898 0.046289
0.454577 0.498898 0.046289
0.483808 0.498898 0.046289
0.513040 0.498898 0.046289
0.546440 0.502677 0.050350
0.579887 0.506600 0.054568
0.613381 0.510670 0.058945
0.646921 0.514888 0.063479
0.680509 0.519257 0.068171
0.714143 0.523777 0.073022
0.747823 0.528448 0.078030
0.781551 0.533273 0.083196
0.815325 0.538251 0.088520
0.849146 0.543383 0.094003
0.883013 0.548669 0.099643
0.916928 0.554111 0.105441
0.950889 0.559707 0.111397
0.984896 0.565459 0.117511
0.997461 0.571367 0.123782
0.999365 0.577430 0.130212
1.000000 0.583650 0.136800
0.079510 0.531860 0.050350
0.108693 0.531860 0.050350
0.137876 0.531860 0.050350
0.167059 0.531860 0.050350
0.196242 0.531860 0.050350
0.225425 0.531860 0.050350
0.254609 0.531860 0.050350
0.283792 0.531860 0.050350
0.312975 0.531860 0.050350
0.342158 0.531860 0.050350
0.371341 0.531860 0.050350
0.400524 0.531860 0.050350
0.429707 0.531860 0.050350
0.458891 0.531860 0.050350
0.488074 0.531860 0.050350
0.517257 0.531860 0.050350
0.546440 0.531860 0.050350
0.579887 0.535734 0.054568
0.613381 0.539754 0.058945
0.646921 0.543923 0.063479
0.680509 0.548240 0.068171
0.714143 0.552709 0.073022
0.747823 0.557329 0.078030
0.781551 0.562101 0.083196
0.815325 0.567027 0.088520
0.849146 0.572106 0.094003
0.883013 0.577340 0.099643
0.916928 0.582728 0.105441
0.950889 0.588271 0.111397
0.984896 0.593970 0.117511
0.997461 0.599824 0.123782
0.999365 0.605834 0.130212
1.000000 0.612000 0.136800
0.084606 0.564868 0.054568
0.113740 0.564868 0.054568
0.142874 0.564868 0.054568
0.172008 0.564868 0.054568
0.201142 0.564868 0.054568
0.230277 0.564868 0.054568
0.259411 0.564868 0.054568
0.288545 0.564868 0.054568
0.317679 0.564868 0.054568
0.346813 0.564868 0.054568
0.375948 0.564868 0.054568
0.405082 0.564868 0.054568
0.434216 0.564868 0.054568
0.463350 0.564868 0.054568
0.492484 0.564868 0.054568
0.521619 0.564868 0.054568
0.550753 0.564868 0.054568
0.579887 0.564868 0.054568
0.613381 0.568839 0.058945
0.646921 0.572957 0.063479
0.680509 0.577224 0.068171
0.714143 0.581641 0.073022
0.747823 0.586209 0.078030
0.781551 0.590930 0.083196
0.815325 0.595803 0.088520
0.849146 0.600830 0.094003
0.883013 0.606010 0.099643
0.916928 0.611346 0.105441
0.950889 0.616836 0.111397
0.984896 0.622481 0.117511
0.997461 0.628282 0.123782
0.999365 0.634238 0.130212
1.000000 0.640350 0.136800
0.089860 0.597923 0.058945
0.118944 0.597923 0.058945
0.148029 0.597923 0.058945
0.177113 0.597923 0.058945
0.206198 0.597923 0.058945
0.235282 0.597923 0.058945
0.264367 0.597923 0.058945
0.293451 0.597923 0.058945
0.322536 0.597923 0.058945
0.351620 0.597923 0.058945
0.380705 0.597923 0.058945
0.409789 0.597923 0.058945
0.438874 0.597923 0.058945
0.467958 0.597923 0.058945
0.497043 0.597923 0.058945
0.526127 0.597923 0.058945
0.555212 0.597923 0.058945
0.584296 0.597923 0.058945
0.613381 0.597923 0.058945
0.646921 0.601991 0.063479
0.680509 0.606207 0.068171
0.714143 0.610573 0.073022
0.747823 0.615089 0.078030
0.781551 0.619758 0.083196
0.815325 0.624579 0.088520
0.849146 0.629553 0.094003
0.883013 0.634681 0.099643
0.916928 0.639963 0.105441
0.950889 0.645400 0.111397
0.984896 0.650992 0.117511
0.997461 0.656739 0.123782
0.999365 0.662642 0.130212
1.000000 0.668700 0.136800
0.095272 0.631025 0.063479
0.124306 0.631025 0.063479
0.153340 0.631025 0.063479
0.182374 0.631025 0.063479
0.211408 0.631025 0.063479
0.240443 0.631025 0.063479
0.269477 0.631025 0.063479
0.298511 0.631025 0.063479
0.327545 0.631025 0.063479
0.356579 0.631025 0.063479
0.385614 0.631025 0.063479
0.414648 0.631025 0.063479
0.443682 0.631025 0.063479
0.472716 0.631025 0.063479
0.501750 0.631025 0.063479
0.530785 0.631025 0.063479
0.559819 0.631025 0.063479
0.588853 0.631025 0.063479
0.617887 0.631025 0.063479
0.646921 0.631025 0.063479
0.680509 0.635190 0.068171
0.714143 0.639505 0.073022
0.747823 0.643970 0.078030
0.781551 0.648586 0.083196
0.815325 0.653355 0.088520
0.849146 0.658276 0.094003
0.883013 0.663352 0.099643
0.916928 0.668581 0.105441
0.950889 0.673965 0.111397
0.984896 0.679503 0.117511
0.997461 0.685196 0.123782
0.999365 0.691045 0.130212
1.000000 0.697050 0.136800
0.100841 0.664174 0.068171
0.129825 0.664174 0.068171
0.158808 0.664174 0.068171
0.187791 0.664174 0.068171
0.216775 0.664174 0.068171
0.245758 0.664174 0.068171
0.274742 0.664174 0.068171
0.303725 0.664174 0.068171
0.332708 0.664174 0.068171
0.361692 0.664174 0.068171
0.390675 0.664174 0.068171
0.419658 0.664174 0.068171
0.448642 0.664174 0.068171
0.477625 0.664174 0.068171
0.506609 0.664174 0.068171
0.535592 0.664174 0.068171
0.564575 0.664174 0.068171
0.593559 0.664174 0.068171
0.622542 0.664174 0.068171
0.651525 0.664174 0.068171
0.680509 0.664174 0.068171
0.714143 0.668437 0.073022
0.747823 0.672850 0.078030
0.781551 0.677415 0.083196
0.815325 0.682131 0.088520
0.849146 0.687000 0.094003
0.883013 0.692022 0.099643
0.916928 0.697198 0.105441
0.950889 0.702529 0.111397
0.984896 0.708014 0.117511
0.997461 0.713654 0.123782
0.999365 0.719449 0.130212
1.000000 0.725400 0.136800
0.106569 0.697369 0.073022
0.135501 0.697369 0.073022
0.164433 0.697369 0.073022
0.193365 0.697369 0.073022
0.222298 0.697369 0.073022
0.251230 0.697369 0.073022
0.280162 0.697369 0.073022
0.309094 0.697369 0.073022
0.338026 0.697369 0.073022
0.366958 0.697369 0.073022
0.395890 0.697369 0.073022
0.424822 0.697369 0.073022
0.453754 0.697369 0.073022
0.482686 0.697369 0.073022
0.511618 0.697369 0.073022
0.540550 0.697369 0.073022
0.569482 0.697369 0.073022
0.598414 0.697369 0.073022
0.627347 0.697369 0.073022
0.656279 0.697369 0.073022
0.685211 0.697369 0.073022
0.714143 0.697369 0.073022
0.747823 0.701731 0.078030
0.781551 0.706243 0.083196
0.815325 0.710907 0.088520
0.849146 0.715723 0.094003
0.883013 0.720693 0.099643
0.916928 0.725816 0.105441
0.950889 0.731093 0.111397
0.984896 0.736525 0.117511
0.997461 0.742111 0.123782
0.999365 0.747853 0.130212
1.000000 0.753750 0.136800
0.112455 0.730611 0.078030
0.141335 0.730611 0.078030
0.170216 0.730611 0.078030
0.199096 0.730611 0.078030
0.227977 0.730611 0.078030
0.256857 0.730611 0.078030
0.285737 0.730611 0.078030
0.314618 0.730611 0.078030
0.343498 0.730611 0.078030
0.372378 0.730611 0.078030
0.401259 0.730611 0.078030
0.430139 0.730611 0.078030
0.459020 0.730611 0.078030
0.487900 0.730611 0.078030
0.516780 0.730611 0.078030
0.545661 0.730611 0.078030
0.574541 0.730611 0.078030
0.603422 0.730611 0.078030
0.632302 0.730611 0.078030
0.661182 0.730611 0.078030
0.690063 0.730611 0.078030
0.718943 0.730611 0.078030
0.747823 0.730611 0.078030
0.781551 0.735071 0.083196
0.815325 0.739683 0.088520
0.849146 0.744447 0.094003
0.883013 0.749363 0.099643
0.916928 0.754434 0.105441
0.950889 0.759658 0.111397
0.984896 0.765036 0.117511
0.997461 0.770569 0.123782
0.999365 0.776257 0.130212
1.000000 0.782100 0.136800
0.118499 0.763900 0.083196
0.147327 0.763900 0.083196
0.176155 0.763900 0.083196
0.204984 0.763900 0.083196
0.233812 0.763900 0.083196
0.262641 0.763900 0.083196
0.291469 0.763900 0.083196
0.320297 0.763900 0.083196
0.349126 0.763900 0.083196
0.377954 0.763900 0.083196
0.406782 0.763900 0.083196
0.435611 0.763900 0.083196
0.464439 0.763900 0.083196
0.493267 0.763900 0.083196
0.522096 0.763900 0.083196
0.550924 0.763900 0.083196
0.579752 0.763900 0.083196
0.608581 0.763900 0.083196
0.637409 0.763900 0.083196
0.666237 0.763900 0.083196
0.695066 0.763900 0.083196
0.723894 0.763900 0.083196
0.752723 0.763900 0.083196
0.781551 0.763900 0.083196
0.815325 0.768459 0.088520
0.849146 0.773170 0.094003
0.883013 0.778034 0.099643
0.916928 0.783051 0.105441
0.950889 0.788222 0.111397
0.984896 0.793547 0.117511
0.997461 0.799026 0.123782
0.999365 0.804661 0.130212
1.000000 0.810450 0.136800
0.124700 0.797235 0.088520
0.153476 0.797235 0.088520
0.182252 0.797235 0.088520
0.211028 0.797235 0.088520
0.239805 0.797235 0.088520
0.268581 0.797235 0.088520
0.297357 0.797235 0.088520
0.326133 0.797235 0.088520
0.354909 0.797235 0.088520
0.383685 0.797235 0.088520
0.412461 0.797235 0.088520
0.441237 0.797235 0.088520
0.470013 0.797235 0.088520
0.498789 0.797235 0.088520
0.527565 0.797235 0.088520
0.556341 0.797235 0.088520
0.585117 0.797235 0.088520
0.613893 0.797235 0.088520
0.642669 0.797235 0.088520
0.671445 0.797235 0.088520
0.700221 0.797235 0.088520
0.728997 0.797235 0.088520
0.757773 0.797235 0.088520
0.786549 0.797235 0.088520
0.815325 0.797235 0.088520
0.849146 0.801894 0.094003
0.883013 0.806705 0.099643
0.916928 0.811669 0.105441
0.950889 0.816786 0.111397
0.984896 0.822058 0.117511
0.997461 0.827484 0.123782
0.999365 0.833064 0.130212
1.000000 0.838800 0.136800
0.131060 0.830617 0.094003
0.159783 0.830617 0.094003
0.188507 0.830617 0.094003
0.217230 0.830617 0.094003
0.245954 0.830617 0.094003
0.274677 0.830617 0.094003
0.303401 0.830617 0.094003
0.332124 0.830617 0.094003
0.360848 0.830617 0.094003
0.389571 0.830617 0.094003
0.418294 0.830617 0.094003
0.447018 0.830617 0.094003
0.475741 0.830617 0.094003
0.504465 0.830617 0.094003
0.533188 0.830617 0.094003
0.561912 0.830617 0.094003
0.590635 0.830617 0.094003
0.619358 0.830617 0.094003
0.648082 0.830617 0.094003
0.676805 0.830617 0.094003
0.705529 0.830617 0.094003
0.734252 0.830617 0.094003
0.762976 0.830617 0.094003
0.791699 0.830617 0.094003
0.820422 0.830617 0.094003
0.849146 0.830617 0.094003
0.883013 0.835375 0.099643
0.916928 0.840286 0.105441
0.950889 0.845351 0.111397
0.984896 0.850569 0.117511
0.997461 0.855941 0.123782
0.999365 0.861468 0.130212
1.000000 0.867150 0.136800
0.137578 0.864046 0.099643
0.166248 0.864046 0.099643
0.194919 0.864046 0.099643
0.223589 0.864046 0.099643
0.252260 0.864046 0.099643
0.280931 0.864046 0.099643
0.309601 0.864046 0.099643
0.338272 0.864046 0.099643
0.366942 0.864046 0.099643
0.395613 0.864046 0.099643
0.424284 0.864046 0.099643
0.452954 0.864046 0.099643
0.481625 0.864046 0.099643
0.510296 0.864046 0.099643
0.538966 0.864046 0.099643
0.567637 0.864046 0.099643
0.596307 0.864046 0.099643
0.624978 0.864046 0.099643
0.653649 0.864046 0.099643
0.682319 0.864046 0.099643
0.710990 0.864046 0.099643
0.739660 0.864046 0.099643
0.768331 0.864046 0.099643
0.797002 0.864046 0.099643
0.825672 0.864046 0.099643
0.854343 0.864046 0.099643
0.883013 0.864046 0.099643
