luts/original/muted-street.cube
TITLE "Muted Street"
LUT_3D_SIZE 33
DOMAIN_MIN 0.0 0.0 0.0
DOMAIN_MAX 1.0 1.0 1.0
0.003418 0.003418 0.012238
0.023683 0.003616 0.012948
0.052709 0.003959 0.013803
0.083428 0.006198 0.016554
0.114145 0.008638 0.019505
0.144860 0.011279 0.022658
0.175573 0.014121 0.026012
0.206284 0.017163 0.029566
0.236992 0.020407 0.033322
0.267698 0.023852 0.037279
0.298402 0.027497 0.041436
0.329104 0.031344 0.045795
0.359804 0.035392 0.050354
0.390502 0.039640 0.055115
0.421197 0.044090 0.060076
0.451891 0.048740 0.065238
0.482582 0.053592 0.070602
0.513271 0.058644 0.076166
0.543958 0.063898 0.081931
0.574642 0.069352 0.087898
0.605325 0.075008 0.094065
0.636006 0.080864 0.100433
0.666684 0.086921 0.107003
0.697360 0.093180 0.113773
0.728034 0.099639 0.120744
0.758706 0.106299 0.127916
0.789376 0.113161 0.135289
0.820043 0.120223 0.142863
0.850709 0.127486 0.150639
0.881372 0.134950 0.158615
0.912033 0.142615 0.166792
0.942692 0.150482 0.175170
0.973349 0.158549 0.183749
0.003656 0.033054 0.012988
0.023796 0.033054 0.012990
0.052671 0.033628 0.014585
0.083382 0.037247 0.018480
0.114097 0.039713 0.021527
0.144809 0.042359 0.024775
0.175520 0.045201 0.028224
0.206228 0.048241 0.031873
0.236934 0.051481 0.035724
0.267638 0.054921 0.039776
0.298340 0.058561 0.044029
0.329040 0.062403 0.048482
0.359737 0.066445 0.053137
0.390433 0.070687 0.057993
0.421126 0.075131 0.063049
0.451817 0.079776 0.068307
0.482506 0.084621 0.073766
0.513192 0.089668 0.079425
0.543877 0.094915 0.085286
0.574560 0.100364 0.091347
0.605240 0.106013 0.097610
0.635918 0.111863 0.104073
0.666594 0.117915 0.110738
0.697268 0.124167 0.117603
0.727940 0.130620 0.124670
0.758609 0.137274 0.131937
0.789277 0.144129 0.139405
0.819942 0.151185 0.147075
0.850605 0.158442 0.154945
0.881266 0.165900 0.163016
0.911925 0.173559 0.171289
0.942581 0.181419 0.179762
0.973236 0.189480 0.188436
0.005763 0.064357 0.015607
0.025294 0.064356 0.015648
0.056230 0.064343 0.017468
0.083350 0.064584 0.018448
0.114060 0.067775 0.021490
0.144770 0.070608 0.024735
0.175478 0.073494 0.028181
0.206184 0.076520 0.031829
0.236888 0.079717 0.035678
0.267589 0.083097 0.039727
0.298289 0.086666 0.043978
0.328987 0.090429 0.048430
0.359682 0.094388 0.053082
0.390376 0.098544 0.057936
0.421067 0.102899 0.062991
0.451756 0.107452 0.068246
0.482443 0.112204 0.073703
0.513128 0.117156 0.079361
0.543811 0.122307 0.085219
0.574491 0.127659 0.091279
0.605170 0.133211 0.097540
0.635846 0.138963 0.104001
0.666520 0.144916 0.110664
0.697192 0.151069 0.117527
0.727862 0.157422 0.124592
0.758529 0.163977 0.131857
0.789195 0.170732 0.139324
0.819858 0.177687 0.146991
0.850519 0.184844 0.154859
0.881178 0.192201 0.162929
0.911835 0.199759 0.171199
0.942490 0.207517 0.179670
0.973143 0.215477 0.188343
0.008068 0.095654 0.018424
0.026990 0.095654 0.018480
0.057984 0.095640 0.020382
0.086202 0.095629 0.020372
0.114023 0.095837 0.021453
0.144730 0.098857 0.024695
0.175435 0.101787 0.028139
0.206139 0.104800 0.031784
0.236841 0.107953 0.035631
0.267541 0.111273 0.039679
0.298238 0.114771 0.043927
0.328934 0.118456 0.048377
0.359628 0.122332 0.053028
0.390319 0.126401 0.057879
0.421008 0.130666 0.062932
0.451696 0.135127 0.068186
0.482381 0.139786 0.073641
0.513063 0.144643 0.079296
0.543744 0.149699 0.085153
0.574423 0.154954 0.091211
0.605099 0.160408 0.097469
0.635774 0.166063 0.103929
0.666446 0.171917 0.110590
0.697116 0.177971 0.117451
0.727784 0.184225 0.124514
0.758449 0.190679 0.131777
0.789113 0.197334 0.139242
0.819774 0.204189 0.146907
0.850434 0.211245 0.154774
0.881091 0.218501 0.162841
0.911746 0.225958 0.171110
0.942399 0.233616 0.179579
0.973049 0.241474 0.188249
0.010572 0.126947 0.021440
0.028884 0.126947 0.021505
0.059892 0.126932 0.023494
0.088294 0.126921 0.023483
0.116695 0.126909 0.023472
0.144690 0.127105 0.024655
0.175393 0.130080 0.028097
0.206095 0.133079 0.031740
0.236794 0.136189 0.035584
0.267492 0.139449 0.039630
0.298188 0.142876 0.043876
0.328881 0.146483 0.048324
0.359573 0.150276 0.052973
0.390262 0.154258 0.057823
0.420950 0.158433 0.062874
0.451635 0.162803 0.068125
0.482318 0.167369 0.073578
0.512999 0.172131 0.079232
0.543678 0.177091 0.085087
0.574355 0.182249 0.091142
0.605029 0.187606 0.097399
0.635701 0.193162 0.103857
0.666372 0.198918 0.110515
0.697040 0.204873 0.117375
0.727706 0.211027 0.124436
0.758370 0.217382 0.131697
0.789031 0.223937 0.139160
0.819691 0.230691 0.146824
0.850348 0.237647 0.154688
0.881003 0.244802 0.162754
0.911656 0.252158 0.171020
0.942307 0.259714 0.179488
0.972956 0.267471 0.188156
0.013274 0.158235 0.024654
0.030977 0.158235 0.024727
0.061988 0.158219 0.026805
0.090431 0.158207 0.026793
0.118875 0.158195 0.026781
0.147319 0.158183 0.026769
0.175351 0.158373 0.028054
0.206050 0.161359 0.031695
0.236748 0.164425 0.035538
0.267443 0.167625 0.039581
0.298137 0.170981 0.043826
0.328829 0.174510 0.048271
0.359518 0.178220 0.052918
0.390206 0.182115 0.057766
0.420891 0.186201 0.062815
0.451574 0.190479 0.068065
0.482256 0.194951 0.073516
0.512935 0.199619 0.079167
0.543611 0.204483 0.085020
0.574286 0.209544 0.091074
0.604959 0.214804 0.097329
0.635629 0.220262 0.103785
0.666298 0.225919 0.110441
0.696964 0.231774 0.117299
0.727628 0.237830 0.124358
0.758290 0.244085 0.131617
0.788949 0.250539 0.139078
0.819607 0.257194 0.146740
0.850262 0.264048 0.154602
0.880916 0.271103 0.162666
0.911567 0.278358 0.170931
0.942216 0.285813 0.179396
0.972863 0.293468 0.188063
0.016175 0.189519 0.028066
0.033268 0.189518 0.028145
0.064277 0.189502 0.030314
0.092705 0.189489 0.030301
0.121134 0.189476 0.030289
0.149563 0.189464 0.030276
0.177991 0.189451 0.030263
0.206005 0.189638 0.031651
0.236701 0.192662 0.035491
0.267395 0.195801 0.039532
0.298086 0.199086 0.043775
0.328776 0.202537 0.048219
0.359464 0.206164 0.052864
0.390149 0.209972 0.057709
0.420832 0.213968 0.062756
0.451514 0.218154 0.068004
0.482193 0.222533 0.073453
0.512870 0.227106 0.079103
0.543545 0.231875 0.084954
0.574218 0.236840 0.091006
0.604888 0.242002 0.097259
0.635557 0.247361 0.103712
0.666223 0.252920 0.110367
0.696888 0.258676 0.117223
0.727550 0.264632 0.124280
0.758210 0.270787 0.131538
0.788868 0.277142 0.138996
0.819523 0.283696 0.146656
0.850177 0.290450 0.154517
0.880828 0.297403 0.162579
0.911477 0.304557 0.170841
0.942125 0.311911 0.179305
0.972770 0.319465 0.187970
0.019273 0.220797 0.031677
0.035757 0.220796 0.031761
0.066762 0.220779 0.034021
0.095147 0.220766 0.034008
0.123531 0.220753 0.033995
0.151916 0.220739 0.033982
0.180300 0.220726 0.033968
0.208685 0.220713 0.033955
0.236654 0.220898 0.035444
0.267346 0.223977 0.039484
0.298036 0.227191 0.043724
0.328723 0.230564 0.048166
0.359409 0.234107 0.052809
0.390092 0.237829 0.057653
0.420774 0.241736 0.062698
0.451453 0.245830 0.067944
0.482130 0.250116 0.073390
0.512806 0.254594 0.079038
0.543479 0.259266 0.084887
0.574149 0.264135 0.090937
0.604818 0.269199 0.097188
0.635485 0.274461 0.103640
0.666149 0.279921 0.110293
0.696812 0.285578 0.117147
0.727472 0.291435 0.124202
0.758130 0.297490 0.131458
0.788786 0.303744 0.138915
0.819440 0.310198 0.146572
0.850091 0.316851 0.154431
0.880741 0.323704 0.162491
0.911388 0.330757 0.170752
0.942033 0.338010 0.179213
0.972676 0.345462 0.187876
0.022570 0.252070 0.035485
0.038445 0.252070 0.035575
0.069444 0.252052 0.037927
0.097768 0.252038 0.037913
0.126092 0.252024 0.037899
0.154417 0.252010 0.037885
0.182741 0.251996 0.037871
0.211065 0.251982 0.037857
0.239389 0.251969 0.037844
0.267297 0.252153 0.039435
0.297985 0.255296 0.043674
0.328670 0.258591 0.048113
0.359354 0.262051 0.052754
0.390036 0.265686 0.057596
0.420715 0.269503 0.062639
0.451393 0.273506 0.067883
0.482068 0.277698 0.073328
0.512741 0.282081 0.078974
0.543412 0.286658 0.084821
0.574081 0.291430 0.090869
0.604748 0.296397 0.097118
0.635413 0.301561 0.103568
0.666075 0.306922 0.110219
0.696736 0.312480 0.117071
0.727394 0.318237 0.124124
0.758050 0.324192 0.131378
0.788704 0.330347 0.138833
0.819356 0.336700 0.146489
0.850006 0.343253 0.154346
0.880653 0.350005 0.162403
0.911299 0.356957 0.170662
0.941942 0.364108 0.179122
0.972583 0.371460 0.187783
0.026066 0.283339 0.039493
0.041331 0.283338 0.039588
0.072324 0.283320 0.042031
0.100577 0.283306 0.042017
0.128830 0.283291 0.042002
0.157084 0.283277 0.041987
0.185337 0.283262 0.041973
0.213590 0.283247 0.041958
0.241844 0.283233 0.041944
0.270097 0.283218 0.041929
0.297934 0.283402 0.043623
0.328618 0.286618 0.048060
0.359299 0.289995 0.052699
0.389979 0.293543 0.057539
0.420657 0.297271 0.062580
0.451332 0.301182 0.067822
0.482005 0.305280 0.073265
0.512677 0.309569 0.078909
0.543346 0.314050 0.084755
0.574013 0.318725 0.090801
0.604678 0.323595 0.097048
0.635340 0.328660 0.103496
0.666001 0.333923 0.110145
0.696660 0.339382 0.116995
0.727316 0.345040 0.124046
0.757970 0.350895 0.131298
0.788622 0.356949 0.138751
0.819272 0.363202 0.146405
0.849920 0.369654 0.154260
0.880566 0.376305 0.162316
0.911209 0.383156 0.170573
0.941850 0.390207 0.179031
0.972490 0.397457 0.187690
0.029759 0.314603 0.043698
0.044415 0.314602 0.043798
0.075401 0.314583 0.046333
0.103577 0.314568 0.046318
0.131752 0.314553 0.046303
0.159928 0.314538 0.046288
0.188103 0.314523 0.046273
0.216279 0.314508 0.046258
0.244454 0.314493 0.046243
0.272630 0.314477 0.046227
0.300806 0.314462 0.046212
0.328565 0.314645 0.048008
0.359245 0.317939 0.052645
0.389922 0.321400 0.057483
0.420598 0.325038 0.062522
0.451271 0.328857 0.067762
0.481943 0.332863 0.073203
0.512612 0.337057 0.078845
0.543279 0.341442 0.084688
0.573944 0.346020 0.090732
0.604607 0.350792 0.096977
0.635268 0.355760 0.103424
0.665927 0.360924 0.110071
0.696584 0.366284 0.116919
0.727238 0.371842 0.123968
0.757890 0.377598 0.131218
0.788540 0.383552 0.138669
0.819188 0.389704 0.146321
0.849834 0.396056 0.154174
0.880478 0.402606 0.162228
0.911120 0.409356 0.170483
0.941759 0.416305 0.178939
0.972396 0.423454 0.187596
0.033651 0.345862 0.048102
0.047697 0.345861 0.048206
0.078676 0.345842 0.050834
0.106769 0.345826 0.050818
0.134862 0.345810 0.050802
0.162955 0.345794 0.050787
0.191048 0.345779 0.050771
0.219141 0.345763 0.050755
0.247234 0.345747 0.050740
0.275327 0.345732 0.050724
0.303420 0.345716 0.050708
0.331513 0.345700 0.050692
0.359190 0.345882 0.052590
0.389866 0.349257 0.057426
0.420539 0.352805 0.062463
0.451211 0.356533 0.067701
0.481880 0.360445 0.073140
0.512548 0.364544 0.078780
0.543213 0.368834 0.084622
0.573876 0.373315 0.090664
0.604537 0.377990 0.096907
0.635196 0.382860 0.103351
0.665853 0.387925 0.109997
0.696507 0.393186 0.116843
0.727160 0.398645 0.123890
0.757810 0.404300 0.131138
0.788459 0.410154 0.138587
0.819105 0.416206 0.146237
0.849749 0.422457 0.154089
0.880390 0.428907 0.162141
0.911030 0.435555 0.170394
0.941668 0.442403 0.178848
0.972303 0.449451 0.187503
0.037741 0.377116 0.052704
0.051178 0.377116 0.052813
0.082149 0.377095 0.055533
0.110156 0.377079 0.055516
0.138163 0.377063 0.055500
0.166170 0.377046 0.055484
0.194177 0.377030 0.055467
0.222183 0.377014 0.055451
0.250190 0.376997 0.055435
0.278197 0.376981 0.055419
0.306204 0.376965 0.055402
0.334211 0.376949 0.055386
0.362218 0.376932 0.055370
0.389809 0.377114 0.057369
0.420481 0.380573 0.062404
0.451150 0.384209 0.067641
0.481818 0.388027 0.073078
0.512483 0.392032 0.078716
0.543147 0.396226 0.084555
0.573808 0.400610 0.090596
0.604467 0.405188 0.096837
0.635124 0.409959 0.103279
0.665779 0.414926 0.109922
0.696431 0.420088 0.116767
0.727082 0.425447 0.123812
0.757730 0.431003 0.131058
0.788377 0.436757 0.138506
0.819021 0.442709 0.146154
0.849663 0.448859 0.154003
0.880303 0.455207 0.162053
0.910941 0.461755 0.170304
0.941576 0.468502 0.178757
0.972210 0.475448 0.187410
0.042030 0.408366 0.057504
0.054857 0.408365 0.057617
0.085821 0.408344 0.060430
0.113739 0.408327 0.060413
0.141657 0.408310 0.060396
0.169575 0.408293 0.060379
0.197493 0.408276 0.060362
0.225411 0.408259 0.060345
0.253329 0.408243 0.060329
0.281247 0.408226 0.060312
0.309165 0.408209 0.060295
0.337083 0.408192 0.060278
0.365001 0.408175 0.060261
0.392919 0.408158 0.060244
0.420422 0.408340 0.062346
0.451090 0.411884 0.067580
0.481755 0.415610 0.073015
0.512419 0.419520 0.078652
0.543080 0.423618 0.084489
0.573739 0.427906 0.090527
0.604397 0.432386 0.096767
0.635052 0.437059 0.103207
0.665705 0.441927 0.109848
0.696355 0.446990 0.116691
0.727004 0.452249 0.123734
0.757651 0.457706 0.130978
0.788295 0.463359 0.138424
0.818937 0.469211 0.146070
0.849577 0.475260 0.153917
0.880215 0.481508 0.161966
0.910851 0.487955 0.170215
0.941485 0.494600 0.178665
0.972116 0.501445 0.187316
0.046517 0.439610 0.062503
0.058735 0.439609 0.062621
0.089690 0.439588 0.065525
0.117517 0.439570 0.065508
0.145345 0.439553 0.065490
0.173172 0.439535 0.065473
0.200999 0.439518 0.065455
0.228826 0.439500 0.065438
0.256653 0.439483 0.065420
0.284480 0.439465 0.065403
0.312308 0.439448 0.065386
0.340135 0.439431 0.065368
0.367962 0.439413 0.065351
0.395789 0.439396 0.065333
0.423616 0.439378 0.065316
0.451029 0.439560 0.067519
0.481693 0.443192 0.072953
0.512354 0.447007 0.078587
0.543014 0.451009 0.084422
0.573671 0.455201 0.090459
0.604326 0.459583 0.096696
0.634979 0.464159 0.103135
0.665630 0.468928 0.109774
0.696279 0.473892 0.116615
0.726926 0.479052 0.123656
0.757571 0.484408 0.130899
0.788213 0.489962 0.138342
0.818853 0.495713 0.145986
0.849492 0.501662 0.153832
0.880128 0.507809 0.161878
0.910762 0.514154 0.170125
0.941393 0.520699 0.178574
0.972023 0.527442 0.187223
0.051202 0.470850 0.067700
0.062810 0.470849 0.067822
0.093758 0.470827 0.070819
0.121493 0.470809 0.070801
0.149227 0.470791 0.070783
0.176962 0.470773 0.070765
0.204697 0.470755 0.070747
0.232431 0.470737 0.070729
0.260166 0.470719 0.070711
0.287901 0.470700 0.070693
0.315636 0.470682 0.070675
0.343370 0.470664 0.070657
0.371105 0.470646 0.070639
0.398840 0.470628 0.070621
0.426574 0.470610 0.070603
0.454309 0.470592 0.070584
0.481630 0.470774 0.072890
0.512290 0.474495 0.078523
0.542947 0.478401 0.084356
0.573603 0.482496 0.090391
0.604256 0.486781 0.096626
0.634907 0.491258 0.103063
0.665556 0.495929 0.109700
0.696203 0.500794 0.116539
0.726848 0.505854 0.123578
0.757491 0.511111 0.130819
0.788131 0.516564 0.138260
0.818770 0.522215 0.145903
0.849406 0.528063 0.153746
0.880040 0.534110 0.161791
0.910672 0.540354 0.170036
0.941302 0.546797 0.178482
0.971930 0.553439 0.187130
0.056085 0.502085 0.073095
0.067084 0.502084 0.073221
0.098024 0.502061 0.076311
0.125665 0.502042 0.076292
0.153306 0.502024 0.076274
0.180947 0.502005 0.076255
0.208588 0.501986 0.076236
0.236228 0.501968 0.076218
0.263869 0.501949 0.076199
0.291510 0.501931 0.076181
0.319151 0.501912 0.076162
0.346792 0.501893 0.076143
0.374433 0.501875 0.076125
0.402074 0.501856 0.076106
0.429715 0.501838 0.076088
0.457356 0.501819 0.076069
0.484997 0.501800 0.076050
0.512225 0.501983 0.078458
0.542881 0.505793 0.084290
0.573534 0.509791 0.090322
0.604186 0.513979 0.096556
0.634835 0.518358 0.102990
0.665482 0.522930 0.109626
0.696127 0.527696 0.116463
0.726770 0.532657 0.123500
0.757411 0.537814 0.130739
0.788050 0.543167 0.138178
0.818686 0.548717 0.145819
0.849320 0.554465 0.153660
0.879953 0.560410 0.161703
0.910583 0.566554 0.169947
0.941211 0.572896 0.178391
0.971837 0.579437 0.187037
0.061167 0.533315 0.078689
0.071556 0.533314 0.078819
0.102488 0.533290 0.082001
0.130034 0.533271 0.081982
0.157580 0.533252 0.081963
0.185126 0.533233 0.081944
0.212672 0.533213 0.081924
0.240219 0.533194 0.081905
0.267765 0.533175 0.081886
0.295311 0.533156 0.081867
0.322857 0.533137 0.081848
0.350403 0.533118 0.081829
0.377950 0.533098 0.081809
0.405496 0.533079 0.081790
0.433042 0.533060 0.081771
0.460588 0.533041 0.081752
0.488134 0.533022 0.081733
0.515680 0.533003 0.081713
0.542814 0.533185 0.084223
0.573466 0.537086 0.090254
0.604116 0.541176 0.096486
0.634763 0.545457 0.102918
0.665408 0.549931 0.109552
0.696051 0.554598 0.116387
0.726692 0.559459 0.123422
0.757331 0.564516 0.130659
0.787968 0.569770 0.138097
0.818602 0.575219 0.145735
0.849235 0.580866 0.153575
0.879865 0.586711 0.161615
0.910493 0.592753 0.169857
0.941119 0.598994 0.178300
0.971743 0.605434 0.186943
0.066447 0.564540 0.084480
0.076227 0.564539 0.084615
0.107150 0.564515 0.087890
0.134600 0.564495 0.087870
0.162051 0.564475 0.087850
0.189502 0.564456 0.087831
0.216952 0.564436 0.087811
0.244403 0.564416 0.087791
0.271853 0.564396 0.087771
0.299304 0.564376 0.087752
0.326754 0.564357 0.087732
0.354205 0.564337 0.087712
0.381655 0.564317 0.087692
0.409106 0.564297 0.087672
0.436556 0.564278 0.087653
0.464007 0.564258 0.087633
0.491457 0.564238 0.087613
0.518908 0.564218 0.087593
0.546358 0.564199 0.087574
0.573398 0.564381 0.090186
0.604045 0.568374 0.096415
0.634691 0.572557 0.102846
0.665334 0.576932 0.109478
0.695975 0.581500 0.116310
0.726614 0.586262 0.123344
0.757251 0.591219 0.130579
0.787886 0.596372 0.138015
0.818519 0.601721 0.145651
0.849149 0.607268 0.153489
0.879778 0.613012 0.161528
0.910404 0.618953 0.169768
0.941028 0.625093 0.178208
0.971650 0.631431 0.186850
0.071925 0.595761 0.090471
0.081096 0.595760 0.090610
0.112010 0.595734 0.093977
0.139365 0.595714 0.093956
0.166719 0.595694 0.093936
0.194073 0.595674 0.093916
0.221427 0.595653 0.093895
0.248781 0.595633 0.093875
0.276135 0.595613 0.093855
0.303490 0.595592 0.093834
0.330844 0.595572 0.093814
0.358198 0.595552 0.093794
0.385552 0.595531 0.093773
0.412906 0.595511 0.093753
0.440260 0.595491 0.093733
0.467615 0.595470 0.093712
0.494969 0.595450 0.093692
0.522323 0.595430 0.093672
0.549677 0.595409 0.093651
0.577031 0.595389 0.093631
0.603975 0.595572 0.096345
0.634618 0.599657 0.102774
0.665260 0.603933 0.109404
0.695899 0.608402 0.116234
0.726536 0.613064 0.123266
0.757171 0.617922 0.130499
0.787804 0.622975 0.137933
0.818435 0.628224 0.145568
0.849064 0.633669 0.153404
0.879690 0.639312 0.161440
0.910314 0.645153 0.169678
0.940937 0.651191 0.178117
0.971557 0.657428 0.186757
0.077601 0.626976 0.096659
0.086163 0.626975 0.096802
0.117069 0.626949 0.100262
0.144326 0.626928 0.100241
0.171584 0.626908 0.100220
0.198841 0.626887 0.100199
0.226098 0.626866 0.100178
0.253355 0.626845 0.100157
0.280612 0.626824 0.100136
0.307869 0.626803 0.100116
0.335127 0.626782 0.100095
0.362384 0.626761 0.100074
0.389641 0.626740 0.100053
0.416898 0.626719 0.100032
0.444156 0.626699 0.100011
0.471413 0.626678 0.099990
0.498670 0.626657 0.099969
0.525927 0.626636 0.099948
0.553184 0.626615 0.099927
0.580441 0.626594 0.099907
0.607699 0.626573 0.099886
0.634546 0.626756 0.102702
0.665186 0.630934 0.109329
0.695823 0.635304 0.116158
0.726458 0.639867 0.123188
0.757091 0.644624 0.130419
0.787722 0.649577 0.137851
0.818351 0.654726 0.145484
0.848978 0.660071 0.153318
0.879602 0.665613 0.161353
0.910225 0.671352 0.169589
0.940845 0.677290 0.178025
0.971463 0.683425 0.186663
0.083476 0.658187 0.103046
0.091428 0.658186 0.103193
0.122326 0.658159 0.106745
0.149486 0.658138 0.106724
0.176646 0.658116 0.106702
0.203805 0.658095 0.106681
0.230965 0.658074 0.106659
0.258125 0.658052 0.106638
0.285284 0.658031 0.106617
0.312444 0.658009 0.106595
0.339604 0.657988 0.106574
0.366764 0.657966 0.106552
0.393923 0.657945 0.106531
0.421083 0.657923 0.106509
0.448243 0.657902 0.106488
0.475402 0.657880 0.106466
0.502562 0.657859 0.106445
0.529722 0.657837 0.106423
0.556881 0.657816 0.106402
0.584041 0.657794 0.106380
0.611201 0.657773 0.106359
0.638361 0.657751 0.106337
0.665112 0.657935 0.109255
0.695747 0.662206 0.116082
0.726380 0.666669 0.123110
0.757012 0.671327 0.130339
0.787641 0.676180 0.137769
0.818267 0.681228 0.145400
0.848892 0.686472 0.153232
0.879515 0.691914 0.161265
0.910135 0.697552 0.169499
0.940754 0.703388 0.177934
0.971370 0.709422 0.186570
0.089549 0.689393 0.109631
0.096892 0.689392 0.109782
0.127781 0.689365 0.113427
0.154843 0.689343 0.113405
0.181905 0.689321 0.113383
0.208967 0.689299 0.113361
0.236028 0.689276 0.113339
0.263090 0.689254 0.113317
0.290152 0.689232 0.113295
0.317214 0.689210 0.113273
0.344276 0.689188 0.113251
0.371337 0.689166 0.113229
0.398399 0.689144 0.113207
0.425461 0.689122 0.113185
0.452523 0.689100 0.113163
0.479585 0.689078 0.113141
0.506646 0.689056 0.113119
0.533708 0.689034 0.113096
0.560770 0.689012 0.113074
0.587832 0.688990 0.113052
0.614893 0.688968 0.113030
0.641955 0.688946 0.113008
0.669017 0.688924 0.112986
0.695671 0.689107 0.116006
0.726302 0.693472 0.123032
0.756932 0.698030 0.130259
0.787559 0.702782 0.137688
0.818184 0.707730 0.145317
0.848807 0.712874 0.153147
0.879427 0.718214 0.161178
0.910046 0.723752 0.169410
0.940662 0.729487 0.177843
0.971277 0.735419 0.186477
0.095821 0.720594 0.116414
0.102554 0.720593 0.116570
0.133435 0.720565 0.120307
0.160398 0.720542 0.120285
0.187362 0.720520 0.120262
0.214325 0.720497 0.120239
0.241289 0.720475 0.120217
0.268252 0.720452 0.120194
0.295216 0.720429 0.120172
0.322179 0.720407 0.120149
0.349143 0.720384 0.120126
0.376106 0.720361 0.120104
0.403070 0.720339 0.120081
0.430033 0.720316 0.120058
0.456997 0.720294 0.120036
0.483960 0.720271 0.120013
0.510924 0.720248 0.119991
0.537887 0.720226 0.119968
0.564851 0.720203 0.119945
0.591814 0.720181 0.119923
0.618777 0.720158 0.119900
0.645741 0.720135 0.119878
0.672704 0.720113 0.119855
0.699668 0.720090 0.119832
0.726224 0.720274 0.122954
0.756852 0.724732 0.130180
0.787477 0.729385 0.137606
0.818100 0.734232 0.145233
0.848721 0.739275 0.153061
0.879340 0.744515 0.161090
0.909956 0.749951 0.169320
0.940571 0.755585 0.177751
0.971183 0.761416 0.186383
0.102291 0.751791 0.123396
0.108414 0.751789 0.123555
0.139287 0.751761 0.127386
0.166151 0.751737 0.127362
0.193016 0.751714 0.127339
0.219881 0.751691 0.127316
0.246746 0.751668 0.127293
0.273611 0.751645 0.127270
0.300476 0.751621 0.127246
0.327340 0.751598 0.127223
0.354205 0.751575 0.127200
0.381070 0.751552 0.127177
0.407935 0.751529 0.127154
0.434800 0.751506 0.127131
0.461665 0.751482 0.127107
0.488530 0.751459 0.127084
0.515394 0.751436 0.127061
0.542259 0.751413 0.127038
0.569124 0.751390 0.127015
0.595989 0.751366 0.126991
0.622854 0.751343 0.126968
0.649719 0.751320 0.126945
0.676583 0.751297 0.126922
0.703448 0.751274 0.126899
0.730313 0.751251 0.126876
0.756772 0.751435 0.130100
0.787395 0.755987 0.137524
0.818016 0.760734 0.145149
0.848635 0.765677 0.152975
0.879252 0.770816 0.161003
0.909867 0.776151 0.169231
0.940480 0.781684 0.177660
0.971090 0.787414 0.186290
0.108959 0.782982 0.130575
0.114473 0.782981 0.130740
0.145337 0.782951 0.134662
0.172103 0.782928 0.134638
0.198868 0.782904 0.134615
0.225634 0.782880 0.134591
0.252400 0.782856 0.134567
0.279166 0.782833 0.134543
0.305932 0.782809 0.134520
0.332698 0.782785 0.134496
0.359464 0.782761 0.134472
0.386230 0.782738 0.134448
0.412996 0.782714 0.134425
0.439762 0.782690 0.134401
0.466528 0.782666 0.134377
0.493293 0.782642 0.134353
0.520059 0.782619 0.134330
0.546825 0.782595 0.134306
0.573591 0.782571 0.134282
0.600357 0.782547 0.134258
0.627123 0.782524 0.134235
0.653889 0.782500 0.134211
0.680655 0.782476 0.134187
0.707421 0.782452 0.134163
0.734187 0.782429 0.134140
0.760953 0.782405 0.134116
0.787313 0.782590 0.137442
0.817933 0.787236 0.145065
0.848550 0.792078 0.152890
0.879165 0.797116 0.160915
0.909778 0.802351 0.169141
0.940388 0.807782 0.177569
0.970997 0.813411 0.186197
0.115825 0.814169 0.137954
0.120730 0.814167 0.138122
0.151585 0.814137 0.142137
0.178252 0.814113 0.142113
0.204918 0.814089 0.142089
0.231585 0.814064 0.142064
0.258252 0.814040 0.142040
0.284919 0.814016 0.142016
0.311585 0.813991 0.141991
0.338252 0.813967 0.141967
0.364919 0.813943 0.141943
0.391585 0.813918 0.141918
0.418252 0.813894 0.141894
0.444919 0.813870 0.141870
0.471586 0.813845 0.141845
0.498252 0.813821 0.141821
0.524919 0.813797 0.141797
0.551586 0.813772 0.141772
0.578252 0.813748 0.141748
0.604919 0.813724 0.141724
0.631586 0.813699 0.141699
0.658253 0.813675 0.141675
0.684919 0.813651 0.141651
0.711586 0.813626 0.141626
0.738253 0.813602 0.141602
0.764920 0.813578 0.141578
0.791586 0.813553 0.141553
