luts/original/noir-shadow.cube
TITLE "Noir Shadow"
LUT_3D_SIZE 5
DOMAIN_MIN 0.0 0.0 0.0
DOMAIN_MAX 1.0 1.0 1.0
0.000000 0.000000 0.012337
0.207197 0.000000 0.025359
0.444854 0.015054 0.051504
0.683103 0.041141 0.086366
0.921944 0.075944 0.129944
0.002432 0.239620 0.030107
0.213392 0.240096 0.033659
0.447613 0.252963 0.058313
0.686544 0.277154 0.094832
0.926062 0.309766 0.140062
0.023216 0.489466 0.059666
0.223380 0.490102 0.064352
0.454999 0.490897 0.065147
0.689878 0.507556 0.098165
0.930054 0.537054 0.144054
0.053635 0.740822 0.098860
0.242342 0.741614 0.104677
0.470576 0.742606 0.105669
0.698810 0.743598 0.106660
0.934047 0.764342 0.148047
0.093689 0.993689 0.147689
0.270807 0.994637 0.154637
0.495398 0.995824 0.155824
0.719990 0.997011 0.157011
0.944582 0.998199 0.158199
0.003730 0.003730 0.268593
0.213709 0.004196 0.269059
0.445128 0.015328 0.284903
0.683443 0.041481 0.315768
0.922350 0.076350 0.355350
0.005792 0.242980 0.270655
0.225647 0.248453 0.271259
0.448166 0.268366 0.299487
0.687220 0.295257 0.337627
0.926861 0.330861 0.382687
0.023490 0.489740 0.293065
0.233686 0.490436 0.301621
0.461391 0.491233 0.315483
0.690461 0.519604 0.348748
0.930839 0.556490 0.394839
0.053975 0.741162 0.328262
0.254593 0.742031 0.341633
0.487073 0.743069 0.356132
0.702308 0.743992 0.357055
0.934642 0.772991 0.398642
0.094096 0.994096 0.373096
0.285135 0.995135 0.390320
0.517549 0.996390 0.406390
0.732454 0.997526 0.407526
0.947358 0.998662 0.408662
0.022484 0.022484 0.525184
0.219773 0.023098 0.525798
0.453705 0.023905 0.526605
0.683783 0.041821 0.545171
0.922756 0.076756 0.580756
0.025200 0.258325 0.527900
0.235573 0.269944 0.528773
0.463289 0.276957 0.529657
0.687538 0.295576 0.555112
0.927251 0.331251 0.599019
0.027915 0.494165 0.530615
0.238134 0.496964 0.531334
0.489259 0.510859 0.532459
0.691322 0.549360 0.581361
0.931774 0.585774 0.632956
0.054315 0.741502 0.557665
0.254920 0.742358 0.563919
0.506064 0.743502 0.582250
0.714016 0.744430 0.607493
0.935427 0.792427 0.649427
0.094502 0.994502 0.598502
0.285530 0.995530 0.609851
0.536903 0.996903 0.635474
0.758568 0.998113 0.658113
0.952776 0.999140 0.659140
0.049698 0.049698 0.782110
0.234297 0.050459 0.782872
0.464361 0.051461 0.783873
0.694425 0.052462 0.784875
0.923162 0.077162 0.806162
0.053067 0.282130 0.785480
0.253920 0.297605 0.786582
0.482012 0.305278 0.787690
0.702679 0.306230 0.788642
0.927641 0.331641 0.815351
0.056436 0.514561 0.788849
0.257174 0.523506 0.789837
0.508697 0.547946 0.791360
0.718208 0.560036 0.792448
0.932129 0.586129 0.829902
0.059806 0.746993 0.792218
0.260429 0.749406 0.793092
0.511621 0.755034 0.794284
0.763144 0.779475 0.795806
0.936665 0.840665 0.870981
0.094908 0.994908 0.823908
0.285926 0.995926 0.829383
0.537273 0.997273 0.841202
0.788652 0.998652 0.869942
0.971265 0.999686 0.909687
0.079125 0.079125 0.979124
0.251033 0.080033 0.980033
0.477229 0.081229 0.981229
0.703425 0.082425 0.982425
0.929621 0.083621 0.983621
0.083148 0.308147 0.983148
0.274472 0.327064 0.984472
0.500465 0.335798 0.985798
0.718283 0.336950 0.986950
0.936102 0.338102 0.988102
0.087170 0.537171 0.987171
0.278390 0.550118 0.988390
0.530212 0.579497 0.990212
0.743530 0.591530 0.991530
0.944593 0.592593 0.992593
0.091193 0.766194 0.991193
0.282308 0.773172 0.992308
0.533883 0.788526 0.993883
0.785856 0.826501 0.995856
0.961127 0.847127 0.997127
0.095216 0.995216 0.995216
0.286226 0.996226 0.996226
0.537555 0.997555 0.997555
0.788884 0.998884 0.998884
1.000000 1.000000 1.000000
