luts/original/noir-shadow.cube
TITLE "Noir Shadow"
LUT_3D_SIZE 9
DOMAIN_MIN 0.0 0.0 0.0
DOMAIN_MAX 1.0 1.0 1.0
0.000000 0.000000 0.012337
0.088590 0.000000 0.015556
0.207197 0.000000 0.025359
0.325951 0.005279 0.037342
0.444854 0.015054 0.051504
0.563905 0.027008 0.067845
0.683103 0.041141 0.086366
0.802450 0.057453 0.107065
0.921944 0.075944 0.129944
0.000000 0.115263 0.018941
0.094515 0.115414 0.021680
0.208261 0.118879 0.029498
0.327200 0.126760 0.042153
0.446279 0.136399 0.056979
0.565505 0.148108 0.073983
0.684877 0.161953 0.093165
0.804398 0.177954 0.114526
0.924066 0.196122 0.138066
0.002432 0.239620 0.030107
0.096526 0.239800 0.033363
0.213392 0.240096 0.033659
0.328363 0.243755 0.043316
0.447613 0.252963 0.058313
0.567006 0.264033 0.075484
0.686544 0.277154 0.094832
0.806229 0.292389 0.116358
0.926062 0.309766 0.140062
0.011619 0.364354 0.043682
0.100851 0.364563 0.047454
0.217363 0.364911 0.047802
0.333875 0.365258 0.048149
0.448947 0.369527 0.059647
0.568507 0.379958 0.076985
0.688211 0.392355 0.096498
0.808061 0.406824 0.118189
0.928058 0.423410 0.142058
0.023216 0.489466 0.059666
0.107571 0.489704 0.063954
0.223380 0.490102 0.064352
0.339189 0.490499 0.064749
0.454999 0.490897 0.065147
0.570008 0.495883 0.078486
0.689878 0.507556 0.098165
0.809893 0.521258 0.120021
0.930054 0.537054 0.144054
0.037221 0.614955 0.078058
0.116695 0.615222 0.082863
0.231685 0.615669 0.083310
0.346674 0.616116 0.083757
0.461664 0.616563 0.084204
0.576654 0.617010 0.084650
0.691545 0.622757 0.099832
0.811725 0.635693 0.121853
0.932051 0.650698 0.146051
0.053635 0.740822 0.098860
0.128226 0.741118 0.104181
0.242342 0.741614 0.104677
0.356459 0.742110 0.105173
0.470576 0.742606 0.105669
0.584693 0.743102 0.106164
0.698810 0.743598 0.106660
0.813556 0.750128 0.123685
0.934047 0.764342 0.148047
0.072458 0.867067 0.122070
0.142164 0.867392 0.127907
0.255379 0.867937 0.128452
0.368594 0.868481 0.128997
0.481809 0.869026 0.129542
0.595024 0.869571 0.130087
0.708239 0.870116 0.130632
0.821454 0.870661 0.131177
0.936043 0.877986 0.150043
0.093689 0.993689 0.147689
0.158511 0.994043 0.154043
0.270807 0.994637 0.154637
0.383103 0.995230 0.155230
0.495398 0.995824 0.155824
0.607694 0.996418 0.156418
0.719990 0.997011 0.157011
0.832286 0.997605 0.157605
0.944582 0.998199 0.158199
0.000000 0.000000 0.140423
0.093982 0.000000 0.140557
0.207301 0.000000 0.144057
0.326072 0.005400 0.155041
0.444991 0.015191 0.168204
0.564058 0.027161 0.183546
0.683273 0.041311 0.201067
0.802636 0.057639 0.220767
0.922147 0.076147 0.242647
0.000000 0.118003 0.141290
0.097692 0.119578 0.141464
0.208447 0.123935 0.145696
0.327408 0.131736 0.161455
0.446512 0.141712 0.176555
0.565763 0.153866 0.193415
0.685162 0.168199 0.212313
0.804708 0.184712 0.233325
0.924403 0.203403 0.256483
0.002536 0.239724 0.148805
0.096965 0.239903 0.150154
0.221330 0.240253 0.158816
0.328579 0.248555 0.168532
0.447895 0.260525 0.183595
0.567333 0.273127 0.200811
0.686912 0.287511 0.220199
0.806635 0.303913 0.241764
0.926506 0.322413 0.265506
0.011740 0.364474 0.161381
0.101324 0.364684 0.163955
0.226145 0.365091 0.172981
0.336813 0.365407 0.173298
0.449144 0.372214 0.184844
0.568772 0.385511 0.202250
0.688528 0.399823 0.221815
0.808423 0.415844 0.243551
0.928462 0.433807 0.267462
0.023353 0.489603 0.176365
0.108092 0.489842 0.179781
0.233018 0.490304 0.189554
0.345003 0.490681 0.189931
0.456987 0.491059 0.190309
0.570211 0.497895 0.203689
0.690144 0.512136 0.223431
0.810211 0.527775 0.245339
0.930419 0.545201 0.269419
0.037374 0.615109 0.193759
0.117268 0.615377 0.197889
0.242248 0.615895 0.208535
0.354252 0.616326 0.208966
0.466255 0.616757 0.209398
0.578258 0.617188 0.209829
0.691760 0.624448 0.225047
0.811999 0.639706 0.247127
0.932376 0.656594 0.271376
0.053805 0.740992 0.213561
0.128852 0.741290 0.218349
0.253870 0.741863 0.229926
0.365456 0.742346 0.230408
0.477042 0.742828 0.230891
0.588628 0.743311 0.231373
0.700214 0.743793 0.231856
0.813787 0.751637 0.248915
0.934333 0.767988 0.273333
0.072644 0.867254 0.235772
0.142846 0.867580 0.241186
0.267892 0.868209 0.253725
0.378862 0.868742 0.254258
0.489831 0.869275 0.254791
0.600800 0.869808 0.255324
0.711770 0.870341 0.255857
0.822739 0.870874 0.256390
0.936289 0.879382 0.275289
0.093893 0.993893 0.260393
0.159248 0.994248 0.266414
0.284319 0.994933 0.279933
0.394564 0.995515 0.280515
0.504810 0.996098 0.281098
0.615055 0.996681 0.281681
0.725301 0.997264 0.282264
0.835546 0.997847 0.282847
0.945792 0.998430 0.283430
0.003730 0.003730 0.268593
0.094808 0.003890 0.268752
0.213709 0.004196 0.269059
0.326192 0.005521 0.272739
0.445128 0.015328 0.284903
0.564212 0.027315 0.299246
0.683443 0.041481 0.315768
0.802823 0.057826 0.334470
0.922350 0.076350 0.355350
0.004761 0.123355 0.269624
0.099233 0.126092 0.269846
0.219031 0.130364 0.270226
0.327520 0.131848 0.274262
0.446643 0.141843 0.289900
0.565912 0.154015 0.306425
0.685328 0.168365 0.324694
0.804891 0.184894 0.344943
0.924603 0.203603 0.367265
0.005792 0.242980 0.270655
0.100234 0.243987 0.270846
0.225647 0.248453 0.271259
0.328849 0.258177 0.276537
0.448166 0.268366 0.299487
0.567620 0.280723 0.317959
0.687220 0.295257 0.337627
0.806967 0.311970 0.359143
0.926861 0.330861 0.382687
0.011861 0.364595 0.279079
0.101442 0.364801 0.280095
0.226842 0.365202 0.283650
0.350541 0.365613 0.298504
0.449426 0.379776 0.310126
0.569130 0.396342 0.327608
0.688929 0.412082 0.347216
0.808862 0.429227 0.368990
0.928938 0.448239 0.392938
0.023490 0.489740 0.293065
0.108226 0.489976 0.295218
0.233686 0.490436 0.301621
0.358265 0.490903 0.315153
0.461391 0.491233 0.315483
0.570446 0.501712 0.328924
0.690461 0.519604 0.348748
0.810584 0.537415 0.370712
0.930839 0.556490 0.394839
0.037528 0.615262 0.309459
0.117419 0.615528 0.312490
0.242935 0.616045 0.320647
0.367707 0.616567 0.334207
0.474354 0.616969 0.334610
0.581000 0.617372 0.335013
0.691993 0.627127 0.350280
0.812306 0.645603 0.372434
0.932741 0.664741 0.396741
0.053975 0.741162 0.328262
0.129021 0.741458 0.332055
0.254593 0.742031 0.341633
0.379456 0.742608 0.355670
0.487073 0.743069 0.356132
0.594691 0.743531 0.356593
0.702308 0.743992 0.357055
0.814028 0.753791 0.374156
0.934642 0.772991 0.398642
0.072831 0.867440 0.349475
0.143031 0.867765 0.353965
0.268660 0.868394 0.364827
0.393580 0.869026 0.379542
0.501311 0.869542 0.380057
0.609041 0.870058 0.380573
0.716771 0.870574 0.381089
0.824502 0.871089 0.381605
0.936544 0.881242 0.400544
0.094096 0.994096 0.373096
0.159450 0.994450 0.378247
0.285135 0.995135 0.390320
0.410097 0.995822 0.405822
0.517549 0.996390 0.406390
0.625002 0.996958 0.406958
0.732454 0.997526 0.407526
0.839906 0.998094 0.408094
0.947358 0.998662 0.408662
0.012050 0.012050 0.396847
0.097750 0.012234 0.397031
0.215683 0.012589 0.397386
0.333616 0.012944 0.397741
0.445265 0.015465 0.401603
0.564365 0.027468 0.414947
0.683613 0.041651 0.430470
0.803009 0.058012 0.448172
0.922553 0.076553 0.468053
0.013244 0.130822 0.398041
0.102882 0.134319 0.398304
0.222907 0.138948 0.398744
0.337831 0.139287 0.399083
0.446774 0.141974 0.403245
0.566061 0.154164 0.419435
0.685494 0.168531 0.437075
0.805074 0.185077 0.456561
0.924802 0.203802 0.478048
0.014438 0.249595 0.399235
0.104053 0.251764 0.399475
0.229565 0.258865 0.399987
0.345950 0.265650 0.400446
0.448283 0.268483 0.405065
0.567760 0.280863 0.426144
0.687379 0.295416 0.446369
0.807144 0.312147 0.467754
0.927056 0.331056 0.490853
0.015633 0.368367 0.400430
0.105224 0.369209 0.400646
0.230657 0.371779 0.401079
0.356169 0.378880 0.401591
0.449795 0.394995 0.408079
0.569471 0.407574 0.439456
0.689275 0.422312 0.461555
0.809223 0.439226 0.484141
0.929319 0.458319 0.508336
0.023627 0.489877 0.409764
0.108361 0.490111 0.410654
0.233813 0.490563 0.413140
0.359270 0.491020 0.418379
0.482148 0.491495 0.440745
0.570804 0.512543 0.454282
0.690903 0.534210 0.474190
0.811066 0.553261 0.496194
0.931355 0.573256 0.520355
0.037681 0.615416 0.425160
0.117571 0.615680 0.427092
0.243081 0.616191 0.432211
0.368599 0.616708 0.441053
0.492884 0.617237 0.459878
0.587125 0.617574 0.460215
0.692268 0.632248 0.475556
0.812679 0.655243 0.497807
0.933174 0.676808 0.522174
0.054145 0.741332 0.442964
0.129189 0.741626 0.445761
0.254757 0.742194 0.452776
0.380332 0.742769 0.463504
0.504917 0.743351 0.481414
0.605415 0.743775 0.481838
0.705914 0.744199 0.482262
0.814292 0.757225 0.499420
0.934993 0.780360 0.523993
0.073017 0.867627 0.463177
0.143216 0.867950 0.466744
0.268840 0.868575 0.475338
0.394472 0.869206 0.487495
0.519195 0.869843 0.505358
0.621845 0.870332 0.505847
0.724496 0.870821 0.506336
0.827147 0.871310 0.506825
0.936812 0.883911 0.525812
0.094299 0.994299 0.485799
0.159651 0.994651 0.490079
0.285332 0.995332 0.500086
0.411020 0.996020 0.513502
0.535826 0.996711 0.531711
0.639249 0.997258 0.532258
0.742672 0.997805 0.532805
0.846095 0.998351 0.533351
0.949518 0.998898 0.533898
0.022484 0.022484 0.525184
0.102806 0.022694 0.525394
0.219773 0.023098 0.525798
0.336739 0.023501 0.526201
0.453705 0.023905 0.526605
0.564519 0.027622 0.530647
0.683783 0.041821 0.545171
0.803196 0.058199 0.561874
0.922756 0.076756 0.580756
0.023842 0.140404 0.526542
0.108644 0.144562 0.526844
0.228496 0.149644 0.527344
0.343025 0.150035 0.527735
0.457553 0.150426 0.528126
0.566209 0.154312 0.532445
0.685660 0.168697 0.549456
0.805257 0.185260 0.568179
0.925002 0.204002 0.588830
0.025200 0.258325 0.527900
0.109982 0.261355 0.528182
0.235573 0.269944 0.528773
0.353163 0.276589 0.529289
0.463289 0.276957 0.529657
0.567900 0.281003 0.534328
0.687538 0.295576 0.555112
0.807321 0.312324 0.576366
0.927251 0.331251 0.599019
0.026557 0.376245 0.529257
0.111320 0.378147 0.529520
0.236854 0.383454 0.530054
0.362475 0.393717 0.530675
0.474737 0.403518 0.531218
0.569591 0.407694 0.536465
0.689422 0.422460 0.563771
0.809392 0.439395 0.588037
0.929507 0.458507 0.612728
0.027915 0.494165 0.530615
0.112658 0.494940 0.530858
0.238134 0.496964 0.531334
0.363638 0.500595 0.531838
0.489259 0.510859 0.532459
0.571285 0.534388 0.540322
0.691322 0.549360 0.581361
0.811477 0.566480 0.607342
0.931774 0.585774 0.632956
0.037835 0.615569 0.540860
0.117722 0.615832 0.541693
0.243228 0.616337 0.543775
0.368735 0.616844 0.547130
0.494250 0.617359 0.554341
0.616152 0.617897 0.585538
0.692710 0.646854 0.600998
0.813214 0.674131 0.623343
0.933745 0.696666 0.647745
0.054315 0.741502 0.557665
0.129357 0.741795 0.559467
0.254920 0.742358 0.563919
0.380488 0.742925 0.570611
0.506064 0.743502 0.582250
0.630003 0.744093 0.607156
0.714016 0.744430 0.607493
0.814612 0.763823 0.624740
0.935427 0.792427 0.649427
0.073204 0.867813 0.576879
0.143401 0.868135 0.579523
0.269021 0.868756 0.585849
0.394646 0.869381 0.594726
0.520280 0.870015 0.608354
0.644648 0.870658 0.631174
0.738188 0.871099 0.631615
0.831728 0.871540 0.632056
0.937109 0.888188 0.651109
0.094502 0.994502 0.598502
0.159853 0.994853 0.601912
0.285530 0.995530 0.609851
0.411212 0.996212 0.620446
0.536903 0.996903 0.635474
0.661463 0.997600 0.657600
0.758568 0.998113 0.658113
0.855672 0.998626 0.658626
0.952776 0.999140 0.659140
0.035033 0.035033 0.653605
0.109978 0.035269 0.653840
0.225977 0.035721 0.654293
0.341976 0.036173 0.654745
0.457975 0.036625 0.655197
0.573974 0.037077 0.655649
0.683953 0.041991 0.659872
0.803382 0.058385 0.675576
0.922959 0.076959 0.693459
0.036555 0.152102 0.655127
0.116520 0.156882 0.655467
0.236068 0.162455 0.656027
0.349945 0.162896 0.656468
0.463823 0.163337 0.656909
0.577701 0.163778 0.657350
0.685825 0.168863 0.661837
0.805440 0.185443 0.679797
0.925201 0.204201 0.699612
0.038076 0.269170 0.656648
0.118024 0.272941 0.656971
0.243690 0.282786 0.657637
0.361523 0.289639 0.658211
0.472061 0.290062 0.658634
0.582598 0.290486 0.659057
0.687697 0.295735 0.663854
0.807499 0.312502 0.684977
0.927446 0.331446 0.707185
0.039597 0.386238 0.658169
0.119527 0.389001 0.658474
0.245147 0.396161 0.659094
0.370845 0.407820 0.659792
0.485578 0.416815 0.660387
0.590081 0.417206 0.660778
0.689570 0.422607 0.665987
0.809561 0.439564 0.691934
0.929695 0.458695 0.717120
0.041118 0.503306 0.659690
0.121031 0.505060 0.659978
0.246603 0.509536 0.660550
0.372222 0.516696 0.661169
0.497961 0.530650 0.661908
0.605393 0.543969 0.662540
0.691443 0.549480 0.668463
0.811630 0.566633 0.702782
0.931952 0.585952 0.731429
0.042639 0.620374 0.661211
0.122534 0.621119 0.661481
0.248059 0.622910 0.662006
0.373600 0.625572 0.662547
0.499179 0.630437 0.663126
0.624917 0.644391 0.663864
0.693259 0.672947 0.672947
0.813720 0.693723 0.725203
0.934226 0.713226 0.755321
0.054485 0.741673 0.672366
0.129525 0.741963 0.673173
0.255084 0.742522 0.675062
0.380644 0.743082 0.677718
0.506208 0.743645 0.682065
0.631780 0.744218 0.691537
0.744766 0.744766 0.724453
0.815147 0.782711 0.750275
0.936064 0.816104 0.775064
0.073390 0.868000 0.690581
0.143585 0.868320 0.692302
0.269202 0.868936 0.696360
0.394821 0.869556 0.701956
0.520446 0.870180 0.710418
0.646082 0.870816 0.725213
0.769622 0.871472 0.756987
0.842062 0.871801 0.757316
0.937476 0.896436 0.776476
0.094705 0.994705 0.711205
0.160054 0.995054 0.713744
0.285728 0.995728 0.719617
0.411405 0.996405 0.727391
0.537088 0.997088 0.738338
0.662782 0.997782 0.755195
0.786900 0.998487 0.783487
0.872671 0.998941 0.783941
0.958442 0.999394 0.784394
0.049698 0.049698 0.782110
0.119265 0.049958 0.782371
0.234297 0.050459 0.782872
0.349329 0.050960 0.783372
0.464361 0.051461 0.783873
0.579393 0.051961 0.784374
0.694425 0.052462 0.784875
0.803569 0.058572 0.789278
0.923162 0.077162 0.806162
0.051383 0.165914 0.783795
0.126511 0.171298 0.784174
0.245694 0.177381 0.784794
0.358806 0.177872 0.785284
0.471917 0.178363 0.785775
0.585029 0.178853 0.786266
0.698140 0.179344 0.786756
0.805622 0.185626 0.791415
0.925401 0.204401 0.810395
0.053067 0.282130 0.785480
0.128180 0.286584 0.785842
0.253920 0.297605 0.786582
0.371678 0.304802 0.787214
0.482012 0.305278 0.787690
0.592345 0.305754 0.788166
0.702679 0.306230 0.788642
0.807676 0.312679 0.793589
0.927641 0.331641 0.815351
0.054752 0.398346 0.787164
0.129848 0.401870 0.787511
0.255547 0.410555 0.788210
0.381319 0.423346 0.788981
0.496831 0.432218 0.789631
0.602791 0.432671 0.790083
0.708750 0.433124 0.790536
0.809730 0.439733 0.795831
0.929883 0.458883 0.821511
0.056436 0.514561 0.788849
0.131516 0.517156 0.789179
0.257174 0.523506 0.789837
0.382884 0.532781 0.790547
0.508697 0.547946 0.791360
0.620151 0.559625 0.792037
0.718208 0.560036 0.792448
0.811784 0.566787 0.798222
0.932129 0.586129 0.829902
0.058121 0.630777 0.790534
0.133185 0.632443 0.790847
0.258802 0.636456 0.791464
0.384450 0.642215 0.792112
0.510159 0.651490 0.792822
0.636025 0.669662 0.793687
0.737917 0.687002 0.794414
0.813839 0.693842 0.801059
0.934384 0.713384 0.843178
0.059806 0.746993 0.792218
0.134853 0.747729 0.792515
0.260429 0.749406 0.793092
0.386015 0.751650 0.793678
0.511621 0.755034 0.794284
0.637278 0.761304 0.794940
0.763144 0.779475 0.795806
0.815626 0.805470 0.805470
0.936665 0.840665 0.870981
0.073577 0.868186 0.804283
0.143770 0.868505 0.805081
0.269383 0.869117 0.806871
0.394996 0.869731 0.809187
0.520612 0.870346 0.812483
0.646231 0.870965 0.817946
0.771862 0.871596 0.829966
0.872129 0.872129 0.861973
0.938113 0.920113 0.902113
0.094908 0.994908 0.823908
0.160256 0.995256 0.825577
0.285926 0.995926 0.829383
0.411598 0.996598 0.834335
0.537273 0.997273 0.841202
0.662955 0.997955 0.851634
0.788652 0.998652 0.869942
0.911740 0.999372 0.909372
0.971265 0.999686 0.909687
0.066477 0.066477 0.910699
0.130666 0.066763 0.910985
0.244731 0.067312 0.911534
0.358796 0.067862 0.912084
0.472861 0.068411 0.912633
0.586926 0.068961 0.913182
0.700991 0.069510 0.913732
0.815056 0.070059 0.914281
0.923365 0.077365 0.918865
0.068326 0.181841 0.912547
0.138617 0.187818 0.912964
0.257404 0.194422 0.913644
0.369687 0.194962 0.914184
0.481970 0.195502 0.914724
0.594253 0.196042 0.915264
0.706537 0.196582 0.915804
0.818820 0.197122 0.916344
0.925601 0.204601 0.921177
0.070174 0.297205 0.914395
0.140450 0.302308 0.914797
0.266263 0.314470 0.915610
0.383803 0.322079 0.916301
0.493654 0.322606 0.916828
0.603505 0.323133 0.917355
0.713357 0.323660 0.917882
0.823208 0.324187 0.918409
0.927836 0.331836 0.923517
0.072022 0.412569 0.916243
0.142283 0.416799 0.916630
0.268059 0.426852 0.917406
0.393902 0.440714 0.918249
0.509637 0.449733 0.918955
0.615971 0.450242 0.919464
0.722305 0.450750 0.919972
0.828638 0.451259 0.920481
0.930071 0.459071 0.925903
0.073870 0.527932 0.918092
0.144116 0.531289 0.918462
0.269855 0.539235 0.919202
0.395646 0.550139 0.919993
0.521528 0.566241 0.920875
0.634421 0.577382 0.921604
0.735215 0.577861 0.922083
0.836010 0.578340 0.922562
0.932306 0.586306 0.928375
0.075718 0.643296 0.919940
0.145948 0.645779 0.920295
0.271650 0.651617 0.920997
0.397390 0.659563 0.921737
0.523194 0.671214 0.922541
0.649129 0.690324 0.923476
0.756881 0.705018 0.924240
0.847669 0.705444 0.924666
0.934542 0.713542 0.931034
0.077566 0.758660 0.921788
0.147781 0.760270 0.922128
0.273446 0.764000 0.922793
0.399133 0.768988 0.923480
0.524860 0.776187 0.924206
0.650664 0.787837 0.925011
0.776666 0.810754 0.926013
0.872310 0.832617 0.926839
0.936779 0.840779 0.934253
0.079414 0.874023 0.923636
0.149614 0.874760 0.923961
0.275242 0.876382 0.924589
0.400877 0.878412 0.925224
0.526525 0.881159 0.925872
0.652198 0.885351 0.926545
0.777936 0.893195 0.927283
0.903938 0.916112 0.928285
0.938500 0.938500 0.938500
0.095111 0.995111 0.936611
0.160457 0.995457 0.937409
0.286124 0.996123 0.939148
0.411791 0.996791 0.941280
0.537459 0.997459 0.944066
0.663129 0.998129 0.948072
0.788804 0.998804 0.954772
0.914494 0.999494 0.969629
1.000000 1.000000 1.000000
0.079125 0.079125 0.979124
0.137935 0.079435 0.979435
0.251033 0.080033 0.980033
0.364131 0.080631 0.980631
0.477229 0.081229 0.981229
0.590327 0.081827 0.981827
0.703425 0.082425 0.982425
0.816523 0.083023 0.983023
0.929621 0.083621 0.983621
0.081136 0.193636 0.981136
0.146590 0.200173 0.981590
0.264901 0.207330 0.982330
0.376204 0.207918 0.982918
0.487507 0.208507 0.983507
0.598809 0.209095 0.984095
0.710112 0.209684 0.984684
0.821415 0.210272 0.985272
0.932718 0.210861 0.985861
0.083148 0.308147 0.983148
0.148586 0.313800 0.983586
0.274472 0.327064 0.984472
0.391556 0.335223 0.985223
0.500465 0.335798 0.985798
0.609374 0.336374 0.986374
0.718283 0.336950 0.986950
0.827192 0.337526 0.987526
0.936102 0.338102 0.988102
0.085159 0.422659 0.985159
0.150582 0.427427 0.985582
0.276431 0.438591 0.986431
0.402347 0.453588 0.987347
0.517713 0.463113 0.988113
0.623271 0.463671 0.988671
0.728829 0.464229 0.989229
0.834387 0.464787 0.989787
0.939945 0.465345 0.990345
0.087170 0.537171 0.987171
0.152578 0.541054 0.987578
0.278390 0.550118 0.988390
0.404256 0.562249 0.989256
0.530212 0.579497 0.990212
0.642998 0.590998 0.990998
0.743530 0.591530 0.991530
0.844061 0.592061 0.992061
0.944593 0.592593 0.992593
0.089182 0.651682 0.989182
0.154574 0.654681 0.989574
0.280349 0.661645 0.990349
0.406165 0.670909 0.991165
0.532047 0.684012 0.992047
0.658056 0.704263 0.993056
0.766541 0.718875 0.993875
0.858695 0.719362 0.994362
0.950849 0.719849 0.994849
0.091193 0.766194 0.991193
0.156570 0.768308 0.991570
0.282308 0.773172 0.992308
0.408073 0.779570 0.993073
0.533883 0.788526 0.993883
0.659777 0.802248 0.994777
0.785856 0.826501 0.995856
0.885728 0.846728 0.996728
0.961127 0.847127 0.997127
0.093205 0.880705 0.993205
0.158566 0.881935 0.993566
0.284267 0.884699 0.994267
0.409982 0.888230 0.994982
0.535719 0.893041 0.995719
0.661498 0.900234 0.996498
0.787370 0.912692 0.997370
0.913521 0.941089 0.998521
0.987489 0.974489 0.999489
0.095216 0.995216 0.995216
0.160562 0.995562 0.995562
0.286226 0.996226 0.996226
0.411891 0.996891 0.996891
0.537555 0.997555 0.997555
0.663219 0.998219 0.998219
0.788884 0.998884 0.998884
0.914548 0.999548 0.999548
1.000000 1.000000 1.000000
