luts/original/noir-shadow.cube
TITLE "Noir Shadow"
LUT_3D_SIZE 33
DOMAIN_MIN 0.0 0.0 0.0
DOMAIN_MAX 1.0 1.0 1.0
0.000000 0.000000 0.012337
0.019678 0.000000 0.013053
0.038086 0.000000 0.013773
0.060067 0.000000 0.014551
0.088590 0.000000 0.015556
0.118228 0.000000 0.017802
0.147875 0.000000 0.020185
0.177531 0.000000 0.022704
0.207197 0.000000 0.025359
0.236871 0.000000 0.028151
0.266556 0.001209 0.031078
0.296249 0.003176 0.034142
0.325951 0.005279 0.037342
0.355663 0.007519 0.040678
0.385384 0.009894 0.044151
0.415114 0.012406 0.047759
0.444854 0.015054 0.051504
0.474603 0.017838 0.055385
0.504361 0.020758 0.059402
0.534128 0.023815 0.063556
0.563905 0.027008 0.067845
0.593690 0.030337 0.072271
0.623485 0.033802 0.076833
0.653290 0.037403 0.081531
0.683103 0.041141 0.086366
0.712926 0.045014 0.091336
0.742758 0.049024 0.096443
0.772599 0.053170 0.101686
0.802450 0.057453 0.107065
0.832309 0.061871 0.112581
0.862178 0.066426 0.118232
0.892056 0.071117 0.124020
0.921944 0.075944 0.129944
0.000000 0.023335 0.013239
0.019678 0.023335 0.013239
0.038086 0.022955 0.013971
0.061475 0.023846 0.014787
0.088831 0.023759 0.015997
0.118481 0.024922 0.018843
0.148140 0.026219 0.021485
0.177808 0.027653 0.024172
0.207485 0.029223 0.026959
0.237172 0.030929 0.029864
0.266867 0.032771 0.032894
0.296572 0.034750 0.036053
0.326286 0.036864 0.039344
0.356009 0.039115 0.042768
0.385742 0.041502 0.046326
0.415484 0.044025 0.050018
0.445235 0.046685 0.053846
0.474995 0.049480 0.057808
0.504764 0.052412 0.061906
0.534543 0.055480 0.066139
0.564331 0.058684 0.070508
0.594128 0.062025 0.075012
0.623935 0.065501 0.079653
0.653751 0.069114 0.084429
0.683576 0.072863 0.089341
0.713410 0.076748 0.094389
0.743253 0.080770 0.099573
0.773106 0.084927 0.104893
0.802968 0.089221 0.110349
0.832839 0.093651 0.115941
0.862720 0.098217 0.121670
0.892609 0.102920 0.127534
0.922508 0.107758 0.133534
0.000000 0.053226 0.014262
0.019043 0.053226 0.014262
0.038086 0.053232 0.014271
0.061980 0.052818 0.015198
0.089045 0.053498 0.017951
0.118732 0.056122 0.021016
0.148403 0.057509 0.023545
0.178083 0.058980 0.026209
0.207772 0.060572 0.029009
0.237469 0.062294 0.031945
0.267176 0.064149 0.035018
0.296893 0.066138 0.038226
0.326618 0.068263 0.041571
0.356353 0.070523 0.045052
0.386097 0.072918 0.048669
0.415850 0.075450 0.052423
0.445612 0.078117 0.056312
0.475384 0.080920 0.060338
0.505165 0.083859 0.064500
0.534955 0.086934 0.068798
0.564754 0.090146 0.073232
0.594563 0.093493 0.077803
0.624381 0.096977 0.082509
0.654208 0.100596 0.087352
0.684044 0.104352 0.092331
0.713890 0.108244 0.097447
0.743744 0.112272 0.102698
0.773608 0.116437 0.108086
0.803482 0.120737 0.113610
0.833364 0.125174 0.119270
0.863256 0.129746 0.125066
0.893157 0.134455 0.130999
0.923068 0.139300 0.137068
0.000000 0.084233 0.016526
0.018408 0.084233 0.016526
0.036816 0.084238 0.016570
0.063504 0.084308 0.017381
0.092732 0.083913 0.020081
0.118917 0.083811 0.021201
0.148617 0.086188 0.023759
0.178314 0.087988 0.026440
0.208016 0.089726 0.029254
0.237726 0.091516 0.032202
0.267445 0.093400 0.035286
0.297172 0.095396 0.038506
0.326909 0.097512 0.041862
0.356654 0.099753 0.045354
0.386409 0.102123 0.048982
0.416173 0.104625 0.052746
0.445946 0.107258 0.056646
0.475728 0.110024 0.060682
0.505519 0.112924 0.064854
0.535320 0.115958 0.069163
0.565129 0.119127 0.073607
0.594948 0.122430 0.078188
0.624777 0.125869 0.082905
0.654614 0.129443 0.087759
0.684461 0.133152 0.092748
0.714317 0.136997 0.097874
0.744182 0.140978 0.103136
0.774056 0.145094 0.108534
0.803940 0.149346 0.114068
0.833833 0.153733 0.119738
0.863735 0.158257 0.125545
0.893646 0.162916 0.131488
0.923567 0.167711 0.137567
0.000000 0.115263 0.018941
0.017773 0.115263 0.018941
0.035547 0.115269 0.019004
0.063608 0.115342 0.020057
0.094515 0.115414 0.021680
0.121676 0.115024 0.022762
0.148831 0.114866 0.023972
0.178545 0.116996 0.026671
0.208261 0.118879 0.029498
0.237983 0.120738 0.032459
0.267713 0.122651 0.035555
0.297452 0.124653 0.038786
0.327200 0.126760 0.042153
0.356956 0.128984 0.045655
0.386721 0.131329 0.049294
0.416496 0.133800 0.053068
0.446279 0.136399 0.056979
0.476072 0.139128 0.061026
0.505874 0.141989 0.065209
0.535684 0.144982 0.069528
0.565505 0.148108 0.073983
0.595334 0.151368 0.078574
0.625173 0.154762 0.083301
0.655020 0.158290 0.088165
0.684877 0.161953 0.093165
0.714744 0.165750 0.098301
0.744619 0.169683 0.103573
0.774504 0.173751 0.108981
0.804398 0.177954 0.114526
0.834301 0.182293 0.120206
0.864213 0.186767 0.126023
0.894135 0.191377 0.131976
0.924066 0.196122 0.138066
0.000000 0.146317 0.021507
0.017139 0.146317 0.021507
0.034277 0.146323 0.021584
0.063862 0.146400 0.022787
0.094821 0.146476 0.024375
0.123843 0.146539 0.024438
0.151307 0.146167 0.025603
0.178775 0.146004 0.026901
0.208505 0.148033 0.029743
0.238240 0.149961 0.032716
0.267982 0.151903 0.035823
0.297732 0.153910 0.039066
0.327490 0.156009 0.042443
0.357258 0.158214 0.045957
0.387034 0.160534 0.049606
0.416819 0.162975 0.053391
0.446613 0.165540 0.057313
0.476416 0.168232 0.061370
0.506228 0.171054 0.065563
0.536049 0.174006 0.069893
0.565880 0.177089 0.074358
0.595720 0.180305 0.078960
0.625569 0.183654 0.083697
0.655427 0.187137 0.088571
0.685294 0.190753 0.093582
0.715171 0.194503 0.098728
0.745056 0.198389 0.104010
0.774951 0.202408 0.109429
0.804856 0.206563 0.114984
0.834769 0.210853 0.120675
0.864692 0.215278 0.126502
0.894624 0.219838 0.132465
0.924565 0.224533 0.138565
0.000000 0.177394 0.024223
0.016504 0.177394 0.024223
0.033008 0.177400 0.024311
0.064266 0.177481 0.025631
0.095249 0.177560 0.027221
0.124397 0.177627 0.027287
0.153545 0.177694 0.027354
0.181141 0.177342 0.028601
0.208750 0.177187 0.029987
0.238497 0.179183 0.032973
0.268250 0.181154 0.036092
0.298012 0.183167 0.039345
0.327781 0.185258 0.042734
0.357559 0.187444 0.046259
0.387346 0.189739 0.049919
0.417141 0.192150 0.053714
0.446946 0.194681 0.057646
0.476760 0.197336 0.061714
0.506582 0.200119 0.065918
0.536414 0.203030 0.070257
0.566255 0.206071 0.074733
0.596105 0.209243 0.079345
0.625965 0.212547 0.084094
0.655833 0.215983 0.088978
0.685711 0.219553 0.093998
0.715598 0.223257 0.099155
0.745494 0.227094 0.104448
0.775399 0.231066 0.109877
0.805314 0.235172 0.115442
0.835237 0.239412 0.121143
0.865170 0.243788 0.126980
0.895112 0.248299 0.132954
0.925064 0.252944 0.139064
0.000512 0.208495 0.027090
0.016381 0.208495 0.027090
0.033487 0.208502 0.027187
0.064821 0.208586 0.028606
0.095815 0.208669 0.030216
0.125016 0.208739 0.030287
0.154217 0.208810 0.030357
0.183418 0.208880 0.030428
0.211076 0.208546 0.031757
0.238754 0.208405 0.033230
0.268519 0.210405 0.036360
0.298291 0.212425 0.039625
0.328072 0.214506 0.043025
0.357861 0.216675 0.046560
0.387658 0.218944 0.050231
0.417464 0.221325 0.054037
0.447280 0.223822 0.057980
0.477104 0.226441 0.062058
0.506937 0.229184 0.066272
0.536779 0.232053 0.070622
0.566630 0.235052 0.075109
0.596491 0.238180 0.079731
0.626361 0.241439 0.084490
0.656239 0.244830 0.089384
0.686127 0.248353 0.094415
0.716025 0.252010 0.099582
0.745931 0.255799 0.104885
0.775847 0.259723 0.110324
0.805771 0.263780 0.115900
0.835705 0.267972 0.121611
0.865649 0.272298 0.127459
0.895601 0.276760 0.133443
0.925563 0.281355 0.139563
0.002432 0.239620 0.030107
0.017666 0.239620 0.030107
0.034189 0.239627 0.030212
0.065527 0.239714 0.031721
0.096526 0.239800 0.033363
0.125742 0.239874 0.033437
0.154959 0.239948 0.033511
0.184176 0.240022 0.033585
0.213392 0.240096 0.033659
0.241077 0.239780 0.035069
0.268788 0.239656 0.036629
0.298571 0.241682 0.039905
0.328363 0.243755 0.043316
0.358162 0.245905 0.046862
0.387970 0.248150 0.050543
0.417787 0.250500 0.054360
0.447613 0.252963 0.058313
0.477448 0.255545 0.062402
0.507291 0.258248 0.066626
0.537144 0.261077 0.070987
0.567006 0.264033 0.075484
0.596877 0.267117 0.080117
0.626757 0.270332 0.084886
0.656646 0.273677 0.089791
0.686544 0.277154 0.094832
0.716452 0.280763 0.100009
0.746368 0.284505 0.105322
0.776294 0.288380 0.110772
0.806229 0.292389 0.116358
0.836174 0.296532 0.122079
0.866127 0.300809 0.127937
0.896090 0.305220 0.133932
0.926062 0.309766 0.140062
0.004503 0.270768 0.033275
0.019103 0.270768 0.033275
0.035042 0.270775 0.033388
0.066383 0.270866 0.034981
0.097384 0.270956 0.036660
0.126594 0.271033 0.036737
0.155805 0.271110 0.036814
0.185016 0.271187 0.036892
0.214226 0.271265 0.036969
0.243437 0.271342 0.037046
0.271128 0.271044 0.038539
0.298851 0.270939 0.040185
0.328653 0.273004 0.043607
0.358464 0.275136 0.047163
0.388283 0.277355 0.050855
0.418110 0.279675 0.054683
0.447947 0.282104 0.058647
0.477792 0.284649 0.062746
0.507646 0.287313 0.066981
0.537509 0.290101 0.071352
0.567381 0.293014 0.075859
0.597262 0.296055 0.080502
0.627153 0.299224 0.085282
0.657052 0.302524 0.090197
0.686961 0.305954 0.095248
0.716879 0.309516 0.100436
0.746806 0.313210 0.105760
0.776742 0.317037 0.111219
0.806687 0.320998 0.116815
0.836642 0.325092 0.122548
0.866606 0.329319 0.128416
0.896579 0.333681 0.134420
0.926561 0.338177 0.140561
0.006725 0.301939 0.036593
0.020689 0.301939 0.036593
0.036045 0.301947 0.036714
0.067389 0.302042 0.038387
0.098390 0.302135 0.040107
0.127581 0.302215 0.040188
0.156773 0.302296 0.040268
0.185964 0.302376 0.040349
0.215155 0.302457 0.040429
0.244346 0.302537 0.040510
0.273538 0.302618 0.040590
0.301222 0.302338 0.042164
0.328944 0.302253 0.043897
0.358766 0.304366 0.047465
0.388595 0.306560 0.051168
0.418433 0.308850 0.055006
0.448280 0.311245 0.058980
0.478136 0.313753 0.063090
0.508000 0.316378 0.067335
0.537874 0.319125 0.071717
0.567756 0.321995 0.076234
0.597648 0.324992 0.080888
0.627549 0.328117 0.085678
0.657459 0.331370 0.090603
0.687378 0.334754 0.095665
0.717306 0.338269 0.100863
0.747243 0.341916 0.106197
0.777190 0.345695 0.111667
0.807145 0.349606 0.117273
0.837110 0.353651 0.123016
0.867084 0.357830 0.128894
0.897068 0.362142 0.134909
0.927060 0.366588 0.141060
0.009097 0.333135 0.040062
0.022427 0.333135 0.040062
0.037198 0.333143 0.040189
0.068547 0.333241 0.041940
0.099546 0.333337 0.043705
0.128708 0.333421 0.043789
0.157871 0.333505 0.043873
0.187034 0.333588 0.043957
0.216197 0.333672 0.044040
0.245360 0.333756 0.044124
0.274522 0.333840 0.044208
0.303685 0.333923 0.044291
0.331355 0.333662 0.045947
0.359067 0.333597 0.047767
0.388907 0.335766 0.051480
0.418756 0.338025 0.055329
0.448613 0.340386 0.059313
0.478480 0.342857 0.063434
0.508355 0.345443 0.067690
0.538239 0.348149 0.072082
0.568132 0.350977 0.076610
0.598034 0.353929 0.081274
0.627945 0.357009 0.086074
0.657865 0.360217 0.091010
0.687794 0.363554 0.096082
0.717733 0.367022 0.101290
0.747680 0.370621 0.106634
0.777637 0.374352 0.112115
0.807603 0.378215 0.117731
0.837578 0.382211 0.123484
0.867563 0.386340 0.129373
0.897556 0.390603 0.135398
0.927559 0.394999 0.141559
0.011619 0.364354 0.043682
0.024315 0.364354 0.043682
0.038502 0.364362 0.043816
0.069854 0.364464 0.045641
0.100851 0.364563 0.047454
0.129979 0.364650 0.047541
0.159107 0.364737 0.047628
0.188235 0.364824 0.047715
0.217363 0.364911 0.047802
0.246491 0.364998 0.047888
0.275619 0.365085 0.047975
0.304747 0.365172 0.048062
0.333875 0.365258 0.048149
0.361523 0.365015 0.049886
0.389220 0.364971 0.051792
0.419079 0.367200 0.055652
0.448947 0.369527 0.059647
0.478824 0.371961 0.063778
0.508709 0.374508 0.068044
0.538603 0.377172 0.072447
0.568507 0.379958 0.076985
0.598419 0.382867 0.081659
0.628341 0.385902 0.086470
0.658271 0.389064 0.091416
0.688211 0.392355 0.096498
0.718160 0.395775 0.101717
0.748118 0.399327 0.107072
0.778085 0.403009 0.112562
0.808061 0.406824 0.118189
0.838047 0.410771 0.123952
0.868041 0.414851 0.129851
0.898045 0.419064 0.135887
0.928058 0.423410 0.142058
0.014293 0.395596 0.047452
0.026353 0.395596 0.047452
0.039957 0.395605 0.047592
0.071312 0.395710 0.049492
0.102305 0.395813 0.051353
0.131394 0.395903 0.051443
0.160483 0.395993 0.051533
0.189571 0.396083 0.051623
0.218660 0.396173 0.051713
0.247748 0.396263 0.051803
0.276837 0.396353 0.051893
0.305925 0.396443 0.051983
0.335014 0.396533 0.052073
0.364102 0.396623 0.052163
0.391725 0.396398 0.053982
0.419402 0.396375 0.055975
0.449280 0.398668 0.059980
0.479168 0.401065 0.064122
0.509064 0.403573 0.068399
0.538968 0.406196 0.072812
0.568882 0.408939 0.077360
0.598805 0.411804 0.082045
0.628737 0.414794 0.086866
0.658678 0.417911 0.091822
0.688628 0.421155 0.096915
0.718587 0.424528 0.102144
0.748555 0.428032 0.107509
0.778533 0.431666 0.113010
0.808519 0.435432 0.118647
0.838515 0.439330 0.124420
0.868520 0.443361 0.130330
0.898534 0.447525 0.136376
0.928557 0.451821 0.142557
0.017116 0.426862 0.051373
0.028542 0.426862 0.051373
0.041563 0.426871 0.051519
0.072921 0.426980 0.053492
0.103910 0.427087 0.055403
0.132956 0.427180 0.055496
0.162002 0.427273 0.055589
0.191047 0.427366 0.055682
0.220093 0.427459 0.055776
0.249139 0.427552 0.055869
0.278184 0.427645 0.055962
0.307230 0.427739 0.056055
0.336276 0.427832 0.056148
0.365321 0.427925 0.056241
0.394367 0.428018 0.056334
0.421961 0.427811 0.058234
0.449614 0.427809 0.060314
0.479512 0.430169 0.064466
0.509418 0.432638 0.068753
0.539333 0.435220 0.073176
0.569257 0.437920 0.077736
0.599191 0.440742 0.082431
0.629133 0.443687 0.087262
0.659084 0.446757 0.092229
0.689044 0.449955 0.097332
0.719014 0.453282 0.102571
0.748992 0.456737 0.107946
0.778980 0.460324 0.113458
0.808977 0.464041 0.119105
0.838983 0.467890 0.124889
0.868998 0.471871 0.130808
0.899023 0.475985 0.136864
0.929056 0.480232 0.143056
0.020091 0.458152 0.055444
0.030882 0.458152 0.055444
0.043318 0.458161 0.055596
0.074681 0.458273 0.057641
0.105665 0.458384 0.059603
0.134665 0.458480 0.059699
0.163665 0.458576 0.059796
0.192666 0.458672 0.059892
0.221666 0.458769 0.059988
0.250666 0.458865 0.060085
0.279666 0.458961 0.060181
0.308666 0.459057 0.060277
0.337666 0.459154 0.060373
0.366666 0.459250 0.060470
0.395666 0.459346 0.060566
0.424666 0.459442 0.060662
0.452228 0.459253 0.062644
0.479856 0.459274 0.064810
0.509772 0.461703 0.069108
0.539698 0.464244 0.073541
0.569633 0.466901 0.078111
0.599576 0.469679 0.082816
0.629529 0.472579 0.087658
0.659490 0.475604 0.092635
0.689461 0.478756 0.097749
0.719441 0.482035 0.102998
0.749430 0.485443 0.108384
0.779428 0.488981 0.113905
0.809435 0.492650 0.119563
0.839451 0.496450 0.125357
0.869477 0.500382 0.131287
0.899512 0.504446 0.137353
0.929555 0.508643 0.143555
0.023216 0.489466 0.059666
0.033372 0.489466 0.059666
0.045225 0.489475 0.059824
0.076591 0.489591 0.061940
0.107571 0.489704 0.063954
0.136523 0.489803 0.064053
0.165475 0.489903 0.064153
0.194428 0.490002 0.064252
0.223380 0.490102 0.064352
0.252332 0.490201 0.064451
0.281285 0.490300 0.064550
0.310237 0.490400 0.064650
0.339189 0.490499 0.064749
0.368142 0.490598 0.064848
0.397094 0.490698 0.064948
0.426046 0.490797 0.065047
0.454999 0.490897 0.065147
0.482528 0.490725 0.067209
0.510127 0.490768 0.069462
0.540063 0.493268 0.073906
0.570008 0.495883 0.078486
0.599962 0.498616 0.083202
0.629925 0.501472 0.088054
0.659897 0.504451 0.093041
0.689878 0.507556 0.098165
0.719868 0.510788 0.103425
0.749867 0.514148 0.108821
0.779875 0.517638 0.114353
0.809893 0.521258 0.120021
0.839920 0.525010 0.125825
0.869955 0.528892 0.131765
0.900000 0.532907 0.137842
0.930054 0.537054 0.144054
0.026491 0.520803 0.064038
0.036013 0.520803 0.064038
0.047282 0.520812 0.064202
0.078651 0.520931 0.066390
0.109626 0.521048 0.068455
0.138529 0.521151 0.068558
0.167432 0.521253 0.068660
0.196335 0.521356 0.068763
0.225238 0.521458 0.068865
0.254141 0.521561 0.068968
0.283044 0.521663 0.069070
0.311947 0.521765 0.069173
0.340850 0.521868 0.069275
0.369753 0.521970 0.069378
0.398656 0.522073 0.069480
0.427559 0.522175 0.069583
0.456462 0.522278 0.069685
0.485365 0.522380 0.069788
0.512859 0.522227 0.071932
0.540428 0.522291 0.074271
0.570383 0.524864 0.078861
0.600348 0.527554 0.083588
0.630321 0.530364 0.088450
0.660303 0.533298 0.093448
0.690295 0.536356 0.098582
0.720295 0.539541 0.103852
0.750304 0.542854 0.109258
0.780323 0.546296 0.114801
0.810351 0.549867 0.120479
0.840388 0.553569 0.126293
0.870434 0.557403 0.132244
0.900489 0.561368 0.138331
0.930553 0.565465 0.144553
0.029917 0.552163 0.068561
0.038804 0.552163 0.068561
0.049489 0.552173 0.068731
0.080862 0.552296 0.070989
0.111832 0.552416 0.073107
0.140684 0.552522 0.073213
0.169536 0.552627 0.073319
0.198388 0.552733 0.073424
0.227241 0.552838 0.073530
0.256093 0.552944 0.073635
0.284945 0.553049 0.073741
0.313797 0.553155 0.073846
0.342649 0.553260 0.073952
0.371502 0.553366 0.074057
0.400354 0.553472 0.074163
0.429206 0.553577 0.074269
0.458058 0.553683 0.074374
0.486910 0.553788 0.074480
0.515763 0.553894 0.074585
0.543220 0.553758 0.076811
0.570759 0.553845 0.079237
0.600733 0.556491 0.083973
0.630717 0.559257 0.088846
0.660710 0.562144 0.093854
0.690711 0.565156 0.098999
0.720722 0.568294 0.104279
0.750742 0.571559 0.109696
0.780771 0.574953 0.115248
0.810809 0.578476 0.120937
0.840856 0.582129 0.126762
0.870912 0.585913 0.132722
0.900978 0.589829 0.138819
0.931053 0.593876 0.145053
0.033494 0.583547 0.073234
0.041746 0.583547 0.073234
0.051847 0.583557 0.073410
0.083224 0.583684 0.075738
0.114188 0.583807 0.077910
0.142988 0.583916 0.078019
0.171789 0.584025 0.078127
0.200589 0.584133 0.078236
0.229389 0.584242 0.078344
0.258190 0.584351 0.078453
0.286990 0.584459 0.078562
0.315790 0.584568 0.078670
0.344591 0.584676 0.078779
0.373391 0.584785 0.078888
0.402191 0.584894 0.078996
0.430991 0.585002 0.079105
0.459792 0.585111 0.079214
0.488592 0.585220 0.079322
0.517392 0.585328 0.079431
0.546193 0.585437 0.079539
0.573613 0.585319 0.081846
0.601119 0.585428 0.084359
0.631113 0.588149 0.089242
0.661116 0.590991 0.094261
0.691128 0.593957 0.099415
0.721149 0.597047 0.104706
0.751179 0.600265 0.110133
0.781218 0.603610 0.115696
0.811267 0.607084 0.121395
0.841324 0.610689 0.127230
0.871391 0.614424 0.133201
0.901467 0.618290 0.139308
0.931552 0.622287 0.145552
0.037221 0.614955 0.078058
0.044838 0.614955 0.078058
0.054356 0.614965 0.078240
0.085736 0.615095 0.080637
0.116695 0.615222 0.082863
0.145442 0.615334 0.082975
0.174190 0.615446 0.083086
0.202937 0.615557 0.083198
0.231685 0.615669 0.083310
0.260432 0.615781 0.083422
0.289179 0.615893 0.083533
0.317927 0.616004 0.083645
0.346674 0.616116 0.083757
0.375422 0.616228 0.083868
0.404169 0.616339 0.083980
0.432917 0.616451 0.084092
0.461664 0.616563 0.084204
0.490412 0.616675 0.084315
0.519159 0.616786 0.084427
0.547907 0.616898 0.084539
0.576654 0.617010 0.084650
0.604036 0.616910 0.087039
0.631509 0.617042 0.089638
0.661522 0.619838 0.094667
0.691545 0.622757 0.099832
0.721576 0.625800 0.105133
0.751616 0.628970 0.110570
0.781666 0.632267 0.116144
0.811725 0.635693 0.121853
0.841792 0.639248 0.127698
0.871869 0.642934 0.133680
0.901955 0.646750 0.139797
0.932051 0.650698 0.146051
0.041098 0.646386 0.083033
0.048081 0.646386 0.083033
0.057015 0.646397 0.083220
0.088398 0.646530 0.085687
0.119352 0.646661 0.087967
0.148046 0.646776 0.088081
0.176739 0.646890 0.088196
0.205433 0.647005 0.088311
0.234127 0.647120 0.088426
0.262821 0.647235 0.088540
0.291515 0.647350 0.088655
0.320208 0.647464 0.088770
0.348902 0.647579 0.088885
0.377596 0.647694 0.089000
0.406290 0.647809 0.089114
0.434984 0.647924 0.089229
0.463678 0.648038 0.089344
0.492371 0.648153 0.089459
0.521065 0.648268 0.089574
0.549759 0.648383 0.089688
0.578453 0.648497 0.089803
0.607147 0.648612 0.089918
0.634489 0.648530 0.092388
0.661929 0.648685 0.095073
0.691961 0.651557 0.100249
0.722003 0.654553 0.105560
0.752054 0.657676 0.111008
0.782114 0.660925 0.116591
0.812183 0.664302 0.122311
0.842261 0.667808 0.128166
0.872348 0.671444 0.134158
0.902444 0.675211 0.140286
0.932550 0.679109 0.146550
0.045127 0.677841 0.088158
0.051474 0.677841 0.088158
0.059825 0.677852 0.088351
0.091212 0.677989 0.090887
0.122159 0.678123 0.093221
0.150799 0.678241 0.093339
0.179438 0.678359 0.093456
0.208078 0.678477 0.093574
0.236717 0.678594 0.093692
0.265357 0.678712 0.093810
0.293996 0.678830 0.093928
0.322636 0.678948 0.094046
0.351275 0.679066 0.094164
0.379915 0.679184 0.094281
0.408554 0.679302 0.094399
0.437194 0.679419 0.094517
0.465833 0.679537 0.094635
0.494473 0.679655 0.094753
0.523112 0.679773 0.094871
0.551752 0.679891 0.094989
0.580391 0.680009 0.095106
0.609031 0.680127 0.095224
0.637670 0.680244 0.095342
0.664973 0.680180 0.097893
0.692378 0.680357 0.100665
0.722430 0.683307 0.105987
0.752491 0.686381 0.111445
0.782561 0.689582 0.117039
0.812640 0.692910 0.122769
0.842729 0.696368 0.128635
0.872826 0.699955 0.134637
0.902933 0.703672 0.140775
0.933049 0.707520 0.147049
0.049305 0.709320 0.093434
0.055018 0.709320 0.093434
0.062785 0.709331 0.093633
0.094176 0.709471 0.096237
0.125117 0.709609 0.098625
0.153702 0.709730 0.098746
0.182286 0.709851 0.098867
0.210871 0.709972 0.098988
0.239456 0.710093 0.099109
0.268040 0.710213 0.099230
0.296625 0.710334 0.099351
0.325209 0.710455 0.099472
0.353794 0.710576 0.099593
0.382379 0.710697 0.099714
0.410963 0.710818 0.099835
0.439548 0.710939 0.099956
0.468132 0.711060 0.100076
0.496717 0.711181 0.100197
0.525302 0.711302 0.100318
0.553886 0.711423 0.100439
0.582471 0.711544 0.100560
0.611056 0.711664 0.100681
0.639640 0.711785 0.100802
0.668225 0.711906 0.100923
0.695487 0.711860 0.103555
0.722857 0.712060 0.106414
0.752928 0.715086 0.111882
0.783009 0.718239 0.117486
0.813098 0.721519 0.123227
0.843197 0.724928 0.129103
0.873305 0.728465 0.135115
0.903422 0.732133 0.141263
0.933548 0.735931 0.147548
0.053635 0.740822 0.098860
0.058713 0.740822 0.098860
0.065896 0.740834 0.099064
0.097290 0.740977 0.101738
0.128226 0.741118 0.104181
0.156755 0.741242 0.104305
0.185284 0.741366 0.104429
0.213813 0.741490 0.104553
0.242342 0.741614 0.104677
0.270872 0.741738 0.104801
0.299401 0.741862 0.104925
0.327930 0.741986 0.105049
0.356459 0.742110 0.105173
0.384988 0.742234 0.105297
0.413518 0.742358 0.105421
0.442047 0.742482 0.105545
0.470576 0.742606 0.105669
0.499105 0.742730 0.105793
0.527635 0.742854 0.105916
0.556164 0.742978 0.106040
0.584693 0.743102 0.106164
0.613222 0.743226 0.106288
0.641751 0.743350 0.106412
0.670281 0.743474 0.106536
0.698810 0.743598 0.106660
0.726032 0.743570 0.109374
0.753366 0.743792 0.112320
0.783457 0.746896 0.117934
0.813556 0.750128 0.123685
0.843665 0.753487 0.129571
0.873783 0.756976 0.135594
0.903911 0.760594 0.141752
0.934047 0.764342 0.148047
0.058115 0.772348 0.104437
0.062558 0.772348 0.104437
0.069158 0.772360 0.104647
0.100555 0.772507 0.107389
0.131484 0.772651 0.109887
0.159958 0.772778 0.110014
0.188431 0.772905 0.110141
0.216905 0.773032 0.110268
0.245378 0.773159 0.110395
0.273851 0.773286 0.110522
0.302325 0.773413 0.110649
0.330798 0.773540 0.110776
0.359271 0.773668 0.110903
0.387745 0.773795 0.111030
0.416218 0.773922 0.111157
0.444692 0.774049 0.111284
0.473165 0.774176 0.111411
0.501638 0.774303 0.111538
0.530112 0.774430 0.111665
0.558585 0.774557 0.111792
0.587059 0.774684 0.111919
0.615532 0.774811 0.112046
0.644005 0.774938 0.112173
0.672479 0.775065 0.112300
0.700952 0.775192 0.112427
0.729425 0.775319 0.112554
0.756606 0.775309 0.115350
0.783904 0.775554 0.118382
0.814014 0.778737 0.124142
0.844134 0.782047 0.130039
0.874262 0.785486 0.136072
0.904399 0.789055 0.142241
0.934546 0.792753 0.148546
0.062745 0.803897 0.110164
0.066554 0.803897 0.110164
0.072570 0.803909 0.110380
0.103970 0.804060 0.113190
0.134894 0.804208 0.115743
0.163311 0.804338 0.115873
0.191728 0.804468 0.116003
0.220145 0.804598 0.116133
0.248563 0.804728 0.116263
0.276980 0.804858 0.116393
0.305397 0.804988 0.116524
0.333814 0.805119 0.116654
0.362231 0.805249 0.116784
0.390648 0.805379 0.116914
0.419065 0.805509 0.117044
0.447483 0.805639 0.117174
0.475900 0.805769 0.117304
0.504317 0.805899 0.117434
0.532734 0.806029 0.117564
0.561151 0.806159 0.117694
0.589568 0.806289 0.117825
0.617986 0.806420 0.117955
0.646403 0.806550 0.118085
0.674820 0.806680 0.118215
0.703237 0.806810 0.118345
0.731654 0.806940 0.118475
0.760071 0.807070 0.118605
