luts/original/patio-warmth.cube
TITLE "Patio Warmth"
LUT_3D_SIZE 9
DOMAIN_MIN 0.0 0.0 0.0
DOMAIN_MAX 1.0 1.0 1.0
0.026168 0.005610 0.005610
0.157014 0.003999 0.003999
0.287773 0.001290 0.001290
0.418446 0.000000 0.000000
0.549032 0.000000 0.000000
0.679532 0.000000 0.000000
0.809946 0.000000 0.000000
0.940273 0.000000 0.000000
1.000000 0.000000 0.000000
0.029745 0.132753 0.004670
0.156243 0.131223 0.003266
0.286857 0.128801 0.000420
0.417384 0.127828 0.000000
0.547825 0.127410 0.000000
0.678180 0.127130 0.000000
0.808448 0.126923 0.000000
0.938630 0.126761 0.000000
1.000000 0.126770 0.000000
0.031164 0.258297 0.001476
0.159306 0.258025 0.001218
0.285940 0.256355 0.000000
0.416322 0.255038 0.000000
0.546618 0.254276 0.000000
0.676828 0.253763 0.000000
0.806951 0.253382 0.000000
0.936988 0.253080 0.000000
1.000000 0.253080 0.000000
0.033910 0.383551 0.000000
0.161609 0.383236 0.000000
0.289098 0.382920 0.000000
0.415261 0.381632 0.000000
0.545411 0.380599 0.000000
0.675476 0.379898 0.000000
0.805453 0.379375 0.000000
0.935345 0.378957 0.000000
1.000000 0.378935 0.000000
0.038062 0.508515 0.000000
0.165061 0.508156 0.000000
0.291881 0.507797 0.000000
0.418522 0.507438 0.000000
0.544204 0.506378 0.000000
0.674123 0.505537 0.000000
0.803956 0.504903 0.000000
0.933702 0.504393 0.000000
1.000000 0.504335 0.000000
0.042314 0.633187 0.000000
0.168836 0.632785 0.000000
0.295197 0.632383 0.000000
0.421397 0.631981 0.000000
0.547436 0.631579 0.000000
0.672771 0.630678 0.000000
0.802459 0.629966 0.000000
0.932060 0.629387 0.000000
1.000000 0.629284 0.000000
0.046618 0.757569 0.000000
0.172772 0.757124 0.000000
0.298779 0.756679 0.000000
0.424637 0.756234 0.000000
0.550346 0.755789 0.000000
0.675908 0.755344 0.000000
0.800961 0.754564 0.000000
0.930417 0.753940 0.000000
1.000000 0.753784 0.000000
0.050950 0.881661 0.000000
0.176801 0.881173 0.000000
0.302513 0.880684 0.000000
0.428085 0.880196 0.000000
0.553517 0.879708 0.000000
0.678810 0.879219 0.000000
0.803964 0.878731 0.000000
0.928774 0.878051 0.000000
1.000000 0.877837 0.000000
0.055302 1.000000 0.000000
0.180892 1.000000 0.000000
0.306348 1.000000 0.000000
0.431670 1.000000 0.000000
0.556858 1.000000 0.000000
0.681913 1.000000 0.000000
0.806834 1.000000 0.000000
0.931623 1.000000 0.000000
1.000000 1.000000 0.000000
0.031785 0.006547 0.109762
0.156970 0.003958 0.106909
0.287721 0.001241 0.099957
0.418386 0.000000 0.094090
0.548964 0.000000 0.089368
0.679456 0.000000 0.084730
0.809861 0.000000 0.080137
0.940180 0.000000 0.075571
1.000000 0.000000 0.071113
0.028347 0.132709 0.106570
0.156199 0.130353 0.104506
0.286805 0.127301 0.097183
0.417324 0.123443 0.088763
0.547757 0.118554 0.079244
0.678104 0.112592 0.068628
0.808364 0.105545 0.056914
0.938538 0.097408 0.044103
1.000000 0.091861 0.033859
0.029615 0.258246 0.098764
0.158514 0.257973 0.097981
0.285888 0.255782 0.096313
0.416262 0.252008 0.087754
0.546550 0.247349 0.078098
0.676751 0.241674 0.067343
0.806866 0.234942 0.055492
0.936895 0.227134 0.042542
1.000000 0.221876 0.032071
0.029590 0.383491 0.089819
0.158453 0.383176 0.088978
0.287871 0.382860 0.088678
0.415201 0.380537 0.086745
0.545343 0.376114 0.076951
0.675399 0.370729 0.066059
0.805369 0.364313 0.054069
0.935252 0.356837 0.040982
1.000000 0.351864 0.030283
0.028274 0.508446 0.079607
0.157353 0.508088 0.078683
0.287026 0.507729 0.078342
0.416688 0.507370 0.078002
0.544136 0.504847 0.075804
0.674047 0.499756 0.064774
0.803871 0.493659 0.052647
0.933609 0.486515 0.039421
1.000000 0.481826 0.028495
0.025666 0.633111 0.068111
0.155045 0.632709 0.067097
0.285064 0.632307 0.066715
0.415074 0.631905 0.066333
0.545075 0.631503 0.065951
0.672695 0.628755 0.063490
0.802374 0.622979 0.051224
0.931967 0.616170 0.037861
1.000000 0.611762 0.026707
0.021767 0.757485 0.055328
0.151481 0.757040 0.054219
0.281889 0.756595 0.053796
0.412288 0.756149 0.053373
0.542679 0.755704 0.052950
0.673062 0.755259 0.052527
0.800876 0.752273 0.049801
0.930324 0.745801 0.036300
1.000000 0.741672 0.024919
0.016576 0.881568 0.041255
0.146646 0.881080 0.040049
0.277464 0.880592 0.039585
0.408274 0.880103 0.039122
0.539076 0.879615 0.038658
0.669871 0.879127 0.038194
0.800658 0.878638 0.037730
0.928681 0.875408 0.034739
1.000000 0.871557 0.023131
0.010361 1.000000 0.026159
0.140774 1.000000 0.024830
0.271991 1.000000 0.024298
0.403200 1.000000 0.023767
0.534401 1.000000 0.023235
0.665595 1.000000 0.022704
0.796781 1.000000 0.022172
0.927959 1.000000 0.021641
1.000000 1.000000 0.021343
0.034227 0.004490 0.231798
0.162479 0.004231 0.231526
0.287629 0.001153 0.228265
0.418278 0.000000 0.222161
0.548842 0.000000 0.216992
0.679319 0.000000 0.212055
0.809710 0.000000 0.207243
0.940014 0.000000 0.202506
1.000000 0.000000 0.198063
0.031807 0.131344 0.230882
0.160820 0.128360 0.230610
0.286712 0.125283 0.225301
0.417217 0.121317 0.216700
0.547635 0.116253 0.207263
0.677967 0.110092 0.196813
0.808213 0.102833 0.185303
0.938372 0.094477 0.172716
1.000000 0.088678 0.162742
0.029527 0.258153 0.228044
0.154268 0.257881 0.224350
0.285796 0.253510 0.221225
0.416155 0.248396 0.212652
0.546428 0.243040 0.202982
0.676615 0.236780 0.192214
0.806715 0.229498 0.180348
0.936729 0.221155 0.167385
1.000000 0.215358 0.156890
0.029488 0.383384 0.219230
0.154189 0.383069 0.214763
0.285929 0.382753 0.213576
0.415094 0.379363 0.211644
0.545221 0.373528 0.201835
0.675263 0.367227 0.190929
0.805218 0.360070 0.178926
0.935086 0.351935 0.165824
1.000000 0.346425 0.155102
0.028158 0.508325 0.209348
0.152817 0.507966 0.204377
0.283700 0.507607 0.203227
0.415417 0.507248 0.202886
0.544014 0.503975 0.200689
0.673910 0.497638 0.189645
0.803720 0.490612 0.177503
0.933444 0.482687 0.164264
1.000000 0.477456 0.153314
0.025537 0.632974 0.198252
0.150155 0.632572 0.192777
0.280910 0.632170 0.191585
0.412492 0.631768 0.191203
0.544061 0.631367 0.190822
0.672558 0.628015 0.188360
0.802223 0.621122 0.176080
0.931801 0.613411 0.162703
1.000000 0.608453 0.151526
0.021623 0.757334 0.185898
0.146200 0.756889 0.179911
0.277066 0.756443 0.178652
0.408780 0.755998 0.178230
0.540483 0.755553 0.177807
0.672177 0.755108 0.177384
0.800725 0.751602 0.174658
0.930158 0.744108 0.161142
1.000000 0.739415 0.149738
0.016418 0.881402 0.172273
0.140954 0.880914 0.165766
0.272036 0.880426 0.164428
0.404003 0.879937 0.163964
0.535960 0.879449 0.163500
0.667909 0.878961 0.163036
0.799848 0.878472 0.162572
0.928515 0.874776 0.159582
1.000000 0.870342 0.147950
0.010181 1.000000 0.157629
0.134649 1.000000 0.150569
0.265985 1.000000 0.149118
0.398248 1.000000 0.148586
0.530500 1.000000 0.148055
0.662742 1.000000 0.147523
0.794974 1.000000 0.146992
0.927195 1.000000 0.146460
1.000000 1.000000 0.146162
0.035776 0.001389 0.353806
0.164402 0.001089 0.353490
0.293016 0.000789 0.353174
0.418171 0.000000 0.350169
0.548720 0.000000 0.344561
0.679183 0.000000 0.339330
0.809559 0.000000 0.334303
0.939849 0.000000 0.329395
1.000000 0.000000 0.324967
0.033036 0.128027 0.352744
0.160558 0.125080 0.352428
0.291657 0.124781 0.352113
0.417110 0.121215 0.347023
0.547513 0.116138 0.337743
0.677831 0.109962 0.327600
0.808061 0.102690 0.316466
0.938206 0.094319 0.304290
1.000000 0.088498 0.294815
0.032028 0.256706 0.351682
0.156728 0.254047 0.351367
0.289235 0.248772 0.351051
0.416048 0.245207 0.342678
0.546306 0.239991 0.332270
0.676478 0.233678 0.321350
0.806564 0.226267 0.309522
0.936563 0.217758 0.296682
1.000000 0.211710 0.286451
0.029387 0.383277 0.348636
0.154087 0.382961 0.347053
0.278787 0.382646 0.340942
0.414986 0.375764 0.336542
0.545099 0.368322 0.326720
0.675126 0.361387 0.315800
0.805067 0.353718 0.303782
0.934920 0.345092 0.290667
1.000000 0.339026 0.279922
0.028043 0.508203 0.339086
0.152702 0.507844 0.336006
0.277361 0.507485 0.329438
0.412550 0.507126 0.327770
0.543893 0.502304 0.325573
0.673774 0.494144 0.314515
0.803569 0.486072 0.302359
0.933278 0.477358 0.289106
1.000000 0.471529 0.278134
0.025407 0.632838 0.328389
0.150025 0.632436 0.324390
0.274643 0.632034 0.317580
0.407904 0.631632 0.316074
0.542328 0.631230 0.315692
0.672422 0.626855 0.313230
0.802072 0.618387 0.300937
0.931635 0.609590 0.287545
1.000000 0.603984 0.276346
0.021480 0.757182 0.316467
0.146057 0.756737 0.311728
0.270634 0.756292 0.304578
0.403320 0.755847 0.303086
0.537100 0.755402 0.302663
0.670866 0.754957 0.302240
0.800574 0.750663 0.299514
0.929992 0.741789 0.285985
1.000000 0.736389 0.274558
0.016261 0.881237 0.303289
0.140797 0.880748 0.297889
0.265333 0.880260 0.290335
0.397883 0.879772 0.288806
0.531515 0.879283 0.288343
0.665137 0.878795 0.287879
0.798747 0.878307 0.287415
0.928350 0.873954 0.284424
1.000000 0.868746 0.272770
0.010000 1.000000 0.289096
0.134469 1.000000 0.283052
0.258937 1.000000 0.275022
0.391535 1.000000 0.273406
0.525227 1.000000 0.272874
0.658905 1.000000 0.272343
0.792568 1.000000 0.271811
0.926217 1.000000 0.271280
1.000000 1.000000 0.270982
0.038720 0.000000 0.475783
0.167201 0.000000 0.475425
0.295481 0.000000 0.475066
0.423558 0.000000 0.474707
0.548598 0.000000 0.472074
0.679046 0.000000 0.466555
0.809408 0.000000 0.461315
0.939683 0.000000 0.456240
1.000000 0.000000 0.451825
0.033223 0.123898 0.474577
0.160561 0.120757 0.474218
0.291298 0.120416 0.473859
0.422021 0.120075 0.473500
0.547391 0.116022 0.468218
0.677694 0.109833 0.458384
0.807910 0.102546 0.447625
0.938040 0.094162 0.435861
1.000000 0.088317 0.426886
0.032076 0.252723 0.473370
0.156735 0.248711 0.473011
0.285768 0.244269 0.472652
0.420352 0.243929 0.472293
0.546185 0.239875 0.465016
0.676342 0.233548 0.453836
0.806413 0.226123 0.442087
0.936397 0.217601 0.429477
1.000000 0.211529 0.419732
0.030930 0.381509 0.472163
0.155589 0.379844 0.471804
0.280248 0.375847 0.471445
0.417030 0.367782 0.471086
0.544978 0.363729 0.459041
0.674990 0.357264 0.446667
0.804915 0.349701 0.434198
0.934755 0.341040 0.420956
1.000000 0.334741 0.410430
0.027927 0.508081 0.468820
0.152586 0.507722 0.467630
0.277245 0.507363 0.465375
0.401904 0.507004 0.456345
0.543771 0.497114 0.450457
0.673638 0.487079 0.439385
0.803418 0.478484 0.427216
0.933112 0.469367 0.413949
1.000000 0.462980 0.402953
0.025277 0.632701 0.458523
0.149895 0.632299 0.455999
0.274513 0.631897 0.451816
0.399132 0.631495 0.442787
0.538378 0.631094 0.440562
0.672285 0.624607 0.438101
0.801920 0.613857 0.425793
0.931469 0.603885 0.412388
1.000000 0.597564 0.401165
0.021336 0.757031 0.447032
0.145913 0.756586 0.443542
0.270490 0.756141 0.438342
0.395067 0.755696 0.429428
0.531066 0.755251 0.427519
0.668605 0.754806 0.427097
0.800423 0.749177 0.424371
0.929826 0.738360 0.410827
1.000000 0.732073 0.399377
0.016103 0.881071 0.434302
0.140639 0.880582 0.430009
0.265175 0.880094 0.424048
0.389711 0.879606 0.415012
0.524583 0.879117 0.413185
0.660850 0.878629 0.412721
0.797103 0.878141 0.412257
0.928184 0.872793 0.409267
1.000000 0.866510 0.397589
0.009820 1.000000 0.420560
0.134288 1.000000 0.415532
0.258757 1.000000 0.408883
0.383225 1.000000 0.399548
0.517652 1.000000 0.397694
0.653416 1.000000 0.397162
0.789159 1.000000 0.396631
0.924879 1.000000 0.396099
1.000000 1.000000 0.395801
0.042976 0.000000 0.597732
0.170991 0.000000 0.597330
0.298829 0.000000 0.596928
0.426491 0.000000 0.596526
0.553977 0.000000 0.596124
0.678910 0.000000 0.593730
0.809257 0.000000 0.588280
0.939517 0.000000 0.583041
1.000000 0.000000 0.578636
0.032365 0.118789 0.596380
0.159725 0.115390 0.595978
0.290566 0.115008 0.595576
0.421396 0.114626 0.595174
0.552214 0.114244 0.594772
0.677558 0.109703 0.589165
0.807759 0.102402 0.578782
0.937874 0.094004 0.567430
1.000000 0.088137 0.558953
0.031081 0.247868 0.595028
0.155699 0.243074 0.594626
0.284115 0.238723 0.594224
0.417352 0.238342 0.593822
0.550574 0.237960 0.593420
0.676205 0.233419 0.586317
0.806262 0.225980 0.574647
0.936232 0.217443 0.562268
1.000000 0.211349 0.553010
0.029796 0.376914 0.593675
0.154414 0.373844 0.593273
0.279033 0.368257 0.592872
0.409858 0.362057 0.592470
0.548564 0.361675 0.592068
0.674853 0.357134 0.582243
0.804764 0.349557 0.568979
0.934589 0.340883 0.555521
1.000000 0.334561 0.545403
0.028512 0.505927 0.592323
0.153130 0.504570 0.591921
0.277748 0.502313 0.591519
0.402366 0.496742 0.591117
0.544206 0.485391 0.590715
0.673501 0.480849 0.574389
0.803267 0.473135 0.559891
0.932946 0.464322 0.545806
1.000000 0.457773 0.534883
0.025148 0.632565 0.588654
0.149766 0.632163 0.587604
0.274384 0.631761 0.586047
0.399002 0.631359 0.583010
0.523620 0.630957 0.570561
0.672149 0.617560 0.562971
0.801769 0.604668 0.550650
0.931303 0.594333 0.537230
1.000000 0.587471 0.525985
0.021192 0.756880 0.577595
0.145769 0.756435 0.575353
0.270347 0.755990 0.572103
0.394924 0.755545 0.566660
0.519501 0.755100 0.554811
0.663413 0.754654 0.551953
0.800272 0.746271 0.549227
0.929661 0.732665 0.535670
1.000000 0.725333 0.524197
0.015946 0.880905 0.565313
0.140482 0.880417 0.562127
0.265018 0.879928 0.557757
0.389554 0.879440 0.551207
0.514090 0.878952 0.539921
0.653185 0.878463 0.537564
0.794247 0.877975 0.537100
0.928018 0.870941 0.534109
1.000000 0.863074 0.522409
0.009639 1.000000 0.552022
0.134108 1.000000 0.548008
0.258576 1.000000 0.542739
0.383045 1.000000 0.535391
0.507513 1.000000 0.524208
0.644831 1.000000 0.521982
0.783868 1.000000 0.521450
0.922869 1.000000 0.520919
1.000000 1.000000 0.520621
0.047306 0.000000 0.719651
0.175017 0.000000 0.719206
0.302568 0.000000 0.718761
0.429958 0.000000 0.718316
0.557189 0.000000 0.717871
0.684259 0.000000 0.717425
0.809105 0.000000 0.715198
0.939351 0.000000 0.709797
1.000000 0.000000 0.705401
0.030465 0.112663 0.718154
0.157917 0.108979 0.717709
0.289020 0.108557 0.717263
0.420113 0.108134 0.716818
0.551197 0.107711 0.716373
0.682271 0.107288 0.715928
0.807608 0.102259 0.709937
0.937708 0.093846 0.698997
1.000000 0.087956 0.691017
0.029042 0.242041 0.716656
0.153619 0.236596 0.716211
0.281867 0.232134 0.715766
0.414776 0.231711 0.715321
0.547673 0.231288 0.714876
0.680557 0.230865 0.714431
0.806110 0.225836 0.707205
0.936066 0.217286 0.695057
1.000000 0.211168 0.686284
0.027620 0.371389 0.715159
0.152197 0.367358 0.714714
0.276774 0.361028 0.714269
0.406438 0.355288 0.713823
0.542564 0.354866 0.713378
0.678673 0.354443 0.712933
0.804613 0.349414 0.703755
0.934423 0.340725 0.690083
1.000000 0.334380 0.680371
0.026197 0.500708 0.713661
0.150774 0.498083 0.713216
0.275351 0.494061 0.712771
0.399928 0.486664 0.712326
0.532826 0.478443 0.711881
0.676293 0.478020 0.711436
0.803116 0.472991 0.698706
0.932780 0.464165 0.683172
1.000000 0.457592 0.672393
0.024774 0.629998 0.712164
0.149352 0.628773 0.711719
0.273929 0.627047 0.711274
0.398506 0.624112 0.710828
0.523083 0.616733 0.710383
0.670763 0.601598 0.709938
0.801618 0.596568 0.688723
0.931138 0.587604 0.671942
1.000000 0.580804 0.660285
0.021049 0.756729 0.708154
0.145626 0.756284 0.707161
0.270203 0.755839 0.705858
0.394780 0.755394 0.703887
0.519357 0.754948 0.699958
0.643934 0.754503 0.683588
0.800121 0.737102 0.674083
0.929495 0.721089 0.660512
1.000000 0.713153 0.649016
0.015788 0.880739 0.696321
0.140324 0.880251 0.694241
0.264860 0.879762 0.691463
0.389396 0.879274 0.687398
0.513932 0.878786 0.680538
0.638469 0.878297 0.665511
0.787654 0.877809 0.661942
0.927852 0.867295 0.658952
1.000000 0.856954 0.647228
0.009459 1.000000 0.683482
0.133927 1.000000 0.680481
0.258396 1.000000 0.676591
0.382864 1.000000 0.671227
0.507333 1.000000 0.663146
0.631801 1.000000 0.649158
0.774378 1.000000 0.646270
0.919356 1.000000 0.645738
1.000000 1.000000 0.645440
0.051676 0.000000 0.841541
0.179172 0.000000 0.841053
0.306518 0.000000 0.840564
0.433716 0.000000 0.840076
0.560764 0.000000 0.839588
0.687664 0.000000 0.839099
0.814415 0.000000 0.838611
0.939185 0.000000 0.836508
1.000000 0.000000 0.832119
0.027521 0.105507 0.839898
0.155097 0.101525 0.839410
0.286536 0.101062 0.838922
0.417966 0.100598 0.838433
0.549388 0.100134 0.837945
0.680800 0.099670 0.837457
0.812204 0.099206 0.836968
0.937543 0.093689 0.830560
1.000000 0.087776 0.823079
0.025960 0.235206 0.838256
0.150496 0.229158 0.837767
0.278729 0.224501 0.837279
0.411658 0.224037 0.836791
0.544577 0.223573 0.836302
0.677485 0.223109 0.835814
0.810383 0.222645 0.835326
0.935900 0.217128 0.827843
1.000000 0.210988 0.819553
0.024399 0.364879 0.836613
0.148935 0.360059 0.836125
0.273472 0.353136 0.835636
0.402729 0.347476 0.835148
0.537987 0.347013 0.834660
0.673230 0.346549 0.834171
0.808460 0.346085 0.833683
0.934257 0.340568 0.824641
1.000000 0.334200 0.815332
0.022839 0.494525 0.834970
0.147375 0.490928 0.834482
0.271911 0.485823 0.833993
0.396447 0.477758 0.833505
0.527531 0.470452 0.833017
0.666935 0.469988 0.832529
0.806319 0.469524 0.832040
0.932614 0.464007 0.820532
1.000000 0.457412 0.809893
0.021278 0.624144 0.833327
0.145814 0.621766 0.832839
0.270350 0.618470 0.832351
0.394887 0.613374 0.831862
0.519423 0.603933 0.831374
0.654674 0.593427 0.830886
0.803540 0.592964 0.830397
0.930972 0.587447 0.814403
1.000000 0.580624 0.802020
0.019718 0.753736 0.831685
0.144254 0.752571 0.831196
0.268790 0.751077 0.830708
0.393326 0.748938 0.830220
0.517862 0.745243 0.829731
0.642398 0.735821 0.829243
0.796699 0.716403 0.828755
0.929329 0.710886 0.802043
1.000000 0.703836 0.788054
0.015630 0.880573 0.827327
0.140167 0.880085 0.826353
0.264703 0.879597 0.825165
0.389239 0.879108 0.823584
0.513775 0.878620 0.821149
0.638311 0.878132 0.816219
0.762847 0.877643 0.795426
0.927686 0.855740 0.783794
1.000000 0.842502 0.772048
0.009278 1.000000 0.814938
0.133747 1.000000 0.812950
0.258215 1.000000 0.810438
0.382684 1.000000 0.807056
0.507152 1.000000 0.802072
0.631621 1.000000 0.793607
0.756089 1.000000 0.774957
0.911208 1.000000 0.770558
1.000000 1.000000 0.770260
0.056071 0.000000 0.963402
0.183404 0.000000 0.962870
0.310596 0.000000 0.962339
0.437648 0.000000 0.961807
0.564559 0.000000 0.961276
0.691329 0.000000 0.960744
0.817959 0.000000 0.960213
0.944448 0.000000 0.959681
1.000000 0.000000 0.958791
0.023533 0.097315 0.961614
0.151251 0.093028 0.961082
0.283066 0.092523 0.960551
0.414872 0.092018 0.960019
0.546670 0.091513 0.959488
0.678461 0.091008 0.958956
0.810243 0.090503 0.958425
0.942017 0.089998 0.957893
1.000000 0.087595 0.955137
0.021834 0.227349 0.959826
0.146329 0.220718 0.959294
0.274618 0.215824 0.958763
0.407728 0.215320 0.958231
0.540829 0.214815 0.957700
0.673920 0.214310 0.957168
0.807001 0.213805 0.956637
0.940073 0.213300 0.956105
1.000000 0.210807 0.952818
0.020136 0.357359 0.958038
0.144631 0.351834 0.957506
0.269126 0.344359 0.956975
0.398235 0.338621 0.956443
0.533209 0.338116 0.955912
0.668172 0.337611 0.955380
0.803122 0.337106 0.954849
0.938061 0.336601 0.954317
1.000000 0.334019 0.950287
0.018437 0.487343 0.956250
0.142932 0.482921 0.955718
0.267427 0.476979 0.955187
0.391922 0.468410 0.954655
0.522314 0.461417 0.954124
0.660199 0.460912 0.953592
0.798069 0.460408 0.953061
0.935924 0.459903 0.952529
1.000000 0.457231 0.947384
0.016738 0.617303 0.954462
0.141234 0.613979 0.953930
0.265729 0.609564 0.953399
0.390224 0.603263 0.952867
0.514719 0.593265 0.952336
0.647393 0.584214 0.951804
0.790463 0.583709 0.951273
0.933513 0.583204 0.950741
1.000000 0.580443 0.943739
0.015040 0.747237 0.952674
0.139535 0.745007 0.952142
0.264030 0.742113 0.951611
0.388525 0.738073 0.951079
0.513020 0.731784 0.950548
0.637515 0.720063 0.950016
0.775401 0.707010 0.949485
0.930303 0.706505 0.948953
1.000000 0.703655 0.938234
0.013341 0.877146 0.950886
0.137836 0.876006 0.950354
0.262331 0.874628 0.949823
0.386827 0.872840 0.949291
0.511322 0.870245 0.948760
0.635817 0.865704 0.948228
0.760312 0.854004 0.947697
0.922017 0.829807 0.947165
1.000000 0.826867 0.925292
0.009098 1.000000 0.946393
0.133566 1.000000 0.945416
0.258035 1.000000 0.944280
0.382503 1.000000 0.942878
0.506972 1.000000 0.940987
0.631440 1.000000 0.938033
0.755909 1.000000 0.931974
0.880377 1.000000 0.906149
1.000000 1.000000 0.895079
