luts/original/patio-warmth.cube
TITLE "Patio Warmth"
LUT_3D_SIZE 33
DOMAIN_MIN 0.0 0.0 0.0
DOMAIN_MAX 1.0 1.0 1.0
0.026168 0.005610 0.005610
0.058888 0.005310 0.005310
0.091602 0.004942 0.004942
0.124310 0.004505 0.004505
0.157014 0.003999 0.003999
0.189712 0.003425 0.003425
0.222404 0.002782 0.002782
0.255091 0.002070 0.002070
0.287773 0.001290 0.001290
0.320449 0.000442 0.000442
0.353120 0.000000 0.000000
0.385786 0.000000 0.000000
0.418446 0.000000 0.000000
0.451100 0.000000 0.000000
0.483750 0.000000 0.000000
0.516394 0.000000 0.000000
0.549032 0.000000 0.000000
0.581665 0.000000 0.000000
0.614293 0.000000 0.000000
0.646915 0.000000 0.000000
0.679532 0.000000 0.000000
0.712144 0.000000 0.000000
0.744750 0.000000 0.000000
0.777351 0.000000 0.000000
0.809946 0.000000 0.000000
0.842536 0.000000 0.000000
0.875120 0.000000 0.000000
0.907699 0.000000 0.000000
0.940273 0.000000 0.000000
0.972842 0.000000 0.000000
0.997461 0.000000 0.000000
0.999365 0.000000 0.000000
1.000000 0.000000 0.000000
0.027521 0.037810 0.005778
0.058722 0.037110 0.005153
0.091427 0.036735 0.004776
0.124127 0.036304 0.004330
0.156821 0.035810 0.003816
0.189510 0.035251 0.003233
0.222193 0.034625 0.002582
0.254871 0.033932 0.001861
0.287544 0.033172 0.001073
0.320211 0.032343 0.000216
0.352873 0.032096 0.000000
0.385529 0.032053 0.000000
0.418180 0.032015 0.000000
0.450826 0.031982 0.000000
0.483466 0.031953 0.000000
0.516101 0.031927 0.000000
0.548730 0.031903 0.000000
0.581354 0.031882 0.000000
0.613973 0.031863 0.000000
0.646586 0.031845 0.000000
0.679194 0.031829 0.000000
0.711797 0.031814 0.000000
0.744394 0.031800 0.000000
0.776985 0.031787 0.000000
0.809572 0.031774 0.000000
0.842152 0.031763 0.000000
0.874728 0.031752 0.000000
0.907298 0.031741 0.000000
0.939862 0.031732 0.000000
0.972422 0.031722 0.000000
0.997461 0.031717 0.000000
0.999365 0.031726 0.000000
1.000000 0.031736 0.000000
0.028666 0.069872 0.005783
0.060054 0.069255 0.005269
0.091252 0.068524 0.004610
0.123943 0.068099 0.004156
0.156628 0.067618 0.003633
0.189308 0.067074 0.003041
0.221982 0.066466 0.002381
0.254651 0.065791 0.001652
0.287315 0.065050 0.000855
0.319973 0.064251 0.000000
0.352626 0.064150 0.000000
0.385273 0.064065 0.000000
0.417915 0.063991 0.000000
0.450551 0.063927 0.000000
0.483183 0.063870 0.000000
0.515808 0.063819 0.000000
0.548429 0.063773 0.000000
0.581044 0.063731 0.000000
0.613653 0.063694 0.000000
0.646257 0.063659 0.000000
0.678856 0.063627 0.000000
0.711449 0.063597 0.000000
0.744037 0.063570 0.000000
0.776620 0.063544 0.000000
0.809197 0.063520 0.000000
0.841769 0.063497 0.000000
0.874335 0.063475 0.000000
0.906896 0.063455 0.000000
0.939452 0.063436 0.000000
0.972002 0.063417 0.000000
0.997461 0.063406 0.000000
0.999365 0.063423 0.000000
1.000000 0.063442 0.000000
0.029220 0.101322 0.005267
0.061184 0.101267 0.005215
0.092564 0.100649 0.004675
0.123759 0.099891 0.003981
0.156435 0.099422 0.003450
0.189106 0.098894 0.002849
0.221771 0.098303 0.002181
0.254431 0.097648 0.001443
0.287086 0.096927 0.000638
0.319735 0.096309 0.000000
0.352378 0.096162 0.000000
0.385017 0.096037 0.000000
0.417649 0.095929 0.000000
0.450277 0.095834 0.000000
0.482899 0.095750 0.000000
0.515516 0.095676 0.000000
0.548127 0.095608 0.000000
0.580733 0.095548 0.000000
0.613333 0.095492 0.000000
0.645928 0.095441 0.000000
0.678518 0.095394 0.000000
0.711102 0.095350 0.000000
0.743681 0.095310 0.000000
0.776255 0.095272 0.000000
0.808823 0.095236 0.000000
0.841385 0.095202 0.000000
0.873943 0.095171 0.000000
0.906495 0.095141 0.000000
0.939041 0.095112 0.000000
0.971582 0.095085 0.000000
0.997461 0.095068 0.000000
0.999365 0.095093 0.000000
1.000000 0.095120 0.000000
0.029745 0.132753 0.004670
0.061710 0.132696 0.004616
0.093673 0.132638 0.004561
0.125050 0.132009 0.003995
0.156243 0.131223 0.003266
0.188904 0.130711 0.002658
0.221560 0.130139 0.001980
0.254211 0.129502 0.001234
0.286857 0.128801 0.000420
0.319496 0.128324 0.000000
0.352131 0.128132 0.000000
0.384760 0.127969 0.000000
0.417384 0.127828 0.000000
0.450002 0.127704 0.000000
0.482615 0.127595 0.000000
0.515223 0.127498 0.000000
0.547825 0.127410 0.000000
0.580422 0.127330 0.000000
0.613013 0.127258 0.000000
0.645599 0.127191 0.000000
0.678180 0.127130 0.000000
0.710755 0.127073 0.000000
0.743325 0.127020 0.000000
0.775889 0.126970 0.000000
0.808448 0.126923 0.000000
0.841002 0.126879 0.000000
0.873550 0.126838 0.000000
0.906093 0.126798 0.000000
0.938630 0.126761 0.000000
0.971162 0.126725 0.000000
0.997461 0.126702 0.000000
0.999365 0.126734 0.000000
1.000000 0.126770 0.000000
0.030210 0.164166 0.003993
0.062186 0.164106 0.003936
0.094161 0.164046 0.003879
0.126134 0.163986 0.003822
0.157512 0.163340 0.003229
0.188702 0.162525 0.002466
0.221349 0.161971 0.001780
0.253991 0.161354 0.001025
0.286627 0.160672 0.000202
0.319258 0.160294 0.000000
0.351884 0.160060 0.000000
0.384504 0.159861 0.000000
0.417119 0.159688 0.000000
0.449728 0.159537 0.000000
0.482332 0.159404 0.000000
0.514930 0.159285 0.000000
0.547523 0.159177 0.000000
0.580111 0.159080 0.000000
0.612693 0.158991 0.000000
0.645270 0.158910 0.000000
0.677842 0.158835 0.000000
0.710408 0.158765 0.000000
0.742969 0.158700 0.000000
0.775524 0.158639 0.000000
0.808074 0.158581 0.000000
0.840619 0.158527 0.000000
0.873158 0.158476 0.000000
0.905691 0.158428 0.000000
0.938220 0.158382 0.000000
0.970743 0.158338 0.000000
0.997461 0.158308 0.000000
0.999365 0.158347 0.000000
1.000000 0.158390 0.000000
0.030604 0.195562 0.003235
0.062597 0.195499 0.003175
0.094590 0.195436 0.003116
0.126581 0.195373 0.003056
0.158571 0.195311 0.002996
0.189951 0.194644 0.002376
0.221139 0.193801 0.001580
0.253771 0.193203 0.000816
0.286398 0.192548 0.000000
0.319020 0.192221 0.000000
0.351637 0.191946 0.000000
0.384248 0.191712 0.000000
0.416853 0.191510 0.000000
0.449453 0.191333 0.000000
0.482048 0.191177 0.000000
0.514638 0.191037 0.000000
0.547222 0.190911 0.000000
0.579800 0.190797 0.000000
0.612374 0.190693 0.000000
0.644941 0.190597 0.000000
0.677504 0.190508 0.000000
0.710061 0.190426 0.000000
0.742613 0.190350 0.000000
0.775159 0.190278 0.000000
0.807700 0.190211 0.000000
0.840235 0.190147 0.000000
0.872765 0.190087 0.000000
0.905290 0.190030 0.000000
0.937809 0.189975 0.000000
0.970323 0.189924 0.000000
0.997461 0.189887 0.000000
0.999365 0.189932 0.000000
1.000000 0.189982 0.000000
0.030923 0.226939 0.002396
0.062937 0.226873 0.002334
0.094950 0.226808 0.002272
0.126962 0.226742 0.002209
0.158973 0.226677 0.002147
0.190984 0.226612 0.002085
0.222367 0.225924 0.001439
0.253551 0.225050 0.000607
0.286169 0.224475 0.000000
0.318782 0.224102 0.000000
0.351389 0.223790 0.000000
0.383991 0.223524 0.000000
0.416588 0.223294 0.000000
0.449179 0.223092 0.000000
0.481765 0.222914 0.000000
0.514345 0.222754 0.000000
0.546920 0.222611 0.000000
0.579490 0.222480 0.000000
0.612054 0.222361 0.000000
0.644612 0.222252 0.000000
0.677166 0.222151 0.000000
0.709714 0.222057 0.000000
0.742256 0.221970 0.000000
0.774794 0.221888 0.000000
0.807325 0.221811 0.000000
0.839852 0.221738 0.000000
0.872373 0.221669 0.000000
0.904888 0.221604 0.000000
0.937398 0.221541 0.000000
0.969903 0.221482 0.000000
0.997461 0.221439 0.000000
0.999365 0.221489 0.000000
1.000000 0.221546 0.000000
0.031164 0.258297 0.001476
0.063201 0.258229 0.001412
0.095237 0.258161 0.001347
0.127272 0.258093 0.001282
0.159306 0.258025 0.001218
0.191340 0.257957 0.001153
0.223372 0.257889 0.001088
0.254758 0.257178 0.000415
0.285940 0.256355 0.000000
0.318544 0.255940 0.000000
0.351142 0.255592 0.000000
0.383735 0.255295 0.000000
0.416322 0.255038 0.000000
0.448904 0.254814 0.000000
0.481481 0.254614 0.000000
0.514052 0.254437 0.000000
0.546618 0.254276 0.000000
0.579179 0.254131 0.000000
0.611734 0.253998 0.000000
0.644284 0.253876 0.000000
0.676828 0.253763 0.000000
0.709367 0.253658 0.000000
0.741900 0.253560 0.000000
0.774428 0.253468 0.000000
0.806951 0.253382 0.000000
0.839468 0.253300 0.000000
0.871980 0.253223 0.000000
0.904487 0.253150 0.000000
0.936988 0.253080 0.000000
0.969483 0.253013 0.000000
0.997461 0.252963 0.000000
0.999365 0.253018 0.000000
1.000000 0.253080 0.000000
0.031328 0.289638 0.000476
0.063389 0.289567 0.000409
0.095449 0.289497 0.000342
0.127508 0.289426 0.000274
0.159566 0.289355 0.000207
0.191624 0.289284 0.000140
0.223681 0.289213 0.000073
0.255737 0.289143 0.000005
0.287126 0.288463 0.000000
0.318306 0.287733 0.000000
0.350895 0.287352 0.000000
0.383479 0.287026 0.000000
0.416057 0.286745 0.000000
0.448630 0.286498 0.000000
0.481198 0.286279 0.000000
0.513760 0.286084 0.000000
0.546317 0.285908 0.000000
0.578868 0.285748 0.000000
0.611414 0.285602 0.000000
0.643955 0.285467 0.000000
0.676490 0.285343 0.000000
0.709020 0.285227 0.000000
0.741544 0.285120 0.000000
0.774063 0.285019 0.000000
0.806577 0.284923 0.000000
0.839085 0.284834 0.000000
0.871588 0.284748 0.000000
0.904085 0.284668 0.000000
0.936577 0.284590 0.000000
0.969064 0.284517 0.000000
0.997461 0.284460 0.000000
0.999365 0.284519 0.000000
1.000000 0.284587 0.000000
0.031911 0.320961 0.000000
0.063987 0.320887 0.000000
0.096048 0.320814 0.000000
0.128094 0.320740 0.000000
0.160126 0.320667 0.000000
0.192143 0.320593 0.000000
0.224145 0.320520 0.000000
0.256133 0.320446 0.000000
0.288106 0.320373 0.000000
0.319471 0.319748 0.000000
0.350648 0.319069 0.000000
0.383222 0.318717 0.000000
0.415792 0.318412 0.000000
0.448355 0.318145 0.000000
0.480914 0.317908 0.000000
0.513467 0.317696 0.000000
0.546015 0.317506 0.000000
0.578557 0.317332 0.000000
0.611094 0.317173 0.000000
0.643626 0.317027 0.000000
0.676152 0.316892 0.000000
0.708672 0.316767 0.000000
0.741188 0.316650 0.000000
0.773698 0.316540 0.000000
0.806202 0.316436 0.000000
0.838701 0.316338 0.000000
0.871195 0.316246 0.000000
0.903683 0.316158 0.000000
0.936166 0.316074 0.000000
0.968644 0.315993 0.000000
0.997461 0.315930 0.000000
0.999365 0.315992 0.000000
1.000000 0.316065 0.000000
0.032901 0.352265 0.000000
0.064906 0.352189 0.000000
0.096898 0.352113 0.000000
0.128875 0.352036 0.000000
0.160838 0.351960 0.000000
0.192788 0.351884 0.000000
0.224724 0.351808 0.000000
0.256645 0.351732 0.000000
0.288553 0.351655 0.000000
0.320448 0.351579 0.000000
0.351792 0.351002 0.000000
0.382966 0.350368 0.000000
0.415526 0.350041 0.000000
0.448081 0.349755 0.000000
0.480630 0.349501 0.000000
0.513174 0.349274 0.000000
0.545713 0.349069 0.000000
0.578246 0.348883 0.000000
0.610774 0.348713 0.000000
0.643297 0.348556 0.000000
0.675814 0.348411 0.000000
0.708325 0.348276 0.000000
0.740832 0.348150 0.000000
0.773332 0.348031 0.000000
0.805828 0.347920 0.000000
0.838318 0.347815 0.000000
0.870803 0.347715 0.000000
0.903282 0.347620 0.000000
0.935756 0.347529 0.000000
0.968224 0.347443 0.000000
0.997461 0.347372 0.000000
0.999365 0.347437 0.000000
1.000000 0.347514 0.000000
0.033910 0.383551 0.000000
0.065855 0.383472 0.000000
0.097786 0.383393 0.000000
0.129704 0.383315 0.000000
0.161609 0.383236 0.000000
0.193501 0.383157 0.000000
0.225380 0.383078 0.000000
0.257246 0.382999 0.000000
0.289098 0.382920 0.000000
0.320937 0.382841 0.000000
0.352763 0.382762 0.000000
0.384090 0.382226 0.000000
0.415261 0.381632 0.000000
0.447807 0.381328 0.000000
0.480347 0.381058 0.000000
0.512882 0.380817 0.000000
0.545411 0.380599 0.000000
0.577936 0.380401 0.000000
0.610454 0.380220 0.000000
0.642968 0.380053 0.000000
0.675476 0.379898 0.000000
0.707978 0.379754 0.000000
0.740475 0.379620 0.000000
0.772967 0.379494 0.000000
0.805453 0.379375 0.000000
0.837934 0.379262 0.000000
0.870410 0.379156 0.000000
0.902880 0.379054 0.000000
0.935345 0.378957 0.000000
0.967804 0.378864 0.000000
0.997461 0.378787 0.000000
0.999365 0.378855 0.000000
1.000000 0.378935 0.000000
0.034934 0.414819 0.000000
0.066825 0.414738 0.000000
0.098705 0.414656 0.000000
0.130571 0.414575 0.000000
0.162426 0.414493 0.000000
0.194267 0.414411 0.000000
0.226096 0.414330 0.000000
0.257913 0.414248 0.000000
0.289717 0.414167 0.000000
0.321508 0.414085 0.000000
0.353287 0.414003 0.000000
0.385054 0.413922 0.000000
0.416364 0.413421 0.000000
0.447532 0.412863 0.000000
0.480063 0.412579 0.000000
0.512589 0.412324 0.000000
0.545110 0.412095 0.000000
0.577625 0.411886 0.000000
0.610134 0.411694 0.000000
0.642639 0.411518 0.000000
0.675138 0.411354 0.000000
0.707631 0.411202 0.000000
0.740119 0.411060 0.000000
0.772602 0.410926 0.000000
0.805079 0.410800 0.000000
0.837551 0.410681 0.000000
0.870018 0.410568 0.000000
0.902479 0.410460 0.000000
0.934934 0.410358 0.000000
0.967385 0.410259 0.000000
0.997461 0.410174 0.000000
0.999365 0.410245 0.000000
1.000000 0.410327 0.000000
0.035968 0.446069 0.000000
0.067813 0.445985 0.000000
0.099647 0.445901 0.000000
0.131468 0.445816 0.000000
0.163278 0.445732 0.000000
0.195075 0.445648 0.000000
0.226860 0.445563 0.000000
0.258633 0.445479 0.000000
0.290394 0.445395 0.000000
0.322144 0.445311 0.000000
0.353881 0.445226 0.000000
0.385606 0.445142 0.000000
0.417319 0.445058 0.000000
0.448614 0.444589 0.000000
0.479780 0.444064 0.000000
0.512297 0.443797 0.000000
0.544808 0.443556 0.000000
0.577314 0.443337 0.000000
0.609815 0.443136 0.000000
0.642310 0.442951 0.000000
0.674800 0.442779 0.000000
0.707284 0.442620 0.000000
0.739763 0.442470 0.000000
0.772237 0.442329 0.000000
0.804705 0.442197 0.000000
0.837168 0.442071 0.000000
0.869625 0.441952 0.000000
0.902077 0.441839 0.000000
0.934524 0.441730 0.000000
0.966965 0.441626 0.000000
0.997461 0.441535 0.000000
0.999365 0.441607 0.000000
1.000000 0.441692 0.000000
0.037011 0.477301 0.000000
0.068815 0.477214 0.000000
0.100608 0.477127 0.000000
0.132389 0.477040 0.000000
0.164158 0.476953 0.000000
0.195915 0.476866 0.000000
0.227661 0.476779 0.000000
0.259396 0.476692 0.000000
0.291119 0.476605 0.000000
0.322830 0.476518 0.000000
0.354530 0.476431 0.000000
0.386218 0.476344 0.000000
0.417894 0.476257 0.000000
0.449559 0.476170 0.000000
0.480841 0.475729 0.000000
0.512004 0.475235 0.000000
0.544506 0.474984 0.000000
0.577003 0.474756 0.000000
0.609495 0.474546 0.000000
0.641981 0.474353 0.000000
0.674461 0.474174 0.000000
0.706937 0.474007 0.000000
0.739407 0.473850 0.000000
0.771871 0.473703 0.000000
0.804330 0.473564 0.000000
0.836784 0.473433 0.000000
0.869232 0.473308 0.000000
0.901675 0.473189 0.000000
0.934113 0.473075 0.000000
0.966545 0.472967 0.000000
0.997461 0.472868 0.000000
0.999365 0.472941 0.000000
1.000000 0.473028 0.000000
0.038062 0.508515 0.000000
0.069828 0.508425 0.000000
0.101584 0.508335 0.000000
0.133328 0.508245 0.000000
0.165061 0.508156 0.000000
0.196783 0.508066 0.000000
0.228494 0.507976 0.000000
0.260193 0.507887 0.000000
0.291881 0.507797 0.000000
0.323558 0.507707 0.000000
0.355224 0.507618 0.000000
0.386879 0.507528 0.000000
0.418522 0.507438 0.000000
0.450154 0.507349 0.000000
0.481775 0.507259 0.000000
0.513044 0.506844 0.000000
0.544204 0.506378 0.000000
0.576692 0.506141 0.000000
0.609175 0.505923 0.000000
0.641652 0.505723 0.000000
0.674123 0.505537 0.000000
0.706590 0.505363 0.000000
0.739051 0.505200 0.000000
0.771506 0.505047 0.000000
0.803956 0.504903 0.000000
0.836401 0.504766 0.000000
0.868840 0.504636 0.000000
0.901274 0.504512 0.000000
0.933702 0.504393 0.000000
0.966125 0.504279 0.000000
0.997461 0.504175 0.000000
0.999365 0.504247 0.000000
1.000000 0.504335 0.000000
0.039118 0.539710 0.000000
0.070851 0.539618 0.000000
0.102572 0.539525 0.000000
0.134283 0.539433 0.000000
0.165983 0.539340 0.000000
0.197673 0.539248 0.000000
0.229351 0.539156 0.000000
0.261018 0.539063 0.000000
0.292675 0.538971 0.000000
0.324321 0.538878 0.000000
0.355955 0.538786 0.000000
0.387579 0.538694 0.000000
0.419192 0.538601 0.000000
0.450795 0.538509 0.000000
0.482386 0.538417 0.000000
0.513966 0.538324 0.000000
0.545224 0.537933 0.000000
0.576382 0.537493 0.000000
0.608855 0.537268 0.000000
0.641323 0.537061 0.000000
0.673785 0.536869 0.000000
0.706243 0.536689 0.000000
0.738694 0.536520 0.000000
0.771141 0.536362 0.000000
0.803582 0.536212 0.000000
0.836017 0.536070 0.000000
0.868447 0.535935 0.000000
0.900872 0.535806 0.000000
0.933292 0.535683 0.000000
0.965706 0.535565 0.000000
0.997461 0.535454 0.000000
0.999365 0.535526 0.000000
1.000000 0.535615 0.000000
0.040179 0.570887 0.000000
0.071881 0.570792 0.000000
0.103572 0.570697 0.000000
0.135252 0.570602 0.000000
0.166922 0.570507 0.000000
0.198581 0.570412 0.000000
0.230229 0.570317 0.000000
0.261867 0.570222 0.000000
0.293495 0.570127 0.000000
0.325112 0.570031 0.000000
0.356718 0.569936 0.000000
0.388314 0.569841 0.000000
0.419899 0.569746 0.000000
0.451473 0.569651 0.000000
0.483037 0.569556 0.000000
0.514591 0.569461 0.000000
0.546134 0.569366 0.000000
0.577380 0.568996 0.000000
0.608535 0.568581 0.000000
0.640994 0.568368 0.000000
0.673447 0.568169 0.000000
0.705895 0.567984 0.000000
0.738338 0.567811 0.000000
0.770775 0.567647 0.000000
0.803207 0.567492 0.000000
0.835634 0.567346 0.000000
0.868055 0.567206 0.000000
0.900471 0.567073 0.000000
0.932881 0.566945 0.000000
0.965286 0.566823 0.000000
0.997461 0.566706 0.000000
0.999365 0.566777 0.000000
1.000000 0.566866 0.000000
0.041245 0.602046 0.000000
0.072918 0.601949 0.000000
0.104580 0.601851 0.000000
0.136232 0.601753 0.000000
0.167873 0.601655 0.000000
0.199504 0.601557 0.000000
0.231125 0.601460 0.000000
0.262736 0.601362 0.000000
0.294336 0.601264 0.000000
0.325926 0.601166 0.000000
0.357506 0.601068 0.000000
0.389076 0.600971 0.000000
0.420635 0.600873 0.000000
0.452184 0.600775 0.000000
0.483723 0.600677 0.000000
0.515251 0.600580 0.000000
0.546769 0.600482 0.000000
0.578277 0.600384 0.000000
0.609513 0.600035 0.000000
0.640665 0.599643 0.000000
0.673109 0.599439 0.000000
0.705548 0.599249 0.000000
0.737982 0.599071 0.000000
0.770410 0.598903 0.000000
0.802833 0.598744 0.000000
0.835250 0.598593 0.000000
0.867662 0.598449 0.000000
0.900069 0.598312 0.000000
0.932470 0.598180 0.000000
0.964866 0.598054 0.000000
0.997256 0.597932 0.000000
0.999365 0.598001 0.000000
1.000000 0.598089 0.000000
0.042314 0.633187 0.000000
0.073960 0.633087 0.000000
0.105595 0.632986 0.000000
0.137221 0.632886 0.000000
0.168836 0.632785 0.000000
0.200441 0.632685 0.000000
0.232036 0.632584 0.000000
0.263622 0.632484 0.000000
0.295197 0.632383 0.000000
0.326762 0.632283 0.000000
0.358317 0.632182 0.000000
0.389862 0.632082 0.000000
0.421397 0.631981 0.000000
0.452922 0.631881 0.000000
0.484437 0.631780 0.000000
0.515942 0.631680 0.000000
0.547436 0.631579 0.000000
0.578921 0.631479 0.000000
0.610396 0.631379 0.000000
0.641622 0.631048 0.000000
0.672771 0.630678 0.000000
0.705201 0.630484 0.000000
0.737626 0.630301 0.000000
0.770045 0.630129 0.000000
0.802459 0.629966 0.000000
0.834867 0.629811 0.000000
0.867270 0.629664 0.000000
0.899667 0.629523 0.000000
0.932060 0.629387 0.000000
0.964446 0.629257 0.000000
0.996828 0.629132 0.000000
0.999365 0.629197 0.000000
1.000000 0.629284 0.000000
0.043386 0.664310 0.000000
0.075007 0.664207 0.000000
0.106617 0.664104 0.000000
0.138218 0.664001 0.000000
0.169808 0.663897 0.000000
0.201389 0.663794 0.000000
0.232961 0.663691 0.000000
0.264522 0.663588 0.000000
0.296073 0.663485 0.000000
0.327615 0.663381 0.000000
0.359147 0.663278 0.000000
0.390669 0.663175 0.000000
0.422181 0.663072 0.000000
0.453683 0.662969 0.000000
0.485176 0.662865 0.000000
0.516658 0.662762 0.000000
0.548131 0.662659 0.000000
0.579594 0.662556 0.000000
0.611047 0.662453 0.000000
0.642491 0.662350 0.000000
0.673707 0.662037 0.000000
0.704854 0.661687 0.000000
0.737270 0.661501 0.000000
0.769680 0.661326 0.000000
0.802084 0.661159 0.000000
0.834484 0.661001 0.000000
0.866877 0.660850 0.000000
0.899266 0.660705 0.000000
0.931649 0.660567 0.000000
0.964027 0.660434 0.000000
0.996399 0.660305 0.000000
0.999365 0.660366 0.000000
1.000000 0.660451 0.000000
0.044461 0.695415 0.000000
0.076058 0.695309 0.000000
0.107645 0.695203 0.000000
0.139222 0.695097 0.000000
0.170789 0.694991 0.000000
0.202347 0.694885 0.000000
0.233896 0.694779 0.000000
0.265434 0.694673 0.000000
0.296964 0.694568 0.000000
0.328483 0.694462 0.000000
0.359993 0.694356 0.000000
0.391493 0.694250 0.000000
0.422984 0.694144 0.000000
0.454465 0.694038 0.000000
0.485936 0.693932 0.000000
0.517398 0.693826 0.000000
0.548850 0.693721 0.000000
0.580292 0.693615 0.000000
0.611725 0.693509 0.000000
0.643148 0.693403 0.000000
0.674562 0.693297 0.000000
0.705769 0.693001 0.000000
0.736913 0.692671 0.000000
0.769314 0.692493 0.000000
0.801710 0.692323 0.000000
0.834100 0.692162 0.000000
0.866485 0.692008 0.000000
0.898864 0.691860 0.000000
0.931238 0.691719 0.000000
0.963607 0.691583 0.000000
0.995970 0.691451 0.000000
0.999365 0.691507 0.000000
1.000000 0.691590 0.000000
0.045538 0.726501 0.000000
0.077112 0.726393 0.000000
0.108677 0.726284 0.000000
0.140232 0.726175 0.000000
0.171778 0.726067 0.000000
0.203314 0.725958 0.000000
0.234841 0.725850 0.000000
0.266358 0.725741 0.000000
0.297866 0.725632 0.000000
0.329364 0.725524 0.000000
0.360853 0.725415 0.000000
0.392333 0.725307 0.000000
0.423803 0.725198 0.000000
0.455264 0.725090 0.000000
0.486715 0.724981 0.000000
0.518157 0.724872 0.000000
0.549589 0.724764 0.000000
0.581012 0.724655 0.000000
0.612425 0.724547 0.000000
0.643829 0.724438 0.000000
0.675224 0.724329 0.000000
0.706609 0.724221 0.000000
0.737808 0.723941 0.000000
0.768949 0.723630 0.000000
0.801336 0.723458 0.000000
0.833717 0.723294 0.000000
0.866092 0.723137 0.000000
0.898463 0.722987 0.000000
0.930827 0.722843 0.000000
0.963187 0.722704 0.000000
0.995541 0.722570 0.000000
0.999365 0.722621 0.000000
1.000000 0.722701 0.000000
0.046618 0.757569 0.000000
0.078170 0.757458 0.000000
0.109714 0.757347 0.000000
0.141248 0.757236 0.000000
0.172772 0.757124 0.000000
0.204288 0.757013 0.000000
0.235794 0.756902 0.000000
0.267291 0.756790 0.000000
0.298779 0.756679 0.000000
0.330257 0.756568 0.000000
0.361726 0.756457 0.000000
0.393186 0.756345 0.000000
0.424637 0.756234 0.000000
0.456078 0.756123 0.000000
0.487510 0.756011 0.000000
0.518933 0.755900 0.000000
0.550346 0.755789 0.000000
0.581751 0.755678 0.000000
0.613145 0.755566 0.000000
0.644531 0.755455 0.000000
0.675908 0.755344 0.000000
0.707275 0.755233 0.000000
0.738633 0.755121 0.000000
0.769822 0.754856 0.000000
0.800961 0.754564 0.000000
0.833333 0.754398 0.000000
0.865700 0.754239 0.000000
0.898061 0.754086 0.000000
0.930417 0.753940 0.000000
0.962767 0.753799 0.000000
0.995112 0.753662 0.000000
0.999365 0.753707 0.000000
1.000000 0.753784 0.000000
0.047699 0.788620 0.000000
0.079231 0.788506 0.000000
0.110754 0.788392 0.000000
0.142268 0.788278 0.000000
0.173773 0.788164 0.000000
0.205268 0.788050 0.000000
0.236755 0.787936 0.000000
0.268232 0.787822 0.000000
0.299701 0.787708 0.000000
0.331160 0.787594 0.000000
0.362610 0.787480 0.000000
0.394051 0.787366 0.000000
0.425483 0.787252 0.000000
0.456906 0.787138 0.000000
0.488320 0.787024 0.000000
0.519724 0.786910 0.000000
0.551120 0.786796 0.000000
0.582506 0.786682 0.000000
0.613883 0.786568 0.000000
0.645251 0.786454 0.000000
0.676610 0.786340 0.000000
0.707960 0.786226 0.000000
0.739301 0.786112 0.000000
0.770632 0.785998 0.000000
0.801814 0.785747 0.000000
0.832950 0.785473 0.000000
0.865307 0.785312 0.000000
0.897659 0.785158 0.000000
0.930006 0.785009 0.000000
0.962348 0.784866 0.000000
0.994683 0.784728 0.000000
0.999365 0.784766 0.000000
1.000000 0.784839 0.000000
0.048781 0.819652 0.000000
0.080294 0.819535 0.000000
0.111797 0.819418 0.000000
0.143292 0.819302 0.000000
0.174778 0.819185 0.000000
0.206255 0.819068 0.000000
0.237722 0.818951 0.000000
0.269181 0.818835 0.000000
0.300631 0.818718 0.000000
0.332072 0.818601 0.000000
0.363504 0.818485 0.000000
0.394927 0.818368 0.000000
0.426341 0.818251 0.000000
0.457746 0.818135 0.000000
0.489142 0.818018 0.000000
0.520529 0.817901 0.000000
0.551907 0.817785 0.000000
0.583276 0.817668 0.000000
0.614636 0.817551 0.000000
0.645987 0.817435 0.000000
0.677329 0.817318 0.000000
0.708662 0.817201 0.000000
0.739986 0.817085 0.000000
0.771302 0.816968 0.000000
0.802608 0.816851 0.000000
0.833781 0.816614 0.000000
0.864915 0.816357 0.000000
