luts/original/patio-warmth.cube
TITLE "Patio Warmth"
LUT_3D_SIZE 5
DOMAIN_MIN 0.0 0.0 0.0
DOMAIN_MAX 1.0 1.0 1.0
0.026168 0.005610 0.005610
0.287773 0.001290 0.001290
0.549032 0.000000 0.000000
0.809946 0.000000 0.000000
1.000000 0.000000 0.000000
0.031164 0.258297 0.001476
0.285940 0.256355 0.000000
0.546618 0.254276 0.000000
0.806951 0.253382 0.000000
1.000000 0.253080 0.000000
0.038062 0.508515 0.000000
0.291881 0.507797 0.000000
0.544204 0.506378 0.000000
0.803956 0.504903 0.000000
1.000000 0.504335 0.000000
0.046618 0.757569 0.000000
0.298779 0.756679 0.000000
0.550346 0.755789 0.000000
0.800961 0.754564 0.000000
1.000000 0.753784 0.000000
0.055302 1.000000 0.000000
0.306348 1.000000 0.000000
0.556858 1.000000 0.000000
0.806834 1.000000 0.000000
1.000000 1.000000 0.000000
0.034227 0.004490 0.231798
0.287629 0.001153 0.228265
0.548842 0.000000 0.216992
0.809710 0.000000 0.207243
1.000000 0.000000 0.198063
0.029527 0.258153 0.228044
0.285796 0.253510 0.221225
0.546428 0.243040 0.202982
0.806715 0.229498 0.180348
1.000000 0.215358 0.156890
0.028158 0.508325 0.209348
0.283700 0.507607 0.203227
0.544014 0.503975 0.200689
0.803720 0.490612 0.177503
1.000000 0.477456 0.153314
0.021623 0.757334 0.185898
0.277066 0.756443 0.178652
0.540483 0.755553 0.177807
0.800725 0.751602 0.174658
1.000000 0.739415 0.149738
0.010181 1.000000 0.157629
0.265985 1.000000 0.149118
0.530500 1.000000 0.148055
0.794974 1.000000 0.146992
1.000000 1.000000 0.146162
0.038720 0.000000 0.475783
0.295481 0.000000 0.475066
0.548598 0.000000 0.472074
0.809408 0.000000 0.461315
1.000000 0.000000 0.451825
0.032076 0.252723 0.473370
0.285768 0.244269 0.472652
0.546185 0.239875 0.465016
0.806413 0.226123 0.442087
1.000000 0.211529 0.419732
0.027927 0.508081 0.468820
0.277245 0.507363 0.465375
0.543771 0.497114 0.450457
0.803418 0.478484 0.427216
1.000000 0.462980 0.402953
0.021336 0.757031 0.447032
0.270490 0.756141 0.438342
0.531066 0.755251 0.427519
0.800423 0.749177 0.424371
1.000000 0.732073 0.399377
0.009820 1.000000 0.420560
0.258757 1.000000 0.408883
0.517652 1.000000 0.397694
0.789159 1.000000 0.396631
1.000000 1.000000 0.395801
0.047306 0.000000 0.719651
0.302568 0.000000 0.718761
0.557189 0.000000 0.717871
0.809105 0.000000 0.715198
1.000000 0.000000 0.705401
0.029042 0.242041 0.716656
0.281867 0.232134 0.715766
0.547673 0.231288 0.714876
0.806110 0.225836 0.707205
1.000000 0.211168 0.686284
0.026197 0.500708 0.713661
0.275351 0.494061 0.712771
0.532826 0.478443 0.711881
0.803116 0.472991 0.698706
1.000000 0.457592 0.672393
0.021049 0.756729 0.708154
0.270203 0.755839 0.705858
0.519357 0.754948 0.699958
0.800121 0.737102 0.674083
1.000000 0.713153 0.649016
0.009459 1.000000 0.683482
0.258396 1.000000 0.676591
0.507333 1.000000 0.663146
0.774378 1.000000 0.646270
1.000000 1.000000 0.645440
0.056071 0.000000 0.963402
0.310596 0.000000 0.962339
0.564559 0.000000 0.961276
0.817959 0.000000 0.960213
1.000000 0.000000 0.958791
0.021834 0.227349 0.959826
0.274618 0.215824 0.958763
0.540829 0.214815 0.957700
0.807001 0.213805 0.956637
1.000000 0.210807 0.952818
0.018437 0.487343 0.956250
0.267427 0.476979 0.955187
0.522314 0.461417 0.954124
0.798069 0.460408 0.953061
1.000000 0.457231 0.947384
0.015040 0.747237 0.952674
0.264030 0.742113 0.951611
0.513020 0.731784 0.950548
0.775401 0.707010 0.949485
1.000000 0.703655 0.938234
0.009098 1.000000 0.946393
0.258035 1.000000 0.944280
0.506972 1.000000 0.940987
0.755909 1.000000 0.931974
1.000000 1.000000 0.895079
