luts/original/poolside-light.cube
TITLE "Poolside Light"
LUT_3D_SIZE 9
DOMAIN_MIN 0.0 0.0 0.0
DOMAIN_MAX 1.0 1.0 1.0
0.022676 0.012112 0.012112
0.152481 0.010189 0.010189
0.282114 0.006482 0.006482
0.411574 0.000992 0.000992
0.540861 0.000000 0.000000
0.669976 0.000000 0.000000
0.798918 0.000000 0.000000
0.927687 0.000000 0.000000
1.000000 0.000000 0.000000
0.021948 0.140616 0.010054
0.150939 0.139093 0.008770
0.280281 0.135556 0.004796
0.409451 0.131127 0.000000
0.538448 0.130136 0.000000
0.667272 0.129493 0.000000
0.795923 0.129030 0.000000
0.924402 0.128671 0.000000
1.000000 0.128590 0.000000
0.019109 0.266726 0.005138
0.149376 0.266181 0.004636
0.278449 0.264497 0.003110
0.407328 0.260927 0.000000
0.536034 0.259123 0.000000
0.664567 0.257947 0.000000
0.792928 0.257094 0.000000
0.921116 0.256430 0.000000
1.000000 0.256238 0.000000
0.015994 0.392254 0.000000
0.146493 0.391623 0.000000
0.276571 0.390992 0.000000
0.405204 0.389401 0.000000
0.533620 0.386961 0.000000
0.661863 0.385360 0.000000
0.789933 0.384191 0.000000
0.917831 0.383276 0.000000
1.000000 0.382953 0.000000
0.017735 0.517201 0.000000
0.146820 0.516484 0.000000
0.275546 0.515766 0.000000
0.403914 0.515049 0.000000
0.531206 0.513649 0.000000
0.659159 0.511733 0.000000
0.786938 0.510323 0.000000
0.914545 0.509209 0.000000
1.000000 0.508746 0.000000
0.019569 0.641567 0.000000
0.147690 0.640764 0.000000
0.275489 0.639960 0.000000
0.402966 0.639156 0.000000
0.530122 0.638352 0.000000
0.656454 0.637065 0.000000
0.783943 0.635489 0.000000
0.911260 0.634230 0.000000
1.000000 0.633627 0.000000
0.021449 0.765353 0.000000
0.148830 0.764462 0.000000
0.275914 0.763572 0.000000
0.402701 0.762682 0.000000
0.529192 0.761792 0.000000
0.655385 0.760901 0.000000
0.780948 0.759688 0.000000
0.907974 0.758338 0.000000
1.000000 0.757606 0.000000
0.023356 0.888557 0.000000
0.150125 0.887580 0.000000
0.276616 0.886603 0.000000
0.402827 0.885627 0.000000
0.528759 0.884650 0.000000
0.654412 0.883673 0.000000
0.779786 0.882697 0.000000
0.904689 0.881533 0.000000
1.000000 0.880693 0.000000
0.025283 1.000000 0.000000
0.151533 1.000000 0.000000
0.277512 1.000000 0.000000
0.403222 1.000000 0.000000
0.528662 1.000000 0.000000
0.653834 1.000000 0.000000
0.778739 1.000000 0.000000
0.903377 1.000000 0.000000
1.000000 1.000000 0.000000
0.024205 0.012221 0.131253
0.152357 0.010074 0.128627
0.281966 0.006346 0.123191
0.411403 0.000834 0.116172
0.540666 0.000000 0.112657
0.669758 0.000000 0.110071
0.798676 0.000000 0.107642
0.927422 0.000000 0.105304
1.000000 0.000000 0.103221
0.020721 0.140492 0.128322
0.150814 0.136844 0.122874
0.280133 0.131469 0.116848
0.409279 0.125594 0.109037
0.538253 0.118086 0.099442
0.667053 0.108842 0.088064
0.795681 0.097836 0.074902
0.924136 0.085057 0.059955
1.000000 0.074924 0.047631
0.017814 0.266578 0.121048
0.146157 0.266033 0.116688
0.278301 0.263700 0.115162
0.407156 0.257120 0.107084
0.535839 0.249638 0.097222
0.664349 0.240653 0.085576
0.792686 0.230009 0.072146
0.920851 0.217648 0.056933
1.000000 0.207755 0.044055
0.012747 0.392083 0.112169
0.140644 0.391451 0.107479
0.273726 0.390820 0.106898
0.405033 0.388504 0.105130
0.533425 0.381077 0.095001
0.661645 0.372366 0.083088
0.789691 0.362094 0.069391
0.917565 0.350157 0.053910
1.000000 0.340493 0.040479
0.005521 0.517006 0.101249
0.133399 0.516289 0.096111
0.266558 0.515571 0.095451
0.399682 0.514854 0.094790
0.531011 0.512402 0.092780
0.658940 0.503981 0.080600
0.786696 0.494091 0.066636
0.914280 0.482584 0.050887
1.000000 0.473139 0.036903
0.000000 0.641349 0.091594
0.124115 0.640545 0.082583
0.257653 0.639741 0.081843
0.391160 0.638937 0.081104
0.524637 0.638133 0.080364
0.656236 0.635497 0.078112
0.783701 0.625998 0.063880
0.910994 0.614928 0.047865
1.000000 0.605695 0.033327
0.000000 0.765111 0.086854
0.112723 0.764220 0.066895
0.246767 0.763330 0.066076
0.380784 0.762440 0.065257
0.514773 0.761550 0.064438
0.648735 0.760659 0.063619
0.780707 0.757817 0.061125
0.907709 0.747191 0.044842
1.000000 0.738162 0.029751
0.000000 0.888291 0.082262
0.099198 0.887315 0.049048
0.233814 0.886338 0.048150
0.368405 0.885361 0.047251
0.502970 0.884385 0.046353
0.637510 0.883408 0.045454
0.772025 0.882431 0.044556
0.904424 0.879371 0.041820
1.000000 0.870540 0.026175
0.000000 1.000000 0.077792
0.084321 1.000000 0.029828
0.219473 1.000000 0.028765
0.354598 1.000000 0.027702
0.489697 1.000000 0.026639
0.624769 1.000000 0.025576
0.759815 1.000000 0.024513
0.894834 1.000000 0.023450
1.000000 1.000000 0.022599
0.023244 0.009228 0.257246
0.153730 0.008727 0.256701
0.281781 0.006176 0.253830
0.411188 0.000637 0.247441
0.540423 0.000000 0.243217
0.669485 0.000000 0.239948
0.798374 0.000000 0.237028
0.927090 0.000000 0.234312
1.000000 0.000000 0.232161
0.020355 0.137884 0.255413
0.147513 0.132041 0.254868
0.279948 0.129490 0.250108
0.409065 0.123684 0.241308
0.538009 0.116093 0.231728
0.666780 0.106719 0.220652
0.795379 0.095561 0.207913
0.923805 0.082619 0.193452
1.000000 0.072270 0.181707
0.017644 0.266393 0.252296
0.142143 0.265848 0.250156
0.278116 0.259053 0.239991
0.406942 0.249640 0.231886
0.535595 0.241360 0.221998
0.664076 0.231639 0.210325
0.792384 0.220244 0.196868
0.920519 0.207113 0.181628
1.000000 0.196356 0.168694
0.012550 0.391868 0.243812
0.136969 0.391237 0.238652
0.267742 0.390606 0.231701
0.404818 0.387089 0.229933
0.533181 0.376479 0.219777
0.661372 0.366116 0.207837
0.789389 0.354614 0.194113
0.917234 0.341616 0.178605
1.000000 0.331015 0.165118
0.005297 0.516763 0.233480
0.129637 0.516045 0.226947
0.259108 0.515328 0.220226
0.396242 0.514610 0.219566
0.530768 0.511437 0.217556
0.658667 0.500465 0.205349
0.786394 0.488876 0.191358
0.913948 0.476022 0.175582
1.000000 0.465548 0.161542
0.000000 0.641076 0.223848
0.120144 0.640272 0.213495
0.249276 0.639468 0.206592
0.385686 0.638664 0.205852
0.522056 0.637860 0.205113
0.655963 0.634687 0.202861
0.783399 0.623028 0.188602
0.910663 0.610330 0.172560
1.000000 0.599959 0.157966
0.000000 0.764808 0.217986
0.108492 0.763918 0.198038
0.237558 0.763028 0.190798
0.373928 0.762138 0.189979
0.510263 0.761247 0.189160
0.646565 0.760357 0.188341
0.780404 0.757072 0.185847
0.907377 0.744541 0.169537
1.000000 0.734248 0.154390
0.000000 0.887960 0.212516
0.094681 0.886983 0.180495
0.223797 0.886006 0.172845
0.360414 0.885030 0.171946
0.497002 0.884053 0.171048
0.633559 0.883076 0.170149
0.770087 0.882100 0.169251
0.904092 0.878655 0.166515
1.000000 0.868418 0.150814
0.000000 1.000000 0.207368
0.079467 1.000000 0.161605
0.208621 1.000000 0.153404
0.345578 1.000000 0.152341
0.482498 1.000000 0.151278
0.619383 1.000000 0.150215
0.756232 1.000000 0.149152
0.893045 1.000000 0.148089
1.000000 1.000000 0.147238
0.020720 0.004557 0.383180
0.151713 0.003976 0.382549
0.282669 0.003395 0.381918
0.410974 0.000440 0.378700
0.540179 0.000000 0.373661
0.669212 0.000000 0.369720
0.798071 0.000000 0.366316
0.926758 0.000000 0.363227
1.000000 0.000000 0.361005
0.017447 0.133233 0.381057
0.143894 0.127023 0.380425
0.278416 0.126442 0.379794
0.408851 0.123486 0.375432
0.537765 0.115869 0.365881
0.666507 0.106468 0.355190
0.795076 0.095283 0.342988
0.923473 0.082314 0.329142
1.000000 0.071909 0.318133
0.015494 0.263200 0.378933
0.139913 0.259108 0.378302
0.268839 0.249489 0.377671
0.406727 0.246533 0.370256
0.535352 0.238648 0.357620
0.663803 0.228980 0.345303
0.792082 0.217528 0.331803
0.920187 0.204291 0.316773
1.000000 0.193333 0.304342
0.012353 0.391654 0.375443
0.136772 0.391023 0.374057
0.261191 0.390392 0.370787
0.404604 0.379670 0.354736
0.532938 0.365661 0.344553
0.661099 0.354884 0.332586
0.789087 0.342912 0.318835
0.916902 0.329344 0.303300
1.000000 0.317931 0.289757
0.005072 0.516519 0.365700
0.129412 0.515801 0.361813
0.253752 0.515084 0.354404
0.387475 0.514366 0.344342
0.530524 0.509443 0.342332
0.658394 0.494246 0.330098
0.786092 0.480771 0.316079
0.913617 0.466628 0.300277
1.000000 0.455114 0.286181
0.000000 0.640803 0.355988
0.119893 0.639999 0.348507
0.244153 0.639195 0.339687
0.375484 0.638391 0.330601
0.517378 0.637587 0.329862
0.655690 0.633428 0.327610
0.783097 0.618490 0.313324
0.910331 0.603793 0.297255
1.000000 0.592121 0.282605
0.000000 0.764506 0.349013
0.108214 0.763616 0.333452
0.232395 0.762725 0.323615
0.362976 0.761835 0.314701
0.503124 0.760945 0.313882
0.643229 0.760055 0.313063
0.780102 0.756067 0.310569
0.907046 0.740838 0.294232
1.000000 0.728953 0.279029
0.000000 0.887628 0.342673
0.094375 0.886651 0.316436
0.218477 0.885675 0.305685
0.348777 0.884698 0.296641
0.488350 0.883721 0.295742
0.627885 0.882745 0.294844
0.767384 0.881768 0.293945
0.903760 0.877764 0.291209
1.000000 0.865615 0.275453
0.000000 1.000000 0.336846
0.079106 1.000000 0.298133
0.203043 1.000000 0.286411
0.333200 1.000000 0.276980
0.472653 1.000000 0.275917
0.612054 1.000000 0.274854
0.751405 1.000000 0.273791
0.890705 1.000000 0.272728
1.000000 1.000000 0.271877
0.018240 0.000000 0.509056
0.149837 0.000000 0.508338
0.281057 0.000000 0.507620
0.411899 0.000000 0.506903
0.539935 0.000000 0.503989
0.668939 0.000000 0.499387
0.797769 0.000000 0.495508
0.926427 0.000000 0.492051
1.000000 0.000000 0.489753
0.012860 0.127103 0.506642
0.139163 0.120325 0.505924
0.273290 0.119665 0.505207
0.407376 0.119005 0.504489
0.537522 0.115645 0.500021
0.666234 0.106217 0.489718
0.794774 0.095005 0.478054
0.923141 0.082009 0.464824
1.000000 0.071548 0.454549
0.010640 0.257434 0.504228
0.134980 0.251499 0.503510
0.262344 0.242444 0.502793
0.401770 0.241784 0.502075
0.535108 0.238424 0.495938
0.663530 0.228729 0.482826
0.791779 0.217249 0.469280
0.919856 0.203986 0.454521
1.000000 0.192972 0.442731
0.008419 0.387657 0.501814
0.132759 0.384637 0.501097
0.257099 0.378739 0.500379
0.388182 0.364564 0.499662
0.532694 0.361204 0.489072
0.660826 0.351241 0.472127
0.788784 0.339494 0.456895
0.916570 0.325963 0.440878
1.000000 0.314396 0.427606
0.004848 0.516275 0.497911
0.129188 0.515558 0.496665
0.253528 0.514840 0.494833
0.377868 0.514123 0.490215
0.530280 0.498694 0.467108
0.658121 0.479533 0.454846
0.785789 0.466165 0.440801
0.913285 0.451904 0.424972
1.000000 0.439748 0.410820
0.000000 0.640530 0.488015
0.119642 0.639726 0.483507
0.243902 0.638922 0.478333
0.368163 0.638118 0.468304
0.505356 0.637314 0.454611
0.655417 0.630761 0.452358
0.782794 0.610420 0.438046
0.909999 0.593605 0.421949
1.000000 0.580647 0.407244
0.000000 0.764204 0.479937
0.107936 0.763313 0.468856
0.232117 0.762423 0.461818
0.356298 0.761533 0.450388
0.489770 0.760643 0.438604
0.637133 0.759752 0.437785
0.779800 0.754476 0.435291
0.906714 0.735151 0.418927
1.000000 0.721276 0.403668
0.000000 0.887296 0.472732
0.094070 0.886320 0.452368
0.218172 0.885343 0.443948
0.342273 0.884366 0.431609
0.474498 0.883390 0.420437
0.618872 0.882413 0.419539
0.763198 0.881436 0.418640
0.903428 0.876543 0.415904
1.000000 0.861642 0.400092
0.000000 1.000000 0.466228
0.078745 1.000000 0.434651
0.202682 1.000000 0.424987
0.326619 1.000000 0.411730
0.458256 1.000000 0.400556
0.601389 1.000000 0.399493
0.744444 1.000000 0.398430
0.887422 1.000000 0.397367
1.000000 1.000000 0.396516
0.020105 0.000000 0.634873
0.150900 0.000000 0.634069
0.281360 0.000000 0.633265
0.411484 0.000000 0.632461
0.541274 0.000000 0.631657
0.668666 0.000000 0.628949
0.797467 0.000000 0.624601
0.926095 0.000000 0.620782
1.000000 0.000000 0.618406
0.006595 0.119364 0.632168
0.132872 0.111949 0.631364
0.267197 0.111209 0.630560
0.401488 0.110470 0.629757
0.535745 0.109730 0.628953
0.665961 0.105966 0.624235
0.794472 0.094727 0.613110
0.922810 0.081704 0.600496
1.000000 0.071187 0.590956
0.004107 0.250136 0.629464
0.128367 0.242929 0.628660
0.255345 0.233721 0.627856
0.393164 0.232982 0.627052
0.530937 0.232242 0.626248
0.663257 0.228478 0.620335
0.791477 0.216971 0.606746
0.919524 0.203681 0.592260
1.000000 0.192611 0.581105
0.001619 0.380814 0.626759
0.125879 0.375917 0.625956
0.250140 0.367872 0.625152
0.378596 0.355494 0.624348
0.523791 0.354754 0.623544
0.660553 0.350990 0.615348
0.788482 0.339216 0.598276
0.916239 0.325658 0.581666
1.000000 0.314035 0.568740
0.000000 0.511550 0.624055
0.123391 0.508786 0.623251
0.247652 0.504782 0.622447
0.371912 0.496778 0.621643
0.505542 0.477266 0.620840
0.657848 0.473502 0.606556
0.785487 0.461461 0.584828
0.912953 0.447636 0.566504
1.000000 0.435459 0.551970
0.000000 0.640257 0.619927
0.119391 0.639453 0.618496
0.243651 0.638649 0.616964
0.367911 0.637845 0.614624
0.492172 0.637041 0.608441
0.655144 0.616126 0.577107
0.782492 0.591255 0.562768
0.909668 0.575204 0.546644
1.000000 0.562036 0.531883
0.000000 0.763901 0.610756
0.107658 0.763011 0.604251
0.231839 0.762121 0.600009
0.356020 0.761231 0.593372
0.480201 0.760340 0.580351
0.621383 0.759450 0.562506
0.779497 0.751044 0.560012
0.906382 0.725002 0.543622
1.000000 0.708943 0.528307
0.000000 0.886964 0.602694
0.093765 0.885988 0.588291
0.217867 0.885011 0.582199
0.341968 0.884035 0.573414
0.466070 0.883058 0.559052
0.601967 0.882081 0.544234
0.755509 0.881105 0.543335
0.903097 0.874581 0.540599
1.000000 0.855390 0.524731
0.000000 1.000000 0.595513
0.078384 1.000000 0.571158
0.202321 1.000000 0.563549
0.326258 1.000000 0.553205
0.450195 1.000000 0.537966
0.584236 1.000000 0.524132
0.733339 1.000000 0.523069
0.882308 1.000000 0.522006
1.000000 1.000000 0.521155
0.022026 0.000000 0.760631
0.152285 0.000000 0.759741
0.282236 0.000000 0.758850
0.411881 0.000000 0.757960
0.541219 0.000000 0.757070
0.670249 0.000000 0.756180
0.797164 0.000000 0.753597
0.925763 0.000000 0.749421
1.000000 0.000000 0.746962
0.000000 0.111135 0.757636
0.124947 0.101894 0.756746
0.259692 0.101075 0.755855
0.394406 0.100255 0.754965
0.529091 0.099436 0.754075
0.663747 0.098617 0.753185
0.794169 0.094448 0.748157
0.922478 0.081398 0.736161
1.000000 0.070826 0.727352
0.000000 0.244014 0.754641
0.120076 0.232930 0.753751
0.246914 0.223319 0.752861
0.384356 0.222500 0.751970
0.521761 0.221681 0.751080
0.659128 0.220862 0.750190
0.791175 0.216693 0.744200
0.919192 0.203376 0.729988
1.000000 0.192250 0.719466
0.000000 0.375823 0.751646
0.117320 0.366070 0.750756
0.241501 0.356728 0.749866
0.369266 0.344745 0.748975
0.511333 0.343926 0.748085
0.653350 0.343107 0.747195
0.788180 0.338938 0.739642
0.915907 0.325353 0.722441
1.000000 0.313674 0.709854
0.000000 0.506562 0.748651
0.114565 0.499106 0.747761
0.238746 0.492808 0.746871
0.362927 0.482352 0.745981
0.492648 0.466171 0.745090
0.644480 0.465351 0.744200
0.785185 0.461182 0.733662
0.912621 0.447331 0.712231
1.000000 0.435098 0.697219
0.000000 0.636232 0.745656
0.111810 0.632037 0.744766
0.235991 0.628756 0.743876
0.360172 0.623634 0.742986
0.484353 0.613224 0.742095
0.620920 0.587596 0.741205
0.782190 0.583427 0.722706
0.909336 0.569308 0.695724
1.000000 0.556522 0.678532
0.000000 0.763599 0.741471
0.107380 0.762709 0.739635
0.231560 0.761818 0.738186
0.355741 0.760928 0.736339
0.479922 0.760038 0.733428
0.604103 0.759148 0.725465
0.779195 0.731965 0.684734
0.906051 0.700828 0.668317
1.000000 0.685435 0.652946
0.000000 0.886633 0.732558
0.093460 0.885656 0.724205
0.217561 0.884680 0.720439
0.341663 0.883703 0.715205
0.465764 0.882726 0.706930
0.589866 0.881750 0.690546
0.735559 0.880773 0.668030
0.902765 0.870292 0.665294
1.000000 0.843711 0.649370
0.000000 1.000000 0.724702
0.078023 1.000000 0.707656
0.201960 1.000000 0.702096
0.325897 1.000000 0.694660
0.449834 1.000000 0.683864
0.573771 1.000000 0.666100
0.712398 1.000000 0.647708
0.872860 1.000000 0.646645
1.000000 1.000000 0.645794
0.023978 0.000000 0.886331
0.153849 0.000000 0.885354
0.283434 0.000000 0.884377
0.412731 0.000000 0.883401
0.541741 0.000000 0.882424
0.670463 0.000000 0.881447
0.798899 0.000000 0.880471
0.925432 0.000000 0.877968
1.000000 0.000000 0.875423
0.000000 0.108575 0.883045
0.115365 0.090159 0.882069
0.250636 0.089261 0.881092
0.385881 0.088362 0.880115
0.521098 0.087464 0.879139
0.656288 0.086565 0.878162
0.791452 0.085667 0.877185
0.922146 0.081093 0.871816
1.000000 0.070465 0.863738
0.000000 0.240858 0.879760
0.110105 0.221367 0.878783
0.236896 0.211238 0.877806
0.374423 0.210340 0.876830
0.511918 0.209441 0.875853
0.649380 0.208543 0.874876
0.786809 0.207644 0.873900
0.918861 0.203071 0.867706
1.000000 0.191889 0.857813
0.000000 0.372145 0.876474
0.107083 0.354799 0.875498
0.231184 0.344394 0.874521
0.358665 0.332317 0.873544
0.499635 0.331419 0.872568
0.640564 0.330520 0.871591
0.781453 0.329622 0.870614
0.915575 0.325048 0.863204
1.000000 0.313313 0.850949
0.000000 0.502437 0.873189
0.104060 0.488136 0.872212
0.228162 0.480241 0.871235
0.352263 0.468502 0.870259
0.480926 0.453396 0.869282
0.627799 0.452497 0.868306
0.774617 0.451599 0.867329
0.912290 0.447025 0.857940
1.000000 0.434737 0.842438
0.000000 0.631734 0.869903
0.101038 0.621380 0.868927
0.225139 0.615974 0.867950
0.349241 0.608107 0.866973
0.473342 0.594940 0.865997
0.604501 0.574475 0.865020
0.763836 0.573576 0.864044
0.909004 0.569003 0.850879
1.000000 0.556161 0.830634
0.000000 0.760034 0.866618
0.098015 0.754529 0.865641
0.222116 0.751592 0.864665
0.346218 0.747566 0.863688
0.470319 0.741194 0.862711
0.594421 0.728078 0.861735
0.734316 0.695554 0.860758
0.905719 0.690980 0.837525
1.000000 0.677585 0.810587
0.000000 0.886301 0.862324
0.093155 0.885325 0.860110
0.217256 0.884348 0.858668
0.341358 0.883371 0.856982
0.465459 0.882395 0.854790
0.589561 0.881418 0.851246
0.713662 0.880441 0.841286
0.902434 0.846211 0.789989
1.000000 0.812709 0.774009
0.000000 1.000000 0.853794
0.077662 1.000000 0.844143
0.201599 1.000000 0.840630
0.325536 1.000000 0.836094
0.449473 1.000000 0.829730
0.573410 1.000000 0.819574
0.697347 1.000000 0.799294
0.848180 1.000000 0.771284
1.000000 1.000000 0.770433
0.025960 0.000000 1.000000
0.155587 0.000000 1.000000
0.284929 0.000000 1.000000
0.413986 0.000000 1.000000
0.542759 0.000000 1.000000
0.671249 0.000000 1.000000
0.799458 0.000000 1.000000
0.927386 0.000000 1.000000
1.000000 0.000000 1.000000
0.000000 0.106202 1.000000
0.104706 0.077333 1.000000
0.240492 0.076270 1.000000
0.376248 0.075207 1.000000
0.511975 0.074144 1.000000
0.647672 0.073081 1.000000
0.783340 0.072018 1.000000
0.918978 0.070955 1.000000
1.000000 0.070104 1.000000
0.000000 0.238050 1.000000
0.098757 0.208498 1.000000
0.225463 0.197694 1.000000
0.363220 0.196631 1.000000
0.500936 0.195568 1.000000
0.638660 0.194544 0.999505
0.776407 0.193566 0.998442
0.914124 0.192588 0.997379
1.000000 0.191528 0.996147
0.000000 0.368904 1.000000
0.095181 0.342004 1.000000
0.219188 0.330607 0.999118
0.346537 0.318210 0.998055
0.487172 0.317232 0.996992
0.627772 0.316254 0.995929
0.768336 0.315276 0.994866
0.908865 0.314298 0.993803
1.000000 0.312952 0.992023
0.000000 0.498834 0.997668
0.091876 0.475700 0.996605
0.215898 0.466498 0.995542
0.339920 0.453757 0.994479
0.468125 0.438942 0.993416
0.613034 0.437964 0.992353
0.757899 0.436986 0.991290
0.902718 0.436008 0.990227
1.000000 0.434376 0.987626
0.000000 0.627847 0.994092
0.088586 0.609326 0.993029
0.212608 0.602287 0.991966
0.336630 0.592650 0.990903
0.460652 0.578250 0.989840
0.590325 0.559675 0.988777
0.742561 0.558697 0.987714
0.894737 0.557719 0.986651
1.000000 0.555800 0.982681
0.000000 0.755920 0.990516
0.085296 0.742865 0.989453
0.209318 0.737974 0.988390
0.333340 0.731419 0.987327
0.457363 0.721813 0.986264
0.581385 0.705636 0.985201
0.714154 0.680407 0.984138
0.881859 0.679429 0.983075
1.000000 0.677224 0.976367
0.000000 0.883051 0.986940
0.082006 0.876317 0.985877
0.206029 0.873559 0.984814
0.330051 0.870064 0.983751
0.454073 0.865218 0.982688
0.578095 0.857462 0.981625
0.702117 0.841339 0.980562
0.845729 0.801139 0.979499
1.000000 0.798648 0.964572
0.000000 1.000000 0.982789
0.077301 1.000000 0.980620
0.201238 1.000000 0.979149
0.325175 1.000000 0.977508
0.449112 1.000000 0.975563
0.573049 1.000000 0.972987
0.696986 1.000000 0.968730
0.820923 1.000000 0.956481
1.000000 1.000000 0.895072
