luts/original/poolside-light.cube
TITLE "Poolside Light"
LUT_3D_SIZE 5
DOMAIN_MIN 0.0 0.0 0.0
DOMAIN_MAX 1.0 1.0 1.0
0.022676 0.012112 0.012112
0.282114 0.006482 0.006482
0.540861 0.000000 0.000000
0.798918 0.000000 0.000000
1.000000 0.000000 0.000000
0.019109 0.266726 0.005138
0.278449 0.264497 0.003110
0.536034 0.259123 0.000000
0.792928 0.257094 0.000000
1.000000 0.256238 0.000000
0.017735 0.517201 0.000000
0.275546 0.515766 0.000000
0.531206 0.513649 0.000000
0.786938 0.510323 0.000000
1.000000 0.508746 0.000000
0.021449 0.765353 0.000000
0.275914 0.763572 0.000000
0.529192 0.761792 0.000000
0.780948 0.759688 0.000000
1.000000 0.757606 0.000000
0.025283 1.000000 0.000000
0.277512 1.000000 0.000000
0.528662 1.000000 0.000000
0.778739 1.000000 0.000000
1.000000 1.000000 0.000000
0.023244 0.009228 0.257246
0.281781 0.006176 0.253830
0.540423 0.000000 0.243217
0.798374 0.000000 0.237028
1.000000 0.000000 0.232161
0.017644 0.266393 0.252296
0.278116 0.259053 0.239991
0.535595 0.241360 0.221998
0.792384 0.220244 0.196868
1.000000 0.196356 0.168694
0.005297 0.516763 0.233480
0.259108 0.515328 0.220226
0.530768 0.511437 0.217556
0.786394 0.488876 0.191358
1.000000 0.465548 0.161542
0.000000 0.764808 0.217986
0.237558 0.763028 0.190798
0.510263 0.761247 0.189160
0.780404 0.757072 0.185847
1.000000 0.734248 0.154390
0.000000 1.000000 0.207368
0.208621 1.000000 0.153404
0.482498 1.000000 0.151278
0.756232 1.000000 0.149152
1.000000 1.000000 0.147238
0.018240 0.000000 0.509056
0.281057 0.000000 0.507620
0.539935 0.000000 0.503989
0.797769 0.000000 0.495508
1.000000 0.000000 0.489753
0.010640 0.257434 0.504228
0.262344 0.242444 0.502793
0.535108 0.238424 0.495938
0.791779 0.217249 0.469280
1.000000 0.192972 0.442731
0.004848 0.516275 0.497911
0.253528 0.514840 0.494833
0.530280 0.498694 0.467108
0.785789 0.466165 0.440801
1.000000 0.439748 0.410820
0.000000 0.764204 0.479937
0.232117 0.762423 0.461818
0.489770 0.760643 0.438604
0.779800 0.754476 0.435291
1.000000 0.721276 0.403668
0.000000 1.000000 0.466228
0.202682 1.000000 0.424987
0.458256 1.000000 0.400556
0.744444 1.000000 0.398430
1.000000 1.000000 0.396516
0.022026 0.000000 0.760631
0.282236 0.000000 0.758850
0.541219 0.000000 0.757070
0.797164 0.000000 0.753597
1.000000 0.000000 0.746962
0.000000 0.244014 0.754641
0.246914 0.223319 0.752861
0.521761 0.221681 0.751080
0.791175 0.216693 0.744200
1.000000 0.192250 0.719466
0.000000 0.506562 0.748651
0.238746 0.492808 0.746871
0.492648 0.466171 0.745090
0.785185 0.461182 0.733662
1.000000 0.435098 0.697219
0.000000 0.763599 0.741471
0.231560 0.761818 0.738186
0.479922 0.760038 0.733428
0.779195 0.731965 0.684734
1.000000 0.685435 0.652946
0.000000 1.000000 0.724702
0.201960 1.000000 0.702096
0.449834 1.000000 0.683864
0.712398 1.000000 0.647708
1.000000 1.000000 0.645794
0.025960 0.000000 1.000000
0.284929 0.000000 1.000000
0.542759 0.000000 1.000000
0.799458 0.000000 1.000000
1.000000 0.000000 1.000000
0.000000 0.238050 1.000000
0.225463 0.197694 1.000000
0.500936 0.195568 1.000000
0.776407 0.193566 0.998442
1.000000 0.191528 0.996147
0.000000 0.498834 0.997668
0.215898 0.466498 0.995542
0.468125 0.438942 0.993416
0.757899 0.436986 0.991290
1.000000 0.434376 0.987626
0.000000 0.755920 0.990516
0.209318 0.737974 0.988390
0.457363 0.721813 0.986264
0.714154 0.680407 0.984138
1.000000 0.677224 0.976367
0.000000 1.000000 0.982789
0.201238 1.000000 0.979149
0.449112 1.000000 0.975563
0.696986 1.000000 0.968730
1.000000 1.000000 0.895072
