luts/original/poolside-light.cube
TITLE "Poolside Light"
LUT_3D_SIZE 33
DOMAIN_MIN 0.0 0.0 0.0
DOMAIN_MAX 1.0 1.0 1.0
0.022676 0.012112 0.012112
0.055143 0.011798 0.011798
0.087600 0.011373 0.011373
0.120046 0.010837 0.010837
0.152481 0.010189 0.010189
0.184906 0.009430 0.009430
0.217319 0.008559 0.008559
0.249722 0.007576 0.007576
0.282114 0.006482 0.006482
0.314495 0.005277 0.005277
0.346866 0.003960 0.003960
0.379225 0.002532 0.002532
0.411574 0.000992 0.000992
0.443912 0.000000 0.000000
0.476239 0.000000 0.000000
0.508556 0.000000 0.000000
0.540861 0.000000 0.000000
0.573156 0.000000 0.000000
0.605440 0.000000 0.000000
0.637714 0.000000 0.000000
0.669976 0.000000 0.000000
0.702228 0.000000 0.000000
0.734469 0.000000 0.000000
0.766699 0.000000 0.000000
0.798918 0.000000 0.000000
0.831126 0.000000 0.000000
0.863324 0.000000 0.000000
0.895511 0.000000 0.000000
0.927687 0.000000 0.000000
0.959852 0.000000 0.000000
0.992007 0.000000 0.000000
0.999365 0.000000 0.000000
1.000000 0.000000 0.000000
0.023245 0.045653 0.012325
0.054812 0.044305 0.011494
0.087251 0.043707 0.011052
0.119679 0.043106 0.010499
0.152096 0.042434 0.009834
0.184502 0.041671 0.009058
0.216897 0.040807 0.008171
0.249282 0.039839 0.007171
0.281656 0.038763 0.006061
0.314019 0.037580 0.004839
0.346371 0.036286 0.003505
0.378713 0.034884 0.002060
0.411043 0.033370 0.000504
0.443363 0.032827 0.000000
0.475672 0.032758 0.000000
0.507970 0.032696 0.000000
0.540258 0.032642 0.000000
0.572535 0.032593 0.000000
0.604801 0.032548 0.000000
0.637056 0.032508 0.000000
0.669300 0.032471 0.000000
0.701533 0.032437 0.000000
0.733756 0.032405 0.000000
0.765968 0.032376 0.000000
0.798169 0.032348 0.000000
0.830359 0.032322 0.000000
0.862539 0.032298 0.000000
0.894708 0.032275 0.000000
0.926866 0.032253 0.000000
0.959013 0.032233 0.000000
0.991149 0.032213 0.000000
0.999365 0.032218 0.000000
1.000000 0.032237 0.000000
0.022725 0.077344 0.011703
0.055442 0.077240 0.011607
0.086902 0.076020 0.010731
0.119311 0.075359 0.010161
0.151710 0.074667 0.009480
0.184098 0.073901 0.008687
0.216475 0.073046 0.007782
0.248842 0.072092 0.006767
0.281198 0.071036 0.005639
0.313543 0.069874 0.004401
0.345877 0.068605 0.003050
0.378200 0.067228 0.001588
0.410512 0.065742 0.000015
0.442814 0.065574 0.000000
0.475105 0.065439 0.000000
0.507385 0.065319 0.000000
0.539654 0.065212 0.000000
0.571913 0.065116 0.000000
0.604161 0.065029 0.000000
0.636398 0.064949 0.000000
0.668624 0.064877 0.000000
0.700839 0.064810 0.000000
0.733044 0.064748 0.000000
0.765237 0.064690 0.000000
0.797420 0.064636 0.000000
0.829593 0.064585 0.000000
0.861754 0.064537 0.000000
0.893905 0.064492 0.000000
0.926044 0.064450 0.000000
0.958173 0.064409 0.000000
0.990291 0.064371 0.000000
0.999365 0.064378 0.000000
1.000000 0.064414 0.000000
0.022367 0.108998 0.010946
0.054945 0.108889 0.010846
0.087517 0.108780 0.010745
0.118944 0.107597 0.009823
0.151325 0.106886 0.009125
0.183694 0.106121 0.008315
0.216054 0.105275 0.007394
0.248402 0.104337 0.006362
0.280739 0.103300 0.005218
0.313066 0.102161 0.003962
0.345382 0.100917 0.002595
0.377687 0.099566 0.001117
0.409982 0.098470 0.000000
0.442265 0.098242 0.000000
0.474538 0.098043 0.000000
0.506800 0.097867 0.000000
0.539051 0.097710 0.000000
0.571291 0.097569 0.000000
0.603521 0.097441 0.000000
0.635740 0.097324 0.000000
0.667948 0.097218 0.000000
0.700145 0.097119 0.000000
0.732331 0.097028 0.000000
0.764507 0.096943 0.000000
0.796672 0.096863 0.000000
0.828826 0.096788 0.000000
0.860969 0.096718 0.000000
0.893101 0.096652 0.000000
0.925223 0.096589 0.000000
0.957334 0.096529 0.000000
0.989434 0.096472 0.000000
0.999365 0.096480 0.000000
1.000000 0.096531 0.000000
0.021948 0.140616 0.010054
0.054479 0.140502 0.009949
0.087005 0.140387 0.009844
0.119527 0.140272 0.009738
0.150939 0.139093 0.008770
0.183291 0.138329 0.007944
0.215632 0.137494 0.007006
0.247962 0.136572 0.005957
0.280281 0.135556 0.004796
0.312590 0.134441 0.003524
0.344888 0.133222 0.002140
0.377175 0.131897 0.000645
0.409451 0.131127 0.000000
0.441716 0.130830 0.000000
0.473971 0.130571 0.000000
0.506215 0.130341 0.000000
0.538448 0.130136 0.000000
0.570670 0.129952 0.000000
0.602881 0.129785 0.000000
0.635082 0.129633 0.000000
0.667272 0.129493 0.000000
0.699451 0.129365 0.000000
0.731619 0.129245 0.000000
0.763776 0.129134 0.000000
0.795923 0.129030 0.000000
0.828059 0.128932 0.000000
0.860184 0.128840 0.000000
0.892298 0.128754 0.000000
0.924402 0.128671 0.000000
0.956494 0.128593 0.000000
0.988576 0.128518 0.000000
0.999365 0.128524 0.000000
1.000000 0.128590 0.000000
0.021424 0.172198 0.009028
0.053944 0.172078 0.008917
0.086461 0.171958 0.008807
0.118973 0.171838 0.008696
0.151482 0.171718 0.008586
0.182887 0.170526 0.007573
0.215210 0.169703 0.006618
0.247522 0.168799 0.005552
0.279823 0.167804 0.004375
0.312114 0.166712 0.003086
0.344393 0.165519 0.001685
0.376662 0.164221 0.000174
0.408920 0.163702 0.000000
0.441167 0.163339 0.000000
0.473404 0.163022 0.000000
0.505629 0.162741 0.000000
0.537844 0.162491 0.000000
0.570048 0.162266 0.000000
0.602241 0.162061 0.000000
0.634424 0.161875 0.000000
0.666596 0.161704 0.000000
0.698756 0.161546 0.000000
0.730906 0.161400 0.000000
0.763046 0.161264 0.000000
0.795174 0.161136 0.000000
0.827292 0.161017 0.000000
0.859399 0.160904 0.000000
0.891495 0.160797 0.000000
0.923580 0.160696 0.000000
0.955655 0.160600 0.000000
0.987718 0.160509 0.000000
0.999365 0.160511 0.000000
1.000000 0.160590 0.000000
0.020780 0.203744 0.007866
0.053308 0.203618 0.007751
0.085832 0.203493 0.007635
0.118353 0.203367 0.007520
0.150871 0.203242 0.007404
0.183386 0.203117 0.007289
0.214788 0.201902 0.006230
0.247082 0.201016 0.005147
0.279365 0.200044 0.003953
0.311637 0.198976 0.002648
0.343899 0.197808 0.001230
0.376149 0.196685 0.000000
0.408389 0.196193 0.000000
0.440618 0.195768 0.000000
0.472837 0.195396 0.000000
0.505044 0.195067 0.000000
0.537241 0.194773 0.000000
0.569427 0.194509 0.000000
0.601602 0.194269 0.000000
0.633766 0.194051 0.000000
0.665919 0.193850 0.000000
0.698062 0.193665 0.000000
0.730194 0.193493 0.000000
0.762315 0.193332 0.000000
0.794426 0.193183 0.000000
0.826525 0.193042 0.000000
0.858614 0.192909 0.000000
0.890692 0.192784 0.000000
0.922759 0.192665 0.000000
0.954815 0.192551 0.000000
0.986861 0.192443 0.000000
0.999365 0.192439 0.000000
1.000000 0.192531 0.000000
0.020009 0.235253 0.006569
0.052555 0.235122 0.006449
0.085098 0.234991 0.006329
0.117638 0.234860 0.006208
0.150175 0.234730 0.006088
0.182710 0.234599 0.005968
0.215241 0.234468 0.005847
0.246642 0.233225 0.004743
0.278907 0.232275 0.003532
0.311161 0.231232 0.002209
0.343404 0.230091 0.000776
0.375637 0.229161 0.000000
0.407858 0.228602 0.000000
0.440069 0.228118 0.000000
0.472269 0.227694 0.000000
0.504459 0.227319 0.000000
0.536637 0.226984 0.000000
0.568805 0.226683 0.000000
0.600962 0.226410 0.000000
0.633108 0.226160 0.000000
0.665243 0.225931 0.000000
0.697368 0.225719 0.000000
0.729482 0.225523 0.000000
0.761585 0.225340 0.000000
0.793677 0.225168 0.000000
0.825758 0.225007 0.000000
0.857829 0.224856 0.000000
0.889888 0.224712 0.000000
0.921937 0.224576 0.000000
0.953976 0.224446 0.000000
0.986003 0.224322 0.000000
0.999365 0.224311 0.000000
1.000000 0.224414 0.000000
0.019109 0.266726 0.005138
0.051680 0.266589 0.005012
0.084248 0.266453 0.004887
0.116813 0.266317 0.004762
0.149376 0.266181 0.004636
0.181935 0.266045 0.004511
0.214493 0.265908 0.004386
0.247047 0.265772 0.004260
0.278449 0.264497 0.003110
0.310685 0.263480 0.001771
0.342910 0.262366 0.000321
0.375124 0.261551 0.000000
0.407328 0.260927 0.000000
0.439520 0.260388 0.000000
0.471702 0.259915 0.000000
0.503873 0.259497 0.000000
0.536034 0.259123 0.000000
0.568183 0.258787 0.000000
0.600322 0.258482 0.000000
0.632450 0.258203 0.000000
0.664567 0.257947 0.000000
0.696674 0.257710 0.000000
0.728769 0.257490 0.000000
0.760854 0.257286 0.000000
0.792928 0.257094 0.000000
0.824991 0.256913 0.000000
0.857044 0.256743 0.000000
0.889085 0.256583 0.000000
0.921116 0.256430 0.000000
0.953136 0.256284 0.000000
0.985145 0.256146 0.000000
0.999365 0.256125 0.000000
1.000000 0.256238 0.000000
0.018077 0.298162 0.003571
0.050677 0.298021 0.003441
0.083274 0.297879 0.003310
0.115869 0.297737 0.003180
0.148461 0.297596 0.003050
0.181051 0.297454 0.002920
0.213638 0.297313 0.002789
0.246223 0.297171 0.002659
0.278805 0.297029 0.002529
0.310208 0.295720 0.001333
0.342415 0.294656 0.000000
0.374611 0.293854 0.000000
0.406797 0.293170 0.000000
0.438971 0.292578 0.000000
0.471135 0.292060 0.000000
0.503288 0.291601 0.000000
0.535430 0.291190 0.000000
0.567562 0.290821 0.000000
0.599682 0.290485 0.000000
0.631792 0.290179 0.000000
0.663891 0.289897 0.000000
0.695979 0.289637 0.000000
0.728057 0.289395 0.000000
0.760123 0.289170 0.000000
0.792179 0.288959 0.000000
0.824224 0.288760 0.000000
0.856259 0.288573 0.000000
0.888282 0.288395 0.000000
0.920295 0.288227 0.000000
0.952297 0.288066 0.000000
0.984288 0.287913 0.000000
0.999365 0.287882 0.000000
1.000000 0.288004 0.000000
0.016913 0.329562 0.001869
0.049545 0.329415 0.001734
0.082174 0.329268 0.001599
0.114802 0.329122 0.001464
0.147427 0.328974 0.001328
0.180049 0.328828 0.001193
0.212669 0.328681 0.001058
0.245287 0.328534 0.000923
0.277903 0.328387 0.000787
0.310516 0.328240 0.000652
0.341921 0.326938 0.000000
0.374099 0.326070 0.000000
0.406266 0.325330 0.000000
0.438422 0.324689 0.000000
0.470568 0.324127 0.000000
0.502703 0.323630 0.000000
0.534827 0.323186 0.000000
0.566940 0.322785 0.000000
0.599043 0.322421 0.000000
0.631134 0.322089 0.000000
0.663215 0.321783 0.000000
0.695285 0.321501 0.000000
0.727344 0.321238 0.000000
0.759393 0.320993 0.000000
0.791431 0.320763 0.000000
0.823457 0.320547 0.000000
0.855474 0.320343 0.000000
0.887479 0.320150 0.000000
0.919473 0.319967 0.000000
0.951457 0.319792 0.000000
0.983430 0.319625 0.000000
0.999365 0.319582 0.000000
1.000000 0.319711 0.000000
0.015616 0.360926 0.000033
0.048372 0.360774 0.000000
0.081131 0.360622 0.000000
0.113862 0.360469 0.000000
0.146565 0.360317 0.000000
0.179241 0.360164 0.000000
0.211889 0.360012 0.000000
0.244509 0.359860 0.000000
0.277102 0.359707 0.000000
0.309667 0.359555 0.000000
0.342204 0.359403 0.000000
0.373586 0.358199 0.000000
0.405735 0.357407 0.000000
0.437873 0.356720 0.000000
0.470001 0.356119 0.000000
0.502118 0.355586 0.000000
0.534223 0.355109 0.000000
0.566319 0.354679 0.000000
0.598403 0.354289 0.000000
0.630476 0.353932 0.000000
0.662539 0.353604 0.000000
0.694591 0.353300 0.000000
0.726632 0.353018 0.000000
0.758662 0.352755 0.000000
0.790682 0.352508 0.000000
0.822691 0.352275 0.000000
0.854689 0.352056 0.000000
0.886676 0.351848 0.000000
0.918652 0.351650 0.000000
0.950618 0.351461 0.000000
0.982572 0.351281 0.000000
0.999365 0.351225 0.000000
1.000000 0.351361 0.000000
0.015994 0.392254 0.000000
0.048658 0.392096 0.000000
0.081296 0.391938 0.000000
0.113908 0.391781 0.000000
0.146493 0.391623 0.000000
0.179052 0.391465 0.000000
0.211585 0.391307 0.000000
0.244091 0.391149 0.000000
0.276571 0.390992 0.000000
0.309025 0.390834 0.000000
0.341452 0.390676 0.000000
0.373853 0.390518 0.000000
0.405204 0.389401 0.000000
0.437324 0.388672 0.000000
0.469434 0.388033 0.000000
0.501532 0.387467 0.000000
0.533620 0.386961 0.000000
0.565697 0.386504 0.000000
0.597763 0.386089 0.000000
0.629818 0.385709 0.000000
0.661863 0.385360 0.000000
0.693897 0.385036 0.000000
0.725920 0.384736 0.000000
0.757932 0.384455 0.000000
0.789933 0.384191 0.000000
0.821924 0.383943 0.000000
0.853904 0.383709 0.000000
0.885872 0.383487 0.000000
0.917831 0.383276 0.000000
0.949778 0.383074 0.000000
0.981715 0.382882 0.000000
0.999365 0.382812 0.000000
1.000000 0.382953 0.000000
0.016416 0.423545 0.000000
0.048974 0.423382 0.000000
0.081506 0.423219 0.000000
0.114014 0.423056 0.000000
0.146497 0.422893 0.000000
0.178954 0.422729 0.000000
0.211386 0.422566 0.000000
0.243793 0.422403 0.000000
0.276175 0.422240 0.000000
0.308532 0.422077 0.000000
0.340864 0.421913 0.000000
0.373171 0.421750 0.000000
0.405453 0.421587 0.000000
0.436775 0.420544 0.000000
0.468867 0.419871 0.000000
0.500947 0.419275 0.000000
0.533017 0.418740 0.000000
0.565075 0.418259 0.000000
0.597123 0.417820 0.000000
0.629160 0.417420 0.000000
0.661187 0.417050 0.000000
0.693202 0.416709 0.000000
0.725207 0.416391 0.000000
0.757201 0.416094 0.000000
0.789184 0.415815 0.000000
0.821157 0.415552 0.000000
0.853118 0.415304 0.000000
0.885069 0.415069 0.000000
0.917009 0.414845 0.000000
0.948938 0.414631 0.000000
0.980857 0.414427 0.000000
0.999365 0.414342 0.000000
1.000000 0.414488 0.000000
0.016848 0.454800 0.000000
0.049312 0.454632 0.000000
0.081752 0.454463 0.000000
0.114168 0.454295 0.000000
0.146560 0.454126 0.000000
0.178927 0.453957 0.000000
0.211271 0.453789 0.000000
0.243591 0.453620 0.000000
0.275886 0.453452 0.000000
0.308158 0.453283 0.000000
0.340405 0.453114 0.000000
0.372628 0.452946 0.000000
0.404827 0.452777 0.000000
0.437002 0.452609 0.000000
0.468299 0.451633 0.000000
0.500362 0.451008 0.000000
0.532413 0.450448 0.000000
0.564454 0.449943 0.000000
0.596484 0.449484 0.000000
0.628503 0.449064 0.000000
0.660511 0.448676 0.000000
0.692508 0.448317 0.000000
0.724495 0.447983 0.000000
0.756471 0.447671 0.000000
0.788436 0.447378 0.000000
0.820390 0.447102 0.000000
0.852333 0.446840 0.000000
0.884266 0.446593 0.000000
0.916188 0.446357 0.000000
0.948099 0.446131 0.000000
0.979999 0.445916 0.000000
0.999365 0.445816 0.000000
1.000000 0.445964 0.000000
0.017288 0.486019 0.000000
0.049669 0.485845 0.000000
0.082026 0.485671 0.000000
0.114360 0.485497 0.000000
0.146671 0.485323 0.000000
0.178958 0.485149 0.000000
0.211223 0.484975 0.000000
0.243464 0.484801 0.000000
0.275682 0.484627 0.000000
0.307877 0.484453 0.000000
0.340048 0.484279 0.000000
0.372197 0.484105 0.000000
0.404322 0.483931 0.000000
0.436424 0.483757 0.000000
0.468503 0.483583 0.000000
0.499776 0.482667 0.000000
0.531810 0.482085 0.000000
0.563832 0.481558 0.000000
0.595844 0.481080 0.000000
0.627845 0.480641 0.000000
0.659835 0.480237 0.000000
0.691814 0.479862 0.000000
0.723782 0.479514 0.000000
0.755740 0.479187 0.000000
0.787687 0.478881 0.000000
0.819623 0.478592 0.000000
0.851548 0.478318 0.000000
0.883463 0.478059 0.000000
0.915367 0.477811 0.000000
0.947259 0.477575 0.000000
0.979142 0.477349 0.000000
0.999365 0.477234 0.000000
1.000000 0.477384 0.000000
0.017735 0.517201 0.000000
0.050040 0.517022 0.000000
0.082322 0.516843 0.000000
0.114583 0.516663 0.000000
0.146820 0.516484 0.000000
0.179035 0.516304 0.000000
0.211228 0.516125 0.000000
0.243398 0.515946 0.000000
0.275546 0.515766 0.000000
0.307672 0.515587 0.000000
0.339775 0.515408 0.000000
0.371856 0.515228 0.000000
0.403914 0.515049 0.000000
0.435950 0.514869 0.000000
0.467963 0.514690 0.000000
0.499954 0.514511 0.000000
0.531206 0.513649 0.000000
0.563210 0.513104 0.000000
0.595204 0.512607 0.000000
0.627187 0.512152 0.000000
0.659159 0.511733 0.000000
0.691120 0.511344 0.000000
0.723070 0.510981 0.000000
0.755010 0.510642 0.000000
0.786938 0.510323 0.000000
0.818856 0.510022 0.000000
0.850763 0.509737 0.000000
0.882660 0.509467 0.000000
0.914545 0.509209 0.000000
0.946420 0.508963 0.000000
0.978284 0.508727 0.000000
0.999365 0.508596 0.000000
1.000000 0.508746 0.000000
0.018187 0.548347 0.000000
0.050424 0.548163 0.000000
0.082638 0.547978 0.000000
0.114831 0.547793 0.000000
0.147002 0.547608 0.000000
0.179151 0.547423 0.000000
0.211278 0.547239 0.000000
0.243384 0.547054 0.000000
0.275468 0.546869 0.000000
0.307530 0.546684 0.000000
0.339571 0.546500 0.000000
0.371590 0.546315 0.000000
0.403587 0.546130 0.000000
0.435562 0.545945 0.000000
0.467515 0.545760 0.000000
0.499447 0.545576 0.000000
0.531357 0.545391 0.000000
0.562589 0.544579 0.000000
0.594564 0.544067 0.000000
0.626529 0.543597 0.000000
0.658482 0.543163 0.000000
0.690425 0.542761 0.000000
0.722358 0.542386 0.000000
0.754279 0.542035 0.000000
0.786190 0.541705 0.000000
0.818089 0.541393 0.000000
0.849978 0.541098 0.000000
0.881856 0.540817 0.000000
0.913724 0.540550 0.000000
0.945580 0.540294 0.000000
0.977426 0.540049 0.000000
0.999365 0.539902 0.000000
1.000000 0.540052 0.000000
0.018644 0.579457 0.000000
0.050817 0.579267 0.000000
0.082969 0.579077 0.000000
0.115100 0.578887 0.000000
0.147210 0.578696 0.000000
0.179298 0.578506 0.000000
0.211366 0.578316 0.000000
0.243412 0.578126 0.000000
0.275437 0.577936 0.000000
0.307441 0.577745 0.000000
0.339424 0.577555 0.000000
0.371386 0.577365 0.000000
0.403326 0.577175 0.000000
0.435246 0.576985 0.000000
0.467144 0.576795 0.000000
0.499021 0.576604 0.000000
0.530877 0.576414 0.000000
0.562712 0.576224 0.000000
0.593924 0.575458 0.000000
0.625871 0.574975 0.000000
0.657806 0.574529 0.000000
0.689731 0.574115 0.000000
0.721645 0.573729 0.000000
0.753548 0.573367 0.000000
0.785441 0.573027 0.000000
0.817322 0.572705 0.000000
0.849193 0.572400 0.000000
0.881053 0.572110 0.000000
0.912902 0.571834 0.000000
0.944741 0.571569 0.000000
0.976569 0.571315 0.000000
0.999365 0.571152 0.000000
1.000000 0.571300 0.000000
0.019105 0.610530 0.000000
0.051220 0.610335 0.000000
0.083314 0.610139 0.000000
0.115387 0.609944 0.000000
0.147440 0.609748 0.000000
0.179472 0.609553 0.000000
0.211484 0.609357 0.000000
0.243475 0.609161 0.000000
0.275446 0.608966 0.000000
0.307396 0.608770 0.000000
0.339325 0.608575 0.000000
0.371234 0.608379 0.000000
0.403122 0.608184 0.000000
0.434990 0.607988 0.000000
0.466837 0.607792 0.000000
0.498663 0.607597 0.000000
0.530469 0.607401 0.000000
0.562254 0.607206 0.000000
0.594019 0.607010 0.000000
0.625213 0.606287 0.000000
0.657130 0.605830 0.000000
0.689037 0.605405 0.000000
0.720933 0.605009 0.000000
0.752818 0.604638 0.000000
0.784692 0.604288 0.000000
0.816556 0.603957 0.000000
0.848408 0.603644 0.000000
0.880250 0.603345 0.000000
0.912081 0.603060 0.000000
0.943901 0.602788 0.000000
0.975711 0.602526 0.000000
0.999365 0.602346 0.000000
1.000000 0.602492 0.000000
0.019569 0.641567 0.000000
0.051629 0.641366 0.000000
0.083669 0.641165 0.000000
0.115690 0.640965 0.000000
0.147690 0.640764 0.000000
0.179669 0.640563 0.000000
0.211629 0.640362 0.000000
0.243569 0.640161 0.000000
0.275489 0.639960 0.000000
0.307388 0.639759 0.000000
0.339267 0.639558 0.000000
0.371127 0.639357 0.000000
0.402966 0.639156 0.000000
0.434785 0.638955 0.000000
0.466584 0.638754 0.000000
0.498363 0.638553 0.000000
0.530122 0.638352 0.000000
0.561861 0.638151 0.000000
0.593579 0.637950 0.000000
0.625278 0.637749 0.000000
0.656454 0.637065 0.000000
0.688343 0.636632 0.000000
0.720220 0.636227 0.000000
0.752087 0.635847 0.000000
0.783943 0.635489 0.000000
0.815789 0.635150 0.000000
0.847623 0.634828 0.000000
0.879447 0.634522 0.000000
0.911260 0.634230 0.000000
0.943062 0.633950 0.000000
0.974853 0.633681 0.000000
0.999365 0.633486 0.000000
1.000000 0.633627 0.000000
0.020036 0.672568 0.000000
0.052045 0.672362 0.000000
0.084035 0.672155 0.000000
0.116005 0.671949 0.000000
0.147955 0.671743 0.000000
0.179886 0.671536 0.000000
0.211797 0.671330 0.000000
0.243689 0.671124 0.000000
0.275560 0.670917 0.000000
0.307412 0.670711 0.000000
0.339245 0.670505 0.000000
0.371058 0.670298 0.000000
0.402851 0.670092 0.000000
0.434624 0.669885 0.000000
0.466378 0.669679 0.000000
0.498113 0.669473 0.000000
0.529827 0.669266 0.000000
0.561522 0.669060 0.000000
0.593197 0.668854 0.000000
0.624853 0.668647 0.000000
0.656489 0.668441 0.000000
0.687648 0.667795 0.000000
0.719508 0.667382 0.000000
0.751357 0.666994 0.000000
0.783195 0.666629 0.000000
0.815022 0.666283 0.000000
0.846838 0.665955 0.000000
0.878644 0.665642 0.000000
0.910438 0.665342 0.000000
0.942222 0.665056 0.000000
0.973996 0.664780 0.000000
0.999365 0.664570 0.000000
1.000000 0.664706 0.000000
0.020505 0.703533 0.000000
0.052466 0.703321 0.000000
0.084408 0.703109 0.000000
0.116331 0.702897 0.000000
0.148235 0.702686 0.000000
0.180120 0.702474 0.000000
0.211985 0.702262 0.000000
0.243831 0.702050 0.000000
0.275657 0.701838 0.000000
0.307465 0.701627 0.000000
0.339253 0.701415 0.000000
0.371022 0.701203 0.000000
0.402771 0.700991 0.000000
0.434502 0.700780 0.000000
0.466213 0.700568 0.000000
0.497905 0.700356 0.000000
0.529578 0.700144 0.000000
0.561231 0.699933 0.000000
0.592865 0.699721 0.000000
0.624480 0.699509 0.000000
0.656076 0.699297 0.000000
0.687652 0.699085 0.000000
0.718796 0.698475 0.000000
0.750626 0.698081 0.000000
0.782446 0.697709 0.000000
0.814255 0.697357 0.000000
0.846053 0.697022 0.000000
0.877840 0.696703 0.000000
0.909617 0.696398 0.000000
0.941383 0.696105 0.000000
0.973138 0.695824 0.000000
0.999365 0.695599 0.000000
1.000000 0.695729 0.000000
0.020976 0.734461 0.000000
0.052892 0.734244 0.000000
0.084789 0.734026 0.000000
0.116668 0.733809 0.000000
0.148527 0.733592 0.000000
0.180368 0.733375 0.000000
0.212189 0.733158 0.000000
0.243992 0.732941 0.000000
0.275776 0.732723 0.000000
0.307541 0.732506 0.000000
0.339287 0.732289 0.000000
0.371014 0.732072 0.000000
0.402723 0.731855 0.000000
0.434412 0.731638 0.000000
0.466083 0.731420 0.000000
0.497735 0.731203 0.000000
0.529367 0.730986 0.000000
0.560981 0.730769 0.000000
0.592576 0.730552 0.000000
0.624152 0.730335 0.000000
0.655710 0.730117 0.000000
0.687248 0.729900 0.000000
0.718768 0.729683 0.000000
0.749896 0.729106 0.000000
0.781697 0.728729 0.000000
0.813488 0.728371 0.000000
0.845268 0.728031 0.000000
0.877037 0.727707 0.000000
0.908796 0.727396 0.000000
0.940543 0.727098 0.000000
0.972280 0.726812 0.000000
0.999365 0.726573 0.000000
1.000000 0.726696 0.000000
0.021449 0.765353 0.000000
0.053322 0.765130 0.000000
0.085177 0.764907 0.000000
0.117013 0.764685 0.000000
0.148830 0.764462 0.000000
0.180629 0.764240 0.000000
0.212409 0.764017 0.000000
0.244171 0.763795 0.000000
0.275914 0.763572 0.000000
0.307639 0.763349 0.000000
0.339345 0.763127 0.000000
0.371032 0.762904 0.000000
0.402701 0.762682 0.000000
0.434352 0.762459 0.000000
0.465983 0.762237 0.000000
0.497597 0.762014 0.000000
0.529192 0.761792 0.000000
0.560768 0.761569 0.000000
0.592326 0.761346 0.000000
0.623865 0.761124 0.000000
0.655385 0.760901 0.000000
0.686887 0.760679 0.000000
0.718371 0.760456 0.000000
0.749836 0.760234 0.000000
0.780948 0.759688 0.000000
0.812721 0.759326 0.000000
0.844483 0.758982 0.000000
0.876234 0.758653 0.000000
0.907974 0.758338 0.000000
0.939704 0.758035 0.000000
0.971422 0.757744 0.000000
0.999365 0.757492 0.000000
1.000000 0.757606 0.000000
0.021924 0.796208 0.000000
0.053756 0.795980 0.000000
0.085570 0.795752 0.000000
0.117365 0.795524 0.000000
0.149142 0.795296 0.000000
0.180901 0.795068 0.000000
0.212642 0.794840 0.000000
0.244364 0.794612 0.000000
0.276069 0.794384 0.000000
0.307755 0.794156 0.000000
0.339422 0.793928 0.000000
0.371072 0.793700 0.000000
0.402703 0.793472 0.000000
0.434316 0.793244 0.000000
0.465911 0.793017 0.000000
0.497488 0.792789 0.000000
0.529046 0.792561 0.000000
0.560586 0.792333 0.000000
0.592108 0.792105 0.000000
0.623612 0.791877 0.000000
0.655097 0.791649 0.000000
0.686564 0.791421 0.000000
0.718013 0.791193 0.000000
0.749444 0.790965 0.000000
0.780856 0.790737 0.000000
0.811954 0.790222 0.000000
0.843698 0.789874 0.000000
0.875431 0.789541 0.000000
0.907153 0.789222 0.000000
0.938864 0.788916 0.000000
0.970565 0.788620 0.000000
0.999365 0.788356 0.000000
1.000000 0.788461 0.000000
0.022400 0.827027 0.000000
0.054193 0.826794 0.000000
0.085967 0.826560 0.000000
0.117724 0.826327 0.000000
0.149463 0.826094 0.000000
0.181184 0.825860 0.000000
0.212886 0.825627 0.000000
0.244571 0.825394 0.000000
0.276238 0.825160 0.000000
0.307887 0.824927 0.000000
0.339518 0.824694 0.000000
0.371131 0.824460 0.000000
0.402726 0.824227 0.000000
0.434303 0.823993 0.000000
0.465863 0.823760 0.000000
0.497404 0.823527 0.000000
0.528927 0.823293 0.000000
0.560433 0.823060 0.000000
0.591920 0.822827 0.000000
0.623390 0.822593 0.000000
0.654841 0.822360 0.000000
0.686275 0.822127 0.000000
0.717690 0.821893 0.000000
0.749088 0.821660 0.000000
0.780468 0.821427 0.000000
0.811829 0.821193 0.000000
0.842913 0.820707 0.000000
