luts/original/premium-bw-mood.cube
TITLE "Premium BW Mood"
LUT_3D_SIZE 33
DOMAIN_MIN 0.0 0.0 0.0
DOMAIN_MAX 1.0 1.0 1.0
0.004200 0.004200 0.004200
0.026794 0.007117 0.007117
0.048412 0.010326 0.010326
0.069054 0.013829 0.013829
0.088719 0.017626 0.017626
0.107408 0.021715 0.021715
0.125121 0.026098 0.026098
0.141858 0.030774 0.030774
0.157618 0.035743 0.035743
0.172402 0.041005 0.041005
0.186209 0.046561 0.046561
0.199040 0.052410 0.052410
0.210895 0.058552 0.058552
0.221774 0.064987 0.064987
0.231676 0.071715 0.071715
0.240602 0.078737 0.078737
0.248552 0.086052 0.086052
0.255525 0.093660 0.093660
0.261522 0.101561 0.101561
0.266543 0.109756 0.109756
0.270588 0.118244 0.118244
0.273656 0.127025 0.127025
0.275747 0.136099 0.136099
0.276863 0.145466 0.145466
0.277002 0.155127 0.155127
0.276165 0.165081 0.165081
0.274352 0.175328 0.175328
0.271562 0.185869 0.185869
0.267796 0.196702 0.196702
0.263054 0.207829 0.207829
0.257335 0.219249 0.219249
0.250640 0.230962 0.230962
0.242969 0.242969 0.242969
0.013435 0.033113 0.013435
0.035786 0.035786 0.016108
0.057897 0.038854 0.019811
0.079032 0.042216 0.023807
0.099191 0.045870 0.028097
0.118373 0.049818 0.032680
0.136579 0.054059 0.037555
0.153809 0.058594 0.042725
0.170062 0.063421 0.048187
0.185339 0.068542 0.053942
0.199640 0.073956 0.059991
0.212964 0.079663 0.066333
0.225312 0.085664 0.072968
0.236684 0.091957 0.079897
0.247080 0.098544 0.087119
0.256499 0.105425 0.094633
0.264942 0.112598 0.102442
0.272408 0.120064 0.110543
0.278898 0.127824 0.118938
0.284412 0.135877 0.127625
0.288950 0.144223 0.136606
0.292511 0.152863 0.145881
0.295096 0.161796 0.155448
0.296705 0.171022 0.165309
0.297338 0.180541 0.175463
0.296994 0.190353 0.185910
0.295673 0.200459 0.196650
0.293377 0.210857 0.207684
0.290104 0.221549 0.219010
0.285855 0.232535 0.230630
0.280630 0.243813 0.242544
0.274428 0.255385 0.254750
0.267250 0.267250 0.267250
0.023657 0.061743 0.023657
0.045519 0.064562 0.026477
0.067382 0.067382 0.029296
0.089010 0.070602 0.033785
0.109662 0.074115 0.038568
0.129337 0.077921 0.043644
0.148036 0.082021 0.049013
0.165759 0.086414 0.054675
0.182506 0.091100 0.060631
0.198276 0.096079 0.066880
0.213070 0.101351 0.073422
0.226888 0.106917 0.080257
0.239729 0.112776 0.087385
0.251594 0.118928 0.094807
0.262483 0.125373 0.102522
0.272395 0.132112 0.110530
0.281331 0.139144 0.118831
0.289291 0.146469 0.127426
0.296275 0.154087 0.136314
0.302282 0.161999 0.145495
0.307313 0.170203 0.154969
0.311367 0.178701 0.164736
0.314445 0.187492 0.174797
0.316547 0.196577 0.185151
0.317673 0.205954 0.195798
0.317822 0.215625 0.206738
0.316995 0.225589 0.217972
0.315192 0.235846 0.229499
0.312412 0.246397 0.241319
0.308656 0.257240 0.253432
0.303924 0.268377 0.265838
0.298216 0.279807 0.278538
0.291531 0.291531 0.291531
0.034865 0.090090 0.034865
0.056239 0.093056 0.037831
0.077614 0.096022 0.040797
0.098988 0.098988 0.043763
0.120133 0.102360 0.049039
0.140302 0.106024 0.054608
0.159494 0.109982 0.060471
0.177710 0.114234 0.066626
0.194950 0.118778 0.073075
0.211213 0.123616 0.079817
0.226501 0.128747 0.086852
0.240811 0.134171 0.094181
0.254146 0.139888 0.101802
0.266504 0.145899 0.109717
0.277886 0.152203 0.117925
0.288292 0.158800 0.126426
0.297721 0.165690 0.135221
0.306174 0.172873 0.144309
0.313651 0.180350 0.153690
0.320151 0.188120 0.163364
0.325675 0.196183 0.173331
0.330223 0.204539 0.183592
0.333794 0.213189 0.194146
0.336389 0.222132 0.204993
0.338008 0.231368 0.216133
0.338651 0.240897 0.227567
0.338317 0.250719 0.239294
0.337007 0.260835 0.251314
0.334720 0.271244 0.263627
0.331458 0.281946 0.276233
0.327219 0.292941 0.289133
0.322003 0.304230 0.302326
0.315812 0.315812 0.315812
0.047060 0.118154 0.047060
0.067946 0.121266 0.050172
0.088832 0.124379 0.053285
0.109718 0.127492 0.056398
0.130604 0.130604 0.059510
0.151266 0.134127 0.065573
0.170952 0.137944 0.071928
0.189661 0.142054 0.078577
0.207394 0.146456 0.085519
0.224151 0.151153 0.092754
0.239931 0.156142 0.100283
0.254735 0.161425 0.108104
0.268563 0.167000 0.116219
0.281414 0.172869 0.124627
0.293289 0.179032 0.133328
0.304188 0.185487 0.142323
0.314111 0.192236 0.151611
0.323057 0.199278 0.161192
0.331027 0.206613 0.171066
0.338020 0.214241 0.181233
0.344038 0.222163 0.191694
0.349079 0.230377 0.202448
0.353143 0.238885 0.213495
0.356232 0.247687 0.224835
0.358344 0.256781 0.236469
0.359479 0.266169 0.248395
0.359639 0.275850 0.260615
0.358822 0.285824 0.273129
0.357029 0.296091 0.285935
0.354259 0.306652 0.299035
0.350513 0.317506 0.312427
0.345791 0.328653 0.326113
0.340093 0.340093 0.340093
0.060241 0.145934 0.060241
0.080639 0.149193 0.063500
0.101037 0.152453 0.066759
0.121435 0.155712 0.070019
0.141833 0.158971 0.073278
0.162231 0.162231 0.076537
0.182409 0.165905 0.083386
0.201612 0.169874 0.090528
0.219838 0.174135 0.097963
0.237088 0.178689 0.105691
0.253361 0.183537 0.113713
0.268659 0.188678 0.122028
0.282980 0.194113 0.130636
0.296324 0.199840 0.139537
0.308693 0.205861 0.148732
0.320085 0.212175 0.158219
0.330500 0.218782 0.168000
0.339940 0.225682 0.178075
0.348403 0.232876 0.188442
0.355890 0.240362 0.199103
0.362400 0.248142 0.210056
0.367934 0.256216 0.221304
0.372492 0.264582 0.232844
0.376074 0.273242 0.244677
0.378679 0.282195 0.256804
0.380308 0.291441 0.269224
0.380961 0.300980 0.281937
0.380637 0.310813 0.294944
0.379337 0.320938 0.308243
0.377061 0.331357 0.321836
0.373808 0.342070 0.335722
0.369579 0.353075 0.349901
0.364374 0.364374 0.364374
0.074408 0.173432 0.074408
0.094318 0.176838 0.077814
0.114228 0.180243 0.081220
0.134138 0.183649 0.084626
0.154047 0.187055 0.088032
0.173957 0.190461 0.091438
0.193867 0.193867 0.094844
0.213563 0.197694 0.102479
0.232282 0.201813 0.110407
0.250025 0.206226 0.118629
0.266792 0.210933 0.127143
0.282582 0.215932 0.135952
0.297397 0.221225 0.145053
0.311234 0.226811 0.154447
0.324096 0.232690 0.164135
0.335981 0.238862 0.174116
0.346890 0.245328 0.184390
0.356823 0.252086 0.194958
0.365779 0.259138 0.205818
0.373759 0.266484 0.216972
0.380763 0.274122 0.228419
0.386790 0.282054 0.240159
0.391841 0.290279 0.252193
0.395916 0.298797 0.264519
0.399014 0.307608 0.277139
0.401137 0.316713 0.290053
0.402282 0.326111 0.303259
0.402452 0.335802 0.316759
0.401645 0.345786 0.330551
0.399862 0.356063 0.344637
0.397103 0.366634 0.359017
0.393367 0.377498 0.373689
0.388655 0.388655 0.388655
0.089562 0.200646 0.089562
0.108984 0.204198 0.093115
0.128405 0.207751 0.096667
0.147827 0.211303 0.100220
0.167249 0.214856 0.103772
0.186670 0.218408 0.107325
0.206092 0.221961 0.110877
0.225513 0.225513 0.114429
0.244726 0.229492 0.122851
0.262962 0.233763 0.131566
0.280222 0.238328 0.140574
0.296506 0.243186 0.149875
0.311813 0.248337 0.159470
0.326144 0.253781 0.169357
0.339499 0.259519 0.179538
0.351878 0.265550 0.190012
0.363280 0.271874 0.200780
0.373706 0.278491 0.211840
0.383155 0.285401 0.223194
0.391628 0.292605 0.234841
0.399125 0.300102 0.246782
0.405646 0.307892 0.259015
0.411190 0.315975 0.271542
0.415758 0.324352 0.284362
0.419350 0.333022 0.297475
0.421965 0.341985 0.310881
0.423604 0.351241 0.324581
0.424267 0.360790 0.338574
0.423953 0.370633 0.352860
0.422663 0.380769 0.367439
0.420397 0.391198 0.382311
0.417155 0.401920 0.397477
0.412936 0.412936 0.412936
0.105702 0.227577 0.105702
0.124636 0.231276 0.109401
0.143569 0.234975 0.113100
0.162503 0.238675 0.116800
0.181436 0.242374 0.120499
0.200370 0.246073 0.124198
0.219303 0.249772 0.127897
0.238237 0.253471 0.131596
0.257170 0.257170 0.135295
0.275900 0.261300 0.144503
0.293653 0.265723 0.154004
0.310430 0.270439 0.163799
0.326230 0.275449 0.173887
0.341055 0.280752 0.184267
0.354903 0.286348 0.194942
0.367774 0.292237 0.205909
0.379670 0.298420 0.217170
0.390589 0.304895 0.228723
0.400531 0.311664 0.240570
0.409498 0.318726 0.252711
0.417488 0.326082 0.265144
0.424502 0.333730 0.277871
0.430539 0.341672 0.290891
0.435600 0.349907 0.304204
0.439685 0.358435 0.317810
0.442794 0.367257 0.331710
0.444926 0.376371 0.345903
0.446082 0.385779 0.360389
0.446262 0.395480 0.375168
0.445465 0.405475 0.390240
0.443692 0.415762 0.405606
0.440943 0.426343 0.421265
0.437217 0.437217 0.437217
0.122829 0.254225 0.122829
0.141274 0.258071 0.126675
0.159720 0.261917 0.130520
0.178165 0.265763 0.134366
0.196610 0.269608 0.138212
0.215056 0.273454 0.142058
0.233501 0.277300 0.145903
0.251946 0.281145 0.149749
0.270392 0.284991 0.153595
0.288837 0.288837 0.157440
0.307083 0.293118 0.167435
0.324353 0.297693 0.177723
0.340647 0.302561 0.188303
0.355965 0.307722 0.199178
0.370306 0.313177 0.210345
0.383671 0.318925 0.221805
0.396059 0.324965 0.233559
0.407471 0.331300 0.245606
0.417907 0.337927 0.257946
0.427367 0.344848 0.270580
0.435850 0.352061 0.283507
0.443357 0.359568 0.296726
0.449888 0.367369 0.310240
0.455442 0.375462 0.324046
0.460021 0.383849 0.338146
0.463622 0.392529 0.352538
0.466248 0.401502 0.367224
0.467897 0.410768 0.382204
0.468570 0.420328 0.397476
0.468266 0.430180 0.413042
0.466986 0.440326 0.428901
0.464730 0.450766 0.445053
0.461498 0.461498 0.461498
0.140942 0.280590 0.140942
0.158899 0.284583 0.144934
0.176856 0.288575 0.148927
0.194814 0.292567 0.152919
0.212771 0.296560 0.156911
0.230728 0.300552 0.160904
0.248685 0.304544 0.164896
0.266642 0.308537 0.168888
0.284599 0.312529 0.172881
0.302557 0.316521 0.176873
0.320514 0.320514 0.180865
0.338277 0.324947 0.191646
0.355064 0.329673 0.202720
0.370875 0.334693 0.214088
0.385709 0.340006 0.225748
0.399567 0.345612 0.237702
0.412449 0.351511 0.249949
0.424354 0.357704 0.262489
0.435284 0.364190 0.275323
0.445236 0.370969 0.288449
0.454213 0.378041 0.301869
0.462213 0.385406 0.315582
0.469237 0.393065 0.329589
0.475285 0.401017 0.343888
0.480356 0.409262 0.358481
0.484451 0.417800 0.373367
0.487570 0.426632 0.388546
0.489712 0.435757 0.404019
0.490878 0.445175 0.419784
0.491068 0.454886 0.435843
0.490281 0.464890 0.452195
0.488518 0.475188 0.468840
0.485779 0.485779 0.485779
0.160041 0.306672 0.160041
0.177511 0.310811 0.164180
0.194980 0.314950 0.168319
0.212449 0.319089 0.172458
0.229918 0.323228 0.176597
0.247387 0.327367 0.180736
0.264856 0.331506 0.184875
0.282325 0.335645 0.189014
0.299794 0.339784 0.193153
0.317263 0.343923 0.197292
0.334732 0.348062 0.201431
0.352201 0.352201 0.205570
0.369481 0.356786 0.217137
0.385785 0.361664 0.228998
0.401112 0.366835 0.241151
0.415464 0.372300 0.253598
0.428839 0.378057 0.266339
0.441237 0.384108 0.279372
0.452660 0.390453 0.292699
0.463106 0.397090 0.306319
0.472575 0.404021 0.320232
0.481069 0.411245 0.334438
0.488586 0.418762 0.348938
0.495127 0.426572 0.363730
0.500691 0.434676 0.378816
0.505279 0.443072 0.394195
0.508891 0.451762 0.409868
0.511527 0.460746 0.425834
0.513186 0.470022 0.442092
0.513869 0.479592 0.458644
0.513576 0.489455 0.475490
0.512306 0.499611 0.492628
0.510060 0.510060 0.510060
0.180127 0.332471 0.180127
0.197108 0.336757 0.184413
0.214089 0.341042 0.188699
0.231070 0.345328 0.192984
0.248051 0.349613 0.197270
0.265032 0.353899 0.201555
0.282013 0.358184 0.205841
0.298993 0.362470 0.210126
0.315974 0.366756 0.214412
0.332955 0.371041 0.218697
0.349936 0.375327 0.222983
0.366917 0.379612 0.227268
0.383898 0.383898 0.231554
0.400695 0.388634 0.243908
0.416516 0.393664 0.256555
0.431360 0.398987 0.269495
0.445228 0.404603 0.282728
0.458120 0.410513 0.296255
0.470036 0.416715 0.310075
0.480975 0.423211 0.324188
0.490938 0.430000 0.338594
0.499925 0.437083 0.353294
0.507935 0.444458 0.368286
0.514969 0.452127 0.383572
0.521027 0.460089 0.399152
0.526108 0.468344 0.415024
0.530213 0.476893 0.431190
0.533342 0.485734 0.447649
0.535494 0.494869 0.464401
0.536671 0.504297 0.481446
0.536870 0.514019 0.498784
0.536094 0.524033 0.516416
0.534341 0.534341 0.534341
0.201200 0.357987 0.201200
0.217692 0.362419 0.205632
0.234185 0.366851 0.210064
0.250678 0.371283 0.214496
0.267171 0.375715 0.218928
0.283663 0.380148 0.223361
0.300156 0.384580 0.227793
0.316649 0.389012 0.232225
0.333141 0.393444 0.236657
0.349634 0.397876 0.241089
0.366127 0.402308 0.245521
0.382620 0.406741 0.249954
0.399112 0.411173 0.254386
0.415605 0.415605 0.258818
0.431919 0.420493 0.271958
0.447257 0.425675 0.285391
0.461618 0.431149 0.299118
0.475003 0.436917 0.313138
0.487412 0.442978 0.327451
0.498844 0.449333 0.342057
0.509300 0.455980 0.356957
0.518780 0.462921 0.372149
0.527284 0.470155 0.387635
0.534811 0.477682 0.403415
0.541362 0.485503 0.419487
0.546937 0.493616 0.435853
0.551535 0.502023 0.452511
0.555157 0.510723 0.469464
0.557803 0.519717 0.486709
0.559472 0.529003 0.504247
0.560165 0.538583 0.522079
0.559882 0.548456 0.540204
0.558622 0.558622 0.558622
0.223258 0.383219 0.223258
0.239263 0.387798 0.227837
0.255268 0.392377 0.232416
0.271272 0.396956 0.236995
0.287277 0.401535 0.241574
0.303281 0.406113 0.246152
0.319286 0.410692 0.250731
0.335290 0.415271 0.255310
0.351295 0.419850 0.259889
0.367299 0.424428 0.264467
0.383304 0.429007 0.269046
0.399309 0.433586 0.273625
0.415313 0.438165 0.278204
0.431318 0.442743 0.282783
0.447322 0.447322 0.287361
0.463153 0.452362 0.301288
0.478008 0.457695 0.315508
0.491886 0.463322 0.330021
0.504788 0.469241 0.344827
0.516714 0.475454 0.359927
0.527663 0.481960 0.375319
0.537636 0.488759 0.391005
0.546633 0.495852 0.406984
0.554653 0.503237 0.423257
0.561697 0.510916 0.439822
0.567765 0.518888 0.456681
0.572857 0.527154 0.473833
0.576972 0.535712 0.491279
0.580111 0.544564 0.509017
0.582273 0.553709 0.527049
0.583460 0.563147 0.545374
0.583670 0.572879 0.563992
0.582903 0.582903 0.582903
0.246304 0.408169 0.246304
0.261820 0.412894 0.251029
0.277336 0.417620 0.255754
0.292853 0.422345 0.260480
0.308369 0.427070 0.265205
0.323886 0.431796 0.269931
0.339402 0.436521 0.274656
0.354918 0.441247 0.279381
0.370435 0.445972 0.284107
0.385951 0.450697 0.288832
0.401468 0.455423 0.293557
0.416984 0.460148 0.298283
0.432500 0.464873 0.303008
0.448017 0.469599 0.307734
0.463533 0.474324 0.312459
0.479050 0.479050 0.317184
0.494397 0.484241 0.331897
0.508769 0.489726 0.346904
0.522164 0.495504 0.362203
0.534583 0.501575 0.377796
0.546026 0.507940 0.393682
0.556492 0.514597 0.409861
0.565982 0.521548 0.426333
0.574495 0.528792 0.443099
0.582033 0.536330 0.460158
0.588594 0.544160 0.477510
0.594178 0.552284 0.495155
0.598787 0.560701 0.513094
0.602419 0.569411 0.531325
0.605075 0.578415 0.549850
0.606754 0.587711 0.568668
0.607457 0.597301 0.587780
0.607184 0.607184 0.607184
0.270335 0.432835 0.270335
0.285363 0.437707 0.275207
0.300392 0.442579 0.280079
0.315420 0.447451 0.284951
0.330448 0.452323 0.289823
0.345476 0.457195 0.294695
0.360505 0.462067 0.299567
0.375533 0.466939 0.304439
0.390561 0.471811 0.309311
0.405589 0.476683 0.314183
0.420618 0.481555 0.319055
0.435646 0.486427 0.323927
0.450674 0.491299 0.328799
0.465702 0.496171 0.333671
0.480731 0.501043 0.338543
0.495759 0.505915 0.343415
0.510787 0.510787 0.348287
0.525652 0.516130 0.363787
0.539540 0.521767 0.379579
0.552452 0.527696 0.395665
0.564388 0.533919 0.412044
0.575348 0.540435 0.428717
0.585331 0.547245 0.445682
0.594338 0.554347 0.462941
0.602368 0.561743 0.480493
0.609422 0.569432 0.498338
0.615500 0.577414 0.516477
0.620602 0.585690 0.534909
0.624727 0.594258 0.553633
0.627876 0.603120 0.572652
0.630049 0.612275 0.591963
0.631245 0.621724 0.611567
0.631465 0.631465 0.631465
0.295353 0.457218 0.295353
0.309893 0.462237 0.300372
0.324433 0.467256 0.305390
0.338973 0.472274 0.310409
0.353514 0.477293 0.315428
0.368054 0.482311 0.320446
0.382594 0.487330 0.325465
0.397134 0.492349 0.330483
0.411674 0.497367 0.335502
0.426214 0.502386 0.340521
0.440754 0.507405 0.345539
0.455294 0.512423 0.350558
0.469834 0.517442 0.355576
0.484374 0.522460 0.360595
0.498914 0.527479 0.365614
0.513455 0.532498 0.370632
0.527995 0.537516 0.375651
0.542535 0.542535 0.380670
0.556916 0.548030 0.396955
0.570322 0.553818 0.413535
0.582751 0.559899 0.430407
0.594203 0.566274 0.447572
0.604680 0.572941 0.465031
0.614180 0.579902 0.482783
0.622703 0.587157 0.500829
0.630251 0.594704 0.519167
0.636822 0.602545 0.537799
0.642417 0.610679 0.556724
0.647035 0.619106 0.575942
0.650678 0.627826 0.595453
0.653343 0.636840 0.615258
0.655033 0.646146 0.635355
0.655746 0.655746 0.655746
0.321358 0.481319 0.321358
0.335410 0.486484 0.326523
0.349462 0.491649 0.331688
0.363513 0.496814 0.336853
0.377565 0.501979 0.342019
0.391617 0.507145 0.347184
0.405669 0.512310 0.352349
0.419721 0.517475 0.357514
0.433773 0.522640 0.362679
0.447825 0.527806 0.367845
0.461877 0.532971 0.373010
0.475929 0.538136 0.378175
0.489981 0.543301 0.383340
0.504033 0.548466 0.388505
0.518085 0.553632 0.393671
0.532137 0.558797 0.398836
0.546189 0.563962 0.404001
0.560241 0.569127 0.409166
0.574292 0.574292 0.414332
0.588191 0.579939 0.431404
0.601113 0.585879 0.448769
0.613059 0.592112 0.466428
0.624029 0.598638 0.484380
0.634022 0.605457 0.502625
0.643039 0.612570 0.521164
0.651079 0.619976 0.539995
0.658144 0.627675 0.559120
0.664232 0.635667 0.578538
0.669344 0.643953 0.598250
0.673479 0.652532 0.618254
0.676638 0.661404 0.638552
0.678821 0.670569 0.659143
0.680027 0.680027 0.680027
0.348348 0.505136 0.348348
0.361912 0.510447 0.353660
0.375476 0.515759 0.358972
0.389040 0.521071 0.364284
0.402604 0.526383 0.369596
0.416167 0.531695 0.374908
0.429731 0.537007 0.380219
0.443295 0.542318 0.385531
0.456859 0.547630 0.390843
0.470423 0.552942 0.396155
0.483986 0.558254 0.401467
0.497550 0.563566 0.406779
0.511114 0.568878 0.412090
0.524678 0.574189 0.417402
0.538241 0.579501 0.422714
0.551805 0.584813 0.428026
0.565369 0.590125 0.433338
0.578933 0.595437 0.438650
0.592497 0.600748 0.443961
0.606060 0.606060 0.449273
0.619476 0.611859 0.467132
0.631915 0.617950 0.485284
0.643378 0.624335 0.503729
0.653864 0.631012 0.522468
0.663374 0.637984 0.541499
0.671908 0.645248 0.560824
0.679466 0.652805 0.580442
0.686047 0.660656 0.600353
0.691652 0.668800 0.620558
0.696280 0.677237 0.641056
0.699933 0.685968 0.661847
0.702609 0.694992 0.682931
0.704308 0.704308 0.704308
0.376326 0.528669 0.376326
0.389401 0.534128 0.381784
0.402477 0.539586 0.387243
0.415553 0.545045 0.392701
0.428628 0.550503 0.398159
0.441704 0.555962 0.403618
0.454779 0.561420 0.409076
0.467855 0.566879 0.414535
0.480931 0.572337 0.419993
0.494006 0.577795 0.425452
0.507082 0.583254 0.430910
0.520158 0.588712 0.436369
0.533233 0.594171 0.441827
0.546309 0.599629 0.447285
0.559384 0.605088 0.452744
0.572460 0.610546 0.458202
0.585536 0.616005 0.463661
0.598611 0.621463 0.469119
0.611687 0.626921 0.474578
0.624763 0.632380 0.480036
0.637838 0.637838 0.485494
0.650771 0.643788 0.504140
0.662727 0.650031 0.523078
0.673706 0.656568 0.542310
0.683710 0.663397 0.561835
0.692737 0.670520 0.581653
0.700787 0.677936 0.601764
0.707862 0.685645 0.622168
0.713960 0.693648 0.642866
0.719082 0.701943 0.663857
0.723227 0.710532 0.685141
0.726397 0.719414 0.706719
0.728589 0.728589 0.728589
0.405289 0.551920 0.405289
0.417877 0.557525 0.410894
0.430464 0.563130 0.416499
0.443052 0.568735 0.422105
0.455639 0.574340 0.427710
0.468227 0.579946 0.433315
0.480814 0.585551 0.438920
0.493402 0.591156 0.444525
0.505989 0.596761 0.450130
0.518577 0.602366 0.455735
0.531164 0.607971 0.461340
0.543752 0.613576 0.466945
0.556339 0.619181 0.472550
0.568927 0.624786 0.478155
0.581514 0.630391 0.483760
0.594101 0.635996 0.489365
0.606689 0.641601 0.494970
0.619276 0.647206 0.500575
0.631864 0.652811 0.506180
0.644451 0.658416 0.511785
0.657039 0.664021 0.517390
0.669626 0.669626 0.522995
0.682076 0.675728 0.542427
0.693548 0.682123 0.562152
0.704045 0.688811 0.582170
0.713565 0.695792 0.602481
0.722109 0.703066 0.623086
0.729677 0.710634 0.643983
0.736268 0.718495 0.665174
0.741883 0.726649 0.686659
0.746522 0.735096 0.708436
0.750184 0.743837 0.730507
0.752871 0.752871 0.752871
0.435239 0.574888 0.435239
0.447339 0.580640 0.440991
0.459438 0.586391 0.446743
0.471537 0.592143 0.452494
0.483637 0.597895 0.458246
0.495736 0.603646 0.463998
0.507835 0.609398 0.469749
0.519935 0.615150 0.475501
0.532034 0.620901 0.481253
0.544133 0.626653 0.487004
0.556233 0.632405 0.492756
0.568332 0.638156 0.498508
0.580431 0.643908 0.504259
0.592531 0.649660 0.510011
0.604630 0.655411 0.515763
0.616729 0.661163 0.521514
0.628829 0.666914 0.527266
0.640928 0.672666 0.533018
0.653027 0.678418 0.538769
0.665127 0.684169 0.544521
0.677226 0.689921 0.550273
0.689325 0.695673 0.556024
0.701424 0.701424 0.561776
0.713391 0.707678 0.581994
0.724380 0.714224 0.602505
0.734394 0.721064 0.623310
0.743431 0.728197 0.644408
0.751492 0.735623 0.665798
0.758576 0.743342 0.687483
0.764685 0.751355 0.709460
0.769817 0.759660 0.731731
0.773972 0.768259 0.754294
0.777152 0.777152 0.777152
0.466176 0.597572 0.466176
0.477787 0.603471 0.472074
0.489398 0.609369 0.477973
0.501009 0.615267 0.483871
0.512621 0.621166 0.489769
0.524232 0.627064 0.495667
0.535843 0.632962 0.501566
0.547454 0.638860 0.507464
0.559065 0.644759 0.513362
0.570676 0.650657 0.519260
0.582288 0.656555 0.525159
0.593899 0.662453 0.531057
0.605510 0.668352 0.536955
0.617121 0.674250 0.542854
0.628732 0.680148 0.548752
0.640343 0.686047 0.554650
0.651955 0.691945 0.560548
0.663566 0.697843 0.566447
0.675177 0.703741 0.572345
0.686788 0.709640 0.578243
0.698399 0.715538 0.584141
0.710010 0.721436 0.590040
0.721622 0.727334 0.595938
0.733233 0.733233 0.601836
0.744716 0.739638 0.622841
0.755222 0.746336 0.644138
0.764753 0.753327 0.665729
0.773307 0.760612 0.687613
0.780885 0.768189 0.709791
0.787486 0.776060 0.732261
0.793111 0.784225 0.755025
0.797760 0.792682 0.778082
0.801433 0.801433 0.801433
0.498099 0.619974 0.498099
0.509222 0.626019 0.504144
0.520345 0.632064 0.510189
0.531468 0.638109 0.516234
0.542591 0.644153 0.522278
0.553714 0.650198 0.528323
0.564837 0.656243 0.534368
0.575960 0.662288 0.540413
0.587083 0.668333 0.546458
0.598206 0.674378 0.552503
0.609329 0.680423 0.558548
0.620452 0.686468 0.564593
0.631575 0.692513 0.570637
0.642698 0.698557 0.576682
0.653821 0.704602 0.582727
0.664944 0.710647 0.588772
0.676067 0.716692 0.594817
0.687190 0.722737 0.600862
0.698313 0.728782 0.606907
0.709436 0.734827 0.612952
0.720559 0.740872 0.618997
0.731682 0.746916 0.625041
0.742805 0.752961 0.631086
0.753928 0.759006 0.637131
0.765051 0.765051 0.643176
0.776051 0.771608 0.664967
0.786075 0.778457 0.687051
0.795122 0.785600 0.709428
0.803193 0.793037 0.732099
0.810287 0.800766 0.755063
0.816406 0.808789 0.778320
0.821548 0.817105 0.801870
0.825714 0.825714 0.825714
0.531008 0.642092 0.531008
0.541643 0.648284 0.537200
0.552278 0.654475 0.543391
0.562913 0.660667 0.549583
0.573548 0.666858 0.555774
0.584183 0.673050 0.561966
0.594817 0.679241 0.568157
0.605452 0.685433 0.574349
0.616087 0.691624 0.580540
0.626722 0.697816 0.586732
0.637357 0.704007 0.592923
0.647992 0.710199 0.599115
0.658626 0.716390 0.605306
0.669261 0.722582 0.611498
0.679896 0.728773 0.617689
0.690531 0.734965 0.623881
0.701166 0.741156 0.630072
0.711801 0.747348 0.636264
0.722436 0.753539 0.642455
0.733070 0.759731 0.648647
0.743705 0.765922 0.654838
0.754340 0.772114 0.661030
0.764975 0.778305 0.667221
0.775610 0.784497 0.673413
0.786245 0.790688 0.679604
0.796880 0.796880 0.685796
0.807396 0.803588 0.708373
0.816937 0.810589 0.731243
0.825501 0.817884 0.754407
0.833089 0.825472 0.777864
0.839700 0.833353 0.801615
0.845336 0.841527 0.825658
0.849995 0.849995 0.849995
0.564904 0.663927 0.564904
0.575051 0.670266 0.571242
0.585197 0.676604 0.577580
0.595344 0.682942 0.583918
0.605491 0.689280 0.590256
0.615637 0.695618 0.596595
0.625784 0.701956 0.602933
0.635931 0.708294 0.609271
0.646078 0.714632 0.615609
0.656224 0.720970 0.621947
0.666371 0.727308 0.628285
0.676518 0.733647 0.634623
0.686664 0.739985 0.640961
0.696811 0.746323 0.647299
0.706958 0.752661 0.653637
0.717104 0.758999 0.659976
0.727251 0.765337 0.666314
0.737398 0.771675 0.672652
0.747545 0.778013 0.678990
0.757691 0.784351 0.685328
0.767838 0.790690 0.691666
0.777985 0.797028 0.698004
0.788131 0.803366 0.704342
0.798278 0.809704 0.710680
0.808425 0.816042 0.717018
0.818571 0.822380 0.723357
0.828718 0.828718 0.729695
