luts/original/premium-bw-mood.cube
TITLE "Premium BW Mood"
LUT_3D_SIZE 5
DOMAIN_MIN 0.0 0.0 0.0
DOMAIN_MAX 1.0 1.0 1.0
0.004200 0.004200 0.004200
0.157618 0.035743 0.035743
0.248552 0.086052 0.086052
0.277002 0.155127 0.155127
0.242969 0.242969 0.242969
0.105702 0.227577 0.105702
0.257170 0.257170 0.135295
0.379670 0.298420 0.217170
0.439685 0.358435 0.317810
0.437217 0.437217 0.437217
0.270335 0.432835 0.270335
0.390561 0.471811 0.309311
0.510787 0.510787 0.348287
0.602368 0.561743 0.480493
0.631465 0.631465 0.631465
0.498099 0.619974 0.498099
0.587083 0.668333 0.546458
0.676067 0.716692 0.594817
0.765051 0.765051 0.643176
0.825714 0.825714 0.825714
0.788993 0.788993 0.788993
0.846735 0.846735 0.846735
0.904478 0.904478 0.904478
0.962220 0.962220 0.962220
1.000000 1.000000 1.000000
0.016200 0.016200 0.138075
0.167668 0.045793 0.167668
0.261788 0.099288 0.180538
0.293425 0.171550 0.212175
0.262578 0.262578 0.262578
0.115752 0.237627 0.237627
0.267220 0.267220 0.267220
0.392906 0.311656 0.311656
0.456108 0.374858 0.374858
0.456826 0.456826 0.456826
0.283572 0.446072 0.364822
0.403798 0.485048 0.403798
0.524024 0.524024 0.442774
0.618791 0.578166 0.537541
0.651075 0.651075 0.651075
0.514522 0.636397 0.555147
0.603506 0.684756 0.603506
0.692490 0.733115 0.651865
0.781474 0.781474 0.700224
0.845323 0.845323 0.845323
0.808603 0.808603 0.808603
0.866345 0.866345 0.866345
0.924087 0.924087 0.924087
0.981829 0.981829 0.981829
1.000000 1.000000 1.000000
0.034573 0.034573 0.197073
0.154799 0.073549 0.236049
0.275025 0.112525 0.275025
0.309848 0.187973 0.269223
0.282188 0.282188 0.282188
0.165690 0.246940 0.328190
0.285916 0.285916 0.367166
0.406142 0.324892 0.406142
0.472531 0.391281 0.431906
0.476436 0.476436 0.476436
0.296808 0.459308 0.459308
0.417034 0.498284 0.498284
0.537260 0.537260 0.537260
0.635214 0.594589 0.594589
0.670684 0.670684 0.670684
0.530945 0.652820 0.612195
0.619929 0.701179 0.660554
0.708913 0.749538 0.708913
0.797897 0.797897 0.757272
0.864933 0.864933 0.864933
0.828212 0.828212 0.828212
0.885954 0.885954 0.885954
0.943697 0.943697 0.943697
1.000000 1.000000 1.000000
1.000000 1.000000 1.000000
0.059319 0.059319 0.181194
0.148303 0.107678 0.229553
0.237287 0.156037 0.277912
0.326271 0.204396 0.326271
0.301797 0.301797 0.301797
0.222002 0.262627 0.343877
0.310986 0.310986 0.392236
0.399970 0.359345 0.440595
0.488954 0.407704 0.488954
0.496046 0.496046 0.496046
0.384685 0.465935 0.506560
0.473669 0.514294 0.554919
0.562653 0.562653 0.603278
0.651637 0.611012 0.651637
0.690294 0.690294 0.690294
0.547368 0.669243 0.669243
0.636352 0.717602 0.717602
0.725336 0.765961 0.765961
0.814320 0.814320 0.814320
0.884542 0.884542 0.884542
0.847822 0.847822 0.847822
0.905564 0.905564 0.905564
0.963306 0.963306 0.963306
1.000000 1.000000 1.000000
1.000000 1.000000 1.000000
0.090438 0.090438 0.090438
0.148180 0.148180 0.148180
0.205922 0.205922 0.205922
0.263665 0.263665 0.263665
0.321407 0.321407 0.321407
0.284686 0.284686 0.284686
0.342429 0.342429 0.342429
0.400171 0.400171 0.400171
0.457913 0.457913 0.457913
0.515655 0.515655 0.515655
0.478935 0.478935 0.478935
0.536677 0.536677 0.536677
0.594419 0.594419 0.594419
0.652161 0.652161 0.652161
0.709903 0.709903 0.709903
0.673183 0.673183 0.673183
0.730925 0.730925 0.730925
0.788667 0.788667 0.788667
0.846409 0.846409 0.846409
0.904152 0.904152 0.904152
0.867431 0.867431 0.867431
0.925174 0.925174 0.925174
0.982916 0.982916 0.982916
1.000000 1.000000 1.000000
1.000000 1.000000 1.000000
