luts/original/premium-bw-mood.cube
TITLE "Premium BW Mood"
LUT_3D_SIZE 9
DOMAIN_MIN 0.0 0.0 0.0
DOMAIN_MAX 1.0 1.0 1.0
0.004200 0.004200 0.004200
0.088719 0.017626 0.017626
0.157618 0.035743 0.035743
0.210895 0.058552 0.058552
0.248552 0.086052 0.086052
0.270588 0.118244 0.118244
0.277002 0.155127 0.155127
0.267796 0.196702 0.196702
0.242969 0.242969 0.242969
0.047060 0.118154 0.047060
0.130604 0.130604 0.059510
0.207394 0.146456 0.085519
0.268563 0.167000 0.116219
0.314111 0.192236 0.151611
0.344038 0.222163 0.191694
0.358344 0.256781 0.236469
0.357029 0.296091 0.285935
0.340093 0.340093 0.340093
0.105702 0.227577 0.105702
0.181436 0.242374 0.120499
0.257170 0.257170 0.135295
0.326230 0.275449 0.173887
0.379670 0.298420 0.217170
0.417488 0.326082 0.265144
0.439685 0.358435 0.317810
0.446262 0.395480 0.375168
0.437217 0.437217 0.437217
0.180127 0.332471 0.180127
0.248051 0.349613 0.197270
0.315974 0.366756 0.214412
0.383898 0.383898 0.231554
0.445228 0.404603 0.282728
0.490938 0.430000 0.338594
0.521027 0.460089 0.399152
0.535494 0.494869 0.464401
0.534341 0.534341 0.534341
0.270335 0.432835 0.270335
0.330448 0.452323 0.289823
0.390561 0.471811 0.309311
0.450674 0.491299 0.328799
0.510787 0.510787 0.348287
0.564388 0.533919 0.412044
0.602368 0.561743 0.480493
0.624727 0.594258 0.553633
0.631465 0.631465 0.631465
0.376326 0.528669 0.376326
0.428628 0.550503 0.398159
0.480931 0.572337 0.419993
0.533233 0.594171 0.441827
0.585536 0.616005 0.463661
0.637838 0.637838 0.485494
0.683710 0.663397 0.561835
0.713960 0.693648 0.642866
0.728589 0.728589 0.728589
0.498099 0.619974 0.498099
0.542591 0.644153 0.522278
0.587083 0.668333 0.546458
0.631575 0.692513 0.570637
0.676067 0.716692 0.594817
0.720559 0.740872 0.618997
0.765051 0.765051 0.643176
0.803193 0.793037 0.732099
0.825714 0.825714 0.825714
0.635655 0.706748 0.635655
0.672336 0.733274 0.662180
0.709018 0.759799 0.688705
0.745699 0.786324 0.715231
0.782381 0.812850 0.741756
0.819063 0.839375 0.768281
0.855744 0.865900 0.794807
0.892426 0.892426 0.821332
0.922838 0.922838 0.922838
0.788993 0.788993 0.788993
0.817864 0.817864 0.817864
0.846735 0.846735 0.846735
0.875607 0.875607 0.875607
0.904478 0.904478 0.904478
0.933349 0.933349 0.933349
0.962220 0.962220 0.962220
0.991091 0.991091 0.991091
1.000000 1.000000 1.000000
0.009403 0.009403 0.080497
0.092948 0.021854 0.092948
0.162643 0.040768 0.101705
0.216717 0.064373 0.115154
0.255170 0.092670 0.133295
0.278002 0.125659 0.156127
0.285214 0.163339 0.183651
0.276804 0.205710 0.215867
0.252773 0.252773 0.252773
0.051288 0.122382 0.122382
0.134833 0.134833 0.134833
0.212419 0.151481 0.151481
0.274384 0.172822 0.172822
0.320729 0.198854 0.198854
0.351453 0.229578 0.229578
0.366555 0.264993 0.264993
0.366037 0.305099 0.305099
0.349898 0.349898 0.349898
0.110727 0.232602 0.171665
0.186461 0.247399 0.186461
0.262195 0.262195 0.201258
0.332052 0.281271 0.230489
0.386288 0.305038 0.264413
0.424903 0.333496 0.303028
0.447897 0.366647 0.346334
0.455270 0.404488 0.394332
0.447022 0.447022 0.447022
0.185949 0.338293 0.236730
0.253872 0.355435 0.253872
0.321796 0.372577 0.271015
0.389719 0.389719 0.288157
0.451847 0.411222 0.329972
0.498353 0.437415 0.376478
0.529238 0.468301 0.427676
0.544502 0.503877 0.483565
0.544146 0.544146 0.544146
0.276953 0.439453 0.317578
0.337066 0.458941 0.337066
0.397179 0.478429 0.356554
0.457292 0.497917 0.376042
0.517405 0.517405 0.395530
0.571803 0.541334 0.449928
0.610580 0.569955 0.509017
0.633735 0.603267 0.572798
0.641270 0.641270 0.641270
0.383741 0.536084 0.414209
0.436043 0.557918 0.436043
0.488346 0.579752 0.457877
0.540648 0.601586 0.479711
0.592951 0.623419 0.501544
0.645253 0.645253 0.523378
0.691921 0.671609 0.590359
0.722968 0.702656 0.662031
0.738394 0.738394 0.738394
0.506310 0.628185 0.526623
0.550802 0.652365 0.550802
0.595294 0.676544 0.574982
0.639786 0.700724 0.599162
0.684278 0.724904 0.623341
0.728771 0.749083 0.647521
0.773263 0.773263 0.671700
0.812201 0.802045 0.751263
0.835518 0.835518 0.835518
0.644663 0.715757 0.654819
0.681344 0.742282 0.681344
0.718026 0.768807 0.707870
0.754708 0.795333 0.734395
0.791389 0.821858 0.760920
0.828071 0.848383 0.787446
0.864752 0.874908 0.813971
0.901434 0.901434 0.840496
0.932643 0.932643 0.932643
0.798798 0.798798 0.798798
0.827669 0.827669 0.827669
0.856540 0.856540 0.856540
0.885411 0.885411 0.885411
0.914282 0.914282 0.914282
0.943153 0.943153 0.943153
0.972025 0.972025 0.972025
1.000000 1.000000 1.000000
1.000000 1.000000 1.000000
0.016200 0.016200 0.138075
0.091934 0.030996 0.152871
0.167668 0.045793 0.167668
0.222539 0.070195 0.171757
0.261788 0.099288 0.180538
0.285417 0.133073 0.194011
0.293425 0.171550 0.212175
0.285812 0.214718 0.235031
0.262578 0.262578 0.262578
0.065976 0.126914 0.187851
0.141710 0.141710 0.202647
0.217444 0.156506 0.217444
0.280206 0.178643 0.229425
0.327347 0.205472 0.246097
0.358867 0.236992 0.267461
0.374767 0.273204 0.293517
0.375045 0.314107 0.324264
0.359702 0.359702 0.359702
0.115752 0.237627 0.237627
0.191486 0.252424 0.252424
0.267220 0.267220 0.267220
0.337873 0.287092 0.287092
0.392906 0.311656 0.311656
0.432318 0.340911 0.340911
0.456108 0.374858 0.374858
0.464278 0.413497 0.413497
0.456826 0.456826 0.456826
0.191771 0.344114 0.293333
0.259694 0.361257 0.310475
0.327617 0.378399 0.327617
0.395541 0.395541 0.344760
0.458465 0.417840 0.377215
0.505768 0.444830 0.414361
0.537450 0.476512 0.456200
0.553511 0.512886 0.502729
0.553951 0.553951 0.553951
0.283572 0.446072 0.364822
0.343685 0.465560 0.384310
0.403798 0.485048 0.403798
0.463911 0.504536 0.423286
0.524024 0.524024 0.442774
0.579218 0.548749 0.487812
0.618791 0.578166 0.537541
0.642743 0.612275 0.591962
0.651075 0.651075 0.651075
0.391155 0.543499 0.452093
0.443458 0.565333 0.473927
0.495760 0.587167 0.495760
0.548063 0.609000 0.517594
0.600365 0.630834 0.539428
0.652668 0.652668 0.561262
0.700133 0.679820 0.618883
0.731976 0.711664 0.681195
0.748199 0.748199 0.748199
0.514522 0.636397 0.555147
0.559014 0.660576 0.579326
0.603506 0.684756 0.603506
0.647998 0.708935 0.627685
0.692490 0.733115 0.651865
0.736982 0.757295 0.676045
0.781474 0.781474 0.700224
0.821209 0.811053 0.770428
0.845323 0.845323 0.845323
0.653671 0.724765 0.673984
0.690353 0.751290 0.700509
0.727034 0.777815 0.727034
0.763716 0.804341 0.753559
0.800397 0.830866 0.780085
0.837079 0.857391 0.806610
0.873760 0.883917 0.833135
0.910442 0.910442 0.859661
0.942447 0.942447 0.942447
0.808603 0.808603 0.808603
0.837474 0.837474 0.837474
0.866345 0.866345 0.866345
0.895216 0.895216 0.895216
0.924087 0.924087 0.924087
0.952958 0.952958 0.952958
0.981829 0.981829 0.981829
1.000000 1.000000 1.000000
1.000000 1.000000 1.000000
0.024590 0.024590 0.176933
0.092513 0.041732 0.194076
0.160437 0.058874 0.211218
0.228360 0.076016 0.228360
0.268407 0.105907 0.227782
0.292832 0.140488 0.231895
0.301637 0.179762 0.240699
0.294820 0.223726 0.254195
0.272383 0.272383 0.272383
0.082257 0.133038 0.234601
0.150181 0.150181 0.251743
0.218104 0.167323 0.268885
0.286028 0.184465 0.286028
0.333965 0.212090 0.293340
0.366282 0.244407 0.305345
0.382978 0.281416 0.322041
0.384053 0.323116 0.343428
0.369507 0.369507 0.369507
0.139925 0.241487 0.292268
0.207848 0.258629 0.309411
0.275772 0.275772 0.326553
0.343695 0.292914 0.343695
0.399524 0.318274 0.358899
0.439732 0.348326 0.378795
0.464320 0.383070 0.403382
0.473286 0.422505 0.432661
0.466631 0.466631 0.466631
0.197592 0.349936 0.349936
0.265516 0.367078 0.367078
0.333439 0.384220 0.384220
0.401363 0.401363 0.401363
0.465083 0.424458 0.424458
0.513183 0.452245 0.452245
0.545661 0.484724 0.484724
0.562519 0.521894 0.521894
0.563755 0.563755 0.563755
0.290190 0.452690 0.412065
0.350303 0.472178 0.431553
0.410416 0.491666 0.451041
0.470529 0.511154 0.470529
0.530642 0.530642 0.490017
0.586633 0.556164 0.525695
0.627003 0.586378 0.566065
0.651752 0.621283 0.611127
0.660880 0.660880 0.660880
0.398570 0.550914 0.489977
0.450873 0.572748 0.511810
0.503175 0.594582 0.533644
0.555478 0.616415 0.555478
0.607780 0.638249 0.577312
0.660083 0.660083 0.599145
0.708344 0.688032 0.647407
0.740984 0.720672 0.700359
0.758004 0.758004 0.758004
0.522733 0.644608 0.583671
0.567225 0.668788 0.607850
0.611717 0.692967 0.632030
0.656209 0.717147 0.656209
0.700701 0.741327 0.680389
0.745193 0.765506 0.704569
0.789686 0.789686 0.728748
0.830217 0.820061 0.789592
0.855128 0.855128 0.855128
0.662679 0.733773 0.693148
0.699361 0.760298 0.719673
0.736042 0.786824 0.746198
0.772724 0.813349 0.772724
0.809405 0.839874 0.799249
0.846087 0.866399 0.825774
0.882768 0.892925 0.852300
0.919450 0.919450 0.878825
0.952252 0.952252 0.952252
0.818408 0.818408 0.818408
0.847279 0.847279 0.847279
0.876150 0.876150 0.876150
0.905021 0.905021 0.905021
0.933892 0.933892 0.933892
0.962763 0.962763 0.962763
0.991634 0.991634 0.991634
1.000000 1.000000 1.000000
1.000000 1.000000 1.000000
0.034573 0.034573 0.197073
0.094686 0.054061 0.216561
0.154799 0.073549 0.236049
0.214912 0.093037 0.255537
0.275025 0.112525 0.275025
0.300247 0.147903 0.269778
0.309848 0.187973 0.269223
0.303828 0.232735 0.273360
0.282188 0.282188 0.282188
0.100132 0.140757 0.262632
0.160245 0.160245 0.282120
0.220358 0.179733 0.301608
0.280471 0.199221 0.321096
0.340584 0.218709 0.340584
0.373697 0.251822 0.343228
0.391190 0.289627 0.350565
0.393061 0.332124 0.362592
0.379312 0.379312 0.379312
0.165690 0.246940 0.328190
0.225803 0.266428 0.347678
0.285916 0.285916 0.367166
0.346029 0.305404 0.386654
0.406142 0.324892 0.406142
0.447147 0.355741 0.416678
0.472531 0.391281 0.431906
0.482294 0.431513 0.451825
0.476436 0.476436 0.476436
0.231249 0.353124 0.393749
0.291362 0.372612 0.413237
0.351475 0.392100 0.432725
0.411588 0.411588 0.452213
0.471701 0.431076 0.471701
0.520597 0.459660 0.490129
0.553873 0.492935 0.513248
0.571527 0.530902 0.541058
0.573560 0.573560 0.573560
0.296808 0.459308 0.459308
0.356921 0.478796 0.478796
0.417034 0.498284 0.498284
0.477147 0.517772 0.517772
0.537260 0.537260 0.537260
0.594047 0.563579 0.563579
0.635214 0.594589 0.594589
0.660760 0.630291 0.630291
0.670684 0.670684 0.670684
0.405985 0.558329 0.527860
0.458288 0.580163 0.549694
0.510590 0.601996 0.571528
0.562893 0.623830 0.593361
0.615195 0.645664 0.615195
0.667498 0.667498 0.637029
0.716556 0.696243 0.675931
0.749992 0.729680 0.719524
0.767808 0.767808 0.767808
0.530945 0.652820 0.612195
0.575437 0.676999 0.636374
0.619929 0.701179 0.660554
0.664421 0.725358 0.684733
0.708913 0.749538 0.708913
0.753405 0.773718 0.733092
0.797897 0.797897 0.757272
0.839225 0.829069 0.808757
0.864933 0.864933 0.864933
0.671687 0.742781 0.712312
0.708369 0.769306 0.738838
0.745050 0.795832 0.765363
0.781732 0.822357 0.791888
0.818413 0.848882 0.818413
0.855095 0.875408 0.844939
0.891777 0.901933 0.871464
0.928458 0.928458 0.897989
0.962057 0.962057 0.962057
0.828212 0.828212 0.828212
0.857083 0.857083 0.857083
0.885954 0.885954 0.885954
0.914826 0.914826 0.914826
0.943697 0.943697 0.943697
0.972568 0.972568 0.972568
1.000000 1.000000 1.000000
1.000000 1.000000 1.000000
1.000000 1.000000 1.000000
0.046149 0.046149 0.198493
0.098452 0.067983 0.220327
0.150754 0.089817 0.242161
0.203057 0.111651 0.263994
0.255359 0.133484 0.285828
0.307662 0.155318 0.307662
0.318060 0.196185 0.297747
0.312836 0.241743 0.292524
0.291992 0.291992 0.291992
0.119599 0.150068 0.271943
0.171902 0.171902 0.293777
0.224204 0.193736 0.315611
0.276507 0.215569 0.337444
0.328809 0.237403 0.359278
0.381112 0.259237 0.381112
0.399401 0.297839 0.379089
0.402069 0.341132 0.381757
0.389117 0.389117 0.389117
0.193050 0.253987 0.345393
0.245352 0.275821 0.367227
0.297655 0.297655 0.389061
0.349957 0.319488 0.410895
0.402260 0.341322 0.432728
0.454562 0.363156 0.454562
0.480743 0.399493 0.460430
0.491302 0.440521 0.470990
0.486241 0.486241 0.486241
0.266500 0.357906 0.418843
0.318802 0.379740 0.440677
0.371105 0.401573 0.462511
0.423407 0.423407 0.484345
0.475710 0.445241 0.506178
0.528012 0.467075 0.528012
0.562084 0.501147 0.541772
0.580535 0.539910 0.560222
0.583365 0.583365 0.583365
0.339950 0.461825 0.492294
0.392252 0.483659 0.514127
0.444555 0.505492 0.535961
0.496857 0.527326 0.557795
0.549160 0.549160 0.579629
0.601462 0.570994 0.601462
0.643426 0.602801 0.623113
0.669768 0.639299 0.649455
0.680489 0.680489 0.680489
0.413400 0.565744 0.565744
0.465702 0.587577 0.587577
0.518005 0.609411 0.609411
0.570307 0.631245 0.631245
0.622610 0.653079 0.653079
0.674913 0.674913 0.674913
0.724767 0.704455 0.704455
0.759001 0.738688 0.738688
0.777613 0.777613 0.777613
0.539156 0.661031 0.640719
0.583648 0.685211 0.664898
0.628140 0.709390 0.689078
0.672632 0.733570 0.713257
0.717124 0.757749 0.737437
0.761616 0.781929 0.761616
0.806109 0.806109 0.785796
0.848233 0.838077 0.827921
0.874737 0.874737 0.874737
0.680695 0.751789 0.731477
0.717377 0.778314 0.758002
0.754058 0.804840 0.784527
0.790740 0.831365 0.811053
0.827422 0.857890 0.837578
0.864103 0.884416 0.864103
0.900785 0.910941 0.890628
0.937466 0.937466 0.917154
0.971862 0.971862 0.971862
0.838017 0.838017 0.838017
0.866888 0.866888 0.866888
0.895759 0.895759 0.895759
0.924630 0.924630 0.924630
0.953501 0.953501 0.953501
0.982372 0.982372 0.982372
1.000000 1.000000 1.000000
1.000000 1.000000 1.000000
1.000000 1.000000 1.000000
0.059319 0.059319 0.181194
0.103811 0.083498 0.205373
0.148303 0.107678 0.229553
0.192795 0.131858 0.253733
0.237287 0.156037 0.277912
0.281779 0.180217 0.302092
0.326271 0.204396 0.326271
0.321845 0.250751 0.311688
0.301797 0.301797 0.301797
0.140660 0.160973 0.262535
0.185152 0.185152 0.286715
0.229644 0.209332 0.310894
0.274136 0.233511 0.335074
0.318629 0.257691 0.359254
0.363121 0.281871 0.383433
0.407613 0.306050 0.407613
0.411077 0.350140 0.400921
0.398921 0.398921 0.398921
0.222002 0.262627 0.343877
0.266494 0.286806 0.368056
0.310986 0.310986 0.392236
0.355478 0.335165 0.416415
0.399970 0.359345 0.440595
0.444462 0.383525 0.464775
0.488954 0.407704 0.488954
0.500310 0.449529 0.490154
0.496046 0.496046 0.496046
0.303343 0.364281 0.425218
0.347835 0.388460 0.449398
0.392327 0.412640 0.473577
0.436819 0.436819 0.497757
0.481312 0.460999 0.521936
0.525804 0.485179 0.546116
0.570296 0.509358 0.570296
0.589543 0.548918 0.579387
0.593170 0.593170 0.593170
0.384685 0.465935 0.506560
0.429177 0.490114 0.530739
0.473669 0.514294 0.554919
0.518161 0.538473 0.579098
0.562653 0.562653 0.603278
0.607145 0.586833 0.627457
0.651637 0.611012 0.651637
0.678776 0.648307 0.668620
0.690294 0.690294 0.690294
0.466026 0.567589 0.587901
0.510518 0.591768 0.612081
0.555010 0.615948 0.636260
0.599502 0.640127 0.660440
0.643994 0.664307 0.684619
0.688486 0.688486 0.708799
0.732979 0.712666 0.732979
0.768009 0.747696 0.757852
0.787418 0.787418 0.787418
0.547368 0.669243 0.669243
0.591860 0.693422 0.693422
0.636352 0.717602 0.717602
0.680844 0.741781 0.741781
0.725336 0.765961 0.765961
0.769828 0.790140 0.790140
0.814320 0.814320 0.814320
0.857242 0.847085 0.847085
0.884542 0.884542 0.884542
0.689703 0.760797 0.750641
0.726385 0.787323 0.777166
0.763067 0.813848 0.803692
0.799748 0.840373 0.830217
0.836430 0.866898 0.856742
0.873111 0.893424 0.883268
0.909793 0.919949 0.909793
0.946474 0.946474 0.936318
0.981666 0.981666 0.981666
0.847822 0.847822 0.847822
0.876693 0.876693 0.876693
0.905564 0.905564 0.905564
0.934435 0.934435 0.934435
0.963306 0.963306 0.963306
0.992177 0.992177 0.992177
1.000000 1.000000 1.000000
1.000000 1.000000 1.000000
1.000000 1.000000 1.000000
0.074082 0.074082 0.145176
0.110763 0.100607 0.171701
0.147445 0.127132 0.198226
0.184127 0.153658 0.224752
0.220808 0.180183 0.251277
0.257490 0.206708 0.277802
0.294171 0.233234 0.304327
0.330853 0.259759 0.330853
0.311602 0.311602 0.311602
0.163315 0.173471 0.234408
0.199996 0.199996 0.260934
0.236678 0.226522 0.287459
0.273359 0.253047 0.313984
0.310041 0.279572 0.340510
0.346722 0.306097 0.367035
0.383404 0.332623 0.393560
0.420086 0.359148 0.420086
0.408726 0.408726 0.408726
0.252548 0.272860 0.323641
0.289229 0.299385 0.350167
0.325911 0.325911 0.376692
0.362592 0.352436 0.403217
0.399274 0.378961 0.429742
0.435955 0.405487 0.456268
0.472637 0.432012 0.482793
0.509318 0.458537 0.509318
0.505850 0.505850 0.505850
0.341780 0.372249 0.412874
0.378462 0.398774 0.439399
0.415143 0.425300 0.465925
0.451825 0.451825 0.492450
0.488507 0.478350 0.518975
0.525188 0.504876 0.545501
0.561870 0.531401 0.572026
0.598551 0.557926 0.598551
0.602974 0.602974 0.602974
0.431013 0.471638 0.502107
0.467695 0.498163 0.528632
0.504376 0.524689 0.555157
0.541058 0.551214 0.581683
0.577739 0.577739 0.608208
0.614421 0.604265 0.634733
0.651102 0.630790 0.661259
0.687784 0.657315 0.687784
0.700099 0.700099 0.700099
0.520246 0.571027 0.591340
0.556928 0.597553 0.617865
0.593609 0.624078 0.644390
0.630291 0.650603 0.670916
0.666972 0.677128 0.697441
0.703654 0.703654 0.723966
0.740335 0.730179 0.750492
0.777017 0.756704 0.777017
0.797223 0.797223 0.797223
0.609479 0.670416 0.680573
0.646160 0.696942 0.707098
0.682842 0.723467 0.733623
0.719523 0.749992 0.760148
0.756205 0.776518 0.786674
0.792887 0.803043 0.813199
0.829568 0.829568 0.839724
0.866250 0.856093 0.866250
0.894347 0.894347 0.894347
0.698712 0.769805 0.769805
0.735393 0.796331 0.796331
0.772075 0.822856 0.822856
0.808756 0.849381 0.849381
0.845438 0.875907 0.875907
0.882119 0.902432 0.902432
0.918801 0.928957 0.928957
0.955482 0.955482 0.955482
0.991471 0.991471 0.991471
0.857627 0.857627 0.857627
0.886498 0.886498 0.886498
0.915369 0.915369 0.915369
0.944240 0.944240 0.944240
0.973111 0.973111 0.973111
1.000000 1.000000 1.000000
1.000000 1.000000 1.000000
1.000000 1.000000 1.000000
1.000000 1.000000 1.000000
0.090438 0.090438 0.090438
0.119309 0.119309 0.119309
0.148180 0.148180 0.148180
0.177051 0.177051 0.177051
0.205922 0.205922 0.205922
0.234793 0.234793 0.234793
0.263665 0.263665 0.263665
0.292536 0.292536 0.292536
0.321407 0.321407 0.321407
0.187562 0.187562 0.187562
0.216433 0.216433 0.216433
0.245304 0.245304 0.245304
0.274175 0.274175 0.274175
0.303047 0.303047 0.303047
0.331918 0.331918 0.331918
0.360789 0.360789 0.360789
0.389660 0.389660 0.389660
0.418531 0.418531 0.418531
0.284686 0.284686 0.284686
0.313557 0.313557 0.313557
0.342429 0.342429 0.342429
0.371300 0.371300 0.371300
0.400171 0.400171 0.400171
0.429042 0.429042 0.429042
0.457913 0.457913 0.457913
0.486784 0.486784 0.486784
0.515655 0.515655 0.515655
0.381811 0.381811 0.381811
0.410682 0.410682 0.410682
0.439553 0.439553 0.439553
0.468424 0.468424 0.468424
0.497295 0.497295 0.497295
0.526166 0.526166 0.526166
0.555037 0.555037 0.555037
0.583908 0.583908 0.583908
0.612779 0.612779 0.612779
0.478935 0.478935 0.478935
0.507806 0.507806 0.507806
0.536677 0.536677 0.536677
0.565548 0.565548 0.565548
0.594419 0.594419 0.594419
0.623290 0.623290 0.623290
0.652161 0.652161 0.652161
0.681032 0.681032 0.681032
0.709903 0.709903 0.709903
0.576059 0.576059 0.576059
0.604930 0.604930 0.604930
0.633801 0.633801 0.633801
0.662672 0.662672 0.662672
0.691543 0.691543 0.691543
0.720414 0.720414 0.720414
0.749285 0.749285 0.749285
0.778156 0.778156 0.778156
0.807028 0.807028 0.807028
0.673183 0.673183 0.673183
0.702054 0.702054 0.702054
0.730925 0.730925 0.730925
0.759796 0.759796 0.759796
0.788667 0.788667 0.788667
0.817538 0.817538 0.817538
0.846409 0.846409 0.846409
0.875281 0.875281 0.875281
0.904152 0.904152 0.904152
0.770307 0.770307 0.770307
0.799178 0.799178 0.799178
0.828049 0.828049 0.828049
0.856920 0.856920 0.856920
0.885792 0.885792 0.885792
0.914663 0.914663 0.914663
0.943534 0.943534 0.943534
0.972405 0.972405 0.972405
1.000000 1.000000 1.000000
0.867431 0.867431 0.867431
0.896302 0.896302 0.896302
0.925174 0.925174 0.925174
0.954045 0.954045 0.954045
0.982916 0.982916 0.982916
1.000000 1.000000 1.000000
1.000000 1.000000 1.000000
1.000000 1.000000 1.000000
1.000000 1.000000 1.000000
