luts/original/rnb-purple-night.cube
TITLE "Rnb Purple Night"
LUT_3D_SIZE 5
DOMAIN_MIN 0.0 0.0 0.0
DOMAIN_MAX 1.0 1.0 1.0
0.000000 0.000000 0.000000
0.097630 0.000000 0.000000
0.294594 0.000000 0.000000
0.558625 0.000000 0.000000
0.826646 0.000000 0.000000
0.000000 0.091972 0.000000
0.115136 0.097147 0.000000
0.355902 0.102184 0.000000
0.658480 0.105810 0.000000
0.922175 0.108601 0.000000
0.000000 0.328457 0.000000
0.129867 0.341725 0.000000
0.407911 0.350274 0.000000
0.708930 0.339910 0.000000
0.939719 0.329631 0.000000
0.000000 0.614259 0.000000
0.124675 0.600749 0.000000
0.390398 0.587194 0.000000
0.690475 0.573604 0.000000
0.927556 0.559986 0.000000
0.000000 0.817807 0.000000
0.114544 0.804262 0.000000
0.374347 0.794416 0.000000
0.674565 0.790343 0.000000
0.918126 0.786245 0.000000
0.000000 0.000000 0.229438
0.098790 0.000000 0.228408
0.299909 0.000000 0.227058
0.568236 0.000000 0.225393
0.837258 0.000000 0.223412
0.000000 0.093243 0.225981
0.116178 0.098396 0.223827
0.361112 0.103306 0.221590
0.666851 0.106356 0.222703
0.929359 0.109029 0.223575
0.000000 0.332414 0.224277
0.130632 0.345452 0.225123
0.405294 0.346128 0.225378
0.706252 0.335771 0.225251
0.938023 0.325500 0.225142
0.000000 0.609010 0.226744
0.122972 0.595453 0.226753
0.387775 0.581855 0.226780
0.687734 0.568224 0.226825
0.925726 0.554570 0.226889
0.000000 0.812616 0.228760
0.112878 0.798933 0.228942
0.371953 0.792361 0.225875
0.672234 0.788276 0.221706
0.916643 0.784165 0.217561
0.000000 0.000000 0.613551
0.099949 0.000000 0.614699
0.305240 0.000000 0.615482
0.577817 0.000000 0.615903
0.847632 0.000000 0.615959
0.000000 0.094516 0.617393
0.117218 0.099645 0.617253
0.366025 0.103933 0.620209
0.675139 0.106866 0.628089
0.936252 0.109420 0.635717
0.000000 0.336300 0.632310
0.131378 0.349105 0.639913
0.402664 0.341977 0.644508
0.703552 0.331627 0.648627
0.936301 0.321365 0.652757
0.000000 0.603734 0.651889
0.121267 0.590132 0.656143
0.385139 0.576492 0.660406
0.684972 0.562822 0.664679
0.923869 0.549133 0.668959
0.000000 0.807365 0.668393
0.111212 0.794373 0.672039
0.369563 0.790300 0.667415
0.669900 0.786202 0.662777
0.915149 0.782079 0.658125
0.000000 0.000000 0.936312
0.101108 0.000000 0.938237
0.310585 0.000000 0.939941
0.587363 0.000000 0.941431
0.857758 0.000000 0.942711
0.000000 0.095790 0.942679
0.118254 0.100894 0.943843
0.370916 0.104524 0.949793
0.683342 0.107341 0.957041
0.942851 0.109775 0.963785
0.000000 0.340113 0.960236
0.130689 0.348250 0.966284
0.400021 0.337821 0.969960
0.700832 0.327478 0.973493
0.934552 0.317227 0.976880
0.000000 0.598432 0.975472
0.119559 0.584786 0.978818
0.382489 0.571105 0.982008
0.682190 0.557398 0.985038
0.922064 0.544200 0.987648
0.000000 0.802053 0.986843
0.109559 0.792318 0.987840
0.367175 0.788232 0.986296
0.667561 0.784122 0.984700
0.913646 0.779987 0.983054
0.000000 0.000000 1.000000
0.102266 0.000000 1.000000
0.315943 0.000000 1.000000
0.596872 0.000000 1.000000
0.867628 0.000000 1.000000
0.000000 0.097064 1.000000
0.119259 0.102007 1.000000
0.375785 0.105081 1.000000
0.691458 0.107780 1.000000
0.945207 0.108821 1.000000
0.000000 0.343853 1.000000
0.128939 0.344082 1.000000
0.397364 0.333660 1.000000
0.698090 0.323326 1.000000
0.932777 0.313086 1.000000
0.000000 0.593104 1.000000
0.117849 0.579415 1.000000
0.379828 0.565694 1.000000
0.679386 0.551951 1.000000
0.920607 0.541745 1.000000
0.000000 0.796681 1.000000
0.107915 0.790257 1.000000
0.364790 0.786158 1.000000
0.665220 0.782035 1.000000
0.912133 0.777888 1.000000
