luts/original/rnb-purple-night.cube
TITLE "Rnb Purple Night"
LUT_3D_SIZE 9
DOMAIN_MIN 0.0 0.0 0.0
DOMAIN_MAX 1.0 1.0 1.0
0.000000 0.000000 0.000000
0.035393 0.000000 0.000000
0.097630 0.000000 0.000000
0.185073 0.000000 0.000000
0.294594 0.000000 0.000000
0.421362 0.000000 0.000000
0.558625 0.000000 0.000000
0.697484 0.000000 0.000000
0.826646 0.000000 0.000000
0.000000 0.030285 0.000000
0.037256 0.030784 0.000000
0.106634 0.031246 0.000000
0.204239 0.031672 0.000000
0.325475 0.032060 0.000000
0.463743 0.032410 0.000000
0.610202 0.032722 0.000000
0.753528 0.032995 0.000000
0.879591 0.033208 0.000000
0.000000 0.091972 0.000000
0.038625 0.094576 0.000000
0.115136 0.097147 0.000000
0.223002 0.099684 0.000000
0.355902 0.102184 0.000000
0.504893 0.104274 0.000000
0.658480 0.105810 0.000000
0.803135 0.107253 0.000000
0.922175 0.108601 0.000000
0.000000 0.192435 0.000000
0.039479 0.198224 0.000000
0.122954 0.202680 0.000000
0.240696 0.206696 0.000000
0.384309 0.210580 0.000000
0.542878 0.214331 0.000000
0.702750 0.217944 0.000000
0.847302 0.221418 0.000000
0.945694 0.217537 0.000000
0.000000 0.328457 0.000000
0.039803 0.335181 0.000000
0.129867 0.341725 0.000000
0.257349 0.348085 0.000000
0.407911 0.350274 0.000000
0.561056 0.345082 0.000000
0.708930 0.339910 0.000000
0.839207 0.334760 0.000000
0.939719 0.329631 0.000000
0.000000 0.490788 0.000000
0.039055 0.488881 0.000000
0.130153 0.482722 0.000000
0.254366 0.476571 0.000000
0.399004 0.470429 0.000000
0.551540 0.464295 0.000000
0.699608 0.458172 0.000000
0.831000 0.452059 0.000000
0.933666 0.445958 0.000000
0.000000 0.614259 0.000000
0.035813 0.607510 0.000000
0.124675 0.600749 0.000000
0.247058 0.593977 0.000000
0.390398 0.587194 0.000000
0.542286 0.580403 0.000000
0.690475 0.573604 0.000000
0.822876 0.566797 0.000000
0.927556 0.559986 0.000000
0.000000 0.723257 0.000000
0.032793 0.716302 0.000000
0.119474 0.709308 0.000000
0.240056 0.702275 0.000000
0.382092 0.695206 0.000000
0.533297 0.688102 0.000000
0.681539 0.680965 0.000000
0.815160 0.675966 0.000000
0.922290 0.673662 0.000000
0.000000 0.817807 0.000000
0.029985 0.811072 0.000000
0.114544 0.804262 0.000000
0.233354 0.797379 0.000000
0.374347 0.794416 0.000000
0.525471 0.792383 0.000000
0.674565 0.790343 0.000000
0.809495 0.788297 0.000000
0.918126 0.786245 0.000000
0.000000 0.000000 0.082093
0.035357 0.000000 0.081407
0.098210 0.000000 0.080666
0.186595 0.000000 0.079873
0.297250 0.000000 0.079028
0.425178 0.000000 0.078132
0.563434 0.000000 0.077184
0.702887 0.000000 0.076187
0.831981 0.000000 0.075140
0.000000 0.030274 0.080049
0.037189 0.030765 0.079174
0.107188 0.031219 0.078247
0.205753 0.031637 0.077269
0.328128 0.032016 0.076242
0.467521 0.032358 0.075166
0.614867 0.032662 0.074042
0.758578 0.032926 0.072871
0.883958 0.033038 0.071925
0.000000 0.092607 0.077340
0.038525 0.095206 0.076283
0.115657 0.097771 0.075178
0.224497 0.100302 0.074024
0.358536 0.102796 0.072824
0.508373 0.104580 0.072102
0.662675 0.106088 0.071485
0.807481 0.107501 0.070827
0.925803 0.108820 0.070127
0.000000 0.194110 0.073993
0.039343 0.199670 0.072863
0.123389 0.203775 0.072279
0.242047 0.207749 0.071654
0.386714 0.211592 0.070988
0.546242 0.215299 0.070281
0.706709 0.218869 0.069535
0.846344 0.219886 0.068786
0.944885 0.215921 0.068103
0.000000 0.330444 0.071823
0.039629 0.337112 0.071150
0.130252 0.343598 0.070438
0.258647 0.349899 0.069686
0.406604 0.348202 0.068984
0.559676 0.343011 0.068318
0.707594 0.337841 0.067658
0.838044 0.332693 0.067004
0.938874 0.327566 0.066355
0.000000 0.492636 0.069847
0.038534 0.486466 0.069195
0.129293 0.480304 0.068548
0.253238 0.474149 0.067906
0.397695 0.468003 0.067270
0.550152 0.461866 0.066639
0.698256 0.455740 0.066013
0.829812 0.449624 0.065392
0.932787 0.443520 0.064777
0.000000 0.611637 0.068169
0.035307 0.604877 0.067551
0.123824 0.598104 0.066938
0.245935 0.591321 0.066330
0.389088 0.584528 0.065727
0.540890 0.577726 0.065129
0.689107 0.570917 0.064536
0.821665 0.564101 0.063948
0.926644 0.557281 0.063365
0.000000 0.720571 0.066660
0.032300 0.713594 0.066075
0.118632 0.706577 0.065495
0.238937 0.699524 0.064920
0.380781 0.692434 0.064350
0.531893 0.685311 0.063784
0.680157 0.678154 0.063223
0.814168 0.674802 0.062066
0.921564 0.672496 0.060753
0.000000 0.815219 0.065318
0.029504 0.808449 0.064765
0.113711 0.801605 0.064217
0.232261 0.795419 0.063556
0.373150 0.793389 0.062232
0.524241 0.791353 0.060918
0.673400 0.789310 0.059615
0.808493 0.787261 0.058322
0.917386 0.785206 0.057040
0.000000 0.000000 0.229438
0.035321 0.000000 0.228963
0.098790 0.000000 0.228408
0.188120 0.000000 0.227773
0.299909 0.000000 0.227058
0.428997 0.000000 0.226265
0.568236 0.000000 0.225393
0.708265 0.000000 0.224442
0.837258 0.000000 0.223412
0.000000 0.030263 0.228208
0.037121 0.030745 0.227450
0.107740 0.031191 0.226613
0.207268 0.031601 0.225697
0.330783 0.031972 0.224703
0.471299 0.032306 0.223630
0.619521 0.032601 0.222479
0.763596 0.032857 0.221251
0.888257 0.032865 0.221383
0.000000 0.093243 0.225981
0.038424 0.095836 0.224943
0.116178 0.098396 0.223827
0.225994 0.100920 0.222633
0.361112 0.103306 0.221590
0.511844 0.104878 0.222177
0.666851 0.106356 0.222703
0.811786 0.107740 0.223169
0.929359 0.109029 0.223575
0.000000 0.195788 0.222766
0.039202 0.200793 0.222395
0.123820 0.204857 0.222971
0.243394 0.208790 0.223488
0.389114 0.212590 0.223947
0.549594 0.216254 0.224347
0.710646 0.219780 0.224688
0.845201 0.218266 0.224723
0.944070 0.214306 0.224628
0.000000 0.332414 0.224277
0.039452 0.339024 0.224729
0.130632 0.345452 0.225123
0.259716 0.351339 0.225449
0.405294 0.346128 0.225378
0.558292 0.340939 0.225313
0.706252 0.335771 0.225251
0.836875 0.330624 0.225194
0.938023 0.325500 0.225142
0.000000 0.490223 0.226096
0.038015 0.484049 0.226055
0.128432 0.477882 0.226019
0.252108 0.471723 0.225987
0.396384 0.465574 0.225960
0.548760 0.459434 0.225937
0.696898 0.453304 0.225918
0.828619 0.447186 0.225905
0.931902 0.441080 0.225896
0.000000 0.609010 0.226744
0.034800 0.602237 0.226746
0.122972 0.595453 0.226753
0.244809 0.588659 0.226764
0.387775 0.581855 0.226780
0.539489 0.575043 0.226800
0.687734 0.568224 0.226825
0.820448 0.561400 0.226855
0.925726 0.554570 0.226889
0.000000 0.717874 0.227632
0.031807 0.710875 0.227677
0.117790 0.703837 0.227727
0.237815 0.696763 0.227782
0.379467 0.689653 0.227841
0.530485 0.682510 0.227904
0.678853 0.675941 0.227704
0.813174 0.673637 0.225611
0.920835 0.671329 0.223524
0.000000 0.812616 0.228760
0.029024 0.805812 0.228849
0.112878 0.798933 0.228942
0.231196 0.794394 0.227968
0.371953 0.792361 0.225875
0.523011 0.790322 0.223787
0.672234 0.788276 0.221706
0.807489 0.786224 0.219630
0.916643 0.784165 0.217561
0.000000 0.000000 0.415535
0.035284 0.000000 0.415576
0.099370 0.000000 0.415524
0.189646 0.000000 0.415381
0.302573 0.000000 0.415146
0.432817 0.000000 0.414819
0.573031 0.000000 0.414400
0.713615 0.000000 0.413889
0.842475 0.000000 0.413287
0.000000 0.030250 0.416088
0.037051 0.030724 0.415803
0.108293 0.031163 0.415427
0.208784 0.031564 0.414958
0.333441 0.031927 0.414398
0.475077 0.032252 0.413745
0.624164 0.032539 0.413002
0.768498 0.032761 0.412474
0.892489 0.032687 0.414835
0.000000 0.093880 0.415492
0.038323 0.096467 0.414882
0.116698 0.099020 0.414180
0.227491 0.101538 0.413387
0.363571 0.103624 0.414016
0.515306 0.105166 0.416367
0.671005 0.106616 0.418656
0.816050 0.107970 0.420883
0.932842 0.109229 0.423048
0.000000 0.197469 0.413748
0.039058 0.201904 0.415560
0.124246 0.205926 0.417902
0.244735 0.209818 0.420184
0.391507 0.213575 0.422405
0.552935 0.217196 0.424566
0.714456 0.220627 0.426660
0.844052 0.216645 0.427642
0.943247 0.212691 0.428629
0.000000 0.334366 0.421716
0.039273 0.340919 0.423933
0.131007 0.347288 0.426091
0.258580 0.349262 0.427794
0.403981 0.344053 0.428810
0.556904 0.338865 0.429832
0.704905 0.333699 0.430859
0.835700 0.328555 0.431892
0.937165 0.323433 0.432930
0.000000 0.487805 0.428952
0.037496 0.481627 0.430003
0.127571 0.475456 0.431059
0.250976 0.469294 0.432121
0.395069 0.463141 0.433188
0.547363 0.456998 0.434260
0.695535 0.450866 0.435339
0.827419 0.444745 0.436422
0.931010 0.438638 0.437511
0.000000 0.606375 0.433407
0.034295 0.599591 0.434509
0.122120 0.592796 0.435616
0.243682 0.585991 0.436728
0.386458 0.579177 0.437846
0.538084 0.572355 0.438970
0.686356 0.565526 0.440099
0.819225 0.558692 0.441234
0.924801 0.551854 0.442374
0.000000 0.715166 0.438143
0.031315 0.708146 0.439295
0.116947 0.701087 0.440454
0.236692 0.693992 0.441617
0.378149 0.686862 0.442787
0.529073 0.679700 0.443961
0.677691 0.674777 0.443470
0.812179 0.672471 0.441047
0.920104 0.670162 0.438625
0.000000 0.809998 0.443160
0.028546 0.803159 0.444364
0.112044 0.796246 0.445573
0.230133 0.793368 0.443775
0.370758 0.791331 0.441352
0.521780 0.789289 0.438930
0.671067 0.787240 0.436510
0.806484 0.785184 0.434091
0.915897 0.783123 0.431673
0.000000 0.000000 0.613551
0.035246 0.000000 0.614170
0.099949 0.000000 0.614699
0.191175 0.000000 0.615136
0.305240 0.000000 0.615482
0.436638 0.000000 0.615738
0.577817 0.000000 0.615903
0.718938 0.000000 0.615976
0.847632 0.000000 0.615959
0.000000 0.030236 0.616041
0.036981 0.030703 0.616338
0.108845 0.031133 0.616544
0.210303 0.031526 0.616660
0.336101 0.031881 0.616684
0.478853 0.032198 0.616618
0.628794 0.032476 0.616461
0.773149 0.032594 0.618080
0.896652 0.032505 0.622063
0.000000 0.094516 0.617393
0.038221 0.097098 0.617369
0.117218 0.099645 0.617253
0.228990 0.102156 0.617047
0.366025 0.103933 0.620209
0.518757 0.105446 0.624181
0.675139 0.106866 0.628089
0.820273 0.108191 0.631934
0.936252 0.109420 0.635717
0.000000 0.198890 0.618314
0.038911 0.203001 0.622338
0.124667 0.206983 0.626299
0.246072 0.210832 0.630198
0.393895 0.214547 0.634036
0.556265 0.218124 0.637813
0.713120 0.219002 0.640949
0.842897 0.215025 0.642973
0.942419 0.211076 0.645000
0.000000 0.336300 0.632310
0.039092 0.342794 0.636141
0.131378 0.349105 0.639913
0.257442 0.347185 0.642453
0.402664 0.341977 0.644508
0.555511 0.336791 0.646566
0.703552 0.331627 0.648627
0.834519 0.326485 0.650691
0.936301 0.321365 0.652757
0.000000 0.485384 0.643979
0.036977 0.479202 0.646066
0.126708 0.473027 0.648155
0.249843 0.466861 0.650247
0.393750 0.460705 0.652342
0.545962 0.454559 0.654439
0.694167 0.448424 0.656539
0.826214 0.442302 0.658641
0.930111 0.436192 0.660746
0.000000 0.603734 0.651889
0.033791 0.596938 0.654015
0.121267 0.590132 0.656143
0.242552 0.583316 0.658273
0.385139 0.576492 0.660406
0.536675 0.569660 0.662541
0.684972 0.562822 0.664679
0.817996 0.555980 0.666818
0.923869 0.549133 0.668959
0.000000 0.712448 0.660029
0.030825 0.705406 0.662193
0.116103 0.698327 0.664358
0.235567 0.691212 0.666525
0.376828 0.684062 0.668695
0.527656 0.676880 0.670866
0.676529 0.673613 0.669437
0.811181 0.671305 0.667123
0.919370 0.668993 0.664805
0.000000 0.807365 0.668393
0.028068 0.800491 0.670593
0.111212 0.794373 0.672039
0.229072 0.792340 0.669728
0.369563 0.790300 0.667415
0.520550 0.788254 0.665097
0.669900 0.786202 0.662777
0.805477 0.784143 0.660453
0.915149 0.782079 0.658125
0.000000 0.000000 0.796313
0.035206 0.000000 0.797331
0.100529 0.000000 0.798271
0.192707 0.000000 0.799132
0.307911 0.000000 0.799915
0.440460 0.000000 0.800620
0.582594 0.000000 0.801247
0.724232 0.000000 0.801798
0.852726 0.000000 0.802271
0.000000 0.030222 0.800071
0.036911 0.030680 0.800811
0.109396 0.031102 0.801474
0.211822 0.031487 0.802059
0.338764 0.031834 0.802568
0.482628 0.032143 0.802999
0.633413 0.032413 0.803354
0.777761 0.032424 0.807117
0.900747 0.032320 0.811820
0.000000 0.095153 0.802850
0.038117 0.097728 0.803317
0.117736 0.100269 0.803706
0.230443 0.102656 0.804641
0.368473 0.104233 0.809402
0.522198 0.105718 0.814083
0.679251 0.107108 0.818683
0.824454 0.108403 0.823205
0.939588 0.109602 0.827649
0.000000 0.200016 0.806943
0.038762 0.204086 0.811681
0.125084 0.208026 0.816340
0.247405 0.211833 0.820920
0.396276 0.215505 0.825422
0.559584 0.219038 0.829847
0.711779 0.217378 0.832932
0.841735 0.213406 0.835420
0.941583 0.209461 0.837899
0.000000 0.338215 0.823151
0.038908 0.344652 0.827635
0.131562 0.350332 0.831950
0.256302 0.345105 0.834465
0.401344 0.339900 0.836971
0.554114 0.334715 0.839468
0.702195 0.329553 0.841956
0.833332 0.324413 0.844435
0.935430 0.319297 0.846904
0.000000 0.482960 0.836011
0.036460 0.476773 0.838536
0.125845 0.470594 0.841051
0.248707 0.464425 0.843557
0.392429 0.458266 0.846053
0.544556 0.452117 0.848538
0.692793 0.445980 0.851014
0.825003 0.439855 0.853479
0.929206 0.433744 0.855933
0.000000 0.601086 0.845170
0.033288 0.594279 0.847683
0.120413 0.587462 0.850185
0.241421 0.580636 0.852676
0.383816 0.573801 0.855157
0.535262 0.566960 0.857627
0.683583 0.560113 0.860085
0.816761 0.553261 0.862533
0.922931 0.546406 0.864968
0.000000 0.709720 0.854351
0.030335 0.702657 0.856847
0.115259 0.695557 0.859331
0.234440 0.688421 0.861804
0.375504 0.681252 0.864266
0.526316 0.674753 0.866115
0.675365 0.672447 0.864356
0.810183 0.670137 0.862589
0.918634 0.667824 0.860814
0.000000 0.804716 0.863533
0.027592 0.797808 0.866008
0.110384 0.793346 0.866336
0.228012 0.791310 0.864578
0.368369 0.789267 0.862812
0.519320 0.787218 0.861039
0.668731 0.785162 0.859257
0.804469 0.783101 0.857467
0.914399 0.781034 0.855669
0.000000 0.000000 0.936312
0.035166 0.000000 0.937303
0.101108 0.000000 0.938237
0.194240 0.000000 0.939117
0.310585 0.000000 0.939941
0.444283 0.000000 0.940713
0.587363 0.000000 0.941431
0.729498 0.000000 0.942097
0.857758 0.000000 0.942711
0.000000 0.030206 0.939838
0.036839 0.030657 0.940633
0.109947 0.031071 0.941374
0.213344 0.031447 0.942062
0.341429 0.031786 0.942699
0.486402 0.032086 0.943285
0.637922 0.032316 0.944206
0.782335 0.032249 0.948069
0.904772 0.032131 0.951805
0.000000 0.095790 0.942679
0.038013 0.098359 0.943286
0.118254 0.100894 0.943843
0.231823 0.102976 0.945979
0.370916 0.104524 0.949793
0.525628 0.105980 0.953480
0.683342 0.107341 0.957041
0.828594 0.108606 0.960476
0.942851 0.109775 0.963785
0.000000 0.201129 0.947732
0.038610 0.205158 0.951497
0.125497 0.209057 0.955136
0.248732 0.212821 0.958648
0.398650 0.216449 0.962035
0.562537 0.219748 0.965263
0.710433 0.215754 0.967124
0.840568 0.211787 0.968951
0.940741 0.207848 0.970742
0.000000 0.340113 0.960236
0.038722 0.346491 0.963575
0.130689 0.348250 0.966284
0.255159 0.343025 0.968140
0.400021 0.337821 0.969960
0.552712 0.332638 0.971745
0.700832 0.327478 0.973493
0.832140 0.322341 0.975205
0.934552 0.317227 0.976880
0.000000 0.480531 0.969154
0.035944 0.474340 0.970967
0.124981 0.468158 0.972744
0.247568 0.461986 0.974484
0.391104 0.455823 0.976187
0.543146 0.449672 0.977851
0.691414 0.443533 0.979478
0.823785 0.437406 0.981065
0.928294 0.431293 0.982614
0.000000 0.598432 0.975472
0.032785 0.591614 0.977165
0.119559 0.584786 0.978818
0.240287 0.577949 0.980433
0.382489 0.571105 0.982008
0.533845 0.564254 0.983543
0.682190 0.557398 0.985038
0.815520 0.550538 0.986492
0.922064 0.544200 0.987648
0.000000 0.706982 0.981382
0.029847 0.699897 0.982944
0.114414 0.692777 0.984465
0.233311 0.685621 0.985945
0.374177 0.678433 0.987383
0.525087 0.673588 0.987744
0.674201 0.671280 0.986977
0.809182 0.668969 0.986197
0.917895 0.666654 0.985404
0.000000 0.802053 0.986843
0.027117 0.795111 0.988264
0.109559 0.792318 0.987840
0.226954 0.790278 0.987075
0.367175 0.788232 0.986296
0.518089 0.786180 0.985504
0.667561 0.784122 0.984700
0.803459 0.782057 0.983883
0.913646 0.779987 0.983054
0.000000 0.000000 1.000000
0.035125 0.000000 1.000000
0.101687 0.000000 1.000000
0.195775 0.000000 1.000000
0.313262 0.000000 1.000000
0.448107 0.000000 1.000000
0.592123 0.000000 1.000000
0.734734 0.000000 1.000000
0.862725 0.000000 1.000000
0.000000 0.030190 1.000000
0.036766 0.030632 1.000000
0.110498 0.031038 1.000000
0.214867 0.031406 1.000000
0.344096 0.031737 1.000000
0.490174 0.032029 1.000000
0.642220 0.032153 1.000000
0.786871 0.032071 1.000000
0.908727 0.031938 1.000000
0.000000 0.096426 1.000000
0.037908 0.098990 1.000000
0.118772 0.101519 1.000000
0.233198 0.103288 1.000000
0.373354 0.104807 1.000000
0.529049 0.106233 1.000000
0.687411 0.107565 1.000000
0.832692 0.108800 1.000000
0.946025 0.109934 1.000000
0.000000 0.202229 1.000000
0.038455 0.206218 1.000000
0.125905 0.210074 1.000000
0.250054 0.213795 1.000000
0.401019 0.217380 1.000000
0.561140 0.218119 1.000000
0.709082 0.214130 1.000000
0.839394 0.210168 1.000000
0.939892 0.206234 1.000000
0.000000 0.341992 1.000000
0.038533 0.348311 1.000000
0.129814 0.346167 1.000000
0.254014 0.340943 1.000000
0.398694 0.335741 1.000000
0.551306 0.330561 1.000000
0.699464 0.325403 1.000000
0.830941 0.320268 1.000000
0.933668 0.315157 1.000000
0.000000 0.478099 1.000000
0.035428 0.471904 1.000000
0.124117 0.465719 1.000000
0.246428 0.459543 1.000000
0.389776 0.453378 1.000000
0.541732 0.447224 1.000000
0.690030 0.441083 1.000000
0.822562 0.434954 1.000000
0.927375 0.428839 1.000000
0.000000 0.595771 1.000000
0.032284 0.588942 1.000000
0.118704 0.582103 1.000000
0.239152 0.575257 1.000000
0.381160 0.568402 1.000000
0.532423 0.561542 1.000000
0.680790 0.554677 1.000000
0.814272 0.547809 1.000000
0.921337 0.542973 1.000000
0.000000 0.704233 1.000000
0.029359 0.697128 1.000000
0.113569 0.689987 1.000000
0.232180 0.682811 1.000000
0.372847 0.675604 1.000000
0.523856 0.672422 1.000000
0.673036 0.670113 1.000000
0.808180 0.667800 1.000000
0.917154 0.665483 1.000000
0.000000 0.799374 1.000000
0.026634 0.793325 1.000000
0.108736 0.791288 1.000000
0.225897 0.789245 1.000000
0.365982 0.787196 1.000000
0.516858 0.785141 1.000000
0.666391 0.783079 1.000000
0.802447 0.781012 1.000000
0.912890 0.778938 1.000000
0.000000 0.000000 1.000000
0.035083 0.000000 1.000000
0.102266 0.000000 1.000000
0.197313 0.000000 1.000000
0.315943 0.000000 1.000000
0.451931 0.000000 1.000000
0.596872 0.000000 1.000000
0.739939 0.000000 1.000000
0.867628 0.000000 1.000000
0.000000 0.030173 1.000000
0.036692 0.030607 1.000000
0.111048 0.031005 1.000000
0.216391 0.031365 1.000000
0.346765 0.031687 1.000000
0.493945 0.031971 1.000000
0.646498 0.031985 1.000000
0.791367 0.031888 1.000000
0.912612 0.031741 1.000000
0.000000 0.097064 1.000000
0.037802 0.099621 1.000000
0.119259 0.102007 1.000000
0.234569 0.103590 1.000000
0.375785 0.105081 1.000000
0.532458 0.106478 1.000000
0.691458 0.107780 1.000000
0.836747 0.108985 1.000000
0.945207 0.108821 1.000000
0.000000 0.203317 1.000000
0.038298 0.207264 1.000000
0.126309 0.211078 1.000000
0.251372 0.214756 1.000000
0.403381 0.218297 1.000000
0.559738 0.216491 1.000000
0.707725 0.212507 1.000000
0.838215 0.208550 1.000000
0.939037 0.204622 1.000000
0.000000 0.343853 1.000000
0.038273 0.349326 1.000000
0.128939 0.344082 1.000000
0.252867 0.338860 1.000000
0.397364 0.333660 1.000000
0.549895 0.328482 1.000000
0.698090 0.323326 1.000000
0.829736 0.318195 1.000000
0.932777 0.313086 1.000000
0.000000 0.475663 1.000000
0.034913 0.469465 1.000000
0.123252 0.463276 1.000000
0.245286 0.457097 1.000000
0.388444 0.450930 1.000000
0.540313 0.444773 1.000000
0.688641 0.438630 1.000000
0.821332 0.432500 1.000000
0.926450 0.426383 1.000000
0.000000 0.593104 1.000000
0.031784 0.586264 1.000000
0.117849 0.579415 1.000000
0.238014 0.572558 1.000000
0.379828 0.565694 1.000000
0.530996 0.558825 1.000000
0.679386 0.551951 1.000000
0.813019 0.545075 1.000000
0.920607 0.541745 1.000000
0.000000 0.701475 1.000000
0.028873 0.694348 1.000000
0.112724 0.687187 1.000000
0.231048 0.679992 1.000000
0.371580 0.673564 1.000000
0.522626 0.671256 1.000000
0.671870 0.668944 1.000000
0.807176 0.666629 1.000000
0.916410 0.664311 1.000000
0.000000 0.796681 1.000000
0.026147 0.792296 1.000000
0.107915 0.790257 1.000000
0.224841 0.788211 1.000000
0.364790 0.786158 1.000000
0.515627 0.784100 1.000000
0.665220 0.782035 1.000000
0.801433 0.779965 1.000000
0.912133 0.777888 1.000000
