luts/original/rnb-purple-night.cube
TITLE "Rnb Purple Night"
LUT_3D_SIZE 33
DOMAIN_MIN 0.0 0.0 0.0
DOMAIN_MAX 1.0 1.0 1.0
0.000000 0.000000 0.000000
0.006292 0.000000 0.000000
0.014291 0.000000 0.000000
0.023994 0.000000 0.000000
0.035393 0.000000 0.000000
0.048476 0.000000 0.000000
0.063225 0.000000 0.000000
0.079619 0.000000 0.000000
0.097630 0.000000 0.000000
0.117222 0.000000 0.000000
0.138359 0.000000 0.000000
0.160993 0.000000 0.000000
0.185073 0.000000 0.000000
0.210541 0.000000 0.000000
0.237333 0.000000 0.000000
0.265377 0.000000 0.000000
0.294594 0.000000 0.000000
0.324898 0.000000 0.000000
0.356196 0.000000 0.000000
0.388387 0.000000 0.000000
0.421362 0.000000 0.000000
0.455003 0.000000 0.000000
0.489185 0.000000 0.000000
0.523773 0.000000 0.000000
0.558625 0.000000 0.000000
0.593589 0.000000 0.000000
0.628502 0.000000 0.000000
0.663194 0.000000 0.000000
0.697484 0.000000 0.000000
0.731180 0.000000 0.000000
0.764083 0.000000 0.000000
0.795979 0.000000 0.000000
0.826646 0.000000 0.000000
0.000000 0.005142 0.000000
0.006122 0.005080 0.000000
0.014278 0.005017 0.000000
0.024209 0.004952 0.000000
0.035903 0.004886 0.000000
0.049346 0.004818 0.000000
0.064516 0.004749 0.000000
0.081386 0.004679 0.000000
0.099924 0.004608 0.000000
0.120091 0.004535 0.000000
0.141844 0.004461 0.000000
0.165131 0.004386 0.000000
0.189895 0.004309 0.000000
0.216074 0.004232 0.000000
0.243595 0.004153 0.000000
0.272381 0.004072 0.000000
0.302346 0.003991 0.000000
0.333399 0.003909 0.000000
0.365437 0.003825 0.000000
0.398353 0.003740 0.000000
0.432029 0.003654 0.000000
0.466340 0.003567 0.000000
0.501153 0.003479 0.000000
0.536323 0.003389 0.000000
0.571698 0.003299 0.000000
0.607118 0.003207 0.000000
0.642410 0.003115 0.000000
0.677393 0.003021 0.000000
0.711876 0.002927 0.000000
0.745657 0.002831 0.000000
0.778523 0.002734 0.000000
0.810252 0.002637 0.000000
0.840607 0.002538 0.000000
0.000000 0.011799 0.000000
0.005932 0.011781 0.000000
0.014240 0.011761 0.000000
0.024396 0.011739 0.000000
0.036384 0.011716 0.000000
0.050186 0.011690 0.000000
0.065776 0.011663 0.000000
0.083123 0.011634 0.000000
0.102190 0.011604 0.000000
0.122934 0.011571 0.000000
0.145305 0.011537 0.000000
0.169248 0.011501 0.000000
0.194699 0.011463 0.000000
0.221588 0.011424 0.000000
0.249839 0.011383 0.000000
0.279367 0.011340 0.000000
0.310080 0.011295 0.000000
0.341877 0.011249 0.000000
0.374650 0.011201 0.000000
0.408284 0.011151 0.000000
0.442652 0.011099 0.000000
0.477621 0.011046 0.000000
0.513048 0.010991 0.000000
0.548780 0.010935 0.000000
0.584657 0.010876 0.000000
0.620506 0.010816 0.000000
0.656146 0.010755 0.000000
0.691385 0.010691 0.000000
0.726021 0.010626 0.000000
0.759840 0.010560 0.000000
0.792620 0.010491 0.000000
0.824124 0.010422 0.000000
0.854105 0.010350 0.000000
0.000000 0.020129 0.000000
0.005726 0.020174 0.000000
0.014180 0.020217 0.000000
0.024556 0.020258 0.000000
0.036835 0.020297 0.000000
0.050995 0.020333 0.000000
0.067005 0.020368 0.000000
0.084830 0.020401 0.000000
0.104427 0.020431 0.000000
0.125750 0.020459 0.000000
0.148742 0.020486 0.000000
0.173342 0.020510 0.000000
0.199481 0.020532 0.000000
0.227083 0.020552 0.000000
0.256064 0.020570 0.000000
0.286333 0.020585 0.000000
0.317790 0.020599 0.000000
0.350328 0.020610 0.000000
0.383831 0.020620 0.000000
0.418175 0.020627 0.000000
0.453224 0.020632 0.000000
0.488838 0.020635 0.000000
0.524863 0.020636 0.000000
0.561139 0.020635 0.000000
0.597494 0.020631 0.000000
0.633745 0.020626 0.000000
0.669701 0.020618 0.000000
0.705160 0.020608 0.000000
0.739908 0.020597 0.000000
0.773720 0.020583 0.000000
0.806360 0.020566 0.000000
0.837582 0.020548 0.000000
0.867124 0.020528 0.000000
0.000000 0.030285 0.000000
0.005501 0.030413 0.000000
0.014095 0.030539 0.000000
0.024688 0.030663 0.000000
0.037256 0.030784 0.000000
0.051772 0.030903 0.000000
0.068202 0.031020 0.000000
0.086505 0.031134 0.000000
0.106634 0.031246 0.000000
0.128537 0.031356 0.000000
0.152152 0.031464 0.000000
0.177411 0.031569 0.000000
0.204239 0.031672 0.000000
0.232555 0.031772 0.000000
0.262266 0.031870 0.000000
0.293275 0.031966 0.000000
0.325475 0.032060 0.000000
0.358751 0.032151 0.000000
0.392977 0.032240 0.000000
0.428022 0.032326 0.000000
0.463743 0.032410 0.000000
0.499987 0.032492 0.000000
0.536595 0.032571 0.000000
0.573394 0.032647 0.000000
0.610202 0.032722 0.000000
0.646828 0.032794 0.000000
0.683069 0.032863 0.000000
0.718710 0.032930 0.000000
0.753528 0.032995 0.000000
0.787285 0.033057 0.000000
0.819733 0.033117 0.000000
0.850612 0.033174 0.000000
0.879591 0.033208 0.000000
0.000000 0.042416 0.000000
0.005259 0.042646 0.000000
0.013988 0.042875 0.000000
0.024792 0.043101 0.000000
0.037645 0.043325 0.000000
0.052516 0.043546 0.000000
0.069365 0.043765 0.000000
0.088147 0.043982 0.000000
0.108810 0.044196 0.000000
0.131294 0.044408 0.000000
0.155533 0.044618 0.000000
0.181453 0.044825 0.000000
0.208973 0.045030 0.000000
0.238002 0.045232 0.000000
0.268444 0.045432 0.000000
0.300192 0.045629 0.000000
0.333132 0.045824 0.000000
0.367140 0.046017 0.000000
0.402084 0.046206 0.000000
0.437822 0.046394 0.000000
0.474202 0.046579 0.000000
0.511064 0.046761 0.000000
0.548237 0.046940 0.000000
0.585538 0.047117 0.000000
0.622776 0.047292 0.000000
0.659748 0.047464 0.000000
0.696240 0.047633 0.000000
0.732026 0.047800 0.000000
0.766871 0.047964 0.000000
0.800384 0.048060 0.000000
0.832380 0.048121 0.000000
0.862666 0.048177 0.000000
0.890964 0.048230 0.000000
0.000000 0.056658 0.000000
0.005001 0.057011 0.000000
0.013856 0.057362 0.000000
0.024867 0.057710 0.000000
0.038003 0.058056 0.000000
0.053227 0.058400 0.000000
0.070495 0.058742 0.000000
0.089756 0.059081 0.000000
0.110953 0.059418 0.000000
0.134020 0.059752 0.000000
0.158885 0.060084 0.000000
0.185467 0.060414 0.000000
0.213679 0.060741 0.000000
0.243423 0.061066 0.000000
0.274595 0.061388 0.000000
0.307080 0.061708 0.000000
0.340757 0.062025 0.000000
0.375493 0.062340 0.000000
0.411148 0.062652 0.000000
0.447570 0.062962 0.000000
0.484599 0.063269 0.000000
0.522064 0.063573 0.000000
0.559783 0.063875 0.000000
0.597566 0.064174 0.000000
0.635209 0.064470 0.000000
0.672492 0.064760 0.000000
0.708992 0.064920 0.000000
0.744672 0.065075 0.000000
0.779289 0.065225 0.000000
0.812587 0.065371 0.000000
0.844302 0.065512 0.000000
0.874156 0.065648 0.000000
0.901858 0.065780 0.000000
0.000000 0.073139 0.000000
0.004727 0.073633 0.000000
0.013702 0.074125 0.000000
0.024915 0.074615 0.000000
0.038330 0.075103 0.000000
0.053905 0.075589 0.000000
0.071590 0.076072 0.000000
0.091331 0.076554 0.000000
0.113062 0.077033 0.000000
0.136713 0.077509 0.000000
0.162205 0.077983 0.000000
0.189451 0.078455 0.000000
0.218356 0.078925 0.000000
0.248815 0.079392 0.000000
0.280716 0.079857 0.000000
0.313937 0.080319 0.000000
0.348348 0.080779 0.000000
0.383807 0.081237 0.000000
0.420166 0.081692 0.000000
0.457263 0.082144 0.000000
0.494928 0.082594 0.000000
0.532981 0.083041 0.000000
0.571158 0.083419 0.000000
0.609204 0.083690 0.000000
0.647017 0.083957 0.000000
0.684376 0.084218 0.000000
0.721049 0.084473 0.000000
0.756794 0.084724 0.000000
0.791355 0.084969 0.000000
0.824466 0.085210 0.000000
0.855851 0.085444 0.000000
0.885217 0.085674 0.000000
0.912264 0.085898 0.000000
0.000000 0.091972 0.000000
0.004437 0.092626 0.000000
0.013525 0.093278 0.000000
0.024935 0.093928 0.000000
0.038625 0.094576 0.000000
0.054548 0.095222 0.000000
0.072650 0.095865 0.000000
0.092869 0.096507 0.000000
0.115136 0.097147 0.000000
0.139372 0.097785 0.000000
0.165493 0.098420 0.000000
0.193403 0.099053 0.000000
0.223002 0.099684 0.000000
0.254176 0.100313 0.000000
0.286805 0.100939 0.000000
0.320761 0.101563 0.000000
0.355902 0.102184 0.000000
0.392079 0.102804 0.000000
0.429135 0.103420 0.000000
0.466778 0.103875 0.000000
0.504893 0.104274 0.000000
0.543325 0.104667 0.000000
0.581875 0.105054 0.000000
0.620333 0.105435 0.000000
0.658480 0.105810 0.000000
0.696082 0.106180 0.000000
0.732896 0.106544 0.000000
0.768670 0.106901 0.000000
0.803135 0.107253 0.000000
0.836015 0.107599 0.000000
0.867019 0.107939 0.000000
0.895844 0.108273 0.000000
0.922175 0.108601 0.000000
0.000000 0.113252 0.000000
0.004132 0.114083 0.000000
0.013326 0.114912 0.000000
0.024926 0.115739 0.000000
0.038887 0.116565 0.000000
0.055156 0.117388 0.000000
0.073674 0.118210 0.000000
0.094372 0.119030 0.000000
0.117174 0.119848 0.000000
0.141996 0.120664 0.000000
0.168746 0.121478 0.000000
0.197322 0.122290 0.000000
0.227615 0.123099 0.000000
0.259504 0.123907 0.000000
0.292861 0.124712 0.000000
0.327535 0.125485 0.000000
0.363278 0.126030 0.000000
0.400020 0.126569 0.000000
0.437593 0.127102 0.000000
0.475820 0.127629 0.000000
0.514511 0.128149 0.000000
0.553468 0.128662 0.000000
0.592482 0.129170 0.000000
0.631332 0.129670 0.000000
0.669787 0.130165 0.000000
0.707604 0.130653 0.000000
0.744529 0.131134 0.000000
0.780295 0.131608 0.000000
0.814625 0.132077 0.000000
0.847228 0.132538 0.000000
0.877801 0.132993 0.000000
0.906028 0.133441 0.000000
0.931582 0.133883 0.000000
0.000000 0.137057 0.000000
0.003813 0.138080 0.000000
0.013104 0.139102 0.000000
0.024889 0.140123 0.000000
0.039117 0.141142 0.000000
0.055730 0.142159 0.000000
0.074661 0.143175 0.000000
0.095837 0.144188 0.000000
0.119174 0.145200 0.000000
0.144583 0.146210 0.000000
0.171964 0.147219 0.000000
0.201206 0.148225 0.000000
0.232157 0.149084 0.000000
0.264667 0.149782 0.000000
0.298634 0.150473 0.000000
0.333908 0.151158 0.000000
0.370334 0.151835 0.000000
0.407743 0.152506 0.000000
0.445959 0.153170 0.000000
0.484794 0.153827 0.000000
0.524049 0.154476 0.000000
0.563517 0.155119 0.000000
0.602977 0.155754 0.000000
0.642197 0.156382 0.000000
0.680937 0.157004 0.000000
0.718941 0.157617 0.000000
0.755943 0.158224 0.000000
0.791666 0.158824 0.000000
0.825819 0.159416 0.000000
0.858099 0.160000 0.000000
0.888191 0.160578 0.000000
0.915764 0.161148 0.000000
0.940478 0.161710 0.000000
0.000000 0.163441 0.000000
0.003480 0.164672 0.000000
0.012860 0.165901 0.000000
0.024824 0.167128 0.000000
0.039314 0.168355 0.000000
0.056267 0.169579 0.000000
0.075610 0.170802 0.000000
0.097264 0.172024 0.000000
0.121137 0.173244 0.000000
0.147096 0.174165 0.000000
0.175045 0.175026 0.000000
0.204870 0.175879 0.000000
0.236444 0.176726 0.000000
0.269630 0.177565 0.000000
0.304281 0.178396 0.000000
0.340241 0.179220 0.000000
0.377345 0.180036 0.000000
0.415415 0.180844 0.000000
0.454265 0.181645 0.000000
0.493698 0.182438 0.000000
0.533506 0.183223 0.000000
0.573468 0.184001 0.000000
0.613356 0.184770 0.000000
0.652926 0.185532 0.000000
0.691925 0.186286 0.000000
0.730088 0.187032 0.000000
0.767136 0.187769 0.000000
0.802778 0.188499 0.000000
0.836713 0.189221 0.000000
0.868624 0.189935 0.000000
0.898182 0.190641 0.000000
0.925045 0.191338 0.000000
0.947173 0.191087 0.000000
0.000000 0.192435 0.000000
0.003134 0.193884 0.000000
0.012595 0.195332 0.000000
0.024731 0.196779 0.000000
0.039479 0.198224 0.000000
0.056766 0.199583 0.000000
0.076502 0.200623 0.000000
0.098598 0.201655 0.000000
0.122954 0.202680 0.000000
0.149464 0.203696 0.000000
0.178010 0.204704 0.000000
0.208466 0.205704 0.000000
0.240696 0.206696 0.000000
0.274556 0.207679 0.000000
0.309889 0.208655 0.000000
0.346532 0.209622 0.000000
0.384309 0.210580 0.000000
0.423034 0.211531 0.000000
0.462511 0.212472 0.000000
0.502532 0.213406 0.000000
0.542878 0.214331 0.000000
0.583321 0.215247 0.000000
0.623618 0.216154 0.000000
0.663516 0.217054 0.000000
0.702750 0.217944 0.000000
0.741042 0.218825 0.000000
0.778102 0.219698 0.000000
0.813628 0.220562 0.000000
0.847302 0.221418 0.000000
0.875402 0.220512 0.000000
0.901204 0.219519 0.000000
0.924698 0.218527 0.000000
0.945694 0.217537 0.000000
0.000000 0.224040 0.000000
0.002775 0.225717 0.000000
0.012310 0.227133 0.000000
0.024610 0.228351 0.000000
0.039601 0.229561 0.000000
0.057202 0.230762 0.000000
0.077324 0.231955 0.000000
0.099870 0.233139 0.000000
0.124733 0.234314 0.000000
0.151798 0.235480 0.000000
0.180941 0.236637 0.000000
0.212028 0.237786 0.000000
0.244914 0.238925 0.000000
0.279445 0.240056 0.000000
0.315459 0.241177 0.000000
0.352781 0.242290 0.000000
0.391227 0.243393 0.000000
0.430600 0.244487 0.000000
0.470694 0.245572 0.000000
0.511293 0.246647 0.000000
0.552166 0.247713 0.000000
0.593072 0.248770 0.000000
0.633760 0.249818 0.000000
0.673964 0.250855 0.000000
0.713408 0.251884 0.000000
0.750580 0.252242 0.000000
0.783782 0.251167 0.000000
0.815455 0.250093 0.000000
0.845407 0.249021 0.000000
0.873449 0.247951 0.000000
0.899389 0.246882 0.000000
0.923038 0.245815 0.000000
0.944209 0.244750 0.000000
0.000000 0.257239 0.000000
0.002420 0.258631 0.000000
0.012017 0.260014 0.000000
0.024468 0.261387 0.000000
0.039694 0.262751 0.000000
0.057608 0.264106 0.000000
0.078114 0.265451 0.000000
0.101109 0.266787 0.000000
0.126478 0.268113 0.000000
0.154099 0.269429 0.000000
0.183838 0.270736 0.000000
0.215554 0.272033 0.000000
0.249095 0.273320 0.000000
0.284298 0.274597 0.000000
0.320990 0.275864 0.000000
0.358987 0.277122 0.000000
0.398096 0.278369 0.000000
0.438111 0.279607 0.000000
0.478815 0.280834 0.000000
0.519980 0.282051 0.000000
0.561366 0.283258 0.000000
0.602721 0.284455 0.000000
0.641273 0.284051 0.000000
0.677935 0.282898 0.000000
0.713659 0.281746 0.000000
0.748253 0.280596 0.000000
0.781524 0.279447 0.000000
0.813283 0.278300 0.000000
0.843337 0.277155 0.000000
0.871496 0.276011 0.000000
0.897572 0.274868 0.000000
0.921375 0.273727 0.000000
0.942718 0.272588 0.000000
0.000000 0.291875 0.000000
0.002061 0.293422 0.000000
0.011710 0.294959 0.000000
0.024305 0.296486 0.000000
0.039761 0.298002 0.000000
0.057985 0.299508 0.000000
0.078873 0.301004 0.000000
0.102315 0.302489 0.000000
0.128189 0.303964 0.000000
0.156364 0.305428 0.000000
0.186700 0.306882 0.000000
0.219046 0.308325 0.000000
0.253240 0.309757 0.000000
0.289112 0.311178 0.000000
0.326480 0.312589 0.000000
0.365149 0.313989 0.000000
0.404917 0.315378 0.000000
0.445567 0.316756 0.000000
0.486736 0.318009 0.000000
0.525180 0.316780 0.000000
0.563475 0.315551 0.000000
0.601427 0.314324 0.000000
0.638843 0.313099 0.000000
0.675527 0.311875 0.000000
0.711289 0.310652 0.000000
0.745935 0.309431 0.000000
0.779274 0.308211 0.000000
0.811116 0.306993 0.000000
0.841270 0.305776 0.000000
0.869546 0.304560 0.000000
0.895755 0.303346 0.000000
0.919709 0.302134 0.000000
0.941221 0.300923 0.000000
0.000000 0.328457 0.000000
0.001695 0.330155 0.000000
0.011388 0.331842 0.000000
0.024121 0.333517 0.000000
0.039803 0.335181 0.000000
0.058333 0.336834 0.000000
0.079601 0.338476 0.000000
0.103489 0.340106 0.000000
0.129867 0.341725 0.000000
0.158596 0.343333 0.000000
0.189528 0.344928 0.000000
0.222502 0.346513 0.000000
0.257349 0.348085 0.000000
0.293889 0.349646 0.000000
0.331929 0.351195 0.000000
0.370261 0.351576 0.000000
0.407911 0.350274 0.000000
0.446011 0.348974 0.000000
0.484366 0.347675 0.000000
0.522779 0.346378 0.000000
0.561056 0.345082 0.000000
0.599003 0.343787 0.000000
0.636426 0.342493 0.000000
0.673133 0.341201 0.000000
0.708930 0.339910 0.000000
0.743627 0.338621 0.000000
0.777032 0.337332 0.000000
0.808955 0.336045 0.000000
0.839207 0.334760 0.000000
0.867597 0.333476 0.000000
0.893937 0.332193 0.000000
0.918040 0.330912 0.000000
0.939719 0.329631 0.000000
0.000000 0.366834 0.000000
0.001324 0.368676 0.000000
0.011053 0.370506 0.000000
0.023917 0.372324 0.000000
0.039820 0.374129 0.000000
0.058653 0.375922 0.000000
0.080299 0.377703 0.000000
0.104630 0.379471 0.000000
0.131511 0.381227 0.000000
0.160794 0.382970 0.000000
0.192320 0.384701 0.000000
0.225923 0.386419 0.000000
0.260048 0.385752 0.000000
0.295070 0.384383 0.000000
0.331144 0.383015 0.000000
0.368071 0.381649 0.000000
0.405656 0.380283 0.000000
0.443702 0.378919 0.000000
0.482013 0.377556 0.000000
0.520395 0.376194 0.000000
0.558653 0.374833 0.000000
0.596593 0.373473 0.000000
0.634023 0.372115 0.000000
0.670750 0.370758 0.000000
0.706582 0.369401 0.000000
0.741328 0.368047 0.000000
0.774798 0.366693 0.000000
0.806801 0.365340 0.000000
0.837148 0.363989 0.000000
0.865650 0.362639 0.000000
0.892120 0.361291 0.000000
0.916369 0.359943 0.000000
0.938212 0.358597 0.000000
0.000000 0.406827 0.000000
0.000949 0.408804 0.000000
0.010704 0.410767 0.000000
0.023694 0.412718 0.000000
0.039812 0.414655 0.000000
0.058944 0.416578 0.000000
0.080965 0.418488 0.000000
0.105739 0.420385 0.000000
0.132999 0.421817 0.000000
0.161699 0.420385 0.000000
0.192255 0.418954 0.000000
0.224467 0.417523 0.000000
0.258135 0.416093 0.000000
0.293061 0.414665 0.000000
0.329049 0.413237 0.000000
0.365901 0.411810 0.000000
0.403420 0.410384 0.000000
0.441410 0.408959 0.000000
0.479678 0.407535 0.000000
0.518028 0.406112 0.000000
0.556266 0.404690 0.000000
0.594199 0.403269 0.000000
0.631635 0.401849 0.000000
0.668381 0.400430 0.000000
0.704246 0.399013 0.000000
0.739040 0.397596 0.000000
0.772572 0.396180 0.000000
0.804653 0.394765 0.000000
0.835094 0.393352 0.000000
0.863706 0.391939 0.000000
0.890303 0.390528 0.000000
0.914696 0.389118 0.000000
0.936700 0.387709 0.000000
0.000000 0.448225 0.000000
0.000570 0.450325 0.000000
0.010344 0.452410 0.000000
0.023452 0.454481 0.000000
0.039781 0.456538 0.000000
0.059021 0.456815 0.000000
0.080807 0.455325 0.000000
0.105056 0.453836 0.000000
0.131567 0.452348 0.000000
0.160141 0.450860 0.000000
0.190577 0.449373 0.000000
0.222676 0.447887 0.000000
0.256240 0.446401 0.000000
0.291072 0.444917 0.000000
0.326974 0.443433 0.000000
0.363749 0.441949 0.000000
0.401202 0.440467 0.000000
0.439138 0.438985 0.000000
0.477361 0.437504 0.000000
0.515678 0.436024 0.000000
0.553895 0.434545 0.000000
0.591820 0.433067 0.000000
0.629260 0.431589 0.000000
0.666024 0.430112 0.000000
0.701921 0.428636 0.000000
0.736761 0.427161 0.000000
0.770354 0.425687 0.000000
0.802511 0.424214 0.000000
0.833044 0.422742 0.000000
0.861765 0.421270 0.000000
0.888486 0.419800 0.000000
0.913021 0.418330 0.000000
0.935185 0.416862 0.000000
0.000000 0.490788 0.000000
0.000188 0.492996 0.000000
0.009933 0.491962 0.000000
0.022957 0.490421 0.000000
0.039055 0.488881 0.000000
0.058025 0.487340 0.000000
0.079665 0.485800 0.000000
0.103775 0.484261 0.000000
0.130153 0.482722 0.000000
0.158600 0.481184 0.000000
0.188917 0.479646 0.000000
0.220905 0.478108 0.000000
0.254366 0.476571 0.000000
0.289102 0.475035 0.000000
0.324918 0.473499 0.000000
0.361617 0.471964 0.000000
0.399004 0.470429 0.000000
0.436883 0.468895 0.000000
0.475061 0.467361 0.000000
0.513345 0.465828 0.000000
0.551540 0.464295 0.000000
0.589456 0.462764 0.000000
0.626900 0.461232 0.000000
0.663680 0.459702 0.000000
0.699608 0.458172 0.000000
0.734493 0.456643 0.000000
0.768145 0.455114 0.000000
0.800377 0.453586 0.000000
0.831000 0.452059 0.000000
0.859826 0.450533 0.000000
0.886670 0.449007 0.000000
0.911345 0.447482 0.000000
0.933666 0.445958 0.000000
0.000000 0.525524 0.000000
0.000000 0.523938 0.000000
0.009413 0.522352 0.000000
0.022279 0.520767 0.000000
0.038223 0.519181 0.000000
0.057044 0.517596 0.000000
0.078540 0.516011 0.000000
0.102511 0.514426 0.000000
0.128757 0.512841 0.000000
0.157078 0.511256 0.000000
0.187276 0.509672 0.000000
0.219152 0.508088 0.000000
0.252510 0.506504 0.000000
0.287152 0.504920 0.000000
0.322882 0.503337 0.000000
0.359504 0.501754 0.000000
0.396824 0.500172 0.000000
0.434647 0.498589 0.000000
0.472780 0.497007 0.000000
0.511029 0.495426 0.000000
0.549202 0.493844 0.000000
0.587107 0.492263 0.000000
0.624553 0.490683 0.000000
0.661350 0.489103 0.000000
0.697307 0.487523 0.000000
0.732235 0.485944 0.000000
0.765945 0.484365 0.000000
0.798249 0.482787 0.000000
0.828960 0.481209 0.000000
0.857891 0.479632 0.000000
0.884855 0.478055 0.000000
0.909668 0.476479 0.000000
0.932143 0.474903 0.000000
0.000000 0.555612 0.000000
0.000000 0.553987 0.000000
0.008906 0.552362 0.000000
0.021614 0.550737 0.000000
0.037406 0.549112 0.000000
0.056078 0.547486 0.000000
0.077431 0.545861 0.000000
0.101265 0.544235 0.000000
0.127379 0.542609 0.000000
0.155574 0.540984 0.000000
0.185654 0.539358 0.000000
0.217419 0.537732 0.000000
0.250674 0.536106 0.000000
0.285221 0.534481 0.000000
0.320864 0.532855 0.000000
0.357410 0.531229 0.000000
0.394663 0.529603 0.000000
0.432430 0.527978 0.000000
0.470516 0.526352 0.000000
0.508730 0.524727 0.000000
0.546880 0.523101 0.000000
0.584774 0.521476 0.000000
0.622222 0.519851 0.000000
0.659033 0.518226 0.000000
0.695017 0.516601 0.000000
0.729987 0.514976 0.000000
0.763753 0.513352 0.000000
0.796129 0.511728 0.000000
0.826926 0.510104 0.000000
0.855959 0.508480 0.000000
0.883042 0.506856 0.000000
0.907989 0.505233 0.000000
0.930617 0.503610 0.000000
0.000000 0.585218 0.000000
0.000000 0.583560 0.000000
0.008410 0.581901 0.000000
0.020963 0.580242 0.000000
0.036603 0.578582 0.000000
0.055128 0.576922 0.000000
0.076339 0.575262 0.000000
0.100035 0.573601 0.000000
0.126018 0.571940 0.000000
0.154089 0.570278 0.000000
0.184050 0.568616 0.000000
0.215705 0.566954 0.000000
0.248856 0.565291 0.000000
0.283309 0.563628 0.000000
0.318867 0.561965 0.000000
0.355335 0.560302 0.000000
0.392521 0.558638 0.000000
0.430230 0.556974 0.000000
0.468270 0.555310 0.000000
0.506449 0.553645 0.000000
0.544575 0.551981 0.000000
0.582457 0.550316 0.000000
0.619905 0.548651 0.000000
0.656729 0.546986 0.000000
0.692740 0.545321 0.000000
0.727750 0.543655 0.000000
0.761571 0.541990 0.000000
0.794016 0.540325 0.000000
0.824898 0.538659 0.000000
0.854031 0.536994 0.000000
0.881230 0.535328 0.000000
0.906311 0.533662 0.000000
0.929088 0.531997 0.000000
0.000000 0.614259 0.000000
0.000000 0.612573 0.000000
0.007925 0.610886 0.000000
0.020324 0.609198 0.000000
0.035813 0.607510 0.000000
0.054193 0.605821 0.000000
0.075262 0.604131 0.000000
0.098822 0.602440 0.000000
0.124675 0.600749 0.000000
0.152621 0.599057 0.000000
0.182465 0.597364 0.000000
0.214010 0.595671 0.000000
0.247058 0.593977 0.000000
0.281416 0.592282 0.000000
0.316888 0.590587 0.000000
0.353280 0.588891 0.000000
0.390398 0.587194 0.000000
0.428049 0.585497 0.000000
0.466042 0.583800 0.000000
0.504185 0.582102 0.000000
0.542286 0.580403 0.000000
0.580155 0.578704 0.000000
0.617602 0.577004 0.000000
0.654438 0.575304 0.000000
0.690475 0.573604 0.000000
0.725524 0.571903 0.000000
0.759398 0.570201 0.000000
0.791911 0.568500 0.000000
0.822876 0.566797 0.000000
0.852107 0.565095 0.000000
0.879421 0.563392 0.000000
0.904631 0.561689 0.000000
0.927556 0.559986 0.000000
0.000000 0.642654 0.000000
0.000000 0.640946 0.000000
0.007452 0.639237 0.000000
0.019698 0.637527 0.000000
0.035038 0.635816 0.000000
0.053272 0.634104 0.000000
0.074201 0.632390 0.000000
0.097626 0.630676 0.000000
0.123349 0.628960 0.000000
0.151172 0.627243 0.000000
0.180899 0.625525 0.000000
0.212333 0.623806 0.000000
0.245279 0.622087 0.000000
0.279542 0.620366 0.000000
0.314928 0.618644 0.000000
0.351243 0.616921 0.000000
0.388293 0.615197 0.000000
0.425887 0.613473 0.000000
0.463832 0.611747 0.000000
0.501938 0.610020 0.000000
0.540014 0.608293 0.000000
0.577869 0.606565 0.000000
0.615314 0.604836 0.000000
0.652161 0.603106 0.000000
0.688222 0.601376 0.000000
0.723309 0.599644 0.000000
0.757235 0.597912 0.000000
0.789813 0.596179 0.000000
0.820859 0.594446 0.000000
0.850187 0.592712 0.000000
0.877613 0.590977 0.000000
0.902952 0.589241 0.000000
0.926022 0.587505 0.000000
0.000000 0.670330 0.000000
0.000000 0.668607 0.000000
0.006990 0.666882 0.000000
0.019085 0.665156 0.000000
0.034276 0.663428 0.000000
0.052367 0.661698 0.000000
0.073156 0.659967 0.000000
0.096446 0.658235 0.000000
0.122040 0.656500 0.000000
0.149740 0.654765 0.000000
0.179351 0.653028 0.000000
0.210675 0.651289 0.000000
0.243519 0.649549 0.000000
0.277688 0.647808 0.000000
0.312988 0.646065 0.000000
0.349225 0.644321 0.000000
0.386208 0.642576 0.000000
0.423743 0.640829 0.000000
0.461640 0.639082 0.000000
0.499709 0.637332 0.000000
0.537758 0.635582 0.000000
0.575598 0.633830 0.000000
0.613041 0.632077 0.000000
0.649898 0.630323 0.000000
0.685982 0.628568 0.000000
0.721105 0.626812 0.000000
0.755081 0.625054 0.000000
