luts/original/rollout-neon.cube
TITLE "Rollout Neon"
LUT_3D_SIZE 9
DOMAIN_MIN 0.0 0.0 0.0
DOMAIN_MAX 1.0 1.0 1.0
0.011130 0.000000 0.000000
0.146261 0.000000 0.000000
0.284235 0.000000 0.000000
0.425053 0.000000 0.000000
0.568715 0.000000 0.000000
0.715221 0.000000 0.000000
0.864570 0.000000 0.000000
0.989844 0.000000 0.000000
1.000000 0.000000 0.000000
0.013714 0.121679 0.000000
0.146261 0.121679 0.000000
0.284235 0.121054 0.000000
0.425053 0.120428 0.000000
0.568715 0.119802 0.000000
0.715221 0.119177 0.000000
0.864570 0.118551 0.000000
0.989844 0.117926 0.000000
1.000000 0.117300 0.000000
0.016298 0.255022 0.000000
0.150266 0.255022 0.000000
0.284235 0.255022 0.000000
0.425053 0.255819 0.000000
0.568715 0.256615 0.000000
0.715221 0.257411 0.000000
0.864570 0.258207 0.000000
0.989844 0.259004 0.000000
1.000000 0.259800 0.000000
0.018881 0.391209 0.000000
0.154272 0.391209 0.000000
0.289663 0.391209 0.000000
0.425053 0.391209 0.000000
0.568715 0.393427 0.000000
0.715221 0.395646 0.000000
0.864570 0.397864 0.000000
0.989844 0.400082 0.000000
1.000000 0.402300 0.000000
0.021465 0.530240 0.000000
0.158277 0.530240 0.000000
0.295090 0.530240 0.000000
0.431902 0.530240 0.000000
0.568715 0.530240 0.000000
0.715221 0.533880 0.000000
0.864570 0.537520 0.000000
0.989844 0.541160 0.000000
1.000000 0.544800 0.000000
0.024049 0.672114 0.000000
0.162283 0.672114 0.000000
0.300517 0.672114 0.000000
0.438752 0.672114 0.000000
0.576986 0.672114 0.000000
0.715221 0.672114 0.000000
0.864570 0.677176 0.000000
0.989844 0.682238 0.000000
1.000000 0.687300 0.000000
0.026633 0.816832 0.000000
0.166289 0.816832 0.000000
0.305945 0.816832 0.000000
0.445601 0.816832 0.000000
0.585257 0.816832 0.000000
0.724914 0.816832 0.000000
0.864570 0.816832 0.000000
0.989844 0.823316 0.000000
1.000000 0.829800 0.000000
0.029216 0.964394 0.000000
0.170294 0.964394 0.000000
0.311372 0.964394 0.000000
0.452451 0.964394 0.000000
0.593529 0.964394 0.000000
0.734607 0.964394 0.000000
0.875685 0.964394 0.000000
0.989844 0.964394 0.000000
1.000000 0.972300 0.000000
0.031800 1.000000 0.000000
0.174300 1.000000 0.000000
0.316800 1.000000 0.000000
0.459300 1.000000 0.000000
0.601800 1.000000 0.000000
0.744300 1.000000 0.000000
0.886800 1.000000 0.000000
1.000000 1.000000 0.000000
1.000000 1.000000 0.000000
0.013714 0.000000 0.097098
0.146261 0.000000 0.097098
0.284235 0.000000 0.091841
0.425053 0.000000 0.086584
0.568715 0.000000 0.081327
0.715221 0.000000 0.076071
0.864570 0.000000 0.070814
0.989844 0.000000 0.065557
1.000000 0.000000 0.060300
0.007643 0.121679 0.093051
0.146261 0.117169 0.088078
0.284235 0.105900 0.072358
0.425053 0.092378 0.053859
0.568715 0.083384 0.040625
0.715221 0.077375 0.030469
0.864570 0.071533 0.020312
0.989844 0.065885 0.010156
1.000000 0.060658 0.000000
0.000320 0.255022 0.077861
0.143419 0.255022 0.075864
0.284235 0.250693 0.072358
0.425053 0.239456 0.053859
0.568715 0.230908 0.040625
0.715221 0.225110 0.030469
0.864570 0.219896 0.020312
0.989844 0.215365 0.010156
1.000000 0.212302 0.000000
0.000000 0.391209 0.069156
0.135163 0.391209 0.057921
0.282497 0.391209 0.057921
0.425053 0.386534 0.053859
0.568715 0.378432 0.040625
0.715221 0.372845 0.030469
0.864570 0.368260 0.020312
0.989844 0.364844 0.010156
1.000000 0.363946 0.000000
0.000000 0.530240 0.061055
0.127152 0.530240 0.040625
0.275936 0.530240 0.040625
0.424720 0.530240 0.040625
0.568715 0.525955 0.040625
0.715221 0.520579 0.030469
0.864570 0.516623 0.020312
0.989844 0.514323 0.010156
1.000000 0.515590 0.000000
0.000000 0.672114 0.053067
0.124972 0.672114 0.030469
0.273571 0.672114 0.030469
0.422169 0.672114 0.030469
0.570768 0.672114 0.030469
0.715221 0.668314 0.030469
0.864570 0.664986 0.020312
0.989844 0.663803 0.010156
1.000000 0.667234 0.000000
0.000000 0.816832 0.045132
0.123269 0.816832 0.020312
0.272278 0.816832 0.020312
0.421286 0.816832 0.020312
0.570294 0.816832 0.020312
0.719302 0.816832 0.020312
0.864570 0.813350 0.020312
0.989844 0.813282 0.010156
1.000000 0.818878 0.000000
0.000000 0.964394 0.037226
0.121819 0.964394 0.010156
0.271553 0.964394 0.010156
0.421288 0.964394 0.010156
0.571022 0.964394 0.010156
0.720757 0.964394 0.010156
0.870491 0.964394 0.010156
0.989844 0.962761 0.010156
1.000000 0.970523 0.000000
0.000000 1.000000 0.029436
0.121315 1.000000 0.000000
0.272959 1.000000 0.000000
0.424604 1.000000 0.000000
0.576248 1.000000 0.000000
0.727892 1.000000 0.000000
0.879536 1.000000 0.000000
1.000000 1.000000 0.000000
1.000000 1.000000 0.000000
0.016298 0.000000 0.225810
0.150266 0.000000 0.225810
0.284235 0.000000 0.225810
0.425053 0.000000 0.221975
0.568715 0.000000 0.218140
0.715221 0.000000 0.214305
0.864570 0.000000 0.210470
0.989844 0.000000 0.206635
1.000000 0.000000 0.202800
0.003825 0.114818 0.225810
0.146109 0.108582 0.225810
0.284235 0.101571 0.214677
0.425053 0.087703 0.197431
0.568715 0.071057 0.177996
0.715221 0.051632 0.155970
0.864570 0.029428 0.131249
0.989844 0.010156 0.109304
1.000000 0.000000 0.096862
0.000320 0.255022 0.221816
0.134289 0.255022 0.215158
0.284235 0.245281 0.206327
0.425053 0.230366 0.189250
0.568715 0.214833 0.169394
0.715221 0.196976 0.146760
0.864570 0.176511 0.121347
0.989844 0.156637 0.096385
1.000000 0.148380 0.082800
0.000000 0.391209 0.211808
0.125608 0.391209 0.196894
0.277378 0.391209 0.193311
0.425053 0.383937 0.189250
0.568715 0.369055 0.169394
0.715221 0.352985 0.146760
0.864570 0.334735 0.121347
0.989844 0.317422 0.096385
1.000000 0.312330 0.082800
0.000000 0.530240 0.203830
0.114149 0.530240 0.177406
0.265671 0.530240 0.174011
0.420870 0.530240 0.174011
0.568715 0.523276 0.169394
0.715221 0.508995 0.146760
0.864570 0.492958 0.121347
0.989844 0.478207 0.096385
1.000000 0.476280 0.082800
0.000000 0.672114 0.196530
0.099911 0.672114 0.155398
0.252821 0.672114 0.151933
0.409400 0.672114 0.151933
0.565979 0.672114 0.151933
0.715221 0.665004 0.146760
0.864570 0.651182 0.121347
0.989844 0.638993 0.096385
1.000000 0.640230 0.082800
0.000000 0.816832 0.189544
0.082894 0.816832 0.130701
0.237713 0.816832 0.127075
0.396322 0.816832 0.127075
0.554932 0.816832 0.127075
0.713542 0.816832 0.127075
0.864570 0.809406 0.121347
0.989844 0.799778 0.096385
1.000000 0.804180 0.082800
0.000000 0.964394 0.182731
0.063098 0.964394 0.103267
0.220057 0.964394 0.099439
0.380987 0.964394 0.099439
0.541916 0.964394 0.099439
0.702845 0.964394 0.099439
0.863774 0.964394 0.099439
0.989844 0.960564 0.096385
1.000000 0.968130 0.082800
0.000000 1.000000 0.176616
0.054300 1.000000 0.086942
0.213960 1.000000 0.082800
0.377910 1.000000 0.082800
0.541860 1.000000 0.082800
0.705810 1.000000 0.082800
0.869760 1.000000 0.082800
1.000000 1.000000 0.082800
1.000000 1.000000 0.082800
0.018881 0.000000 0.357366
0.154272 0.000000 0.357366
0.289663 0.000000 0.357366
0.425053 0.000000 0.357366
0.568715 0.000000 0.354953
0.715221 0.000000 0.352539
0.864570 0.000000 0.350126
0.989844 0.000000 0.347713
1.000000 0.000000 0.345300
0.000000 0.106696 0.357366
0.135820 0.095826 0.357366
0.286587 0.095826 0.357366
0.425053 0.087703 0.346457
0.568715 0.071057 0.329146
0.715221 0.051632 0.309556
0.864570 0.029428 0.287410
0.989844 0.010156 0.267780
1.000000 0.000000 0.258298
0.000000 0.250669 0.357366
0.129669 0.243517 0.357366
0.281462 0.231216 0.357366
0.425053 0.223094 0.338666
0.568715 0.207869 0.318393
0.715221 0.189866 0.296914
0.864570 0.169084 0.273156
0.989844 0.148754 0.250198
1.000000 0.139800 0.239161
0.000000 0.391209 0.354461
0.125608 0.391209 0.350200
0.260999 0.391209 0.338256
0.425053 0.374847 0.324641
0.568715 0.355514 0.306207
0.715221 0.337750 0.284994
0.864570 0.318122 0.261003
0.989844 0.299431 0.237463
1.000000 0.292748 0.225300
0.000000 0.530240 0.346605
0.114149 0.530240 0.331191
0.250961 0.530240 0.316340
0.412990 0.530240 0.310824
0.568715 0.519408 0.306207
0.715221 0.500107 0.284994
0.864570 0.481232 0.261003
0.989844 0.464505 0.237463
1.000000 0.461366 0.225300
0.000000 0.672114 0.339992
0.099911 0.672114 0.310958
0.238145 0.672114 0.294965
0.397170 0.672114 0.290167
0.561393 0.672114 0.290167
0.715221 0.662465 0.284994
0.864570 0.644341 0.261003
0.989844 0.629580 0.237463
1.000000 0.629985 0.225300
0.000000 0.816832 0.333957
0.082894 0.816832 0.288487
0.222550 0.816832 0.271364
0.381829 0.816832 0.266731
0.546013 0.816832 0.266731
0.710197 0.816832 0.266731
0.864570 0.807451 0.261003
0.989844 0.794655 0.237463
1.000000 0.798604 0.225300
0.000000 0.964394 0.328236
0.063098 0.964394 0.263488
0.204176 0.964394 0.245178
0.364745 0.964394 0.240517
0.530186 0.964394 0.240517
0.695626 0.964394 0.240517
0.861067 0.964394 0.240517
0.989844 0.959730 0.237463
1.000000 0.967223 0.225300
0.000000 1.000000 0.323797
0.054300 1.000000 0.250152
0.196800 1.000000 0.230306
0.360195 1.000000 0.225300
0.528814 1.000000 0.225300
0.697433 1.000000 0.225300
0.866052 1.000000 0.225300
1.000000 1.000000 0.225300
1.000000 1.000000 0.225300
0.021465 0.000000 0.491765
0.158277 0.000000 0.491765
0.295090 0.000000 0.491765
0.431902 0.000000 0.491765
0.568715 0.000000 0.491765
0.715221 0.000000 0.490774
0.864570 0.000000 0.489783
0.989844 0.000000 0.488791
1.000000 0.000000 0.487800
0.000000 0.102362 0.491765
0.124844 0.080291 0.491765
0.276854 0.080291 0.491765
0.428863 0.080291 0.491765
0.568715 0.071057 0.480295
0.715221 0.051632 0.463142
0.864570 0.029428 0.443570
0.989844 0.010156 0.426256
1.000000 0.000000 0.419735
0.000000 0.245882 0.491765
0.118766 0.227879 0.491765
0.265456 0.217103 0.491765
0.426964 0.217103 0.491765
0.568715 0.207869 0.475516
0.715221 0.189866 0.455015
0.864570 0.169084 0.433068
0.989844 0.148754 0.412501
1.000000 0.139800 0.404763
0.000000 0.389403 0.491765
0.118766 0.382652 0.491765
0.255578 0.373672 0.491765
0.418732 0.353916 0.491765
0.568715 0.344682 0.463910
0.715221 0.328100 0.440115
0.864570 0.308740 0.416387
0.989844 0.289832 0.394312
1.000000 0.282300 0.384966
0.000000 0.530240 0.489380
0.114149 0.530240 0.484976
0.250961 0.530240 0.480733
0.387774 0.530240 0.462346
0.568715 0.505867 0.443019
0.715221 0.481345 0.423229
0.864570 0.461129 0.400659
0.989844 0.443179 0.378541
1.000000 0.438154 0.367800
0.000000 0.672114 0.483455
0.099911 0.672114 0.466518
0.238145 0.672114 0.457189
0.376379 0.672114 0.436198
0.550255 0.672114 0.428401
0.715221 0.657104 0.423229
0.864570 0.632615 0.400659
0.989844 0.614930 0.378541
1.000000 0.614040 0.367800
0.000000 0.816832 0.478369
0.082894 0.816832 0.446272
0.222550 0.816832 0.434186
0.362206 0.816832 0.412803
0.529661 0.816832 0.406388
0.704065 0.816832 0.406388
0.864570 0.804101 0.400659
0.989844 0.786681 0.378541
1.000000 0.789925 0.367800
0.000000 0.964394 0.473740
0.063098 0.964394 0.423708
0.204176 0.964394 0.409559
0.345255 0.964394 0.387551
0.511555 0.964394 0.381595
0.684162 0.964394 0.381595
0.856768 0.964394 0.381595
0.989844 0.958432 0.378541
1.000000 0.965810 0.367800
0.000000 1.000000 0.470977
0.054300 1.000000 0.413361
0.196800 1.000000 0.397835
0.339300 1.000000 0.374125
0.508508 1.000000 0.367800
0.684394 1.000000 0.367800
0.860279 1.000000 0.367800
1.000000 1.000000 0.367800
1.000000 1.000000 0.367800
0.024049 0.000000 0.629008
0.162283 0.000000 0.629008
0.300517 0.000000 0.629008
0.438752 0.000000 0.629008
0.576986 0.000000 0.629008
0.715221 0.000000 0.629008
0.864570 0.000000 0.629439
0.989844 0.000000 0.629869
1.000000 0.000000 0.630300
0.000000 0.098564 0.629008
0.111439 0.061977 0.629008
0.265562 0.061977 0.629008
0.419685 0.061977 0.629008
0.573808 0.061977 0.629008
0.715221 0.051632 0.616727
0.864570 0.029428 0.599731
0.989844 0.010156 0.584732
1.000000 0.000000 0.581171
0.000000 0.242524 0.629008
0.105083 0.210936 0.629008
0.252118 0.200212 0.629008
0.412352 0.200212 0.629008
0.572586 0.200212 0.629008
0.715221 0.189866 0.613115
0.864570 0.169084 0.592979
0.989844 0.148754 0.574804
1.000000 0.139800 0.570365
0.000000 0.386484 0.629008
0.105083 0.367046 0.629008
0.243318 0.354046 0.629008
0.395852 0.338446 0.629008
0.569836 0.338446 0.629008
0.715221 0.328100 0.606493
0.864570 0.308740 0.582256
0.989844 0.289832 0.561676
1.000000 0.282300 0.556075
0.000000 0.530444 0.629008
0.105083 0.523155 0.629008
0.243318 0.518280 0.629008
0.381552 0.505280 0.629008
0.557920 0.476680 0.629008
0.715221 0.466335 0.590411
0.864570 0.448397 0.562596
0.989844 0.430910 0.540328
1.000000 0.424800 0.532840
0.000000 0.672114 0.626917
0.099911 0.672114 0.622078
0.238145 0.672114 0.619412
0.376379 0.672114 0.613415
0.514614 0.672114 0.587426
0.715221 0.638342 0.561463
0.864570 0.607858 0.540315
0.989844 0.588986 0.519619
1.000000 0.585801 0.510300
0.000000 0.816832 0.622781
0.082894 0.816832 0.604058
0.222550 0.816832 0.597007
0.362206 0.816832 0.584534
0.501863 0.816832 0.556468
0.689173 0.816832 0.546044
0.864570 0.797027 0.540315
0.989844 0.772560 0.519619
1.000000 0.774555 0.510300
0.000000 0.964394 0.619245
0.063098 0.964394 0.583928
0.204176 0.964394 0.573941
0.345255 0.964394 0.558405
0.486333 0.964394 0.530919
0.663143 0.964394 0.522673
0.848886 0.964394 0.522673
0.989844 0.956134 0.519619
1.000000 0.963309 0.510300
0.000000 1.000000 0.618157
0.054300 1.000000 0.576571
0.196800 1.000000 0.565364
0.339300 1.000000 0.548251
0.481800 1.000000 0.518889
0.661303 1.000000 0.510300
0.850057 1.000000 0.510300
1.000000 1.000000 0.510300
1.000000 1.000000 0.510300
0.026633 0.000000 0.769095
0.166289 0.000000 0.769095
0.305945 0.000000 0.769095
0.445601 0.000000 0.769095
0.585257 0.000000 0.769095
0.724914 0.000000 0.769095
0.864570 0.000000 0.769095
0.989844 0.000000 0.770948
1.000000 0.000000 0.772800
0.000000 0.094992 0.769095
0.095376 0.040885 0.769095
0.251916 0.040885 0.769095
0.408456 0.040885 0.769095
0.564997 0.040885 0.769095
0.721537 0.040885 0.769095
0.864570 0.029428 0.755892
0.989844 0.010156 0.743209
1.000000 0.000000 0.742608
0.000000 0.239770 0.769095
0.088622 0.191636 0.769095
0.236908 0.180541 0.769095
0.398138 0.180541 0.769095
0.559369 0.180541 0.769095
0.720599 0.180541 0.769095
0.864570 0.169084 0.752891
0.989844 0.148754 0.737107
1.000000 0.139800 0.735967
0.000000 0.384548 0.769095
0.088622 0.349785 0.769095
0.228279 0.334760 0.769095
0.379884 0.320197 0.769095
0.549411 0.320197 0.769095
0.718939 0.320197 0.769095
0.864570 0.308740 0.748125
0.989844 0.289832 0.729039
1.000000 0.282300 0.727185
0.000000 0.529325 0.769095
0.088622 0.507933 0.769095
0.228279 0.498687 0.769095
0.367935 0.481035 0.769095
0.527008 0.459854 0.769095
0.715205 0.459854 0.769095
0.864570 0.448397 0.739387
0.989844 0.430910 0.715919
1.000000 0.424800 0.712905
0.000000 0.674103 0.769095
0.088622 0.666081 0.769095
0.228279 0.662614 0.769095
0.367935 0.655994 0.769095
0.507591 0.638343 0.769095
0.699025 0.599510 0.769095
0.864570 0.588053 0.718167
0.989844 0.571988 0.690843
1.000000 0.567300 0.685611
0.000000 0.816832 0.767193
0.082894 0.816832 0.761843
0.222550 0.816832 0.759829
0.362206 0.816832 0.756265
0.501863 0.816832 0.748246
0.641519 0.816832 0.713498
0.864570 0.772271 0.679972
0.989844 0.740726 0.660698
1.000000 0.739906 0.652800
0.000000 0.964394 0.764750
0.063098 0.964394 0.744148
0.204176 0.964394 0.738323
0.345255 0.964394 0.729260
0.486333 0.964394 0.713227
0.627411 0.964394 0.677151
0.829744 0.964394 0.663751
0.989844 0.950953 0.660698
1.000000 0.957670 0.652800
0.000000 1.000000 0.765338
0.054300 1.000000 0.739781
0.196800 1.000000 0.732894
0.339300 1.000000 0.722376
0.481800 1.000000 0.704332
0.624300 1.000000 0.666175
0.827011 1.000000 0.652800
1.000000 1.000000 0.652800
1.000000 1.000000 0.652800
0.029216 0.000000 0.912026
0.170294 0.000000 0.912026
0.311372 0.000000 0.912026
0.452451 0.000000 0.912026
0.593529 0.000000 0.912026
0.734607 0.000000 0.912026
0.875685 0.000000 0.912026
0.989844 0.000000 0.912026
1.000000 0.000000 0.915300
0.000000 0.091537 0.912026
0.076591 0.017014 0.912026
0.235689 0.017014 0.912026
0.394787 0.017014 0.912026
0.553885 0.017014 0.912026
0.712983 0.017014 0.912026
0.872081 0.017014 0.912026
0.989844 0.010156 0.901685
1.000000 0.000000 0.904044
0.000000 0.237327 0.912026
0.069383 0.169736 0.912026
0.219236 0.158092 0.912026
0.382251 0.158092 0.912026
0.545267 0.158092 0.912026
0.708282 0.158092 0.912026
0.871298 0.158092 0.912026
0.989844 0.148754 0.899410
1.000000 0.139800 0.901569
0.000000 0.383118 0.912026
0.069383 0.330220 0.912026
0.210461 0.313586 0.912026
0.362751 0.299170 0.912026
0.531860 0.299170 0.912026
0.700970 0.299170 0.912026
0.870079 0.299170 0.912026
0.989844 0.289832 0.896402
1.000000 0.282300 0.898295
0.000000 0.528908 0.912026
0.069383 0.490704 0.912026
0.210461 0.478691 0.912026
0.351539 0.459169 0.912026
0.508142 0.440248 0.912026
0.688032 0.440248 0.912026
0.867923 0.440248 0.912026
0.989844 0.430910 0.891511
1.000000 0.424800 0.892971
0.000000 0.674698 0.912026
0.069383 0.651188 0.912026
0.210461 0.643796 0.912026
0.351539 0.631782 0.912026
0.492617 0.608848 0.912026
0.658923 0.581326 0.912026
0.863071 0.581326 0.912026
0.989844 0.571988 0.882163
1.000000 0.567300 0.882796
0.000000 0.820489 0.912026
0.069383 0.811673 0.912026
0.210461 0.808900 0.912026
0.351539 0.804395 0.912026
0.492617 0.795795 0.912026
0.633695 0.772860 0.912026
0.842048 0.722404 0.912026
0.989844 0.713066 0.857160
1.000000 0.709800 0.855582
0.000000 0.964394 0.910255
0.063098 0.964394 0.904369
0.204176 0.964394 0.902704
0.345255 0.964394 0.900115
0.486333 0.964394 0.895534
0.627411 0.964394 0.885227
0.768489 0.964394 0.840562
0.989844 0.928339 0.801776
1.000000 0.933056 0.795300
0.000000 1.000000 0.912518
0.054300 1.000000 0.902990
0.196800 1.000000 0.900423
0.339300 1.000000 0.896502
0.481800 1.000000 0.889775
0.624300 1.000000 0.875550
0.766800 1.000000 0.825512
1.000000 1.000000 0.795300
1.000000 1.000000 0.795300
0.031800 0.000000 1.000000
0.174300 0.000000 1.000000
0.316800 0.000000 1.000000
0.459300 0.000000 1.000000
0.601800 0.000000 1.000000
0.744300 0.000000 1.000000
0.886800 0.000000 1.000000
1.000000 0.000000 1.000000
1.000000 0.000000 1.000000
0.000000 0.088308 1.000000
0.064575 0.000000 1.000000
0.226011 0.000000 1.000000
0.387448 0.000000 1.000000
0.548884 0.000000 1.000000
0.710321 0.000000 1.000000
0.871757 0.000000 1.000000
1.000000 0.000000 1.000000
1.000000 0.000000 1.000000
0.000000 0.235489 1.000000
0.054300 0.152226 1.000000
0.206041 0.139800 1.000000
0.371643 0.139800 1.000000
0.537244 0.139800 1.000000
0.702846 0.139800 1.000000
0.868448 0.139800 1.000000
1.000000 0.139800 1.000000
1.000000 0.139800 1.000000
0.000000 0.382669 1.000000
0.054300 0.315436 1.000000
0.196800 0.297318 1.000000
0.350744 0.282300 1.000000
0.521854 0.282300 1.000000
0.692963 0.282300 1.000000
0.864073 0.282300 1.000000
1.000000 0.282300 1.000000
1.000000 0.282300 1.000000
0.000000 0.529849 1.000000
0.054300 0.478645 1.000000
0.196800 0.464847 1.000000
0.339300 0.443775 1.000000
0.496826 0.424800 1.000000
0.676892 0.424800 1.000000
0.856958 0.424800 1.000000
1.000000 0.424800 1.000000
1.000000 0.424800 1.000000
0.000000 0.677030 1.000000
0.054300 0.641855 1.000000
0.196800 0.632376 1.000000
0.339300 0.617901 1.000000
0.481800 0.593066 1.000000
0.646174 0.567300 1.000000
0.843359 0.567300 1.000000
1.000000 0.567300 1.000000
1.000000 0.567300 1.000000
0.000000 0.824210 1.000000
0.054300 0.805065 1.000000
0.196800 0.799905 1.000000
0.339300 0.792027 1.000000
0.481800 0.778509 1.000000
0.624300 0.749925 1.000000
0.806988 0.709800 1.000000
1.000000 0.709800 1.000000
1.000000 0.709800 1.000000
0.000000 0.971390 1.000000
0.054300 0.968274 1.000000
0.196800 0.967435 1.000000
0.339300 0.966152 1.000000
0.481800 0.963952 1.000000
0.624300 0.959300 1.000000
0.766800 0.942936 1.000000
1.000000 0.852300 1.000000
1.000000 0.852300 1.000000
0.000000 1.000000 1.000000
0.054300 1.000000 1.000000
0.196800 1.000000 1.000000
0.339300 1.000000 1.000000
0.481800 1.000000 1.000000
0.624300 1.000000 1.000000
0.766800 1.000000 1.000000
1.000000 0.880000 0.880000
1.000000 0.880000 0.880000
