luts/original/rollout-neon.cube
TITLE "Rollout Neon"
LUT_3D_SIZE 5
DOMAIN_MIN 0.0 0.0 0.0
DOMAIN_MAX 1.0 1.0 1.0
0.011130 0.000000 0.000000
0.284235 0.000000 0.000000
0.568715 0.000000 0.000000
0.864570 0.000000 0.000000
1.000000 0.000000 0.000000
0.016298 0.255022 0.000000
0.284235 0.255022 0.000000
0.568715 0.256615 0.000000
0.864570 0.258207 0.000000
1.000000 0.259800 0.000000
0.021465 0.530240 0.000000
0.295090 0.530240 0.000000
0.568715 0.530240 0.000000
0.864570 0.537520 0.000000
1.000000 0.544800 0.000000
0.026633 0.816832 0.000000
0.305945 0.816832 0.000000
0.585257 0.816832 0.000000
0.864570 0.816832 0.000000
1.000000 0.829800 0.000000
0.031800 1.000000 0.000000
0.316800 1.000000 0.000000
0.601800 1.000000 0.000000
0.886800 1.000000 0.000000
1.000000 1.000000 0.000000
0.016298 0.000000 0.225810
0.284235 0.000000 0.225810
0.568715 0.000000 0.218140
0.864570 0.000000 0.210470
1.000000 0.000000 0.202800
0.000320 0.255022 0.221816
0.284235 0.245281 0.206327
0.568715 0.214833 0.169394
0.864570 0.176511 0.121347
1.000000 0.148380 0.082800
0.000000 0.530240 0.203830
0.265671 0.530240 0.174011
0.568715 0.523276 0.169394
0.864570 0.492958 0.121347
1.000000 0.476280 0.082800
0.000000 0.816832 0.189544
0.237713 0.816832 0.127075
0.554932 0.816832 0.127075
0.864570 0.809406 0.121347
1.000000 0.804180 0.082800
0.000000 1.000000 0.176616
0.213960 1.000000 0.082800
0.541860 1.000000 0.082800
0.869760 1.000000 0.082800
1.000000 1.000000 0.082800
0.021465 0.000000 0.491765
0.295090 0.000000 0.491765
0.568715 0.000000 0.491765
0.864570 0.000000 0.489783
1.000000 0.000000 0.487800
0.000000 0.245882 0.491765
0.265456 0.217103 0.491765
0.568715 0.207869 0.475516
0.864570 0.169084 0.433068
1.000000 0.139800 0.404763
0.000000 0.530240 0.489380
0.250961 0.530240 0.480733
0.568715 0.505867 0.443019
0.864570 0.461129 0.400659
1.000000 0.438154 0.367800
0.000000 0.816832 0.478369
0.222550 0.816832 0.434186
0.529661 0.816832 0.406388
0.864570 0.804101 0.400659
1.000000 0.789925 0.367800
0.000000 1.000000 0.470977
0.196800 1.000000 0.397835
0.508508 1.000000 0.367800
0.860279 1.000000 0.367800
1.000000 1.000000 0.367800
0.026633 0.000000 0.769095
0.305945 0.000000 0.769095
0.585257 0.000000 0.769095
0.864570 0.000000 0.769095
1.000000 0.000000 0.772800
0.000000 0.239770 0.769095
0.236908 0.180541 0.769095
0.559369 0.180541 0.769095
0.864570 0.169084 0.752891
1.000000 0.139800 0.735967
0.000000 0.529325 0.769095
0.228279 0.498687 0.769095
0.527008 0.459854 0.769095
0.864570 0.448397 0.739387
1.000000 0.424800 0.712905
0.000000 0.816832 0.767193
0.222550 0.816832 0.759829
0.501863 0.816832 0.748246
0.864570 0.772271 0.679972
1.000000 0.739906 0.652800
0.000000 1.000000 0.765338
0.196800 1.000000 0.732894
0.481800 1.000000 0.704332
0.827011 1.000000 0.652800
1.000000 1.000000 0.652800
0.031800 0.000000 1.000000
0.316800 0.000000 1.000000
0.601800 0.000000 1.000000
0.886800 0.000000 1.000000
1.000000 0.000000 1.000000
0.000000 0.235489 1.000000
0.206041 0.139800 1.000000
0.537244 0.139800 1.000000
0.868448 0.139800 1.000000
1.000000 0.139800 1.000000
0.000000 0.529849 1.000000
0.196800 0.464847 1.000000
0.496826 0.424800 1.000000
0.856958 0.424800 1.000000
1.000000 0.424800 1.000000
0.000000 0.824210 1.000000
0.196800 0.799905 1.000000
0.481800 0.778509 1.000000
0.806988 0.709800 1.000000
1.000000 0.709800 1.000000
0.000000 1.000000 1.000000
0.196800 1.000000 1.000000
0.481800 1.000000 1.000000
0.766800 1.000000 1.000000
1.000000 0.880000 0.880000
