luts/original/rollout-neon.cube
TITLE "Rollout Neon"
LUT_3D_SIZE 33
DOMAIN_MIN 0.0 0.0 0.0
DOMAIN_MAX 1.0 1.0 1.0
0.011130 0.000000 0.000000
0.044646 0.000000 0.000000
0.078340 0.000000 0.000000
0.112211 0.000000 0.000000
0.146261 0.000000 0.000000
0.180488 0.000000 0.000000
0.214892 0.000000 0.000000
0.249475 0.000000 0.000000
0.284235 0.000000 0.000000
0.319173 0.000000 0.000000
0.354289 0.000000 0.000000
0.389582 0.000000 0.000000
0.425053 0.000000 0.000000
0.460702 0.000000 0.000000
0.496529 0.000000 0.000000
0.532533 0.000000 0.000000
0.568715 0.000000 0.000000
0.605075 0.000000 0.000000
0.641612 0.000000 0.000000
0.678328 0.000000 0.000000
0.715221 0.000000 0.000000
0.752291 0.000000 0.000000
0.789540 0.000000 0.000000
0.826966 0.000000 0.000000
0.864570 0.000000 0.000000
0.902352 0.000000 0.000000
0.940311 0.000000 0.000000
0.978448 0.000000 0.000000
0.989844 0.000000 0.000000
0.994287 0.000000 0.000000
0.997461 0.000000 0.000000
0.999365 0.000000 0.000000
1.000000 0.000000 0.000000
0.011776 0.023538 0.000000
0.044646 0.023538 0.000000
0.078340 0.023115 0.000000
0.112211 0.022692 0.000000
0.146261 0.022269 0.000000
0.180488 0.021846 0.000000
0.214892 0.021423 0.000000
0.249475 0.021000 0.000000
0.284235 0.020577 0.000000
0.319173 0.020154 0.000000
0.354289 0.019731 0.000000
0.389582 0.019308 0.000000
0.425053 0.018885 0.000000
0.460702 0.018462 0.000000
0.496529 0.018039 0.000000
0.532533 0.017616 0.000000
0.568715 0.017193 0.000000
0.605075 0.016770 0.000000
0.641612 0.016347 0.000000
0.678328 0.015924 0.000000
0.715221 0.015501 0.000000
0.752291 0.015078 0.000000
0.789540 0.014655 0.000000
0.826966 0.014232 0.000000
0.864570 0.013809 0.000000
0.902352 0.013386 0.000000
0.940311 0.012963 0.000000
0.978448 0.012540 0.000000
0.989844 0.012117 0.000000
0.994287 0.011694 0.000000
0.997461 0.011271 0.000000
0.999365 0.010848 0.000000
1.000000 0.010425 0.000000
0.012422 0.056074 0.000000
0.045381 0.056074 0.000000
0.078340 0.056074 0.000000
0.112211 0.055740 0.000000
0.146261 0.055406 0.000000
0.180488 0.055072 0.000000
0.214892 0.054738 0.000000
0.249475 0.054404 0.000000
0.284235 0.054069 0.000000
0.319173 0.053735 0.000000
0.354289 0.053401 0.000000
0.389582 0.053067 0.000000
0.425053 0.052733 0.000000
0.460702 0.052399 0.000000
0.496529 0.052065 0.000000
0.532533 0.051730 0.000000
0.568715 0.051396 0.000000
0.605075 0.051062 0.000000
0.641612 0.050728 0.000000
0.678328 0.050394 0.000000
0.715221 0.050060 0.000000
0.752291 0.049726 0.000000
0.789540 0.049391 0.000000
0.826966 0.049057 0.000000
0.864570 0.048723 0.000000
0.902352 0.048389 0.000000
0.940311 0.048055 0.000000
0.978448 0.047721 0.000000
0.989844 0.047387 0.000000
0.994287 0.047052 0.000000
0.997461 0.046718 0.000000
0.999365 0.046384 0.000000
1.000000 0.046050 0.000000
0.013068 0.088788 0.000000
0.046116 0.088788 0.000000
0.079164 0.088788 0.000000
0.112211 0.088788 0.000000
0.146261 0.088543 0.000000
0.180488 0.088297 0.000000
0.214892 0.088052 0.000000
0.249475 0.087807 0.000000
0.284235 0.087562 0.000000
0.319173 0.087316 0.000000
0.354289 0.087071 0.000000
0.389582 0.086826 0.000000
0.425053 0.086580 0.000000
0.460702 0.086335 0.000000
0.496529 0.086090 0.000000
0.532533 0.085845 0.000000
0.568715 0.085599 0.000000
0.605075 0.085354 0.000000
0.641612 0.085109 0.000000
0.678328 0.084864 0.000000
0.715221 0.084618 0.000000
0.752291 0.084373 0.000000
0.789540 0.084128 0.000000
0.826966 0.083882 0.000000
0.864570 0.083637 0.000000
0.902352 0.083392 0.000000
0.940311 0.083147 0.000000
0.978448 0.082901 0.000000
0.989844 0.082656 0.000000
0.994287 0.082411 0.000000
0.997461 0.082166 0.000000
0.999365 0.081920 0.000000
1.000000 0.081675 0.000000
0.013714 0.121679 0.000000
0.046850 0.121679 0.000000
0.079987 0.121679 0.000000
0.113124 0.121679 0.000000
0.146261 0.121679 0.000000
0.180488 0.121523 0.000000
0.214892 0.121367 0.000000
0.249475 0.121210 0.000000
0.284235 0.121054 0.000000
0.319173 0.120897 0.000000
0.354289 0.120741 0.000000
0.389582 0.120585 0.000000
0.425053 0.120428 0.000000
0.460702 0.120272 0.000000
0.496529 0.120115 0.000000
0.532533 0.119959 0.000000
0.568715 0.119802 0.000000
0.605075 0.119646 0.000000
0.641612 0.119490 0.000000
0.678328 0.119333 0.000000
0.715221 0.119177 0.000000
0.752291 0.119020 0.000000
0.789540 0.118864 0.000000
0.826966 0.118708 0.000000
0.864570 0.118551 0.000000
0.902352 0.118395 0.000000
0.940311 0.118238 0.000000
0.978448 0.118082 0.000000
0.989844 0.117926 0.000000
0.994287 0.117769 0.000000
0.997461 0.117613 0.000000
0.999365 0.117456 0.000000
1.000000 0.117300 0.000000
0.014360 0.154749 0.000000
0.047585 0.154749 0.000000
0.080811 0.154749 0.000000
0.114036 0.154749 0.000000
0.147262 0.154749 0.000000
0.180488 0.154749 0.000000
0.214892 0.154681 0.000000
0.249475 0.154613 0.000000
0.284235 0.154546 0.000000
0.319173 0.154478 0.000000
0.354289 0.154411 0.000000
0.389582 0.154343 0.000000
0.425053 0.154276 0.000000
0.460702 0.154208 0.000000
0.496529 0.154141 0.000000
0.532533 0.154073 0.000000
0.568715 0.154006 0.000000
0.605075 0.153938 0.000000
0.641612 0.153871 0.000000
0.678328 0.153803 0.000000
0.715221 0.153735 0.000000
0.752291 0.153668 0.000000
0.789540 0.153600 0.000000
0.826966 0.153533 0.000000
0.864570 0.153465 0.000000
0.902352 0.153398 0.000000
0.940311 0.153330 0.000000
0.978448 0.153263 0.000000
0.989844 0.153195 0.000000
0.994287 0.153128 0.000000
0.997461 0.153060 0.000000
0.999365 0.152993 0.000000
1.000000 0.152925 0.000000
0.015006 0.187995 0.000000
0.048320 0.187995 0.000000
0.081635 0.187995 0.000000
0.114949 0.187995 0.000000
0.148263 0.187995 0.000000
0.181578 0.187995 0.000000
0.214892 0.187995 0.000000
0.249475 0.188017 0.000000
0.284235 0.188038 0.000000
0.319173 0.188059 0.000000
0.354289 0.188081 0.000000
0.389582 0.188102 0.000000
0.425053 0.188123 0.000000
0.460702 0.188145 0.000000
0.496529 0.188166 0.000000
0.532533 0.188187 0.000000
0.568715 0.188209 0.000000
0.605075 0.188230 0.000000
0.641612 0.188251 0.000000
0.678328 0.188273 0.000000
0.715221 0.188294 0.000000
0.752291 0.188315 0.000000
0.789540 0.188337 0.000000
0.826966 0.188358 0.000000
0.864570 0.188379 0.000000
0.902352 0.188401 0.000000
0.940311 0.188422 0.000000
0.978448 0.188443 0.000000
0.989844 0.188465 0.000000
0.994287 0.188486 0.000000
0.997461 0.188507 0.000000
0.999365 0.188529 0.000000
1.000000 0.188550 0.000000
0.015652 0.221420 0.000000
0.049055 0.221420 0.000000
0.082458 0.221420 0.000000
0.115862 0.221420 0.000000
0.149265 0.221420 0.000000
0.182668 0.221420 0.000000
0.216071 0.221420 0.000000
0.249475 0.221420 0.000000
0.284235 0.221530 0.000000
0.319173 0.221641 0.000000
0.354289 0.221751 0.000000
0.389582 0.221861 0.000000
0.425053 0.221971 0.000000
0.460702 0.222081 0.000000
0.496529 0.222191 0.000000
0.532533 0.222302 0.000000
0.568715 0.222412 0.000000
0.605075 0.222522 0.000000
0.641612 0.222632 0.000000
0.678328 0.222742 0.000000
0.715221 0.222853 0.000000
0.752291 0.222963 0.000000
0.789540 0.223073 0.000000
0.826966 0.223183 0.000000
0.864570 0.223293 0.000000
0.902352 0.223404 0.000000
0.940311 0.223514 0.000000
0.978448 0.223624 0.000000
0.989844 0.223734 0.000000
0.994287 0.223844 0.000000
0.997461 0.223955 0.000000
0.999365 0.224065 0.000000
1.000000 0.224175 0.000000
0.016298 0.255022 0.000000
0.049790 0.255022 0.000000
0.083282 0.255022 0.000000
0.116774 0.255022 0.000000
0.150266 0.255022 0.000000
0.183758 0.255022 0.000000
0.217251 0.255022 0.000000
0.250743 0.255022 0.000000
0.284235 0.255022 0.000000
0.319173 0.255222 0.000000
0.354289 0.255421 0.000000
0.389582 0.255620 0.000000
0.425053 0.255819 0.000000
0.460702 0.256018 0.000000
0.496529 0.256217 0.000000
0.532533 0.256416 0.000000
0.568715 0.256615 0.000000
0.605075 0.256814 0.000000
0.641612 0.257013 0.000000
0.678328 0.257212 0.000000
0.715221 0.257411 0.000000
0.752291 0.257610 0.000000
0.789540 0.257809 0.000000
0.826966 0.258008 0.000000
0.864570 0.258207 0.000000
0.902352 0.258407 0.000000
0.940311 0.258606 0.000000
0.978448 0.258805 0.000000
0.989844 0.259004 0.000000
0.994287 0.259203 0.000000
0.997461 0.259402 0.000000
0.999365 0.259601 0.000000
1.000000 0.259800 0.000000
0.016943 0.288803 0.000000
0.050524 0.288803 0.000000
0.084106 0.288803 0.000000
0.117687 0.288803 0.000000
0.151268 0.288803 0.000000
0.184849 0.288803 0.000000
0.218430 0.288803 0.000000
0.252011 0.288803 0.000000
0.285592 0.288803 0.000000
0.319173 0.288803 0.000000
0.354289 0.289091 0.000000
0.389582 0.289378 0.000000
0.425053 0.289666 0.000000
0.460702 0.289954 0.000000
0.496529 0.290242 0.000000
0.532533 0.290530 0.000000
0.568715 0.290818 0.000000
0.605075 0.291106 0.000000
0.641612 0.291394 0.000000
0.678328 0.291682 0.000000
0.715221 0.291970 0.000000
0.752291 0.292258 0.000000
0.789540 0.292546 0.000000
0.826966 0.292834 0.000000
0.864570 0.293122 0.000000
0.902352 0.293409 0.000000
0.940311 0.293697 0.000000
0.978448 0.293985 0.000000
0.989844 0.294273 0.000000
0.994287 0.294561 0.000000
0.997461 0.294849 0.000000
0.999365 0.295137 0.000000
1.000000 0.295425 0.000000
0.017589 0.322760 0.000000
0.051259 0.322760 0.000000
0.084929 0.322760 0.000000
0.118599 0.322760 0.000000
0.152269 0.322760 0.000000
0.185939 0.322760 0.000000
0.219609 0.322760 0.000000
0.253279 0.322760 0.000000
0.286949 0.322760 0.000000
0.320619 0.322760 0.000000
0.354289 0.322760 0.000000
0.389582 0.323137 0.000000
0.425053 0.323514 0.000000
0.460702 0.323891 0.000000
0.496529 0.324268 0.000000
0.532533 0.324644 0.000000
0.568715 0.325021 0.000000
0.605075 0.325398 0.000000
0.641612 0.325775 0.000000
0.678328 0.326152 0.000000
0.715221 0.326528 0.000000
0.752291 0.326905 0.000000
0.789540 0.327282 0.000000
0.826966 0.327659 0.000000
0.864570 0.328036 0.000000
0.902352 0.328412 0.000000
0.940311 0.328789 0.000000
0.978448 0.329166 0.000000
0.989844 0.329543 0.000000
0.994287 0.329920 0.000000
0.997461 0.330296 0.000000
0.999365 0.330673 0.000000
1.000000 0.331050 0.000000
0.018235 0.356896 0.000000
0.051994 0.356896 0.000000
0.085753 0.356896 0.000000
0.119512 0.356896 0.000000
0.153270 0.356896 0.000000
0.187029 0.356896 0.000000
0.220788 0.356896 0.000000
0.254547 0.356896 0.000000
0.288306 0.356896 0.000000
0.322064 0.356896 0.000000
0.355823 0.356896 0.000000
0.389582 0.356896 0.000000
0.425053 0.357362 0.000000
0.460702 0.357827 0.000000
0.496529 0.358293 0.000000
0.532533 0.358759 0.000000
0.568715 0.359224 0.000000
0.605075 0.359690 0.000000
0.641612 0.360156 0.000000
0.678328 0.360621 0.000000
0.715221 0.361087 0.000000
0.752291 0.361553 0.000000
0.789540 0.362018 0.000000
0.826966 0.362484 0.000000
0.864570 0.362950 0.000000
0.902352 0.363415 0.000000
0.940311 0.363881 0.000000
0.978448 0.364347 0.000000
0.989844 0.364812 0.000000
0.994287 0.365278 0.000000
0.997461 0.365744 0.000000
0.999365 0.366209 0.000000
1.000000 0.366675 0.000000
0.018881 0.391209 0.000000
0.052729 0.391209 0.000000
0.086577 0.391209 0.000000
0.120424 0.391209 0.000000
0.154272 0.391209 0.000000
0.188120 0.391209 0.000000
0.221967 0.391209 0.000000
0.255815 0.391209 0.000000
0.289663 0.391209 0.000000
0.323510 0.391209 0.000000
0.357358 0.391209 0.000000
0.391205 0.391209 0.000000
0.425053 0.391209 0.000000
0.460702 0.391764 0.000000
0.496529 0.392318 0.000000
0.532533 0.392873 0.000000
0.568715 0.393427 0.000000
0.605075 0.393982 0.000000
0.641612 0.394537 0.000000
0.678328 0.395091 0.000000
0.715221 0.395646 0.000000
0.752291 0.396200 0.000000
0.789540 0.396755 0.000000
0.826966 0.397309 0.000000
0.864570 0.397864 0.000000
0.902352 0.398418 0.000000
0.940311 0.398973 0.000000
0.978448 0.399527 0.000000
0.989844 0.400082 0.000000
0.994287 0.400636 0.000000
0.997461 0.401191 0.000000
0.999365 0.401745 0.000000
1.000000 0.402300 0.000000
0.019527 0.425700 0.000000
0.053464 0.425700 0.000000
0.087400 0.425700 0.000000
0.121337 0.425700 0.000000
0.155273 0.425700 0.000000
0.189210 0.425700 0.000000
0.223146 0.425700 0.000000
0.257083 0.425700 0.000000
0.291019 0.425700 0.000000
0.324956 0.425700 0.000000
0.358892 0.425700 0.000000
0.392829 0.425700 0.000000
0.426765 0.425700 0.000000
0.460702 0.425700 0.000000
0.496529 0.426344 0.000000
0.532533 0.426987 0.000000
0.568715 0.427631 0.000000
0.605075 0.428274 0.000000
0.641612 0.428917 0.000000
0.678328 0.429561 0.000000
0.715221 0.430204 0.000000
0.752291 0.430848 0.000000
0.789540 0.431491 0.000000
0.826966 0.432134 0.000000
0.864570 0.432778 0.000000
0.902352 0.433421 0.000000
0.940311 0.434065 0.000000
0.978448 0.434708 0.000000
0.989844 0.435351 0.000000
0.994287 0.435995 0.000000
0.997461 0.436638 0.000000
0.999365 0.437282 0.000000
1.000000 0.437925 0.000000
0.020173 0.460369 0.000000
0.054199 0.460369 0.000000
0.088224 0.460369 0.000000
0.122249 0.460369 0.000000
0.156275 0.460369 0.000000
0.190300 0.460369 0.000000
0.224325 0.460369 0.000000
0.258351 0.460369 0.000000
0.292376 0.460369 0.000000
0.326402 0.460369 0.000000
0.360427 0.460369 0.000000
0.394452 0.460369 0.000000
0.428478 0.460369 0.000000
0.462503 0.460369 0.000000
0.496529 0.460369 0.000000
0.532533 0.461101 0.000000
0.568715 0.461834 0.000000
0.605075 0.462566 0.000000
0.641612 0.463298 0.000000
0.678328 0.464031 0.000000
0.715221 0.464763 0.000000
0.752291 0.465495 0.000000
0.789540 0.466227 0.000000
0.826966 0.466960 0.000000
0.864570 0.467692 0.000000
0.902352 0.468424 0.000000
0.940311 0.469156 0.000000
0.978448 0.469889 0.000000
0.989844 0.470621 0.000000
0.994287 0.471353 0.000000
0.997461 0.472085 0.000000
0.999365 0.472818 0.000000
1.000000 0.473550 0.000000
0.020819 0.495216 0.000000
0.054933 0.495216 0.000000
0.089048 0.495216 0.000000
0.123162 0.495216 0.000000
0.157276 0.495216 0.000000
0.191390 0.495216 0.000000
0.225505 0.495216 0.000000
0.259619 0.495216 0.000000
0.293733 0.495216 0.000000
0.327847 0.495216 0.000000
0.361962 0.495216 0.000000
0.396076 0.495216 0.000000
0.430190 0.495216 0.000000
0.464304 0.495216 0.000000
0.498419 0.495216 0.000000
0.532533 0.495216 0.000000
0.568715 0.496037 0.000000
0.605075 0.496858 0.000000
0.641612 0.497679 0.000000
0.678328 0.498500 0.000000
0.715221 0.499321 0.000000
0.752291 0.500143 0.000000
0.789540 0.500964 0.000000
0.826966 0.501785 0.000000
0.864570 0.502606 0.000000
0.902352 0.503427 0.000000
0.940311 0.504248 0.000000
0.978448 0.505069 0.000000
0.989844 0.505890 0.000000
0.994287 0.506712 0.000000
0.997461 0.507533 0.000000
0.999365 0.508354 0.000000
1.000000 0.509175 0.000000
0.021465 0.530240 0.000000
0.055668 0.530240 0.000000
0.089871 0.530240 0.000000
0.124074 0.530240 0.000000
0.158277 0.530240 0.000000
0.192481 0.530240 0.000000
0.226684 0.530240 0.000000
0.260887 0.530240 0.000000
0.295090 0.530240 0.000000
0.329293 0.530240 0.000000
0.363496 0.530240 0.000000
0.397699 0.530240 0.000000
0.431902 0.530240 0.000000
0.466106 0.530240 0.000000
0.500309 0.530240 0.000000
0.534512 0.530240 0.000000
0.568715 0.530240 0.000000
0.605075 0.531150 0.000000
0.641612 0.532060 0.000000
0.678328 0.532970 0.000000
0.715221 0.533880 0.000000
0.752291 0.534790 0.000000
0.789540 0.535700 0.000000
0.826966 0.536610 0.000000
0.864570 0.537520 0.000000
0.902352 0.538430 0.000000
0.940311 0.539340 0.000000
0.978448 0.540250 0.000000
0.989844 0.541160 0.000000
0.994287 0.542070 0.000000
0.997461 0.542980 0.000000
0.999365 0.543890 0.000000
1.000000 0.544800 0.000000
0.022111 0.565442 0.000000
0.056403 0.565442 0.000000
0.090695 0.565442 0.000000
0.124987 0.565442 0.000000
0.159279 0.565442 0.000000
0.193571 0.565442 0.000000
0.227863 0.565442 0.000000
0.262155 0.565442 0.000000
0.296447 0.565442 0.000000
0.330739 0.565442 0.000000
0.365031 0.565442 0.000000
0.399323 0.565442 0.000000
0.433615 0.565442 0.000000
0.467907 0.565442 0.000000
0.502199 0.565442 0.000000
0.536491 0.565442 0.000000
0.570783 0.565442 0.000000
0.605075 0.565442 0.000000
0.641612 0.566441 0.000000
0.678328 0.567440 0.000000
0.715221 0.568439 0.000000
0.752291 0.569437 0.000000
0.789540 0.570436 0.000000
0.826966 0.571435 0.000000
0.864570 0.572434 0.000000
0.902352 0.573433 0.000000
0.940311 0.574432 0.000000
0.978448 0.575431 0.000000
0.989844 0.576430 0.000000
0.994287 0.577428 0.000000
0.997461 0.578427 0.000000
0.999365 0.579426 0.000000
1.000000 0.580425 0.000000
0.022757 0.600822 0.000000
0.057138 0.600822 0.000000
0.091519 0.600822 0.000000
0.125899 0.600822 0.000000
0.160280 0.600822 0.000000
0.194661 0.600822 0.000000
0.229042 0.600822 0.000000
0.263423 0.600822 0.000000
0.297804 0.600822 0.000000
0.332185 0.600822 0.000000
0.366565 0.600822 0.000000
0.400946 0.600822 0.000000
0.435327 0.600822 0.000000
0.469708 0.600822 0.000000
0.504089 0.600822 0.000000
0.538470 0.600822 0.000000
0.572851 0.600822 0.000000
0.607231 0.600822 0.000000
0.641612 0.600822 0.000000
0.678328 0.601909 0.000000
0.715221 0.602997 0.000000
0.752291 0.604085 0.000000
0.789540 0.605173 0.000000
0.826966 0.606260 0.000000
0.864570 0.607348 0.000000
0.902352 0.608436 0.000000
0.940311 0.609524 0.000000
0.978448 0.610611 0.000000
0.989844 0.611699 0.000000
0.994287 0.612787 0.000000
0.997461 0.613875 0.000000
0.999365 0.614962 0.000000
1.000000 0.616050 0.000000
0.023403 0.636379 0.000000
0.057873 0.636379 0.000000
0.092342 0.636379 0.000000
0.126812 0.636379 0.000000
0.161282 0.636379 0.000000
0.195751 0.636379 0.000000
0.230221 0.636379 0.000000
0.264691 0.636379 0.000000
0.299161 0.636379 0.000000
0.333630 0.636379 0.000000
0.368100 0.636379 0.000000
0.402570 0.636379 0.000000
0.437040 0.636379 0.000000
0.471509 0.636379 0.000000
0.505979 0.636379 0.000000
0.540449 0.636379 0.000000
0.574918 0.636379 0.000000
0.609388 0.636379 0.000000
0.643858 0.636379 0.000000
0.678328 0.636379 0.000000
0.715221 0.637556 0.000000
0.752291 0.638732 0.000000
0.789540 0.639909 0.000000
0.826966 0.641086 0.000000
0.864570 0.642262 0.000000
0.902352 0.643439 0.000000
0.940311 0.644615 0.000000
0.978448 0.645792 0.000000
0.989844 0.646969 0.000000
0.994287 0.648145 0.000000
0.997461 0.649322 0.000000
0.999365 0.650498 0.000000
1.000000 0.651675 0.000000
0.024049 0.672114 0.000000
0.058607 0.672114 0.000000
0.093166 0.672114 0.000000
0.127725 0.672114 0.000000
0.162283 0.672114 0.000000
0.196842 0.672114 0.000000
0.231400 0.672114 0.000000
0.265959 0.672114 0.000000
0.300517 0.672114 0.000000
0.335076 0.672114 0.000000
0.369635 0.672114 0.000000
0.404193 0.672114 0.000000
0.438752 0.672114 0.000000
0.473310 0.672114 0.000000
0.507869 0.672114 0.000000
0.542428 0.672114 0.000000
0.576986 0.672114 0.000000
0.611545 0.672114 0.000000
0.646103 0.672114 0.000000
0.680662 0.672114 0.000000
0.715221 0.672114 0.000000
0.752291 0.673380 0.000000
0.789540 0.674645 0.000000
0.826966 0.675911 0.000000
0.864570 0.677176 0.000000
0.902352 0.678442 0.000000
0.940311 0.679707 0.000000
0.978448 0.680973 0.000000
0.989844 0.682238 0.000000
0.994287 0.683504 0.000000
0.997461 0.684769 0.000000
0.999365 0.686035 0.000000
1.000000 0.687300 0.000000
0.024695 0.708027 0.000000
0.059342 0.708027 0.000000
0.093990 0.708027 0.000000
0.128637 0.708027 0.000000
0.163285 0.708027 0.000000
0.197932 0.708027 0.000000
0.232579 0.708027 0.000000
0.267227 0.708027 0.000000
0.301874 0.708027 0.000000
0.336522 0.708027 0.000000
0.371169 0.708027 0.000000
0.405817 0.708027 0.000000
0.440464 0.708027 0.000000
0.475112 0.708027 0.000000
0.509759 0.708027 0.000000
0.544407 0.708027 0.000000
0.579054 0.708027 0.000000
0.613702 0.708027 0.000000
0.648349 0.708027 0.000000
0.682996 0.708027 0.000000
0.717644 0.708027 0.000000
0.752291 0.708027 0.000000
0.789540 0.709382 0.000000
0.826966 0.710736 0.000000
0.864570 0.712090 0.000000
0.902352 0.713445 0.000000
0.940311 0.714799 0.000000
0.978448 0.716153 0.000000
0.989844 0.717508 0.000000
0.994287 0.718862 0.000000
0.997461 0.720216 0.000000
0.999365 0.721571 0.000000
1.000000 0.722925 0.000000
0.025341 0.744118 0.000000
0.060077 0.744118 0.000000
0.094813 0.744118 0.000000
0.129550 0.744118 0.000000
0.164286 0.744118 0.000000
0.199022 0.744118 0.000000
0.233759 0.744118 0.000000
0.268495 0.744118 0.000000
0.303231 0.744118 0.000000
0.337968 0.744118 0.000000
0.372704 0.744118 0.000000
0.407440 0.744118 0.000000
0.442177 0.744118 0.000000
0.476913 0.744118 0.000000
0.511649 0.744118 0.000000
0.546386 0.744118 0.000000
0.581122 0.744118 0.000000
0.615858 0.744118 0.000000
0.650595 0.744118 0.000000
0.685331 0.744118 0.000000
0.720067 0.744118 0.000000
0.754804 0.744118 0.000000
0.789540 0.744118 0.000000
0.826966 0.745561 0.000000
0.864570 0.747004 0.000000
0.902352 0.748448 0.000000
0.940311 0.749891 0.000000
0.978448 0.751334 0.000000
0.989844 0.752777 0.000000
0.994287 0.754220 0.000000
0.997461 0.755664 0.000000
0.999365 0.757107 0.000000
1.000000 0.758550 0.000000
0.025987 0.780386 0.000000
0.060812 0.780386 0.000000
0.095637 0.780386 0.000000
0.130462 0.780386 0.000000
0.165287 0.780386 0.000000
0.200113 0.780386 0.000000
0.234938 0.780386 0.000000
0.269763 0.780386 0.000000
0.304588 0.780386 0.000000
0.339413 0.780386 0.000000
0.374239 0.780386 0.000000
0.409064 0.780386 0.000000
0.443889 0.780386 0.000000
0.478714 0.780386 0.000000
0.513539 0.780386 0.000000
0.548365 0.780386 0.000000
0.583190 0.780386 0.000000
0.618015 0.780386 0.000000
0.652840 0.780386 0.000000
0.687665 0.780386 0.000000
0.722490 0.780386 0.000000
0.757316 0.780386 0.000000
0.792141 0.780386 0.000000
0.826966 0.780386 0.000000
0.864570 0.781918 0.000000
0.902352 0.783450 0.000000
0.940311 0.784983 0.000000
0.978448 0.786515 0.000000
0.989844 0.788047 0.000000
0.994287 0.789579 0.000000
0.997461 0.791111 0.000000
0.999365 0.792643 0.000000
1.000000 0.794175 0.000000
0.026633 0.816832 0.000000
0.061547 0.816832 0.000000
0.096461 0.816832 0.000000
0.131375 0.816832 0.000000
0.166289 0.816832 0.000000
0.201203 0.816832 0.000000
0.236117 0.816832 0.000000
0.271031 0.816832 0.000000
0.305945 0.816832 0.000000
0.340859 0.816832 0.000000
0.375773 0.816832 0.000000
0.410687 0.816832 0.000000
0.445601 0.816832 0.000000
0.480515 0.816832 0.000000
0.515429 0.816832 0.000000
0.550343 0.816832 0.000000
0.585257 0.816832 0.000000
0.620172 0.816832 0.000000
0.655086 0.816832 0.000000
0.690000 0.816832 0.000000
0.724914 0.816832 0.000000
0.759828 0.816832 0.000000
0.794742 0.816832 0.000000
0.829656 0.816832 0.000000
0.864570 0.816832 0.000000
0.902352 0.818453 0.000000
0.940311 0.820074 0.000000
0.978448 0.821695 0.000000
0.989844 0.823316 0.000000
0.994287 0.824937 0.000000
0.997461 0.826558 0.000000
0.999365 0.828179 0.000000
1.000000 0.829800 0.000000
0.027278 0.853456 0.000000
0.062281 0.853456 0.000000
0.097284 0.853456 0.000000
0.132287 0.853456 0.000000
0.167290 0.853456 0.000000
0.202293 0.853456 0.000000
0.237296 0.853456 0.000000
0.272299 0.853456 0.000000
0.307302 0.853456 0.000000
0.342305 0.853456 0.000000
0.377308 0.853456 0.000000
0.412311 0.853456 0.000000
0.447314 0.853456 0.000000
0.482317 0.853456 0.000000
0.517319 0.853456 0.000000
0.552322 0.853456 0.000000
0.587325 0.853456 0.000000
0.622328 0.853456 0.000000
0.657331 0.853456 0.000000
0.692334 0.853456 0.000000
0.727337 0.853456 0.000000
0.762340 0.853456 0.000000
0.797343 0.853456 0.000000
0.832346 0.853456 0.000000
0.867349 0.853456 0.000000
0.902352 0.853456 0.000000
0.940311 0.855166 0.000000
0.978448 0.856876 0.000000
0.989844 0.858586 0.000000
0.994287 0.860296 0.000000
0.997461 0.862005 0.000000
0.999365 0.863715 0.000000
1.000000 0.865425 0.000000
0.027924 0.890258 0.000000
0.063016 0.890258 0.000000
0.098108 0.890258 0.000000
0.133200 0.890258 0.000000
0.168292 0.890258 0.000000
0.203383 0.890258 0.000000
0.238475 0.890258 0.000000
0.273567 0.890258 0.000000
0.308659 0.890258 0.000000
0.343751 0.890258 0.000000
0.378842 0.890258 0.000000
0.413934 0.890258 0.000000
0.449026 0.890258 0.000000
0.484118 0.890258 0.000000
0.519210 0.890258 0.000000
0.554301 0.890258 0.000000
0.589393 0.890258 0.000000
0.624485 0.890258 0.000000
0.659577 0.890258 0.000000
0.694669 0.890258 0.000000
0.729760 0.890258 0.000000
0.764852 0.890258 0.000000
0.799944 0.890258 0.000000
0.835036 0.890258 0.000000
0.870127 0.890258 0.000000
0.905219 0.890258 0.000000
0.940311 0.890258 0.000000
