luts/original/runway-cool.cube
TITLE "Runway Cool"
LUT_3D_SIZE 9
DOMAIN_MIN 0.0 0.0 0.0
DOMAIN_MAX 1.0 1.0 1.0
0.002791 0.002791 0.012241
0.114155 0.006189 0.017833
0.237018 0.013668 0.027506
0.359852 0.023149 0.039180
0.482656 0.034631 0.052856
0.605431 0.048115 0.068534
0.728176 0.063601 0.086213
0.850891 0.081088 0.105895
0.973577 0.100577 0.127577
0.007342 0.126952 0.018986
0.115676 0.126912 0.020240
0.236809 0.132821 0.028834
0.359608 0.141727 0.040717
0.482378 0.152504 0.054603
0.605119 0.165238 0.070491
0.727830 0.179953 0.088380
0.850512 0.196660 0.108271
0.973164 0.215361 0.130164
0.014894 0.252081 0.028731
0.120685 0.252033 0.030220
0.238345 0.251972 0.030160
0.359372 0.258362 0.040481
0.482109 0.268221 0.054334
0.604817 0.279980 0.070189
0.727495 0.293694 0.088045
0.850144 0.309384 0.107903
0.972763 0.327061 0.129763
0.024401 0.377135 0.040432
0.127337 0.377079 0.042157
0.244199 0.377009 0.042087
0.361062 0.376938 0.042016
0.481839 0.383939 0.054064
0.604514 0.394723 0.069886
0.727160 0.407435 0.087710
0.849776 0.422109 0.107535
0.972362 0.438761 0.129362
0.035863 0.502113 0.054088
0.135882 0.502050 0.056050
0.251826 0.501969 0.055969
0.367770 0.501889 0.055889
0.483713 0.501809 0.055809
0.604212 0.509465 0.069584
0.726824 0.521176 0.087374
0.849408 0.534834 0.107167
0.971962 0.550462 0.128962
0.049282 0.627016 0.069701
0.146359 0.626945 0.071898
0.261340 0.626855 0.071808
0.376320 0.626765 0.071718
0.491300 0.626675 0.071628
0.606281 0.626585 0.071538
0.726489 0.634916 0.087039
0.849040 0.647559 0.106799
0.971561 0.662162 0.128561
0.064656 0.751844 0.087269
0.158781 0.751764 0.089702
0.272777 0.751665 0.089602
0.386772 0.751565 0.089502
0.500767 0.751465 0.089403
0.614763 0.751365 0.089303
0.728758 0.751266 0.089203
0.848672 0.760283 0.106431
0.971160 0.773862 0.128160
0.081986 0.876596 0.106792
0.173153 0.876508 0.109461
0.286151 0.876399 0.109352
0.399150 0.876289 0.109243
0.512148 0.876180 0.109133
0.625146 0.876071 0.109024
0.738145 0.875961 0.108914
0.851143 0.875852 0.108805
0.970759 0.885562 0.127759
0.101272 1.000000 0.128272
0.189476 1.000000 0.131177
0.301470 1.000000 0.131058
0.413464 1.000000 0.130939
0.525459 1.000000 0.130819
0.637453 1.000000 0.130700
0.749447 1.000000 0.130581
0.861441 1.000000 0.130462
0.973435 1.000000 0.130343
0.008785 0.008785 0.140039
0.116712 0.008746 0.139999
0.236997 0.013647 0.146079
0.359828 0.023125 0.156734
0.482629 0.034604 0.169391
0.605400 0.048085 0.184050
0.728142 0.063567 0.200711
0.850854 0.081051 0.219373
0.973537 0.100537 0.240037
0.008612 0.128221 0.139865
0.120624 0.130219 0.139814
0.236767 0.138417 0.150231
0.359560 0.147857 0.162876
0.482324 0.159299 0.176791
0.605059 0.172743 0.192559
0.727764 0.188189 0.210274
0.850439 0.205636 0.229964
0.973085 0.225085 0.251642
0.014873 0.252060 0.147304
0.124445 0.252007 0.150235
0.240618 0.251947 0.155134
0.359330 0.262385 0.165440
0.482056 0.274463 0.179281
0.604755 0.287724 0.195126
0.727425 0.302711 0.212975
0.850066 0.319574 0.232825
0.972677 0.338371 0.254677
0.024377 0.377111 0.157986
0.131502 0.377049 0.162356
0.249850 0.376976 0.167054
0.362134 0.376910 0.166988
0.481799 0.386617 0.179024
0.604462 0.399648 0.194834
0.727098 0.414043 0.212648
0.849705 0.430149 0.232465
0.972284 0.448100 0.254284
0.035836 0.502086 0.170624
0.140516 0.502016 0.176016
0.259072 0.501931 0.180931
0.371768 0.501854 0.180854
0.484463 0.501778 0.180778
0.604170 0.511573 0.194542
0.726771 0.525376 0.212321
0.849345 0.540725 0.232104
0.971890 0.557829 0.253890
0.049251 0.626986 0.185217
0.151485 0.626907 0.191509
0.269853 0.626812 0.196765
0.382195 0.626724 0.196678
0.494537 0.626637 0.196590
0.606880 0.626550 0.196503
0.726445 0.636709 0.211995
0.848985 0.651300 0.231744
0.971496 0.667557 0.253496
0.064622 0.751810 0.201766
0.164410 0.751723 0.208906
0.282442 0.751616 0.214554
0.394149 0.751519 0.214457
0.505856 0.751422 0.214359
0.617563 0.751325 0.214262
0.729269 0.751227 0.214165
0.848624 0.761876 0.231384
0.971102 0.777286 0.253102
0.081949 0.876558 0.220271
0.179291 0.876463 0.228232
0.296917 0.876346 0.234299
0.407853 0.876239 0.234192
0.518789 0.876131 0.234085
0.629725 0.876024 0.233977
0.740661 0.875917 0.233870
0.851597 0.875810 0.233763
0.970708 0.887015 0.252708
0.101231 1.000000 0.240731
0.196127 1.000000 0.249497
0.313308 1.000000 0.256000
0.423398 1.000000 0.255883
0.533488 1.000000 0.255766
0.643578 1.000000 0.255649
0.753667 1.000000 0.255531
0.863757 1.000000 0.255414
0.973847 1.000000 0.255297
0.016794 0.016794 0.267819
0.121504 0.016748 0.267773
0.240036 0.016686 0.267711
0.359804 0.023101 0.274288
0.482601 0.034576 0.285926
0.605370 0.048054 0.299566
0.728108 0.063533 0.315208
0.850817 0.081014 0.332851
0.973496 0.100496 0.352496
0.016588 0.135182 0.267613
0.126147 0.139195 0.267547
0.242284 0.141455 0.267480
0.359538 0.147835 0.276215
0.482298 0.159273 0.290270
0.605029 0.172714 0.305562
0.727731 0.188156 0.322572
0.850403 0.205600 0.341449
0.973045 0.225045 0.362252
0.016382 0.253569 0.267407
0.125952 0.254304 0.267352
0.250867 0.259067 0.267267
0.359269 0.272566 0.283910
0.481993 0.283968 0.299892
0.604687 0.297372 0.316146
0.727352 0.312777 0.334053
0.849988 0.330184 0.353833
0.972593 0.349593 0.375552
0.024352 0.377087 0.275540
0.131479 0.377026 0.277393
0.256398 0.376945 0.283404
0.366098 0.376879 0.291957
0.481746 0.392859 0.303971
0.604396 0.408510 0.319768
0.727023 0.424429 0.337573
0.849622 0.441765 0.357381
0.972193 0.460838 0.379193
0.035809 0.502059 0.287159
0.140489 0.501989 0.290573
0.265397 0.501897 0.298664
0.380343 0.501815 0.305815
0.486098 0.501746 0.305746
0.604122 0.515380 0.319494
0.726710 0.531985 0.337260
0.849273 0.549240 0.357032
0.971808 0.567881 0.378809
0.049221 0.626955 0.300733
0.151455 0.626877 0.305332
0.276351 0.626773 0.314724
0.392352 0.626679 0.321633
0.500145 0.626597 0.321550
0.607937 0.626515 0.321468
0.726397 0.639541 0.336947
0.848924 0.656715 0.356683
0.971424 0.674924 0.378424
0.064588 0.751776 0.316263
0.164377 0.751689 0.321886
0.289261 0.751574 0.332401
0.405470 0.751469 0.339407
0.513671 0.751376 0.339313
0.621872 0.751282 0.339220
0.730073 0.751189 0.339126
0.848574 0.764190 0.356334
0.971040 0.781968 0.378040
0.081912 0.876521 0.333749
0.179254 0.876426 0.340312
0.304128 0.876299 0.351889
0.420230 0.876184 0.359137
0.528237 0.876080 0.359033
0.636244 0.875976 0.358929
0.744251 0.875872 0.358825
0.852258 0.875768 0.358721
0.970656 0.889011 0.377656
0.101191 1.000000 0.353191
0.196087 1.000000 0.360645
0.320949 1.000000 0.373257
0.436796 1.000000 0.380823
0.544320 1.000000 0.380709
0.651845 1.000000 0.380595
0.759369 1.000000 0.380480
0.866893 1.000000 0.380366
0.974418 1.000000 0.380251
0.026817 0.026817 0.395583
0.128310 0.026763 0.395529
0.245817 0.026692 0.395458
0.363324 0.026621 0.395387
0.482574 0.034549 0.402462
0.605339 0.048023 0.415083
0.728074 0.063499 0.429705
0.850779 0.080976 0.446329
0.973455 0.100455 0.464955
0.026578 0.144157 0.395344
0.133688 0.149173 0.395266
0.250450 0.151422 0.395187
0.364648 0.151354 0.395120
0.482272 0.159247 0.403749
0.604999 0.172684 0.418565
0.727698 0.188123 0.434871
0.850366 0.205563 0.452934
0.973005 0.225005 0.472863
0.026340 0.261496 0.395105
0.133457 0.264246 0.395035
0.258349 0.272262 0.394927
0.368533 0.276084 0.394850
0.481969 0.283944 0.406842
0.604659 0.297343 0.424815
0.727320 0.312745 0.442984
0.849952 0.330149 0.462487
0.972554 0.349554 0.483672
0.026101 0.378835 0.394866
0.133226 0.379319 0.394804
0.258142 0.380807 0.394720
0.383034 0.388823 0.394612
0.481663 0.408638 0.418869
0.604316 0.422000 0.438552
0.726940 0.437365 0.457247
0.849536 0.454733 0.477340
0.972102 0.474102 0.499211
0.035781 0.502031 0.403694
0.140463 0.501962 0.405129
0.265372 0.501872 0.408572
0.390279 0.501779 0.417714
0.492117 0.501709 0.430709
0.604056 0.524242 0.444428
0.726629 0.543869 0.462179
0.849183 0.562618 0.481943
0.971711 0.582401 0.503711
0.049190 0.626924 0.416249
0.151425 0.626847 0.419154
0.276322 0.626744 0.425107
0.401218 0.626639 0.436464
0.512163 0.626550 0.446503
0.610236 0.626478 0.446431
0.726340 0.644651 0.461890
0.848851 0.665231 0.481611
0.971341 0.685571 0.503341
0.064554 0.751742 0.430760
0.164343 0.751656 0.434865
0.289229 0.751541 0.442554
0.414113 0.751426 0.455058
0.527177 0.751324 0.464261
0.629332 0.751236 0.464174
0.731486 0.751149 0.464087
0.848520 0.767844 0.481279
0.970971 0.788741 0.502971
0.081874 0.876484 0.447227
0.179217 0.876389 0.452392
0.304092 0.876263 0.461511
0.428965 0.876137 0.474989
0.542733 0.876023 0.483976
0.646253 0.875924 0.483877
0.749774 0.875824 0.483777
0.853294 0.875725 0.483678
0.970600 0.891910 0.502600
0.101150 1.000000 0.465650
0.196047 1.000000 0.471793
0.320910 1.000000 0.482192
0.445772 1.000000 0.496612
0.559723 1.000000 0.505647
0.663604 1.000000 0.505537
0.767485 1.000000 0.505426
0.871366 1.000000 0.505316
0.975247 1.000000 0.505205
0.038855 0.038855 0.523330
0.137131 0.038794 0.523269
0.253613 0.038713 0.523188
0.370095 0.038632 0.523107
0.486576 0.038551 0.523026
0.605308 0.047992 0.530599
0.728040 0.063465 0.544202
0.850742 0.080939 0.559808
0.973415 0.100415 0.577415
0.038583 0.155146 0.523058
0.143244 0.161027 0.522969
0.259763 0.163404 0.522879
0.373643 0.163326 0.522801
0.487523 0.163248 0.522723
0.604970 0.172654 0.531568
0.727664 0.188089 0.547170
0.850330 0.205527 0.564420
0.972965 0.224965 0.583474
0.038312 0.271437 0.522787
0.142979 0.275481 0.522704
0.267856 0.284644 0.522581
0.380629 0.288017 0.522492
0.489585 0.287944 0.522419
0.604631 0.297315 0.533483
0.727288 0.312713 0.551915
0.849916 0.330113 0.571142
0.972515 0.349515 0.591793
0.038040 0.387728 0.522515
0.142714 0.389936 0.522439
0.267606 0.394968 0.522331
0.392473 0.406922 0.522198
0.495459 0.412636 0.522111
0.604291 0.421975 0.537960
0.726911 0.437336 0.560369
0.849502 0.454699 0.581658
0.972064 0.474064 0.603795
0.037769 0.504019 0.522244
0.142449 0.504391 0.522174
0.267356 0.505293 0.522081
0.392258 0.507534 0.521983
0.517125 0.519487 0.521850
0.603947 0.546631 0.555109
0.726529 0.561954 0.578857
0.849084 0.579281 0.600093
0.971610 0.598610 0.622418
0.049159 0.626894 0.531765
0.151395 0.626817 0.532976
0.276293 0.626715 0.535490
0.401191 0.626613 0.540337
0.526086 0.626508 0.553165
0.618674 0.626435 0.571388
0.726260 0.656535 0.586810
0.848755 0.680538 0.606514
0.971236 0.702292 0.628236
0.064520 0.751708 0.545258
0.164310 0.751622 0.547844
0.289197 0.751509 0.552707
0.414082 0.751395 0.560640
0.538966 0.751278 0.575756
0.645311 0.751182 0.589119
0.734549 0.751108 0.589046
0.848454 0.774430 0.606214
0.970887 0.799387 0.627887
0.081837 0.876446 0.560706
0.179180 0.876352 0.564472
0.304056 0.876228 0.571133
0.428930 0.876102 0.580994
0.553802 0.875974 0.597017
0.663546 0.875864 0.608817
0.759328 0.875773 0.608726
0.855109 0.875682 0.608635
0.970539 0.896482 0.627539
0.101109 1.000000 0.578109
0.196007 1.000000 0.582940
0.320871 1.000000 0.591127
0.445734 1.000000 0.602489
0.570595 1.000000 0.619274
0.681643 1.000000 0.630472
0.779942 1.000000 0.630368
0.878242 1.000000 0.630263
0.976542 1.000000 0.630159
0.052907 0.052907 0.651060
0.147966 0.052838 0.650991
0.263423 0.052748 0.650901
0.378879 0.052657 0.650811
0.494336 0.052567 0.650720
0.609792 0.052477 0.650630
0.728006 0.063431 0.658700
0.850705 0.080902 0.673286
0.973374 0.100374 0.689874
0.052603 0.168150 0.650756
0.154815 0.174848 0.650655
0.270835 0.177402 0.650555
0.384065 0.177313 0.650467
0.497294 0.177225 0.650379
0.610523 0.177137 0.650290
0.727631 0.188056 0.659468
0.850293 0.205490 0.675905
0.972925 0.224926 0.694085
0.052299 0.283392 0.650452
0.154516 0.288493 0.650357
0.279379 0.298650 0.650219
0.392659 0.301966 0.650119
0.502287 0.301882 0.650035
0.611914 0.301797 0.649951
0.727256 0.312681 0.660845
0.849881 0.330078 0.679797
0.972476 0.349476 0.699914
0.051994 0.398635 0.650147
0.154218 0.402138 0.650058
0.279092 0.409129 0.649932
0.403945 0.421839 0.649786
0.512039 0.426533 0.649686
0.614849 0.426456 0.649609
0.726881 0.437306 0.663492
0.849468 0.454665 0.685977
0.972026 0.474026 0.708379
0.051690 0.513878 0.649843
0.153919 0.515783 0.649760
0.278805 0.519608 0.649645
0.403679 0.526599 0.649519
0.528518 0.543173 0.649359
0.623062 0.551109 0.649262
0.726504 0.561929 0.669570
0.849053 0.579250 0.696933
0.971574 0.598574 0.721585
0.051386 0.629120 0.649539
0.153621 0.629427 0.649461
0.278517 0.630087 0.649358
0.403412 0.631359 0.649253
0.528300 0.634486 0.649140
0.648992 0.648992 0.648992
0.726121 0.686546 0.692629
0.848634 0.703830 0.720806
0.971119 0.723119 0.744684
0.064486 0.751674 0.659755
0.164276 0.751589 0.660824
0.289164 0.751477 0.662860
0.414052 0.751364 0.666223
0.538938 0.751250 0.672687
0.663820 0.751133 0.689756
0.745769 0.751059 0.713996
0.848358 0.789738 0.731117
0.970773 0.818519 0.752773
0.081800 0.876409 0.674184
0.179143 0.876315 0.676552
0.304020 0.876192 0.680756
0.428895 0.876067 0.686999
0.553770 0.875942 0.697173
0.678640 0.875812 0.716539
0.779786 0.875709 0.733662
0.859036 0.875636 0.733589
0.970464 0.904718 0.752464
0.101069 1.000000 0.690569
0.195966 1.000000 0.694088
0.320831 1.000000 0.700062
0.445695 1.000000 0.708367
0.570558 1.000000 0.720652
0.695418 1.000000 0.740603
0.801459 1.000000 0.755300
0.890133 1.000000 0.755205
0.978807 1.000000 0.755111
0.068974 0.068974 0.778774
0.160816 0.068898 0.778697
0.275247 0.068797 0.778597
0.389678 0.068697 0.778497
0.504110 0.068597 0.778397
0.618541 0.068497 0.778297
0.732972 0.068397 0.778197
0.850668 0.080864 0.786764
0.973334 0.100334 0.802334
0.068637 0.183168 0.778437
0.168400 0.190664 0.778325
0.283814 0.193413 0.778214
0.396249 0.193315 0.778115
0.508685 0.193217 0.778017
0.621120 0.193119 0.777919
0.733555 0.193021 0.777821
0.850256 0.205453 0.787390
0.972886 0.224886 0.804696
0.068300 0.297362 0.778100
0.168068 0.303412 0.777993
0.292917 0.314542 0.777842
0.406096 0.317930 0.777730
0.515594 0.317835 0.777635
0.625093 0.317740 0.777540
0.734591 0.317645 0.777445
0.849845 0.330042 0.788451
0.972437 0.349437 0.808034
0.067963 0.411557 0.777763
0.167736 0.416159 0.777661
0.292594 0.424638 0.777519
0.417435 0.438054 0.777360
0.527000 0.442448 0.777248
0.631748 0.442359 0.777159
0.736497 0.442269 0.777069
0.849434 0.454631 0.790295
0.971988 0.473988 0.812963
0.067626 0.525751 0.777426
0.167405 0.528907 0.777330
0.292272 0.534735 0.777197
0.417127 0.543976 0.777052
0.541955 0.560759 0.776880
0.644681 0.566970 0.776770
0.740438 0.566890 0.776690
0.849022 0.579219 0.793773
0.971538 0.598538 0.820751
0.067289 0.639945 0.777089
0.167073 0.641655 0.776998
0.291950 0.644831 0.776875
0.416820 0.649897 0.776745
0.541675 0.659138 0.776600
0.666485 0.681017 0.776410
0.751341 0.691503 0.776303
0.848608 0.703805 0.801670
0.971086 0.723086 0.834506
0.066952 0.754140 0.776752
0.166741 0.754402 0.776666
0.291628 0.754927 0.776553
0.416513 0.755818 0.776438
0.541395 0.757517 0.776320
0.666268 0.761662 0.776193
0.776046 0.776046 0.776046
0.848186 0.828383 0.831430
0.970628 0.847628 0.864401
0.081762 0.876372 0.787662
0.179107 0.876279 0.788632
0.303984 0.876156 0.790378
0.428861 0.876033 0.793005
0.553737 0.875909 0.797329
0.678612 0.875784 0.805622
0.803482 0.875654 0.827488
0.873403 0.875579 0.858532
0.970350 0.923850 0.877350
0.101028 1.000000 0.803028
0.195926 1.000000 0.805236
0.320792 1.000000 0.808997
0.445657 1.000000 0.814245
0.570522 1.000000 0.822031
0.695384 1.000000 0.834705
0.820242 1.000000 0.858814
0.915588 1.000000 0.880133
0.983697 1.000000 0.880061
0.087055 0.087055 0.906470
0.175681 0.086971 0.906387
0.289086 0.086861 0.906277
0.402492 0.086752 0.906167
0.515898 0.086642 0.906057
0.629304 0.086532 0.905947
0.742709 0.086422 0.905838
0.856115 0.086312 0.905728
0.973293 0.100293 0.914793
0.086685 0.200201 0.906101
0.184000 0.208483 0.905978
0.298751 0.211440 0.905856
0.410318 0.211332 0.905748
0.521885 0.211224 0.905640
0.633452 0.211116 0.905532
0.745020 0.211008 0.905424
0.856587 0.210900 0.905316
0.972846 0.224846 0.915307
0.086316 0.313347 0.905731
0.183635 0.320287 0.905613
0.308469 0.332390 0.905447
0.421287 0.335909 0.905325
0.530314 0.335804 0.905220
0.639341 0.335699 0.905114
0.748369 0.335594 0.905009
0.857396 0.335488 0.904904
0.972398 0.349398 0.916155
0.085946 0.426493 0.905362
0.183270 0.432091 0.905248
0.308113 0.441861 0.905091
0.432939 0.456047 0.904917
0.542913 0.460380 0.904795
0.648202 0.460278 0.904694
0.753491 0.460177 0.904593
0.858779 0.460076 0.904491
0.971950 0.473950 0.917547
0.085576 0.539639 0.904992
0.182905 0.543894 0.904884
0.307756 0.551332 0.904734
0.432595 0.562144 0.904573
0.557411 0.579239 0.904389
0.662786 0.584852 0.904267
0.762028 0.584757 0.904172
0.861271 0.584662 0.904078
0.971502 0.598502 0.919917
0.085207 0.652785 0.904622
0.182541 0.655698 0.904519
0.307400 0.660802 0.904378
0.432251 0.668240 0.904229
0.557086 0.680021 0.904064
0.681886 0.701403 0.903865
0.778555 0.709328 0.903744
0.866353 0.709246 0.903661
0.971054 0.723054 0.924329
0.084837 0.765931 0.904253
0.182176 0.767502 0.904154
0.307043 0.770273 0.904022
0.431906 0.774336 0.903884
0.556761 0.780803 0.903739
0.681596 0.792585 0.903574
0.806373 0.820452 0.903351
0.880296 0.833820 0.903235
0.970603 0.847603 0.934262
0.084467 0.879077 0.903883
0.181811 0.879306 0.903789
0.306687 0.879744 0.903665
0.431562 0.880432 0.903540
0.556435 0.881585 0.903413
0.681305 0.883767 0.903283
0.806163 0.889062 0.903142
0.902999 0.902999 0.902999
0.970150 0.970150 0.970150
0.100988 1.000000 0.915488
0.195886 1.000000 0.916383
0.320753 1.000000 0.917932
0.445619 1.000000 0.920123
0.570485 1.000000 0.923409
0.695350 1.000000 0.928807
0.820213 1.000000 0.939142
0.945071 1.000000 0.966361
1.000000 1.000000 1.000000
0.104175 0.104175 1.000000
0.189584 0.104084 1.000000
0.301965 0.103965 1.000000
0.414345 0.103845 1.000000
0.526725 0.103725 1.000000
0.639106 0.103606 1.000000
0.751486 0.103486 1.000000
0.863867 0.103367 1.000000
0.976247 0.103247 1.000000
0.103773 0.216273 1.000000
0.198639 0.225324 1.000000
0.312649 0.228506 1.000000
0.423245 0.228388 1.000000
0.533842 0.228270 1.000000
0.644438 0.228153 1.000000
0.755035 0.228035 1.000000
0.865632 0.227917 1.000000
0.976228 0.227800 1.000000
0.103371 0.328371 1.000000
0.198241 0.336114 1.000000
0.323061 0.349215 1.000000
0.435261 0.352928 1.000000
0.543479 0.352813 1.000000
0.651698 0.352698 1.000000
0.759916 0.352582 1.000000
0.868134 0.352467 1.000000
0.976352 0.352352 1.000000
0.102968 0.440468 1.000000
0.197844 0.446905 1.000000
0.322671 0.457799 1.000000
0.447484 0.472904 1.000000
0.557151 0.477351 1.000000
0.662039 0.477239 1.000000
0.766927 0.477127 1.000000
0.871816 0.477016 1.000000
0.976704 0.476904 1.000000
0.102566 0.552566 1.000000
0.197446 0.557695 1.000000
0.322282 0.566384 1.000000
0.447105 0.578441 1.000000
0.571908 0.596247 1.000000
0.677775 0.601775 1.000000
0.777669 0.601669 1.000000
0.877562 0.601562 1.000000
0.977456 0.601456 1.000000
0.102164 0.664664 1.000000
0.197049 0.668485 1.000000
0.321892 0.674969 1.000000
0.446726 0.683978 1.000000
0.571545 0.697300 1.000000
0.696334 0.718927 1.000000
0.795868 0.726202 1.000000
0.887438 0.726104 1.000000
0.979007 0.726007 1.000000
0.101761 0.776761 1.000000
0.196651 0.779275 1.000000
0.321502 0.783553 1.000000
0.446347 0.789515 1.000000
0.571182 0.798352 1.000000
0.695997 0.812726 1.000000
0.820766 0.840052 1.000000
0.907635 0.850635 1.000000
0.982556 0.850556 1.000000
0.101359 0.888859 1.000000
0.196253 0.890065 1.000000
0.321113 0.892138 1.000000
0.445969 0.895053 1.000000
0.570820 0.899405 1.000000
0.695661 0.906525 1.000000
0.820479 0.920122 1.000000
0.945217 0.955862 1.000000
0.994096 0.975096 1.000000
0.100957 1.000000 1.000000
0.195856 1.000000 1.000000
0.320723 1.000000 1.000000
0.445590 1.000000 1.000000
0.570457 1.000000 1.000000
0.695324 1.000000 1.000000
0.820191 1.000000 1.000000
0.945058 1.000000 1.000000
1.000000 1.000000 1.000000
