luts/original/runway-cool.cube
TITLE "Runway Cool"
LUT_3D_SIZE 33
DOMAIN_MIN 0.0 0.0 0.0
DOMAIN_MAX 1.0 1.0 1.0
0.002791 0.002791 0.012241
0.023047 0.002953 0.012951
0.052712 0.003200 0.013747
0.083434 0.004632 0.015728
0.114155 0.006189 0.017833
0.144873 0.007871 0.020064
0.175590 0.009679 0.022419
0.206305 0.011611 0.024900
0.237018 0.013668 0.027506
0.267729 0.015851 0.030237
0.298439 0.018158 0.033093
0.329146 0.020591 0.036074
0.359852 0.023149 0.039180
0.390556 0.025832 0.042412
0.421258 0.028640 0.045768
0.451958 0.031573 0.049250
0.482656 0.034631 0.052856
0.513353 0.037815 0.056588
0.544047 0.041123 0.060445
0.574740 0.044557 0.064427
0.605431 0.048115 0.068534
0.636120 0.051799 0.072766
0.666807 0.055608 0.077124
0.697492 0.059542 0.081606
0.728176 0.063601 0.086213
0.758858 0.067785 0.090946
0.789537 0.072094 0.095804
0.820215 0.076529 0.100787
0.850891 0.081088 0.105895
0.881566 0.085773 0.111128
0.912238 0.090583 0.116486
0.942909 0.095517 0.121969
0.973577 0.100577 0.127577
0.002962 0.033055 0.012961
0.023102 0.033054 0.012962
0.052671 0.033628 0.014585
0.083388 0.035739 0.016914
0.114106 0.037312 0.019078
0.144823 0.038997 0.021368
0.175537 0.040803 0.023782
0.206250 0.042732 0.026321
0.236961 0.044787 0.028986
0.267670 0.046965 0.031775
0.298377 0.049269 0.034690
0.329082 0.051697 0.037730
0.359785 0.054251 0.040895
0.390487 0.056929 0.044185
0.421187 0.059733 0.047600
0.451884 0.062662 0.051140
0.482580 0.065715 0.054805
0.513275 0.068894 0.058596
0.543967 0.072198 0.062511
0.574657 0.075627 0.066552
0.605346 0.079181 0.070718
0.636033 0.082860 0.075009
0.666718 0.086664 0.079425
0.697401 0.090593 0.083966
0.728082 0.094648 0.088632
0.758761 0.098827 0.093423
0.789439 0.103132 0.098339
0.820114 0.107561 0.103381
0.850788 0.112116 0.108548
0.881460 0.116796 0.113839
0.912130 0.121601 0.119256
0.942798 0.126531 0.124798
0.973465 0.131586 0.130465
0.004300 0.064359 0.014847
0.023831 0.064358 0.014872
0.054880 0.064345 0.016005
0.083351 0.064526 0.016877
0.114065 0.066551 0.019037
0.144779 0.068352 0.021324
0.175491 0.070185 0.023736
0.206201 0.072105 0.026273
0.236910 0.074131 0.028935
0.267617 0.076272 0.031723
0.298322 0.078530 0.034635
0.329025 0.080909 0.037673
0.359726 0.083410 0.040836
0.390426 0.086033 0.044124
0.421123 0.088780 0.047537
0.451819 0.091650 0.051075
0.482513 0.094645 0.054738
0.513205 0.097763 0.058526
0.543895 0.101007 0.062440
0.574584 0.104374 0.066479
0.605270 0.107866 0.070642
0.635955 0.111483 0.074931
0.666638 0.115225 0.079345
0.697319 0.119091 0.083884
0.727998 0.123083 0.088548
0.758675 0.127199 0.093337
0.789351 0.131440 0.098252
0.820024 0.135806 0.103291
0.850696 0.140297 0.108456
0.881366 0.144913 0.113745
0.912034 0.149654 0.119160
0.942700 0.154520 0.124700
0.973365 0.159511 0.130365
0.005760 0.095657 0.016855
0.024681 0.095657 0.016890
0.055766 0.095643 0.018074
0.085116 0.095631 0.018062
0.114024 0.095790 0.018996
0.144735 0.097707 0.021280
0.175445 0.099567 0.023689
0.206153 0.101478 0.026224
0.236859 0.103476 0.028884
0.267564 0.105578 0.031670
0.298267 0.107791 0.034580
0.328968 0.110121 0.037616
0.359667 0.112568 0.040777
0.390365 0.115137 0.044062
0.421060 0.117827 0.047473
0.451754 0.120639 0.051009
0.482446 0.123574 0.054671
0.513136 0.126633 0.058457
0.543824 0.129815 0.062368
0.574510 0.133122 0.066405
0.605195 0.136552 0.070567
0.635877 0.140107 0.074853
0.666558 0.143786 0.079265
0.697237 0.147590 0.083802
0.727914 0.151518 0.088464
0.758589 0.155571 0.093251
0.789263 0.159749 0.098164
0.819934 0.164051 0.103201
0.850604 0.168478 0.108363
0.881272 0.173030 0.113651
0.911938 0.177707 0.119064
0.942602 0.182509 0.124602
0.973264 0.187436 0.130264
0.007342 0.126952 0.018986
0.025654 0.126951 0.019027
0.056748 0.126936 0.020265
0.086212 0.126924 0.020252
0.115676 0.126912 0.020240
0.144691 0.127062 0.021236
0.175399 0.128949 0.023643
0.206105 0.130851 0.026176
0.236809 0.132821 0.028834
0.267511 0.134885 0.031617
0.298212 0.137053 0.034525
0.328911 0.139332 0.037559
0.359608 0.141727 0.040717
0.390303 0.144240 0.044001
0.420997 0.146873 0.047410
0.451689 0.149628 0.050944
0.482378 0.152504 0.054603
0.513066 0.155502 0.058388
0.543752 0.158624 0.062297
0.574437 0.161869 0.066331
0.605119 0.165238 0.070491
0.635800 0.168730 0.074776
0.666478 0.172347 0.079185
0.697155 0.176088 0.083720
0.727830 0.179953 0.088380
0.758504 0.183943 0.093165
0.789175 0.188057 0.098076
0.819844 0.192296 0.103111
0.850512 0.196660 0.108271
0.881178 0.201148 0.113557
0.911842 0.205761 0.118968
0.942504 0.210498 0.124503
0.973164 0.215361 0.130164
0.009047 0.158241 0.021239
0.026749 0.158240 0.021284
0.057844 0.158225 0.022578
0.087335 0.158212 0.022565
0.116825 0.158199 0.022551
0.146315 0.158186 0.022538
0.175352 0.158332 0.023597
0.206056 0.160224 0.026127
0.236758 0.162166 0.028783
0.267459 0.164191 0.031564
0.298157 0.166314 0.034470
0.328854 0.168544 0.037502
0.359549 0.170886 0.040658
0.390242 0.173344 0.043940
0.420934 0.175920 0.047347
0.451623 0.178616 0.050879
0.482311 0.181433 0.054536
0.512997 0.184372 0.058318
0.543681 0.187433 0.062225
0.574363 0.190616 0.066258
0.605043 0.193923 0.070415
0.635722 0.197354 0.074698
0.666399 0.200908 0.079106
0.697074 0.204586 0.083639
0.727747 0.208388 0.088297
0.758418 0.212315 0.093080
0.789087 0.216366 0.097988
0.819754 0.220541 0.103021
0.850420 0.224841 0.108179
0.881084 0.229265 0.113463
0.911746 0.233814 0.118872
0.942406 0.238488 0.124405
0.973064 0.243286 0.130064
0.010873 0.189526 0.023614
0.027967 0.189525 0.023663
0.059060 0.189509 0.025013
0.088541 0.189495 0.024999
0.118021 0.189481 0.024985
0.147502 0.189468 0.024972
0.176983 0.189454 0.024958
0.206008 0.189596 0.026079
0.236707 0.191511 0.028732
0.267406 0.193497 0.031511
0.298102 0.195575 0.034416
0.328797 0.197755 0.037445
0.359490 0.200045 0.040599
0.390181 0.202448 0.043879
0.420870 0.204967 0.047284
0.451558 0.207605 0.050814
0.482244 0.210362 0.054469
0.512927 0.213241 0.058249
0.543609 0.216241 0.062154
0.574290 0.219364 0.066184
0.604968 0.222609 0.070340
0.635644 0.225977 0.074620
0.666319 0.229469 0.079026
0.696992 0.233084 0.083557
0.727663 0.236824 0.088213
0.758332 0.240687 0.092994
0.788999 0.244674 0.097900
0.819664 0.248786 0.102931
0.850328 0.253022 0.108087
0.880990 0.257382 0.113369
0.911650 0.261867 0.118775
0.942308 0.266477 0.124307
0.972964 0.271211 0.129964
0.012822 0.220806 0.026111
0.029306 0.220805 0.026164
0.060397 0.220788 0.027571
0.089850 0.220774 0.027556
0.119303 0.220759 0.027542
0.148756 0.220745 0.027527
0.178209 0.220731 0.027513
0.207662 0.220716 0.027498
0.236657 0.220856 0.028682
0.267353 0.222804 0.031459
0.298047 0.224836 0.034361
0.328740 0.226967 0.037388
0.359431 0.229203 0.040540
0.390120 0.231551 0.043818
0.420807 0.234014 0.047220
0.451493 0.236593 0.050748
0.482176 0.239292 0.054401
0.512858 0.242110 0.058179
0.543538 0.245050 0.062082
0.574216 0.248111 0.066111
0.604892 0.251294 0.070264
0.635567 0.254601 0.074543
0.666239 0.258030 0.078946
0.696910 0.261583 0.083475
0.727579 0.265259 0.088129
0.758246 0.269059 0.092908
0.788911 0.272983 0.097812
0.819574 0.277031 0.102841
0.850236 0.281203 0.107995
0.880896 0.285500 0.113275
0.911554 0.289921 0.118679
0.942209 0.294466 0.124209
0.972864 0.299136 0.129864
0.014894 0.252081 0.028731
0.030768 0.252080 0.028787
0.061855 0.252063 0.030250
0.091270 0.252048 0.030235
0.120685 0.252033 0.030220
0.150100 0.252018 0.030205
0.179515 0.252003 0.030190
0.208930 0.251988 0.030175
0.238345 0.251972 0.030160
0.267300 0.252110 0.031406
0.297992 0.254097 0.034306
0.328683 0.256178 0.037331
0.359372 0.258362 0.040481
0.390059 0.260655 0.043757
0.420744 0.263061 0.047157
0.451427 0.265582 0.050683
0.482109 0.268221 0.054334
0.512789 0.270980 0.058110
0.543466 0.273859 0.062011
0.574142 0.276858 0.066037
0.604817 0.279980 0.070189
0.635489 0.283224 0.074465
0.666160 0.286591 0.078867
0.696828 0.290081 0.083393
0.727495 0.293694 0.088045
0.758160 0.297431 0.092822
0.788823 0.301291 0.097724
0.819485 0.305276 0.102751
0.850144 0.309384 0.107903
0.880802 0.313617 0.113181
0.911457 0.317974 0.118583
0.942111 0.322455 0.124111
0.972763 0.327061 0.129763
0.017087 0.283352 0.031473
0.032352 0.283351 0.031532
0.063435 0.283333 0.033053
0.092805 0.283317 0.033037
0.122176 0.283301 0.033021
0.151546 0.283286 0.033005
0.180916 0.283270 0.032990
0.210287 0.283254 0.032974
0.239657 0.283239 0.032958
0.269028 0.283223 0.032943
0.297938 0.283359 0.034251
0.328626 0.285390 0.037274
0.359313 0.287521 0.040422
0.389998 0.289759 0.043695
0.420681 0.292107 0.047094
0.451362 0.294571 0.050618
0.482041 0.297151 0.054266
0.512719 0.299849 0.058040
0.543395 0.302667 0.061939
0.574069 0.305606 0.065964
0.604741 0.308666 0.070113
0.635411 0.311848 0.074387
0.666080 0.315152 0.078787
0.696746 0.318579 0.083311
0.727411 0.322129 0.087961
0.758074 0.325803 0.092736
0.788735 0.329600 0.097636
0.819395 0.333521 0.102661
0.850052 0.337566 0.107811
0.880708 0.341734 0.113087
0.911361 0.346027 0.118487
0.942013 0.350445 0.124013
0.972663 0.354986 0.129663
0.019403 0.314618 0.034337
0.034058 0.314617 0.034399
0.065136 0.314598 0.035977
0.094458 0.314582 0.035961
0.123780 0.314565 0.035944
0.153101 0.314549 0.035928
0.182423 0.314533 0.035911
0.211744 0.314516 0.035895
0.241066 0.314500 0.035879
0.270387 0.314484 0.035862
0.299709 0.314467 0.035846
0.328569 0.314601 0.037217
0.359254 0.316680 0.040363
0.389936 0.318862 0.043634
0.420617 0.321154 0.047031
0.451297 0.323559 0.050552
0.481974 0.326080 0.054199
0.512650 0.328719 0.057971
0.543323 0.331476 0.061868
0.573995 0.334353 0.065890
0.604665 0.337351 0.070037
0.635334 0.340471 0.074310
0.666000 0.343713 0.078707
0.696665 0.347077 0.083230
0.727327 0.350564 0.087877
0.757988 0.354175 0.092650
0.788647 0.357908 0.097548
0.819305 0.361766 0.102571
0.849960 0.365747 0.107719
0.880613 0.369852 0.112993
0.911265 0.374081 0.118391
0.941915 0.378434 0.123914
0.972563 0.382911 0.129563
0.021841 0.345879 0.037323
0.035887 0.345878 0.037388
0.066960 0.345858 0.039023
0.096230 0.345841 0.039006
0.125499 0.345824 0.038989
0.154769 0.345807 0.038973
0.184039 0.345791 0.038956
0.213309 0.345774 0.038939
0.242578 0.345757 0.038922
0.271848 0.345740 0.038905
0.301118 0.345723 0.038888
0.330387 0.345706 0.038871
0.359195 0.345838 0.040304
0.389875 0.347966 0.043573
0.420554 0.350201 0.046967
0.451231 0.352548 0.050487
0.481907 0.355010 0.054132
0.512580 0.357588 0.057902
0.543252 0.360285 0.061796
0.573922 0.363101 0.065817
0.604590 0.366037 0.069962
0.635256 0.369095 0.074232
0.665920 0.372274 0.078627
0.696583 0.375575 0.083148
0.727244 0.379000 0.087794
0.757902 0.382547 0.092564
0.788559 0.386217 0.097460
0.819215 0.390011 0.102481
0.849868 0.393928 0.107627
0.880519 0.397969 0.112898
0.911169 0.402134 0.118295
0.941817 0.406423 0.123816
0.972463 0.410836 0.129463
0.024401 0.377135 0.040432
0.037837 0.377134 0.040500
0.068906 0.377114 0.042192
0.098121 0.377096 0.042175
0.127337 0.377079 0.042157
0.156553 0.377061 0.042139
0.185768 0.377044 0.042122
0.214984 0.377026 0.042104
0.244199 0.377009 0.042087
0.273415 0.376991 0.042069
0.302631 0.376973 0.042052
0.331846 0.376956 0.042034
0.361062 0.376938 0.042016
0.389814 0.377069 0.043512
0.420491 0.379248 0.046904
0.451166 0.381537 0.050422
0.481839 0.383939 0.054064
0.512511 0.386457 0.057832
0.543180 0.389093 0.061725
0.573848 0.391848 0.065743
0.604514 0.394723 0.069886
0.635178 0.397718 0.074154
0.665841 0.400835 0.078548
0.696501 0.404074 0.083066
0.727160 0.407435 0.087710
0.757817 0.410919 0.092478
0.788472 0.414525 0.097372
0.819125 0.418256 0.102391
0.849776 0.422109 0.107535
0.880425 0.426086 0.112804
0.911073 0.430187 0.118199
0.941719 0.434412 0.123718
0.972362 0.438761 0.129362
0.027083 0.408387 0.043663
0.039910 0.408386 0.043733
0.070974 0.408365 0.045483
0.100134 0.408347 0.045465
0.129293 0.408329 0.045447
0.158453 0.408310 0.045429
0.187613 0.408292 0.045410
0.216773 0.408274 0.045392
0.245933 0.408256 0.045374
0.275093 0.408238 0.045356
0.304253 0.408219 0.045338
0.333412 0.408201 0.045319
0.362572 0.408183 0.045301
0.391732 0.408165 0.045283
0.420428 0.408295 0.046841
0.451101 0.410525 0.050356
0.481772 0.412868 0.053997
0.512441 0.415327 0.057763
0.543109 0.417902 0.061653
0.573775 0.420595 0.065669
0.604439 0.423408 0.069810
0.635101 0.426342 0.074077
0.665761 0.429396 0.078468
0.696419 0.432572 0.082984
0.727076 0.435870 0.087626
0.757731 0.439291 0.092393
0.788384 0.442834 0.097284
0.819035 0.446500 0.102301
0.849684 0.450290 0.107443
0.880331 0.454204 0.112710
0.910977 0.458241 0.118103
0.941620 0.462402 0.123620
0.972262 0.466686 0.129262
0.029888 0.439634 0.047016
0.042105 0.439633 0.047089
0.073164 0.439611 0.048896
0.102266 0.439592 0.048878
0.131369 0.439574 0.048859
0.160472 0.439555 0.048840
0.189575 0.439536 0.048821
0.218678 0.439517 0.048802
0.247781 0.439498 0.048784
0.276883 0.439480 0.048765
0.305986 0.439461 0.048746
0.335089 0.439442 0.048727
0.364192 0.439423 0.048708
0.393295 0.439404 0.048690
0.422398 0.439386 0.048671
0.451035 0.439514 0.050291
0.481705 0.441798 0.053930
0.512372 0.444196 0.057693
0.543037 0.446710 0.061582
0.573701 0.449343 0.065596
0.604363 0.452094 0.069735
0.635023 0.454965 0.073999
0.665681 0.457957 0.078388
0.696338 0.461070 0.082903
0.726992 0.464305 0.087542
0.757645 0.467663 0.092307
0.788296 0.471143 0.097196
0.818945 0.474745 0.102211
0.849592 0.478472 0.107351
0.880237 0.482321 0.112616
0.910881 0.486294 0.118006
0.941522 0.490391 0.123522
0.972162 0.494612 0.129162
0.032814 0.470876 0.050491
0.044423 0.470875 0.050567
0.075476 0.470853 0.052432
0.104521 0.470833 0.052412
0.133565 0.470814 0.052393
0.162610 0.470795 0.052374
0.191655 0.470775 0.052354
0.220700 0.470756 0.052335
0.249745 0.470736 0.052315
0.278789 0.470717 0.052296
0.307834 0.470697 0.052276
0.336879 0.470678 0.052257
0.365924 0.470659 0.052238
0.394968 0.470639 0.052218
0.424013 0.470620 0.052199
0.453058 0.470600 0.052179
0.481637 0.470727 0.053862
0.512302 0.473065 0.057624
0.542966 0.475519 0.061510
0.573628 0.478090 0.065522
0.604287 0.480779 0.069659
0.634945 0.483588 0.073921
0.665601 0.486518 0.078309
0.696256 0.489568 0.082821
0.726908 0.492740 0.087458
0.757559 0.496034 0.092221
0.788208 0.499451 0.097109
0.818855 0.502990 0.102121
0.849500 0.506653 0.107259
0.880143 0.510438 0.112522
0.910784 0.514347 0.117910
0.941424 0.518380 0.123424
0.972062 0.522537 0.129062
0.035863 0.502113 0.054088
0.046863 0.502113 0.054167
0.077910 0.502090 0.056090
0.106896 0.502070 0.056070
0.135882 0.502050 0.056050
0.164868 0.502029 0.056029
0.193854 0.502009 0.056009
0.222840 0.501989 0.055989
0.251826 0.501969 0.055969
0.280812 0.501949 0.055949
0.309798 0.501929 0.055929
0.338784 0.501909 0.055909
0.367770 0.501889 0.055889
0.396755 0.501869 0.055869
0.425741 0.501849 0.055849
0.454727 0.501829 0.055829
0.483713 0.501809 0.055809
0.512233 0.501935 0.057554
0.542894 0.504328 0.061439
0.573554 0.506837 0.065449
0.604212 0.509465 0.069584
0.634868 0.512212 0.073844
0.665522 0.515079 0.078229
0.696174 0.518067 0.082739
0.726824 0.521176 0.087374
0.757473 0.524406 0.092135
0.788120 0.527760 0.097021
0.818765 0.531235 0.102031
0.849408 0.534834 0.107167
0.880049 0.538556 0.112428
0.910688 0.542401 0.117814
0.941326 0.546369 0.123325
0.971962 0.550462 0.128962
0.039035 0.533346 0.057808
0.049424 0.533345 0.057889
0.080467 0.533322 0.059870
0.109393 0.533301 0.059849
0.138319 0.533280 0.059828
0.167246 0.533260 0.059808
0.196172 0.533239 0.059787
0.225099 0.533218 0.059766
0.254025 0.533198 0.059746
0.282952 0.533177 0.059725
0.311878 0.533157 0.059704
0.340805 0.533136 0.059684
0.369731 0.533115 0.059663
0.398658 0.533095 0.059642
0.427584 0.533074 0.059622
0.456510 0.533053 0.059601
0.485437 0.533033 0.059580
0.514363 0.533012 0.059560
0.542823 0.533136 0.061367
0.573480 0.535585 0.065375
0.604136 0.538151 0.069508
0.634790 0.540835 0.073766
0.665442 0.543640 0.078149
0.696092 0.546565 0.082657
0.726741 0.549611 0.087291
0.757387 0.552778 0.092049
0.788032 0.556068 0.096933
0.818675 0.559480 0.101941
0.849316 0.563015 0.107075
0.879955 0.566673 0.112334
0.910592 0.570454 0.117718
0.941228 0.574359 0.123227
0.971861 0.578387 0.128861
0.042328 0.564574 0.061650
0.052109 0.564573 0.061734
0.083145 0.564549 0.063772
0.112012 0.564528 0.063750
0.140878 0.564507 0.063729
0.169744 0.564485 0.063708
0.198611 0.564464 0.063687
0.227477 0.564443 0.063665
0.256344 0.564421 0.063644
0.285210 0.564400 0.063623
0.314077 0.564379 0.063602
0.342943 0.564358 0.063580
0.371809 0.564336 0.063559
0.400676 0.564315 0.063538
0.429542 0.564294 0.063517
0.458409 0.564273 0.063495
0.487275 0.564251 0.063474
0.516142 0.564230 0.063453
0.545008 0.564209 0.063432
0.573407 0.564332 0.065302
0.604061 0.566836 0.069432
0.634712 0.569459 0.073688
0.665362 0.572201 0.078069
0.696011 0.575063 0.082576
0.726657 0.578046 0.087207
0.757301 0.581150 0.091963
0.787944 0.584377 0.096845
0.818585 0.587725 0.101851
0.849224 0.591196 0.106983
0.879861 0.594790 0.112240
0.910496 0.598507 0.117622
0.941130 0.602348 0.123129
0.971761 0.606312 0.128761
0.045744 0.595798 0.065614
0.054915 0.595797 0.065701
0.085946 0.595772 0.067796
0.114752 0.595750 0.067774
0.143558 0.595728 0.067752
0.172364 0.595706 0.067730
0.201170 0.595684 0.067709
0.229976 0.595662 0.067687
0.258782 0.595640 0.067665
0.287588 0.595619 0.067643
0.316394 0.595597 0.067621
0.345200 0.595575 0.067599
0.374005 0.595553 0.067577
0.402811 0.595531 0.067556
0.431617 0.595509 0.067534
0.460423 0.595487 0.067512
0.489229 0.595465 0.067490
0.518035 0.595444 0.067468
0.546841 0.595422 0.067446
0.575647 0.595400 0.067424
0.603985 0.595522 0.069357
0.634635 0.598082 0.073611
0.665283 0.600762 0.077990
0.695929 0.603561 0.082494
0.726573 0.606481 0.087123
0.757215 0.609522 0.091877
0.787856 0.612685 0.096757
0.818495 0.615970 0.101761
0.849132 0.619377 0.106891
0.879767 0.622908 0.112146
0.910400 0.626561 0.117526
0.941031 0.630337 0.123031
0.971661 0.634237 0.128661
0.049282 0.627016 0.069701
0.057843 0.627015 0.069790
0.088869 0.626990 0.071943
0.117614 0.626967 0.071920
0.146359 0.626945 0.071898
0.175104 0.626922 0.071875
0.203849 0.626900 0.071853
0.232595 0.626877 0.071830
0.261340 0.626855 0.071808
0.290085 0.626832 0.071785
0.318830 0.626810 0.071763
0.347575 0.626787 0.071740
0.376320 0.626765 0.071718
0.405065 0.626742 0.071695
0.433810 0.626720 0.071673
0.462555 0.626697 0.071650
0.491300 0.626675 0.071628
0.520045 0.626652 0.071606
0.548790 0.626630 0.071583
0.577536 0.626607 0.071561
0.606281 0.626585 0.071538
0.634557 0.626706 0.073533
0.665203 0.629323 0.077910
0.695847 0.632059 0.082412
0.726489 0.634916 0.087039
0.757130 0.637894 0.091791
0.787768 0.640994 0.096669
0.818405 0.644215 0.101671
0.849040 0.647559 0.106799
0.879673 0.651025 0.112052
0.910304 0.654614 0.117430
0.940933 0.658326 0.122933
0.971561 0.662162 0.128561
0.052942 0.658230 0.073909
0.060894 0.658229 0.074001
0.091914 0.658203 0.076212
0.120598 0.658180 0.076189
0.149282 0.658157 0.076165
0.177966 0.658134 0.076142
0.206650 0.658110 0.076119
0.235334 0.658087 0.076096
0.264018 0.658064 0.076073
0.292702 0.658041 0.076050
0.321386 0.658018 0.076027
0.350069 0.657995 0.076004
0.378753 0.657972 0.075981
0.407437 0.657949 0.075958
0.436121 0.657926 0.075934
0.464805 0.657903 0.075911
0.493489 0.657880 0.075888
0.522173 0.657856 0.075865
0.550857 0.657833 0.075842
0.579541 0.657810 0.075819
0.608225 0.657787 0.075796
0.636908 0.657764 0.075773
0.665123 0.657884 0.077830
0.695765 0.660558 0.082330
0.726405 0.663352 0.086955
0.757044 0.666266 0.091706
0.787680 0.669302 0.096581
0.818315 0.672460 0.101581
0.848948 0.675740 0.106707
0.879579 0.679142 0.111958
0.910208 0.682667 0.117334
0.940835 0.686316 0.122834
0.971461 0.690087 0.128461
0.056725 0.689439 0.078240
0.064067 0.689438 0.078335
0.095082 0.689411 0.080603
0.123704 0.689388 0.080579
0.152327 0.689364 0.080555
0.180949 0.689340 0.080532
0.209572 0.689317 0.080508
0.238194 0.689293 0.080484
0.266817 0.689269 0.080460
0.295439 0.689245 0.080437
0.324061 0.689222 0.080413
0.352684 0.689198 0.080389
0.381306 0.689174 0.080366
0.409929 0.689151 0.080342
0.438551 0.689127 0.080318
0.467174 0.689103 0.080295
0.495796 0.689079 0.080271
0.524418 0.689056 0.080247
0.553041 0.689032 0.080223
0.581663 0.689008 0.080200
0.610286 0.688985 0.080176
0.638908 0.688961 0.080152
0.667531 0.688937 0.080129
0.695683 0.689056 0.082248
0.726322 0.691787 0.086872
0.756958 0.694638 0.091620
0.787592 0.697611 0.096493
0.818225 0.700705 0.101491
0.848856 0.703921 0.106615
0.879485 0.707260 0.111864
0.910112 0.710721 0.117237
0.940737 0.714305 0.122736
0.971360 0.718012 0.128360
0.060629 0.720644 0.082693
0.067363 0.720643 0.082790
0.098372 0.720615 0.085116
0.126932 0.720591 0.085092
0.155493 0.720566 0.085067
0.184054 0.720542 0.085043
0.212615 0.720518 0.085019
0.241175 0.720493 0.084994
0.269736 0.720469 0.084970
0.298297 0.720445 0.084946
0.326858 0.720421 0.084922
0.355418 0.720396 0.084897
0.383979 0.720372 0.084873
0.412540 0.720348 0.084849
0.441101 0.720323 0.084824
0.469661 0.720299 0.084800
0.498222 0.720275 0.084776
0.526783 0.720250 0.084751
0.555344 0.720226 0.084727
0.583904 0.720202 0.084703
0.612465 0.720177 0.084678
0.641026 0.720153 0.084654
0.669586 0.720129 0.084630
0.698147 0.720105 0.084605
0.726238 0.720222 0.086788
0.756872 0.723010 0.091534
0.787504 0.725919 0.096405
0.818135 0.728950 0.101401
0.848764 0.732102 0.106523
0.879390 0.735377 0.111770
0.910016 0.738774 0.117141
0.940639 0.742294 0.122638
0.971260 0.745937 0.128260
0.064656 0.751844 0.087269
0.070780 0.751843 0.087368
0.101784 0.751814 0.089752
0.130282 0.751789 0.089727
0.158781 0.751764 0.089702
0.187280 0.751739 0.089677
0.215779 0.751714 0.089652
0.244278 0.751689 0.089627
0.272777 0.751665 0.089602
0.301275 0.751640 0.089577
0.329774 0.751615 0.089552
0.358273 0.751590 0.089527
0.386772 0.751565 0.089502
0.415271 0.751540 0.089477
0.443770 0.751515 0.089453
0.472268 0.751490 0.089428
0.500767 0.751465 0.089403
0.529266 0.751440 0.089378
0.557765 0.751415 0.089353
0.586264 0.751390 0.089328
0.614763 0.751365 0.089303
0.643261 0.751341 0.089278
0.671760 0.751316 0.089253
0.700259 0.751291 0.089228
0.728758 0.751266 0.089203
0.756786 0.751382 0.091448
0.787416 0.754228 0.096317
0.818045 0.757195 0.101312
0.848672 0.760283 0.106431
0.879296 0.763494 0.111676
0.909919 0.766827 0.117045
0.940541 0.770283 0.122540
0.971160 0.773862 0.128160
0.068805 0.783039 0.091966
0.074320 0.783038 0.092068
0.105318 0.783008 0.094509
0.133754 0.782983 0.094484
0.162191 0.782957 0.094458
0.190628 0.782932 0.094433
0.219065 0.782906 0.094407
0.247501 0.782881 0.094382
0.275938 0.782855 0.094356
0.304375 0.782830 0.094331
0.332812 0.782804 0.094305
0.361248 0.782779 0.094280
0.389685 0.782753 0.094254
0.418122 0.782728 0.094229
0.446559 0.782702 0.094203
0.474995 0.782677 0.094177
0.503432 0.782651 0.094152
0.531869 0.782625 0.094126
0.560306 0.782600 0.094101
0.588742 0.782574 0.094075
0.617179 0.782549 0.094050
0.645616 0.782523 0.094024
0.674053 0.782498 0.093999
0.702489 0.782472 0.093973
0.730926 0.782447 0.093948
0.759363 0.782421 0.093922
0.787328 0.782536 0.096229
0.817955 0.785440 0.101222
0.848580 0.788465 0.106339
0.879202 0.791612 0.111581
0.909823 0.794881 0.116949
0.940442 0.798272 0.122442
0.971060 0.801787 0.128060
0.073077 0.814229 0.096786
0.077982 0.814228 0.096891
0.108974 0.814198 0.099389
0.137349 0.814172 0.099363
0.165723 0.814146 0.099337
0.194098 0.814120 0.099311
0.222472 0.814093 0.099285
0.250847 0.814067 0.099259
0.279221 0.814041 0.099233
0.307596 0.814015 0.099206
0.335970 0.813989 0.099180
0.364345 0.813963 0.099154
0.392719 0.813937 0.099128
0.421094 0.813910 0.099102
0.449468 0.813884 0.099076
0.477843 0.813858 0.099050
0.506217 0.813832 0.099023
0.534592 0.813806 0.098997
0.562966 0.813780 0.098971
0.591341 0.813754 0.098945
0.619715 0.813727 0.098919
0.648090 0.813701 0.098893
0.676464 0.813675 0.098867
0.704839 0.813649 0.098840
0.733213 0.813623 0.098814
0.761588 0.813597 0.098788
0.789962 0.813571 0.098762
