luts/original/runway-cool.cube
TITLE "Runway Cool"
LUT_3D_SIZE 5
DOMAIN_MIN 0.0 0.0 0.0
DOMAIN_MAX 1.0 1.0 1.0
0.002791 0.002791 0.012241
0.237018 0.013668 0.027506
0.482656 0.034631 0.052856
0.728176 0.063601 0.086213
0.973577 0.100577 0.127577
0.014894 0.252081 0.028731
0.238345 0.251972 0.030160
0.482109 0.268221 0.054334
0.727495 0.293694 0.088045
0.972763 0.327061 0.129763
0.035863 0.502113 0.054088
0.251826 0.501969 0.055969
0.483713 0.501809 0.055809
0.726824 0.521176 0.087374
0.971962 0.550462 0.128962
0.064656 0.751844 0.087269
0.272777 0.751665 0.089602
0.500767 0.751465 0.089403
0.728758 0.751266 0.089203
0.971160 0.773862 0.128160
0.101272 1.000000 0.128272
0.301470 1.000000 0.131058
0.525459 1.000000 0.130819
0.749447 1.000000 0.130581
0.973435 1.000000 0.130343
0.016794 0.016794 0.267819
0.240036 0.016686 0.267711
0.482601 0.034576 0.285926
0.728108 0.063533 0.315208
0.973496 0.100496 0.352496
0.016382 0.253569 0.267407
0.250867 0.259067 0.267267
0.481993 0.283968 0.299892
0.727352 0.312777 0.334053
0.972593 0.349593 0.375552
0.035809 0.502059 0.287159
0.265397 0.501897 0.298664
0.486098 0.501746 0.305746
0.726710 0.531985 0.337260
0.971808 0.567881 0.378809
0.064588 0.751776 0.316263
0.289261 0.751574 0.332401
0.513671 0.751376 0.339313
0.730073 0.751189 0.339126
0.971040 0.781968 0.378040
0.101191 1.000000 0.353191
0.320949 1.000000 0.373257
0.544320 1.000000 0.380709
0.759369 1.000000 0.380480
0.974418 1.000000 0.380251
0.038855 0.038855 0.523330
0.253613 0.038713 0.523188
0.486576 0.038551 0.523026
0.728040 0.063465 0.544202
0.973415 0.100415 0.577415
0.038312 0.271437 0.522787
0.267856 0.284644 0.522581
0.489585 0.287944 0.522419
0.727288 0.312713 0.551915
0.972515 0.349515 0.591793
0.037769 0.504019 0.522244
0.267356 0.505293 0.522081
0.517125 0.519487 0.521850
0.726529 0.561954 0.578857
0.971610 0.598610 0.622418
0.064520 0.751708 0.545258
0.289197 0.751509 0.552707
0.538966 0.751278 0.575756
0.734549 0.751108 0.589046
0.970887 0.799387 0.627887
0.101109 1.000000 0.578109
0.320871 1.000000 0.591127
0.570595 1.000000 0.619274
0.779942 1.000000 0.630368
0.976542 1.000000 0.630159
0.068974 0.068974 0.778774
0.275247 0.068797 0.778597
0.504110 0.068597 0.778397
0.732972 0.068397 0.778197
0.973334 0.100334 0.802334
0.068300 0.297362 0.778100
0.292917 0.314542 0.777842
0.515594 0.317835 0.777635
0.734591 0.317645 0.777445
0.972437 0.349437 0.808034
0.067626 0.525751 0.777426
0.292272 0.534735 0.777197
0.541955 0.560759 0.776880
0.740438 0.566890 0.776690
0.971538 0.598538 0.820751
0.066952 0.754140 0.776752
0.291628 0.754927 0.776553
0.541395 0.757517 0.776320
0.776046 0.776046 0.776046
0.970628 0.847628 0.864401
0.101028 1.000000 0.803028
0.320792 1.000000 0.808997
0.570522 1.000000 0.822031
0.820242 1.000000 0.858814
0.983697 1.000000 0.880061
0.104175 0.104175 1.000000
0.301965 0.103965 1.000000
0.526725 0.103725 1.000000
0.751486 0.103486 1.000000
0.976247 0.103247 1.000000
0.103371 0.328371 1.000000
0.323061 0.349215 1.000000
0.543479 0.352813 1.000000
0.759916 0.352582 1.000000
0.976352 0.352352 1.000000
0.102566 0.552566 1.000000
0.322282 0.566384 1.000000
0.571908 0.596247 1.000000
0.777669 0.601669 1.000000
0.977456 0.601456 1.000000
0.101761 0.776761 1.000000
0.321502 0.783553 1.000000
0.571182 0.798352 1.000000
0.820766 0.840052 1.000000
0.982556 0.850556 1.000000
0.100957 1.000000 1.000000
0.320723 1.000000 1.000000
0.570457 1.000000 1.000000
0.820191 1.000000 1.000000
1.000000 1.000000 1.000000
