luts/original/shadow-skin.cube
TITLE "Shadow Skin"
LUT_3D_SIZE 9
DOMAIN_MIN 0.0 0.0 0.0
DOMAIN_MAX 1.0 1.0 1.0
0.000000 0.000000 0.000000
0.054339 0.000810 0.000810
0.128687 0.001653 0.001653
0.220651 0.002531 0.002531
0.327111 0.003443 0.003443
0.444161 0.004391 0.004391
0.567047 0.005376 0.005376
0.690101 0.006397 0.006397
0.806676 0.007456 0.007456
0.002571 0.052764 0.002571
0.061634 0.055290 0.003503
0.142327 0.057882 0.004472
0.241611 0.060540 0.005477
0.355635 0.063265 0.006520
0.479673 0.066059 0.007601
0.608058 0.068923 0.008721
0.734114 0.071857 0.009880
0.850089 0.074849 0.011080
0.005590 0.133213 0.005590
0.069694 0.138176 0.006654
0.157023 0.143236 0.007757
0.263811 0.148396 0.008899
0.385389 0.153655 0.010081
0.516108 0.158833 0.011299
0.649290 0.163864 0.012549
0.777174 0.168973 0.013842
0.890804 0.174161 0.015177
0.009089 0.243455 0.009089
0.078562 0.251330 0.010294
0.172781 0.258754 0.011524
0.287177 0.266122 0.012791
0.416188 0.273570 0.014100
0.553179 0.281097 0.015452
0.690378 0.288701 0.016847
0.818802 0.296381 0.018287
0.919063 0.297930 0.019464
0.013039 0.379910 0.013039
0.088146 0.389654 0.014364
0.189496 0.399456 0.015732
0.311618 0.409314 0.017144
0.445360 0.416179 0.018491
0.578581 0.417457 0.019658
0.707556 0.418736 0.020835
0.825087 0.420015 0.022022
0.923977 0.421295 0.023218
0.017447 0.535540 0.017447
0.097341 0.539601 0.018686
0.201274 0.540607 0.019847
0.322143 0.541613 0.021017
0.452753 0.542618 0.022197
0.585911 0.543624 0.023386
0.714424 0.544629 0.024585
0.831098 0.545635 0.025793
0.928740 0.546640 0.027010
0.021193 0.662382 0.021193
0.102507 0.663077 0.022366
0.207548 0.663772 0.023548
0.329123 0.664467 0.024739
0.460043 0.665161 0.025940
0.593117 0.665856 0.027150
0.721154 0.666550 0.028369
0.836962 0.667243 0.029597
0.933352 0.667937 0.030834
0.024888 0.776608 0.024888
0.107666 0.776994 0.026081
0.213775 0.777380 0.027283
0.336025 0.777765 0.028494
0.467229 0.778151 0.029715
0.600198 0.778536 0.030944
0.727744 0.778921 0.032182
0.842721 0.780075 0.033458
0.937921 0.782184 0.034777
0.028614 0.875983 0.028614
0.112813 0.876100 0.029826
0.219952 0.876218 0.031047
0.342845 0.876336 0.032278
0.474415 0.877817 0.033575
0.607389 0.879612 0.034895
0.734537 0.881401 0.036226
0.848651 0.883181 0.037565
0.942525 0.884955 0.038915
0.000228 0.000228 0.043309
0.055025 0.001050 0.045663
0.129997 0.001906 0.048080
0.222688 0.002796 0.050561
0.329909 0.003722 0.053108
0.447675 0.004683 0.055721
0.571143 0.005681 0.058401
0.694550 0.006716 0.061150
0.811141 0.007789 0.063968
0.002843 0.053559 0.051089
0.062396 0.056109 0.053669
0.143743 0.058724 0.056316
0.243774 0.061406 0.059031
0.358561 0.064156 0.061815
0.483289 0.066975 0.064669
0.612195 0.069863 0.067594
0.738495 0.072822 0.070591
0.854315 0.075783 0.073561
0.005910 0.134824 0.059677
0.070537 0.139821 0.062497
0.158548 0.144917 0.065387
0.266101 0.150112 0.068349
0.388438 0.155407 0.071383
0.519801 0.160476 0.074295
0.653427 0.165534 0.077212
0.781429 0.170670 0.080189
0.894724 0.175885 0.083227
0.009460 0.246051 0.069122
0.079486 0.253868 0.072157
0.174404 0.261184 0.075038
0.289574 0.268580 0.077978
0.419330 0.276054 0.080979
0.556930 0.283607 0.084040
0.694487 0.291237 0.087163
0.819536 0.296892 0.089740
0.919550 0.298364 0.091094
0.013452 0.383145 0.078754
0.089141 0.392909 0.081778
0.191222 0.402731 0.084862
0.314125 0.412606 0.088008
0.446088 0.416544 0.089917
0.579304 0.417820 0.091260
0.708233 0.419097 0.092609
0.825679 0.420373 0.093963
0.924448 0.421650 0.095323
0.017892 0.538868 0.088758
0.097846 0.539872 0.090085
0.201889 0.540876 0.091418
0.322828 0.541879 0.092756
0.453468 0.542882 0.094099
0.586618 0.543885 0.095448
0.715085 0.544888 0.096801
0.831674 0.545891 0.098160
0.929194 0.546894 0.099524
0.021552 0.662545 0.092895
0.103010 0.663238 0.094227
0.208156 0.663930 0.095565
0.329797 0.664623 0.096907
0.460745 0.665315 0.098255
0.593809 0.666006 0.099607
0.721798 0.666698 0.100965
0.837521 0.667389 0.102328
0.933790 0.668080 0.103695
0.025248 0.776665 0.097004
0.108166 0.777049 0.098341
0.214375 0.777432 0.099682
0.336688 0.777816 0.101028
0.467917 0.778199 0.102379
0.600874 0.778582 0.103735
0.728372 0.778965 0.105096
0.843297 0.780705 0.106748
0.938370 0.782812 0.108485
0.028975 0.875953 0.101083
0.113309 0.876070 0.102423
0.220545 0.876186 0.103767
0.343517 0.876553 0.105172
0.475138 0.878353 0.106902
0.608100 0.880147 0.108640
0.735196 0.881933 0.110386
0.849221 0.883711 0.112139
0.942966 0.885482 0.113900
0.000461 0.000461 0.099867
0.055719 0.001295 0.104296
0.131317 0.002163 0.108821
0.224738 0.003066 0.113445
0.332720 0.004005 0.118167
0.451200 0.004979 0.122988
0.575245 0.005990 0.127909
0.698994 0.007039 0.132931
0.815585 0.008126 0.138053
0.003121 0.054363 0.114677
0.063167 0.056935 0.119446
0.145169 0.059574 0.124315
0.245950 0.062281 0.129285
0.361499 0.065055 0.134356
0.486915 0.067899 0.139529
0.616335 0.070812 0.144804
0.742867 0.073797 0.150182
0.858513 0.076724 0.155225
0.006235 0.136448 0.130684
0.071388 0.141480 0.135805
0.160085 0.146611 0.141028
0.268404 0.151841 0.146354
0.391496 0.157123 0.151714
0.523501 0.162129 0.156647
0.657563 0.167213 0.161650
0.785670 0.172376 0.166723
0.898609 0.177617 0.171867
0.009837 0.248661 0.147928
0.080411 0.256280 0.153120
0.176038 0.263623 0.158081
0.291982 0.271046 0.163111
0.422481 0.278547 0.168212
0.560686 0.286127 0.173382
0.698591 0.293782 0.178623
0.820144 0.297327 0.181258
0.920036 0.298796 0.182574
0.013869 0.386387 0.164584
0.090145 0.396171 0.169711
0.192958 0.406011 0.174908
0.316475 0.415635 0.180050
0.446814 0.416908 0.181349
0.580024 0.418181 0.182651
0.708908 0.419455 0.183955
0.826270 0.420730 0.185262
0.924917 0.422005 0.186571
0.018248 0.539140 0.180145
0.098351 0.540142 0.181430
0.202503 0.541143 0.182718
0.323511 0.542144 0.184009
0.454182 0.543144 0.185302
0.587324 0.544145 0.186597
0.715743 0.545145 0.187895
0.832248 0.546146 0.189196
0.929646 0.547146 0.190498
0.021910 0.662706 0.184053
0.103513 0.663397 0.185332
0.208763 0.664087 0.186614
0.330470 0.664777 0.187898
0.461446 0.665466 0.189184
0.594499 0.666156 0.190473
0.722440 0.666845 0.191764
0.838079 0.667534 0.193057
0.934226 0.668222 0.194353
0.025609 0.776721 0.187890
0.108665 0.777102 0.189162
0.214975 0.777484 0.190437
0.337350 0.777865 0.191714
0.468604 0.778246 0.192994
0.601549 0.778627 0.194275
0.729012 0.779223 0.195654
0.843872 0.781334 0.197705
0.938817 0.783440 0.199761
0.029337 0.875923 0.191655
0.113805 0.876037 0.192920
0.221137 0.876152 0.194188
0.344213 0.877091 0.195836
0.475861 0.878889 0.197888
0.608810 0.880681 0.199944
0.735856 0.882464 0.202007
0.849789 0.884241 0.204075
0.943405 0.886009 0.206149
0.000698 0.000698 0.168149
0.056421 0.001545 0.175033
0.132648 0.002425 0.182044
0.226800 0.003341 0.189181
0.335544 0.004293 0.196444
0.454736 0.005280 0.203832
0.579353 0.006305 0.211345
0.703433 0.007368 0.218983
0.820007 0.008469 0.226744
0.003403 0.055174 0.191269
0.063945 0.057771 0.198592
0.146607 0.060434 0.206040
0.248139 0.063164 0.213613
0.364451 0.065963 0.221311
0.490551 0.068832 0.229133
0.620478 0.071771 0.237078
0.747228 0.074766 0.245055
0.862683 0.077672 0.252253
0.006566 0.138083 0.215909
0.072248 0.143151 0.223667
0.161634 0.148317 0.231550
0.270720 0.153583 0.239557
0.394556 0.158758 0.247234
0.527207 0.163791 0.254460
0.661697 0.168902 0.261753
0.789895 0.174091 0.269113
0.902460 0.179359 0.276538
0.010219 0.251287 0.242064
0.081344 0.258701 0.249424
0.177682 0.266072 0.256678
0.294402 0.273521 0.263999
0.425642 0.281049 0.271385
0.564447 0.288655 0.278836
0.702622 0.296294 0.286306
0.820750 0.297760 0.287415
0.920520 0.299227 0.288525
0.014291 0.389636 0.266256
0.091156 0.399439 0.273669
0.194704 0.409298 0.281145
0.317167 0.415999 0.286285
0.447539 0.417270 0.287379
0.580742 0.418541 0.288473
0.709581 0.419813 0.289569
0.826859 0.421085 0.290665
0.925384 0.422357 0.291762
0.018605 0.539411 0.286254
0.098856 0.540410 0.287332
0.203116 0.541408 0.288410
0.324193 0.542406 0.289490
0.454894 0.543405 0.290571
0.588027 0.544403 0.291652
0.716400 0.545401 0.292735
0.832821 0.546399 0.293818
0.930096 0.547397 0.294902
0.022269 0.662866 0.289401
0.104015 0.663554 0.290466
0.209369 0.664242 0.291532
0.331142 0.664929 0.292599
0.462144 0.665616 0.293666
0.595187 0.666303 0.294735
0.723080 0.666990 0.295804
0.838634 0.667676 0.296874
0.934660 0.668363 0.297945
0.025969 0.776775 0.292451
0.109164 0.777154 0.293503
0.215573 0.777534 0.294556
0.338011 0.777913 0.295610
0.469290 0.778292 0.296665
0.602222 0.778671 0.297720
0.729675 0.779854 0.299339
0.844446 0.781963 0.301612
0.939264 0.784067 0.303889
0.029699 0.875891 0.295405
0.114299 0.876004 0.296443
0.221727 0.876116 0.297483
0.344910 0.877628 0.299542
0.476584 0.879425 0.301815
0.609521 0.881214 0.304092
0.736515 0.882995 0.306373
0.850358 0.884769 0.308657
0.943844 0.886536 0.310945
0.000939 0.000939 0.246426
0.057130 0.001799 0.255986
0.133990 0.002692 0.265689
0.228876 0.003621 0.275533
0.338382 0.004585 0.285514
0.458282 0.005587 0.295632
0.583465 0.006625 0.305883
0.707867 0.007702 0.316265
0.824408 0.008817 0.326774
0.003690 0.055994 0.278563
0.064732 0.058614 0.288611
0.148056 0.061301 0.298795
0.250341 0.064056 0.309111
0.367415 0.066880 0.319558
0.494197 0.069774 0.330132
0.624623 0.072739 0.340830
0.751574 0.075700 0.351045
0.866824 0.078628 0.360542
0.006901 0.139732 0.312370
0.073116 0.144834 0.322882
0.163193 0.150036 0.333520
0.273049 0.155338 0.344281
0.397628 0.160403 0.354032
0.530920 0.165462 0.363551
0.665829 0.170599 0.373117
0.794105 0.175815 0.382725
0.906275 0.181109 0.392375
0.010602 0.253814 0.347534
0.082284 0.261132 0.357028
0.179336 0.268529 0.366569
0.296832 0.276006 0.376155
0.428813 0.283560 0.385783
0.568211 0.291191 0.395450
0.703309 0.296727 0.402062
0.821354 0.298191 0.402852
0.921002 0.299657 0.403642
0.014718 0.392891 0.379203
0.092176 0.402714 0.388849
0.196460 0.412591 0.398533
0.317858 0.416361 0.401893
0.448263 0.417630 0.402667
0.581459 0.418899 0.403440
0.710252 0.420168 0.404214
0.827447 0.421438 0.404988
0.925849 0.422708 0.405762
0.018961 0.539680 0.401713
0.099360 0.540676 0.402470
0.203728 0.541672 0.403227
0.324873 0.542668 0.403984
0.455604 0.543664 0.404742
0.588729 0.544659 0.405499
0.717055 0.545655 0.406257
0.833391 0.546650 0.407015
0.930545 0.547645 0.407773
0.022628 0.663024 0.403743
0.104516 0.663709 0.404484
0.209974 0.664395 0.405225
0.331812 0.665080 0.405966
0.462842 0.665765 0.406708
0.595874 0.666449 0.407450
0.723719 0.667134 0.408191
0.839188 0.667818 0.408934
0.935092 0.668501 0.409676
0.026329 0.776828 0.405663
0.109662 0.777205 0.406389
0.216171 0.777582 0.407114
0.338670 0.777959 0.407839
0.469973 0.778336 0.408565
0.602894 0.778712 0.409291
0.730337 0.780484 0.411358
0.845020 0.782592 0.413755
0.939710 0.784694 0.416154
0.030060 0.875858 0.407475
0.114794 0.875969 0.408184
0.222338 0.876364 0.409176
0.345607 0.878165 0.411571
0.477307 0.879959 0.413969
0.610231 0.881746 0.416367
0.737173 0.883525 0.418768
0.850926 0.885297 0.421169
0.944282 0.887062 0.423573
0.001186 0.001186 0.332758
0.057847 0.002057 0.345041
0.135343 0.002963 0.357461
0.230964 0.003905 0.370015
0.341233 0.004883 0.382695
0.461840 0.005898 0.395497
0.587582 0.006950 0.408415
0.712295 0.008041 0.421442
0.828787 0.009171 0.434573
0.003982 0.056823 0.374003
0.065527 0.059467 0.386747
0.149516 0.062178 0.399612
0.252556 0.064957 0.412591
0.370392 0.067806 0.425677
0.497851 0.070725 0.438865
0.628770 0.073716 0.452148
0.755908 0.076641 0.464122
0.870935 0.079591 0.475703
0.007242 0.141392 0.416796
0.073993 0.146530 0.429941
0.164765 0.151768 0.443186
0.275386 0.157048 0.456276
0.400709 0.162056 0.467860
0.534638 0.167142 0.479449
0.669958 0.172305 0.491039
0.798298 0.177548 0.502624
0.910053 0.182868 0.514201
0.010986 0.256227 0.460010
0.083233 0.263572 0.471603
0.181000 0.270996 0.483199
0.299274 0.278499 0.494794
0.431992 0.286080 0.506383
0.571980 0.293737 0.517960
0.703995 0.297159 0.521873
0.821956 0.298621 0.522280
0.921482 0.300085 0.522688
0.015150 0.396153 0.498553
0.093203 0.405995 0.510143
0.198056 0.415456 0.521162
0.318547 0.416722 0.521553
0.448985 0.417988 0.521944
0.582174 0.419255 0.522335
0.710921 0.420522 0.522726
0.828032 0.421790 0.523117
0.926312 0.423058 0.523508
0.019318 0.539947 0.521221
0.099864 0.540940 0.521595
0.204339 0.541934 0.521970
0.325553 0.542927 0.522344
0.456313 0.543921 0.522718
0.589428 0.544914 0.523093
0.717708 0.545907 0.523467
0.833959 0.546900 0.523842
0.930992 0.547893 0.524216
0.022987 0.663180 0.521950
0.105017 0.663864 0.522308
0.210578 0.664546 0.522666
0.332481 0.665229 0.523024
0.463537 0.665912 0.523381
0.596558 0.666594 0.523739
0.724356 0.667276 0.524097
0.839740 0.667957 0.524455
0.935523 0.668639 0.524813
0.026690 0.776879 0.522568
0.110159 0.777254 0.522909
0.216767 0.777629 0.523250
0.339328 0.778004 0.523592
0.470656 0.778378 0.523933
0.603581 0.779002 0.524572
0.730999 0.781113 0.526995
0.845593 0.783220 0.529417
0.940156 0.785321 0.531839
0.030421 0.875824 0.523074
0.115287 0.875933 0.523399
0.222970 0.876902 0.524788
0.346304 0.878701 0.527211
0.478030 0.880493 0.529633
0.610942 0.882278 0.532055
0.737831 0.884055 0.534476
0.851493 0.885825 0.536897
0.944719 0.887587 0.539317
0.001436 0.001436 0.424982
0.058571 0.002320 0.439851
0.136706 0.003239 0.454823
0.233065 0.004194 0.469889
0.344096 0.005185 0.485037
0.465408 0.006214 0.500258
0.591703 0.007280 0.515542
0.716716 0.008385 0.530877
0.833143 0.009530 0.546252
0.004278 0.057660 0.474773
0.066329 0.060327 0.489972
0.150988 0.063063 0.505240
0.254783 0.065867 0.520566
0.373382 0.068741 0.535941
0.501515 0.071686 0.551351
0.632916 0.074682 0.566547
0.760230 0.077590 0.579831
0.875015 0.080561 0.593052
0.007588 0.143066 0.525614
0.074879 0.148239 0.541027
0.166348 0.153512 0.556472
0.277726 0.158684 0.570910
0.403801 0.163718 0.584181
0.538363 0.168830 0.597385
0.674085 0.174021 0.610515
0.802475 0.179289 0.623564
0.913794 0.184636 0.636525
0.011375 0.258649 0.575272
0.084189 0.266021 0.588528
0.182675 0.273472 0.601714
0.301726 0.281002 0.614823
0.435181 0.288608 0.627848
0.575524 0.296131 0.640454
0.704679 0.297589 0.640468
0.822557 0.299050 0.640482
0.921960 0.300512 0.640496
0.015587 0.399422 0.619126
0.094238 0.409282 0.632126
0.198673 0.415818 0.640015
0.319236 0.417082 0.640013
0.449705 0.418346 0.640011
0.582887 0.419610 0.640009
0.711588 0.420875 0.640006
0.828615 0.422140 0.640004
0.926774 0.423405 0.640002
0.019675 0.540212 0.639546
0.100367 0.541203 0.639528
0.204949 0.542194 0.639510
0.326231 0.543185 0.639491
0.457020 0.544176 0.639473
0.590127 0.545167 0.639455
0.718359 0.546157 0.639436
0.834526 0.547148 0.639418
0.931437 0.548138 0.639400
0.023346 0.663335 0.638965
0.105517 0.664016 0.638930
0.211181 0.664696 0.638896
0.333148 0.665377 0.638861
0.464231 0.666057 0.638827
0.597241 0.666736 0.638793
0.724990 0.667416 0.638758
0.840290 0.668095 0.638724
0.935960 0.668968 0.638972
0.027050 0.776929 0.638274
0.110656 0.777302 0.638224
0.217363 0.777674 0.638173
0.339985 0.778047 0.638123
0.471336 0.778420 0.638072
0.604293 0.779632 0.639182
0.731661 0.781742 0.641534
0.846166 0.783847 0.643883
0.940600 0.785947 0.646229
0.030782 0.875789 0.637476
0.115780 0.875896 0.637409
0.223603 0.877440 0.639392
0.347001 0.879237 0.641743
0.478753 0.881027 0.644092
0.611652 0.882809 0.646438
0.738489 0.884584 0.648782
0.852059 0.886351 0.651123
0.945155 0.888111 0.653461
0.001691 0.001691 0.520703
0.059304 0.002588 0.537829
0.138080 0.003520 0.554983
0.235179 0.004488 0.572149
0.346973 0.005493 0.589313
0.468986 0.006535 0.606456
0.595828 0.007615 0.623562
0.721130 0.008735 0.640613
0.837475 0.009894 0.657594
0.004580 0.058505 0.577791
0.067141 0.061197 0.594974
0.152470 0.063957 0.612131
0.257024 0.066786 0.629245
0.376384 0.069685 0.646299
0.505188 0.072655 0.663275
0.637056 0.075617 0.679076
0.764539 0.078546 0.693424
0.879064 0.081539 0.707604
0.007939 0.144752 0.634940
0.075773 0.149960 0.651993
0.167942 0.155269 0.668963
0.280079 0.160329 0.683863
0.406904 0.165389 0.698162
0.542093 0.170528 0.712288
0.678209 0.175745 0.726230
0.806634 0.181040 0.739981
0.917487 0.186409 0.753515
0.011768 0.261080 0.688636
0.085153 0.268479 0.702884
0.184360 0.275957 0.716955
0.304190 0.283513 0.730839
0.438380 0.291145 0.744527
0.576250 0.296561 0.752987
0.705361 0.298018 0.752647
0.823155 0.299477 0.752307
0.922437 0.300937 0.751967
0.016028 0.402697 0.735429
0.095281 0.412575 0.749053
0.199289 0.416178 0.752448
0.319923 0.417439 0.752093
0.450424 0.418701 0.751737
0.583599 0.419963 0.751382
0.712254 0.421225 0.751027
0.829197 0.422488 0.750671
0.927233 0.423751 0.750316
0.020032 0.540476 0.751527
0.100870 0.541464 0.751157
0.205559 0.542453 0.750787
0.326907 0.543441 0.750416
0.457726 0.544430 0.750046
0.590823 0.545418 0.749675
0.719008 0.546406 0.749304
0.835091 0.547394 0.748933
0.931880 0.548382 0.748562
0.023705 0.663488 0.749794
0.106017 0.664167 0.749408
0.211783 0.664845 0.749023
0.333814 0.665523 0.748637
0.464923 0.666200 0.748250
0.597922 0.666878 0.747864
0.725623 0.667555 0.747477
0.840838 0.668232 0.747091
0.936412 0.669660 0.747883
0.027410 0.776977 0.747958
0.111152 0.777348 0.747556
0.217957 0.777718 0.747155
0.340640 0.778089 0.746753
0.472015 0.778459 0.746351
0.605005 0.780263 0.748077
0.732322 0.782371 0.750259
0.846738 0.784474 0.752436
0.941044 0.786572 0.754609
0.031143 0.875752 0.746017
0.116293 0.876174 0.746086
0.224236 0.877977 0.748272
0.347699 0.879772 0.750453
0.479477 0.881559 0.752630
0.612361 0.883339 0.754802
0.739146 0.885112 0.756970
0.852625 0.886877 0.759133
0.945590 0.888635 0.761291
0.001951 0.001951 0.617288
0.060044 0.002861 0.636134
0.139465 0.003806 0.654885
0.237306 0.004787 0.673517
0.349863 0.005805 0.692007
0.472575 0.006861 0.710330
0.599958 0.007956 0.728461
0.725538 0.009089 0.746374
0.841783 0.010263 0.764044
0.004886 0.059359 0.679691
0.067960 0.062075 0.698151
0.153964 0.064860 0.716436
0.259278 0.067714 0.734519
0.379398 0.070638 0.752375
0.508870 0.073634 0.769978
0.641196 0.076559 0.785326
0.768836 0.079509 0.799855
0.883082 0.082524 0.814069
0.008295 0.146450 0.740567
0.076676 0.151695 0.758363
0.169542 0.156973 0.775504
0.282442 0.161983 0.790240
0.410016 0.167070 0.804669
0.545829 0.172235 0.818779
0.682329 0.177478 0.832557
0.810776 0.182800 0.845993
0.917978 0.186873 0.854457
0.012166 0.263520 0.795122
0.086125 0.270947 0.809450
0.186055 0.278451 0.823453
0.306664 0.286033 0.837121
0.441587 0.293691 0.850442
0.576975 0.296991 0.853882
0.706041 0.298446 0.853279
0.823752 0.299903 0.852676
0.922911 0.301361 0.852071
0.016475 0.405979 0.841649
0.096221 0.415278 0.853912
0.199904 0.416536 0.853297
0.320608 0.417795 0.852680
0.451141 0.419055 0.852063
0.584308 0.420314 0.851445
0.712918 0.421574 0.850827
0.829776 0.422835 0.850207
0.927691 0.424096 0.849587
0.020389 0.540738 0.852071
0.101372 0.541724 0.851440
0.206167 0.542710 0.850809
0.327583 0.543696 0.850176
0.458430 0.544682 0.849543
0.591517 0.545668 0.848909
0.719655 0.546653 0.848275
0.835653 0.547639 0.847639
0.932321 0.548624 0.847003
0.024064 0.663640 0.849516
0.106516 0.664316 0.848869
0.212384 0.664992 0.848221
0.334479 0.665667 0.847573
0.465614 0.666342 0.846923
0.598602 0.667017 0.846273
0.726254 0.667692 0.845623
0.841384 0.668366 0.844971
0.936863 0.670351 0.846371
0.027770 0.777024 0.846860
0.111648 0.777393 0.846197
0.218551 0.777761 0.845533
0.341294 0.778129 0.844868
0.472714 0.778780 0.844622
0.605716 0.780892 0.846542
0.732983 0.782999 0.848455
0.847309 0.785101 0.850362
0.941487 0.787197 0.852262
0.031504 0.875714 0.844103
0.116823 0.876713 0.844793
0.224869 0.878513 0.846712
0.348397 0.880306 0.848625
0.480200 0.882091 0.850532
0.613071 0.883869 0.852431
0.739804 0.885639 0.854324
0.853190 0.887402 0.856210
0.946025 0.889158 0.858089
