luts/original/shadow-skin.cube
TITLE "Shadow Skin"
LUT_3D_SIZE 33
DOMAIN_MIN 0.0 0.0 0.0
DOMAIN_MAX 1.0 1.0 1.0
0.000000 0.000000 0.000000
0.011604 0.000199 0.000199
0.024545 0.000401 0.000401
0.038800 0.000604 0.000604
0.054339 0.000810 0.000810
0.071132 0.001018 0.001018
0.089145 0.001227 0.001227
0.108343 0.001439 0.001439
0.128687 0.001653 0.001653
0.150136 0.001869 0.001869
0.172644 0.002088 0.002088
0.196166 0.002308 0.002308
0.220651 0.002531 0.002531
0.246046 0.002756 0.002756
0.272294 0.002983 0.002983
0.299337 0.003212 0.003212
0.327111 0.003443 0.003443
0.355552 0.003677 0.003677
0.384589 0.003913 0.003913
0.414151 0.004151 0.004151
0.444161 0.004391 0.004391
0.474541 0.004634 0.004634
0.505207 0.004879 0.004879
0.536072 0.005126 0.005126
0.567047 0.005376 0.005376
0.598037 0.005627 0.005627
0.628944 0.005882 0.005882
0.659667 0.006138 0.006138
0.690101 0.006397 0.006397
0.720134 0.006658 0.006658
0.749654 0.006922 0.006922
0.778542 0.007188 0.007188
0.806676 0.007456 0.007456
0.000602 0.010806 0.000602
0.012448 0.011094 0.000809
0.025664 0.011383 0.001018
0.040222 0.011675 0.001229
0.056093 0.011970 0.001442
0.073243 0.012267 0.001657
0.091637 0.012567 0.001875
0.111236 0.012870 0.002094
0.132000 0.013175 0.002316
0.153884 0.013482 0.002540
0.176842 0.013792 0.002766
0.200823 0.014105 0.002994
0.225775 0.014420 0.003225
0.251642 0.014739 0.003457
0.278365 0.015059 0.003692
0.305881 0.015383 0.003929
0.334124 0.015709 0.004169
0.363027 0.016037 0.004410
0.392515 0.016369 0.004654
0.422514 0.016703 0.004901
0.452944 0.017040 0.005149
0.483722 0.017380 0.005400
0.514762 0.017722 0.005653
0.545973 0.018067 0.005909
0.577261 0.018415 0.006166
0.608528 0.018766 0.006427
0.639672 0.019120 0.006689
0.670588 0.019476 0.006954
0.701164 0.019836 0.007221
0.731289 0.020198 0.007491
0.760842 0.020563 0.007763
0.789702 0.020931 0.008038
0.817741 0.021301 0.008315
0.001231 0.023155 0.001231
0.013324 0.023542 0.001446
0.026819 0.023933 0.001662
0.041686 0.024327 0.001881
0.057893 0.024723 0.002101
0.075405 0.025123 0.002324
0.094184 0.025526 0.002549
0.114190 0.025932 0.002777
0.135377 0.026340 0.003006
0.157701 0.026752 0.003238
0.181111 0.027168 0.003472
0.205555 0.027586 0.003708
0.230976 0.028007 0.003947
0.257317 0.028432 0.004187
0.284515 0.028859 0.004430
0.312504 0.029290 0.004675
0.341216 0.029724 0.004923
0.370579 0.030161 0.005173
0.400515 0.030602 0.005425
0.430947 0.031045 0.005679
0.461792 0.031492 0.005936
0.492962 0.031942 0.006195
0.524367 0.032396 0.006457
0.555914 0.032853 0.006721
0.587503 0.033313 0.006987
0.619034 0.033776 0.007256
0.650400 0.034243 0.007527
0.681491 0.034713 0.007801
0.712192 0.035186 0.008076
0.742386 0.035663 0.008355
0.771949 0.036143 0.008636
0.800755 0.036627 0.008919
0.828672 0.037114 0.009205
0.001887 0.037118 0.001887
0.014231 0.037619 0.002109
0.028010 0.038123 0.002333
0.043191 0.038631 0.002560
0.059740 0.039142 0.002788
0.077619 0.039656 0.003019
0.096788 0.040175 0.003252
0.117203 0.040696 0.003487
0.138819 0.041222 0.003725
0.161586 0.041751 0.003965
0.185452 0.042284 0.004206
0.210361 0.042820 0.004451
0.236255 0.043360 0.004697
0.263071 0.043904 0.004946
0.290745 0.044451 0.005197
0.319208 0.045002 0.005451
0.348387 0.045557 0.005707
0.378207 0.046115 0.005965
0.408589 0.046678 0.006225
0.439449 0.047244 0.006488
0.470702 0.047813 0.006753
0.502257 0.048387 0.007021
0.534019 0.048964 0.007291
0.565891 0.049546 0.007564
0.597770 0.050131 0.007838
0.629551 0.050720 0.008116
0.661123 0.051313 0.008396
0.692371 0.051909 0.008678
0.723177 0.052510 0.008963
0.753419 0.053115 0.009250
0.782968 0.053723 0.009540
0.811693 0.054335 0.009832
0.839458 0.054952 0.010127
0.002571 0.052764 0.002571
0.015171 0.053390 0.002801
0.029239 0.054019 0.003033
0.044738 0.054653 0.003267
0.061634 0.055290 0.003503
0.079885 0.055932 0.003742
0.099448 0.056578 0.003983
0.120279 0.057228 0.004226
0.142327 0.057882 0.004472
0.165541 0.058540 0.004720
0.189866 0.059203 0.004970
0.215243 0.059869 0.005222
0.241611 0.060540 0.005477
0.268904 0.061215 0.005734
0.297055 0.061894 0.005994
0.325990 0.062578 0.006256
0.355635 0.063265 0.006520
0.385910 0.063957 0.006786
0.416734 0.064654 0.007055
0.448018 0.065354 0.007327
0.479673 0.066059 0.007601
0.511605 0.066769 0.007877
0.543715 0.067482 0.008156
0.575901 0.068200 0.008437
0.608058 0.068923 0.008721
0.640074 0.069650 0.009007
0.671835 0.070381 0.009295
0.703223 0.071116 0.009587
0.734114 0.071857 0.009880
0.764381 0.072601 0.010176
0.793890 0.073350 0.010475
0.822507 0.074104 0.010777
0.850089 0.074849 0.011080
0.003282 0.070152 0.003282
0.016144 0.070913 0.003520
0.030505 0.071680 0.003760
0.046329 0.072451 0.004002
0.063575 0.073226 0.004247
0.082203 0.074006 0.004494
0.102166 0.074791 0.004743
0.123416 0.075581 0.004994
0.145900 0.076375 0.005248
0.169565 0.077174 0.005504
0.194353 0.077977 0.005763
0.220201 0.078785 0.006024
0.247044 0.079598 0.006287
0.274816 0.080416 0.006552
0.303443 0.081239 0.006820
0.332851 0.082066 0.007091
0.362960 0.082898 0.007363
0.393688 0.083735 0.007639
0.424949 0.084577 0.007916
0.456652 0.085424 0.008196
0.488703 0.086275 0.008479
0.521003 0.087132 0.008764
0.553452 0.087993 0.009052
0.585941 0.088859 0.009342
0.618362 0.089730 0.009634
0.650599 0.090606 0.009929
0.682533 0.091487 0.010227
0.714041 0.092373 0.010527
0.744995 0.093264 0.010830
0.775261 0.094123 0.011134
0.804702 0.094968 0.011440
0.833179 0.095817 0.011748
0.860545 0.096670 0.012059
0.004022 0.089331 0.004022
0.017150 0.090239 0.004268
0.031810 0.091153 0.004516
0.047962 0.092072 0.004767
0.065566 0.092996 0.005020
0.084575 0.093925 0.005275
0.104942 0.094860 0.005532
0.126615 0.095800 0.005792
0.149541 0.096745 0.006054
0.173660 0.097695 0.006319
0.198913 0.098650 0.006586
0.225234 0.099611 0.006855
0.252555 0.100577 0.007127
0.280806 0.101548 0.007401
0.309910 0.102524 0.007677
0.339790 0.103506 0.007956
0.370362 0.104493 0.008238
0.401540 0.105485 0.008522
0.433233 0.106483 0.008808
0.465349 0.107486 0.009097
0.497789 0.108495 0.009389
0.530450 0.109509 0.009683
0.563226 0.110528 0.009979
0.596008 0.111553 0.010278
0.628679 0.112583 0.010580
0.661121 0.113617 0.010884
0.693205 0.114587 0.011188
0.724808 0.115562 0.011495
0.755799 0.116542 0.011805
0.786040 0.117526 0.012116
0.815390 0.118515 0.012431
0.843701 0.119508 0.012748
0.870822 0.120506 0.013068
0.004791 0.110341 0.004791
0.018190 0.111407 0.005045
0.033153 0.112478 0.005302
0.049640 0.113555 0.005561
0.067605 0.114638 0.005822
0.087001 0.115726 0.006085
0.107776 0.116820 0.006351
0.129878 0.117919 0.006619
0.153248 0.119025 0.006890
0.177826 0.120136 0.007163
0.203547 0.121253 0.007439
0.230343 0.122375 0.007717
0.258144 0.123503 0.007997
0.286875 0.124638 0.008280
0.316456 0.125777 0.008565
0.346806 0.126923 0.008853
0.377838 0.128075 0.009144
0.409463 0.129232 0.009437
0.441585 0.130395 0.009732
0.474108 0.131564 0.010030
0.506929 0.132739 0.010331
0.539942 0.133920 0.010634
0.573033 0.135073 0.010938
0.606087 0.136178 0.011243
0.638988 0.137289 0.011551
0.671613 0.138404 0.011861
0.703834 0.139525 0.012174
0.735518 0.140649 0.012490
0.766527 0.141779 0.012808
0.796721 0.142913 0.013129
0.825951 0.144052 0.013452
0.854067 0.145196 0.013778
0.880912 0.146345 0.014107
0.005590 0.133213 0.005590
0.019265 0.134445 0.005852
0.034537 0.135682 0.006117
0.051362 0.136926 0.006384
0.069694 0.138176 0.006654
0.089481 0.139431 0.006926
0.110670 0.140694 0.007201
0.133204 0.141962 0.007477
0.157023 0.143236 0.007757
0.182062 0.144517 0.008039
0.208254 0.145804 0.008323
0.235529 0.147096 0.008610
0.263811 0.148396 0.008899
0.293022 0.149701 0.009191
0.323080 0.151013 0.009485
0.353899 0.152331 0.009782
0.385389 0.153655 0.010081
0.417457 0.154985 0.010383
0.450003 0.156322 0.010688
0.482921 0.157587 0.010992
0.516108 0.158833 0.011299
0.549456 0.160083 0.011607
0.582849 0.161338 0.011919
0.616168 0.162599 0.012233
0.649290 0.163864 0.012549
0.682087 0.165134 0.012869
0.714426 0.166409 0.013190
0.746169 0.167689 0.013515
0.777174 0.168973 0.013842
0.807294 0.170263 0.014172
0.836378 0.171557 0.014504
0.864269 0.172857 0.014839
0.890804 0.174161 0.015177
0.006418 0.157964 0.006418
0.020374 0.159369 0.006689
0.035961 0.160780 0.006963
0.053130 0.162198 0.007239
0.071834 0.163623 0.007517
0.092017 0.165054 0.007798
0.113624 0.166492 0.008081
0.136595 0.167936 0.008366
0.160866 0.169387 0.008655
0.186370 0.170844 0.008945
0.213037 0.172308 0.009239
0.240791 0.173779 0.009534
0.269555 0.175256 0.009833
0.299247 0.176739 0.010134
0.329782 0.178230 0.010437
0.361068 0.179712 0.010743
0.393005 0.181096 0.011047
0.425503 0.182485 0.011354
0.458459 0.183878 0.011664
0.491768 0.185277 0.011977
0.525319 0.186681 0.012292
0.558998 0.188089 0.012609
0.592685 0.189503 0.012929
0.626257 0.190922 0.013252
0.659585 0.192345 0.013578
0.692536 0.193774 0.013906
0.724974 0.195208 0.014237
0.756755 0.196646 0.014570
0.787732 0.198090 0.014906
0.817753 0.199539 0.015245
0.846662 0.200993 0.015587
0.874296 0.202451 0.015931
0.900487 0.203915 0.016278
0.007277 0.184598 0.007277
0.021520 0.186182 0.007557
0.037425 0.187774 0.007839
0.054944 0.189373 0.008124
0.074024 0.190978 0.008411
0.094609 0.192591 0.008700
0.116639 0.194210 0.008993
0.140051 0.195836 0.009287
0.164778 0.197469 0.009584
0.190750 0.199109 0.009884
0.217894 0.200756 0.010186
0.246130 0.202410 0.010491
0.275373 0.204004 0.010797
0.305538 0.205533 0.011102
0.336538 0.207068 0.011411
0.368281 0.208607 0.011721
0.400669 0.210151 0.012035
0.433600 0.211701 0.012351
0.466968 0.213255 0.012669
0.500663 0.214815 0.012991
0.534570 0.216380 0.013314
0.568570 0.217949 0.013641
0.602539 0.219524 0.013970
0.636349 0.221104 0.014302
0.669867 0.222689 0.014636
0.702956 0.224279 0.014974
0.735472 0.225874 0.015314
0.767269 0.227474 0.015656
0.798194 0.229079 0.016002
0.828090 0.230689 0.016350
0.856794 0.232303 0.016701
0.884139 0.233923 0.017054
0.909951 0.235548 0.017411
0.008167 0.213103 0.008167
0.022701 0.214873 0.008456
0.038931 0.216650 0.008747
0.056805 0.218434 0.009040
0.076267 0.220225 0.009336
0.097258 0.222023 0.009635
0.119715 0.223829 0.009936
0.143572 0.225641 0.010240
0.168759 0.227461 0.010546
0.195196 0.229156 0.010851
0.222809 0.230832 0.011158
0.251518 0.232514 0.011467
0.281240 0.234200 0.011779
0.311884 0.235892 0.012093
0.343357 0.237589 0.012410
0.375562 0.239291 0.012730
0.408398 0.240998 0.013052
0.441757 0.242710 0.013377
0.475531 0.244427 0.013705
0.509604 0.246149 0.014035
0.543858 0.247876 0.014368
0.578168 0.249608 0.014703
0.612407 0.251345 0.015041
0.646441 0.253087 0.015382
0.680134 0.254834 0.015726
0.713341 0.256585 0.016072
0.745916 0.258342 0.016422
0.777706 0.260104 0.016774
0.808553 0.261871 0.017128
0.838296 0.263642 0.017486
0.866765 0.265419 0.017846
0.893788 0.267200 0.018209
0.917810 0.268157 0.018532
0.009089 0.243455 0.009089
0.023920 0.245413 0.009387
0.040480 0.247378 0.009687
0.058713 0.249350 0.009989
0.078562 0.251330 0.010294
0.099962 0.253280 0.010601
0.122843 0.255100 0.010906
0.147140 0.256924 0.011214
0.172781 0.258754 0.011524
0.199687 0.260588 0.011837
0.227780 0.262428 0.012152
0.256973 0.264273 0.012470
0.287177 0.266122 0.012791
0.318300 0.267977 0.013114
0.350245 0.269837 0.013440
0.382909 0.271701 0.013769
0.416188 0.273570 0.014100
0.449972 0.275445 0.014434
0.484145 0.277324 0.014770
0.518588 0.279208 0.015110
0.553179 0.281097 0.015452
0.587789 0.282991 0.015796
0.622285 0.284889 0.016144
0.656529 0.286793 0.016494
0.690378 0.288701 0.016847
0.723685 0.290614 0.017203
0.756298 0.292532 0.017561
0.788058 0.294454 0.017923
0.818802 0.296381 0.018287
0.845951 0.296825 0.018583
0.871724 0.297193 0.018876
0.896132 0.297561 0.019170
0.919063 0.297930 0.019464
0.010043 0.275609 0.010043
0.025176 0.277756 0.010350
0.042067 0.279800 0.010656
0.060658 0.281768 0.010962
0.080890 0.283740 0.011270
0.102697 0.285718 0.011582
0.126011 0.287700 0.011895
0.150759 0.289687 0.012212
0.176864 0.291679 0.012531
0.204245 0.293676 0.012853
0.232819 0.295678 0.013177
0.262496 0.297685 0.013504
0.293184 0.299696 0.013833
0.324786 0.301712 0.014165
0.357200 0.303733 0.014500
0.390321 0.305758 0.014838
0.424040 0.307788 0.015178
0.458242 0.309823 0.015521
0.492807 0.311863 0.015867
0.527613 0.313907 0.016215
0.562532 0.315955 0.016567
0.597430 0.318009 0.016921
0.632169 0.320066 0.017277
0.666607 0.322129 0.017637
0.700596 0.324195 0.017999
0.733180 0.325725 0.018341
0.763239 0.326083 0.018633
0.792376 0.326442 0.018926
0.820480 0.326800 0.019219
0.847437 0.327159 0.019513
0.873135 0.327517 0.019808
0.897462 0.327876 0.020103
0.920306 0.328235 0.020399
0.011018 0.309089 0.011018
0.026450 0.311209 0.011327
0.043676 0.313333 0.011640
0.062634 0.315462 0.011954
0.083260 0.317596 0.012272
0.105484 0.319734 0.012592
0.129236 0.321877 0.012914
0.154438 0.324025 0.013240
0.181011 0.326176 0.013568
0.208870 0.328333 0.013898
0.237926 0.330494 0.014231
0.268089 0.332659 0.014567
0.299260 0.334829 0.014906
0.331339 0.337003 0.015247
0.364222 0.339182 0.015591
0.397797 0.341365 0.015938
0.431951 0.343552 0.016287
0.466566 0.345743 0.016640
0.501517 0.347939 0.016995
0.536677 0.350139 0.017352
0.571913 0.352343 0.017713
0.607086 0.354552 0.018076
0.640425 0.355495 0.018391
0.672542 0.355842 0.018683
0.704069 0.356189 0.018975
0.734893 0.356536 0.019268
0.764902 0.356883 0.019562
0.793984 0.357230 0.019856
0.822025 0.357577 0.020151
0.848913 0.357924 0.020446
0.874537 0.358272 0.020742
0.898783 0.358619 0.021039
0.921539 0.358966 0.021336
0.012014 0.343802 0.012014
0.027755 0.346079 0.012332
0.045323 0.348361 0.012653
0.064654 0.350648 0.012977
0.085678 0.352938 0.013303
0.108325 0.355233 0.013632
0.132518 0.357532 0.013963
0.158178 0.359835 0.014298
0.185222 0.362143 0.014635
0.213560 0.364454 0.014974
0.243102 0.366769 0.015317
0.273750 0.369088 0.015662
0.305405 0.371411 0.016009
0.337961 0.373739 0.016360
0.371309 0.376069 0.016713
0.405335 0.378404 0.017069
0.439920 0.380743 0.017428
0.474942 0.383085 0.017790
0.510181 0.385343 0.018151
0.543529 0.385677 0.018441
0.576730 0.386011 0.018733
0.609671 0.386344 0.019025
0.642241 0.386678 0.019317
0.674327 0.387012 0.019610
0.705817 0.387346 0.019904
0.736597 0.387681 0.020198
0.766556 0.388015 0.020493
0.795582 0.388349 0.020789
0.823560 0.388683 0.021085
0.850380 0.389017 0.021382
0.875929 0.389351 0.021679
0.900094 0.389686 0.021977
0.922763 0.390020 0.022276
0.013039 0.379910 0.013039
0.029096 0.382341 0.013367
0.047011 0.384775 0.013697
0.066718 0.387213 0.014029
0.088146 0.389654 0.014364
0.111219 0.392100 0.014702
0.135858 0.394548 0.015043
0.161979 0.397001 0.015386
0.189496 0.399456 0.015732
0.218317 0.401916 0.016081
0.248345 0.404378 0.016433
0.279480 0.406844 0.016787
0.311618 0.409314 0.017144
0.344650 0.411786 0.017504
0.378461 0.414262 0.017866
0.412234 0.415860 0.018201
0.445360 0.416179 0.018491
0.478670 0.416499 0.018782
0.512052 0.416818 0.019073
0.545393 0.417138 0.019366
0.578581 0.417457 0.019658
0.611504 0.417777 0.019952
0.644049 0.418097 0.020246
0.676104 0.418416 0.020540
0.707556 0.418736 0.020835
0.738292 0.419056 0.021131
0.768201 0.419376 0.021427
0.797170 0.419695 0.021724
0.825087 0.420015 0.022022
0.851838 0.420335 0.022320
0.877312 0.420655 0.022619
0.901396 0.420975 0.022918
0.923977 0.421295 0.023218
0.014095 0.417292 0.014095
0.030471 0.419868 0.014432
0.048739 0.422446 0.014771
0.068828 0.425027 0.015112
0.090663 0.427612 0.015457
0.114166 0.430199 0.015804
0.139255 0.432789 0.016153
0.165841 0.435382 0.016506
0.193835 0.437977 0.016861
0.223139 0.440576 0.017219
0.253655 0.443177 0.017580
0.285278 0.445780 0.017944
0.316858 0.446609 0.018250
0.348787 0.446913 0.018540
0.381232 0.447217 0.018831
0.414080 0.447521 0.019122
0.447218 0.447825 0.019414
0.480534 0.448129 0.019706
0.513915 0.448433 0.019999
0.547250 0.448737 0.020292
0.580426 0.449041 0.020587
0.613329 0.449345 0.020881
0.645849 0.449649 0.021177
0.677872 0.449953 0.021472
0.709286 0.450257 0.021769
0.739979 0.450561 0.022066
0.769837 0.450865 0.022364
0.798750 0.451169 0.022662
0.826603 0.451473 0.022961
0.853286 0.451778 0.023261
0.878685 0.452082 0.023561
0.902688 0.452386 0.023861
0.925182 0.452690 0.024163
0.015182 0.455804 0.015182
0.031882 0.458514 0.015527
0.050507 0.461227 0.015875
0.070982 0.463941 0.016226
0.093230 0.466658 0.016580
0.117168 0.469377 0.016936
0.142710 0.472097 0.017295
0.169764 0.474820 0.017657
0.198121 0.477213 0.018011
0.226921 0.477500 0.018300
0.256680 0.477787 0.018589
0.287285 0.478074 0.018879
0.318624 0.478362 0.019170
0.350584 0.478649 0.019461
0.383054 0.478936 0.019753
0.415919 0.479224 0.020046
0.449069 0.479511 0.020339
0.482391 0.479799 0.020633
0.515772 0.480086 0.020927
0.549100 0.480373 0.021222
0.582262 0.480661 0.021517
0.615146 0.480948 0.021813
0.647640 0.481235 0.022110
0.679631 0.481523 0.022407
0.711007 0.481810 0.022705
0.741656 0.482098 0.023004
0.771464 0.482385 0.023303
0.800320 0.482672 0.023602
0.828111 0.482960 0.023903
0.854725 0.483247 0.024204
0.880049 0.483535 0.024505
0.903970 0.483822 0.024807
0.926378 0.484109 0.025110
0.016299 0.495281 0.016299
0.033328 0.498114 0.016654
0.052315 0.500949 0.017011
0.073182 0.503784 0.017371
0.095847 0.506620 0.017734
0.119970 0.508173 0.018060
0.145295 0.508443 0.018349
0.171908 0.508713 0.018638
0.199699 0.508983 0.018928
0.228555 0.509253 0.019218
0.258363 0.509522 0.019509
0.289011 0.509792 0.019800
0.320386 0.510062 0.020092
0.352376 0.510332 0.020385
0.384870 0.510602 0.020678
0.417753 0.510871 0.020972
0.450914 0.511141 0.021267
0.484241 0.511411 0.021562
0.517621 0.511681 0.021857
0.550942 0.511950 0.022154
0.584091 0.512220 0.022450
0.616955 0.512490 0.022748
0.649423 0.512760 0.023046
0.681382 0.513029 0.023344
0.712720 0.513299 0.023644
0.743324 0.513569 0.023944
0.773082 0.513839 0.024244
0.801881 0.514108 0.024545
0.829609 0.514378 0.024847
0.856154 0.514648 0.025149
0.881403 0.514918 0.025451
0.905243 0.515187 0.025755
0.927563 0.515457 0.026059
0.017447 0.535540 0.017447
0.034811 0.538481 0.017811
0.053972 0.539098 0.018109
0.074846 0.539349 0.018398
0.097341 0.539601 0.018686
0.121343 0.539852 0.018975
0.146741 0.540104 0.019265
0.173422 0.540355 0.019556
0.201274 0.540607 0.019847
0.230185 0.540858 0.020138
0.260041 0.541110 0.020431
0.290732 0.541361 0.020724
0.322143 0.541613 0.021017
0.354163 0.541864 0.021311
0.386680 0.542116 0.021606
0.419581 0.542367 0.021901
0.452753 0.542618 0.022197
0.486085 0.542870 0.022493
0.519463 0.543121 0.022790
0.552776 0.543373 0.023088
0.585911 0.543624 0.023386
0.618756 0.543875 0.023685
0.651198 0.544127 0.023984
0.683125 0.544378 0.024284
0.714424 0.544629 0.024585
0.744984 0.544881 0.024886
0.774691 0.545132 0.025187
0.803433 0.545384 0.025490
0.831098 0.545635 0.025793
0.857574 0.545886 0.026096
0.882748 0.546137 0.026400
0.906507 0.546389 0.026705
0.928740 0.546640 0.027010
0.018446 0.570129 0.018446
0.035847 0.570361 0.018734
0.055086 0.570594 0.019023
0.076053 0.570827 0.019312
0.098633 0.571059 0.019602
0.122715 0.571292 0.019893
0.148186 0.571524 0.020184
0.174934 0.571757 0.020476
0.202847 0.571990 0.020768
0.231812 0.572222 0.021061
0.261716 0.572455 0.021355
0.292448 0.572687 0.021649
0.323895 0.572920 0.021944
0.355945 0.573152 0.022239
0.388485 0.573385 0.022535
0.421402 0.573617 0.022832
0.454586 0.573850 0.023129
0.487922 0.574082 0.023427
0.521298 0.574315 0.023725
0.554604 0.574547 0.024024
0.587725 0.574779 0.024324
0.620549 0.575012 0.024624
0.652965 0.575244 0.024924
0.684859 0.575477 0.025226
0.716120 0.575709 0.025527
0.746634 0.575941 0.025830
0.776290 0.576174 0.026133
0.804976 0.576406 0.026437
0.832578 0.576638 0.026741
0.858985 0.576871 0.027045
0.884083 0.577103 0.027351
0.907761 0.577335 0.027657
0.929907 0.577567 0.027963
0.019359 0.601332 0.019359
0.036864 0.601546 0.019649
0.056202 0.601759 0.019939
0.077259 0.601972 0.020230
0.099925 0.602185 0.020521
0.124086 0.602399 0.020813
0.149629 0.602612 0.021106
0.176444 0.602825 0.021399
0.204417 0.603038 0.021693
0.233435 0.603251 0.021987
0.263388 0.603465 0.022282
0.294161 0.603678 0.022577
0.325643 0.603891 0.022874
0.357721 0.604104 0.023170
0.390284 0.604317 0.023468
0.423218 0.604530 0.023765
0.456411 0.604743 0.024064
0.489752 0.604956 0.024363
0.523126 0.605169 0.024663
0.556423 0.605382 0.024963
0.589530 0.605595 0.025264
0.622334 0.605808 0.025565
0.654723 0.606021 0.025867
0.686584 0.606234 0.026169
0.717806 0.606447 0.026473
0.748276 0.606660 0.026776
0.777881 0.606873 0.027081
0.806510 0.607086 0.027385
0.834049 0.607299 0.027691
0.860386 0.607512 0.027997
0.885409 0.607724 0.028303
0.909006 0.607937 0.028611
0.931065 0.608150 0.028918
0.020275 0.632113 0.020275
0.037883 0.632307 0.020566
0.057318 0.632501 0.020857
0.078466 0.632694 0.021149
0.101216 0.632888 0.021442
0.125455 0.633081 0.021736
0.151071 0.633275 0.022029
0.177951 0.633468 0.022324
0.205984 0.633662 0.022619
0.235056 0.633855 0.022915
0.265055 0.634049 0.023211
0.295869 0.634242 0.023508
0.327386 0.634436 0.023805
0.359492 0.634629 0.024103
0.392077 0.634823 0.024402
0.425027 0.635016 0.024701
0.458231 0.635210 0.025001
0.491575 0.635403 0.025301
0.524947 0.635596 0.025602
0.558235 0.635790 0.025903
0.591327 0.635983 0.026206
0.624111 0.636176 0.026508
0.656473 0.636369 0.026811
0.688301 0.636563 0.027115
0.719484 0.636756 0.027420
0.749909 0.636949 0.027725
0.779463 0.637142 0.028030
0.808034 0.637336 0.028336
0.835510 0.637529 0.028643
0.861778 0.637722 0.028950
0.886726 0.637915 0.029258
0.910242 0.638108 0.029566
0.932213 0.638301 0.029875
0.021193 0.662382 0.021193
0.038904 0.662556 0.021485
0.058435 0.662730 0.021778
0.079674 0.662904 0.022072
0.102507 0.663077 0.022366
0.126824 0.663251 0.022660
0.152511 0.663425 0.022955
0.179457 0.663599 0.023251
0.207548 0.663772 0.023548
0.236672 0.663946 0.023845
0.266718 0.664120 0.024142
0.297573 0.664293 0.024440
0.329123 0.664467 0.024739
0.361258 0.664641 0.025038
0.393865 0.664814 0.025338
0.426831 0.664988 0.025639
0.460043 0.665161 0.025940
0.493391 0.665335 0.026241
0.526760 0.665509 0.026543
0.560040 0.665682 0.026846
0.593117 0.665856 0.027150
0.625879 0.666029 0.027453
0.658214 0.666203 0.027758
0.690010 0.666376 0.028063
0.721154 0.666550 0.028369
0.751533 0.666723 0.028675
0.781036 0.666896 0.028982
0.809550 0.667070 0.029289
0.836962 0.667243 0.029597
0.863161 0.667417 0.029905
0.888034 0.667590 0.030214
0.911468 0.667763 0.030524
0.933352 0.667937 0.030834
0.022113 0.692051 0.022113
0.039926 0.692205 0.022407
0.059553 0.692359 0.022701
0.080881 0.692513 0.022996
0.103798 0.692667 0.023291
0.128192 0.692821 0.023587
0.153950 0.692975 0.023884
0.180960 0.693129 0.024181
0.209109 0.693283 0.024478
0.238286 0.693437 0.024777
0.268377 0.693591 0.025076
0.299272 0.693744 0.025375
0.330856 0.693898 0.025675
0.363019 0.694052 0.025976
0.395647 0.694206 0.026277
0.428628 0.694360 0.026578
0.461850 0.694514 0.026881
0.495200 0.694668 0.027184
0.528567 0.694821 0.027487
0.561837 0.694975 0.027791
0.594899 0.695129 0.028096
0.627640 0.695283 0.028401
0.659948 0.695436 0.028706
0.691710 0.695590 0.029013
0.722814 0.695744 0.029319
0.753148 0.695898 0.029627
0.782600 0.696051 0.029935
0.811056 0.696205 0.030243
0.838405 0.696359 0.030553
0.864535 0.696512 0.030862
0.889332 0.696666 0.031172
0.912686 0.696819 0.031483
0.934482 0.696973 0.031795
0.023036 0.721033 0.023036
0.040950 0.721168 0.023331
0.060672 0.721302 0.023626
0.082089 0.721436 0.023922
0.105088 0.721571 0.024219
0.129558 0.721705 0.024516
0.155386 0.721840 0.024814
0.182460 0.721974 0.025112
0.210667 0.722109 0.025411
0.239896 0.722243 0.025711
0.270033 0.722377 0.026011
0.300966 0.722512 0.026312
0.332584 0.722646 0.026613
0.364774 0.722780 0.026915
0.397422 0.722915 0.027217
0.430418 0.723049 0.027520
0.463649 0.723183 0.027824
0.497002 0.723317 0.028128
0.530366 0.723452 0.028432
0.563627 0.723586 0.028737
0.596673 0.723720 0.029043
0.629392 0.723854 0.029350
0.661673 0.723989 0.029657
0.693401 0.724123 0.029964
0.724466 0.724257 0.030272
0.754755 0.724391 0.030581
0.784155 0.724525 0.030890
