luts/original/shadow-skin.cube
TITLE "Shadow Skin"
LUT_3D_SIZE 5
DOMAIN_MIN 0.0 0.0 0.0
DOMAIN_MAX 1.0 1.0 1.0
0.000000 0.000000 0.000000
0.128687 0.001653 0.001653
0.327111 0.003443 0.003443
0.567047 0.005376 0.005376
0.806676 0.007456 0.007456
0.005590 0.133213 0.005590
0.157023 0.143236 0.007757
0.385389 0.153655 0.010081
0.649290 0.163864 0.012549
0.890804 0.174161 0.015177
0.013039 0.379910 0.013039
0.189496 0.399456 0.015732
0.445360 0.416179 0.018491
0.707556 0.418736 0.020835
0.923977 0.421295 0.023218
0.021193 0.662382 0.021193
0.207548 0.663772 0.023548
0.460043 0.665161 0.025940
0.721154 0.666550 0.028369
0.933352 0.667937 0.030834
0.028614 0.875983 0.028614
0.219952 0.876218 0.031047
0.474415 0.877817 0.033575
0.734537 0.881401 0.036226
0.942525 0.884955 0.038915
0.000461 0.000461 0.099867
0.131317 0.002163 0.108821
0.332720 0.004005 0.118167
0.575245 0.005990 0.127909
0.815585 0.008126 0.138053
0.006235 0.136448 0.130684
0.160085 0.146611 0.141028
0.391496 0.157123 0.151714
0.657563 0.167213 0.161650
0.898609 0.177617 0.171867
0.013869 0.386387 0.164584
0.192958 0.406011 0.174908
0.446814 0.416908 0.181349
0.708908 0.419455 0.183955
0.924917 0.422005 0.186571
0.021910 0.662706 0.184053
0.208763 0.664087 0.186614
0.461446 0.665466 0.189184
0.722440 0.666845 0.191764
0.934226 0.668222 0.194353
0.029337 0.875923 0.191655
0.221137 0.876152 0.194188
0.475861 0.878889 0.197888
0.735856 0.882464 0.202007
0.943405 0.886009 0.206149
0.000939 0.000939 0.246426
0.133990 0.002692 0.265689
0.338382 0.004585 0.285514
0.583465 0.006625 0.305883
0.824408 0.008817 0.326774
0.006901 0.139732 0.312370
0.163193 0.150036 0.333520
0.397628 0.160403 0.354032
0.665829 0.170599 0.373117
0.906275 0.181109 0.392375
0.014718 0.392891 0.379203
0.196460 0.412591 0.398533
0.448263 0.417630 0.402667
0.710252 0.420168 0.404214
0.925849 0.422708 0.405762
0.022628 0.663024 0.403743
0.209974 0.664395 0.405225
0.462842 0.665765 0.406708
0.723719 0.667134 0.408191
0.935092 0.668501 0.409676
0.030060 0.875858 0.407475
0.222338 0.876364 0.409176
0.477307 0.879959 0.413969
0.737173 0.883525 0.418768
0.944282 0.887062 0.423573
0.001436 0.001436 0.424982
0.136706 0.003239 0.454823
0.344096 0.005185 0.485037
0.591703 0.007280 0.515542
0.833143 0.009530 0.546252
0.007588 0.143066 0.525614
0.166348 0.153512 0.556472
0.403801 0.163718 0.584181
0.674085 0.174021 0.610515
0.913794 0.184636 0.636525
0.015587 0.399422 0.619126
0.198673 0.415818 0.640015
0.449705 0.418346 0.640011
0.711588 0.420875 0.640006
0.926774 0.423405 0.640002
0.023346 0.663335 0.638965
0.211181 0.664696 0.638896
0.464231 0.666057 0.638827
0.724990 0.667416 0.638758
0.935960 0.668968 0.638972
0.030782 0.875789 0.637476
0.223603 0.877440 0.639392
0.478753 0.881027 0.644092
0.738489 0.884584 0.648782
0.945155 0.888111 0.653461
0.001951 0.001951 0.617288
0.139465 0.003806 0.654885
0.349863 0.005805 0.692007
0.599958 0.007956 0.728461
0.841783 0.010263 0.764044
0.008295 0.146450 0.740567
0.169542 0.156973 0.775504
0.410016 0.167070 0.804669
0.682329 0.177478 0.832557
0.917978 0.186873 0.854457
0.016475 0.405979 0.841649
0.199904 0.416536 0.853297
0.451141 0.419055 0.852063
0.712918 0.421574 0.850827
0.927691 0.424096 0.849587
0.024064 0.663640 0.849516
0.212384 0.664992 0.848221
0.465614 0.666342 0.846923
0.726254 0.667692 0.845623
0.936863 0.670351 0.846371
0.031504 0.875714 0.844103
0.224869 0.878513 0.846712
0.480200 0.882091 0.850532
0.739804 0.885639 0.854324
0.946025 0.889158 0.858089
