luts/original/silver-noir.cube
TITLE "Silver Noir"
LUT_3D_SIZE 9
DOMAIN_MIN 0.0 0.0 0.0
DOMAIN_MAX 1.0 1.0 1.0
0.000000 0.000000 0.010571
0.095048 0.000000 0.014682
0.214819 0.004794 0.026831
0.334720 0.016423 0.041955
0.454753 0.031028 0.060053
0.574917 0.048608 0.081126
0.695212 0.069162 0.105175
0.815639 0.092692 0.132198
0.936196 0.119196 0.162196
0.000000 0.117216 0.018306
0.100816 0.117347 0.021456
0.215638 0.123438 0.031238
0.335683 0.135018 0.047073
0.455853 0.149154 0.065878
0.576153 0.166146 0.087656
0.696583 0.186063 0.112408
0.817144 0.208928 0.140134
0.937836 0.234752 0.170836
0.009654 0.241717 0.031692
0.106946 0.241876 0.035438
0.220960 0.242101 0.035663
0.336569 0.248624 0.047959
0.456870 0.261882 0.066895
0.577297 0.277796 0.088801
0.697854 0.296551 0.113679
0.818542 0.318210 0.141532
0.939359 0.342804 0.172359
0.022696 0.366524 0.048227
0.115796 0.366709 0.052569
0.229071 0.366974 0.052833
0.342347 0.367239 0.053098
0.457886 0.374610 0.067911
0.578442 0.389446 0.089945
0.699126 0.407039 0.114951
0.819939 0.427492 0.142930
0.940883 0.450855 0.173883
0.038889 0.491639 0.067914
0.127725 0.491850 0.072850
0.239903 0.492153 0.073153
0.352080 0.492455 0.073455
0.464258 0.492758 0.073758
0.579587 0.501096 0.091090
0.700398 0.517527 0.116223
0.821337 0.536775 0.144328
0.942407 0.558907 0.175407
0.058232 0.617060 0.090750
0.142779 0.617296 0.096281
0.253734 0.617637 0.096621
0.364690 0.617978 0.096962
0.475645 0.618319 0.097303
0.586601 0.618659 0.097644
0.701669 0.628015 0.117494
0.822735 0.646057 0.145726
0.943931 0.666958 0.176931
0.080725 0.742788 0.116738
0.160972 0.743050 0.122862
0.270647 0.743428 0.123241
0.380322 0.743806 0.123619
0.489997 0.744185 0.123997
0.599673 0.744563 0.124376
0.709348 0.744942 0.124754
0.824133 0.755340 0.147124
0.945454 0.775010 0.178454
0.106369 0.868822 0.145875
0.182309 0.869110 0.152594
0.290672 0.869526 0.153010
0.399035 0.869942 0.153426
0.507399 0.870357 0.153842
0.615762 0.870773 0.154258
0.724125 0.871189 0.154673
0.832488 0.871605 0.155089
0.946978 0.883062 0.179978
0.135164 0.995164 0.178164
0.206793 0.995477 0.185477
0.313825 0.995930 0.185930
0.420857 0.996383 0.186383
0.527889 0.996836 0.186836
0.634921 0.997290 0.187290
0.741953 0.997743 0.187743
0.848985 0.998196 0.188196
0.956017 0.998649 0.188649
0.002246 0.002246 0.138243
0.101273 0.002364 0.138361
0.214898 0.004873 0.142942
0.334812 0.016516 0.156656
0.454858 0.031133 0.173345
0.575034 0.048725 0.193010
0.695342 0.069292 0.215649
0.815781 0.092834 0.241262
0.936351 0.119351 0.269851
0.002909 0.120362 0.138906
0.106516 0.122796 0.139076
0.215819 0.130794 0.146852
0.335885 0.142588 0.165522
0.456079 0.157354 0.184562
0.576404 0.175094 0.206143
0.696859 0.195809 0.230547
0.817445 0.219499 0.257856
0.938163 0.246163 0.288102
0.009734 0.241796 0.147803
0.109276 0.241963 0.150276
0.228558 0.242225 0.160787
0.336764 0.254959 0.173154
0.457130 0.271807 0.192155
0.577602 0.289878 0.214105
0.698199 0.310424 0.239024
0.818924 0.333733 0.266915
0.939779 0.359908 0.297778
0.022788 0.366616 0.162929
0.118296 0.366812 0.167281
0.239714 0.367126 0.177985
0.345464 0.367359 0.178218
0.458060 0.378408 0.193085
0.578682 0.396934 0.215186
0.699417 0.417100 0.240242
0.820275 0.439677 0.268265
0.941260 0.464937 0.299260
0.038993 0.491743 0.181206
0.130467 0.491967 0.186849
0.252191 0.492326 0.198326
0.359300 0.492607 0.198607
0.466408 0.492889 0.198889
0.579762 0.503990 0.216266
0.700635 0.523777 0.241460
0.821626 0.545621 0.269616
0.942741 0.569967 0.300741
0.058349 0.617177 0.202633
0.145787 0.617428 0.209381
0.267515 0.617831 0.221816
0.374457 0.618155 0.222140
0.481400 0.618479 0.222463
0.588343 0.618803 0.222787
0.701853 0.630453 0.242678
0.822976 0.651565 0.270967
0.944222 0.674996 0.302222
0.080855 0.742918 0.227211
0.164258 0.743195 0.234980
0.285882 0.743643 0.248456
0.392129 0.744007 0.248820
0.498376 0.744371 0.249183
0.604623 0.744735 0.249547
0.710870 0.745099 0.249911
0.824327 0.757509 0.272318
0.945703 0.780026 0.303703
0.106512 0.868965 0.254940
0.185879 0.869270 0.263686
0.307351 0.869762 0.278246
0.412657 0.870164 0.278649
0.517962 0.870567 0.279052
0.623267 0.870970 0.279454
0.728572 0.871373 0.279857
0.833877 0.871776 0.280260
0.947184 0.885055 0.305184
0.135319 0.995319 0.285819
0.210651 0.995651 0.295516
0.331944 0.996186 0.311186
0.436173 0.996628 0.311628
0.540402 0.997069 0.312069
0.644632 0.997510 0.312510
0.748861 0.997952 0.312952
0.853090 0.998393 0.313393
0.957319 0.998834 0.313834
0.011896 0.011896 0.265996
0.106031 0.012037 0.266137
0.222296 0.012271 0.266371
0.334905 0.016608 0.271358
0.454963 0.031238 0.286638
0.575152 0.048843 0.304893
0.695472 0.069422 0.326122
0.815924 0.092977 0.350327
0.936506 0.119506 0.377506
0.012684 0.128716 0.266784
0.112283 0.133124 0.267008
0.228359 0.138209 0.267309
0.335968 0.142671 0.273720
0.456177 0.157452 0.293304
0.576516 0.175206 0.314344
0.696984 0.195934 0.337830
0.817584 0.219637 0.364046
0.938314 0.246314 0.393102
0.013473 0.245535 0.267573
0.113028 0.246911 0.267753
0.238386 0.253249 0.268111
0.337038 0.268741 0.280418
0.457402 0.283677 0.306796
0.577889 0.301579 0.330026
0.698505 0.322455 0.355210
0.819252 0.346305 0.383015
0.940129 0.373129 0.413629
0.022881 0.366709 0.277631
0.118385 0.366900 0.279381
0.243708 0.367224 0.285271
0.358615 0.367521 0.303380
0.458320 0.388333 0.318345
0.579017 0.411104 0.340520
0.699795 0.433356 0.365620
0.820691 0.457585 0.393681
0.941712 0.484365 0.424712
0.039098 0.491848 0.294498
0.130568 0.492068 0.298054
0.255940 0.492440 0.307690
0.375391 0.492797 0.323797
0.471093 0.493030 0.324030
0.579973 0.509389 0.341476
0.700926 0.533838 0.366751
0.821972 0.558600 0.394963
0.943134 0.585211 0.426134
0.058466 0.617295 0.314516
0.145902 0.617543 0.319457
0.271320 0.617961 0.331376
0.391633 0.618364 0.347348
0.491476 0.618658 0.347642
0.591319 0.618951 0.347936
0.702056 0.634320 0.367881
0.823253 0.659616 0.396244
0.944556 0.686056 0.427556
0.080985 0.743048 0.337685
0.164386 0.743323 0.343823
0.289850 0.743788 0.357611
0.410412 0.744235 0.374047
0.511326 0.744576 0.374389
0.612240 0.744918 0.374730
0.713155 0.745259 0.375071
0.824535 0.760632 0.397525
0.945978 0.786901 0.428978
0.106654 0.869107 0.364004
0.186020 0.869410 0.371241
0.311530 0.869920 0.386731
0.432128 0.870412 0.403896
0.533046 0.870796 0.404281
0.633963 0.871181 0.404665
0.734881 0.871565 0.405049
0.835798 0.871949 0.405433
0.947400 0.887746 0.430400
0.135474 0.995474 0.393474
0.210804 0.995804 0.401750
0.336360 0.996360 0.418860
0.456895 0.996895 0.436895
0.557320 0.997320 0.437320
0.657746 0.997746 0.437746
0.758171 0.998171 0.438171
0.858596 0.998596 0.438596
0.959021 0.999021 0.439021
0.024473 0.024473 0.393832
0.113714 0.024636 0.393995
0.228595 0.024907 0.394267
0.343476 0.025179 0.394538
0.455067 0.031342 0.399930
0.575269 0.048960 0.416776
0.695602 0.069552 0.436596
0.816066 0.093120 0.459391
0.936662 0.119662 0.485162
0.025386 0.139995 0.394745
0.120964 0.145605 0.395011
0.237483 0.151002 0.395361
0.348015 0.151255 0.395614
0.456276 0.157551 0.402047
0.576628 0.175318 0.422546
0.697110 0.196060 0.445113
0.817722 0.219776 0.470235
0.938466 0.246466 0.498102
0.026299 0.255518 0.395658
0.121845 0.258869 0.395892
0.247301 0.269138 0.396348
0.357524 0.277352 0.396712
0.457486 0.283761 0.405301
0.577991 0.301682 0.431714
0.698623 0.322573 0.457530
0.819384 0.346437 0.485079
0.940276 0.373276 0.515026
0.027212 0.371040 0.396571
0.122727 0.372133 0.396774
0.248082 0.375292 0.397129
0.373538 0.385562 0.397585
0.458705 0.409980 0.415380
0.579369 0.428059 0.450652
0.700148 0.449098 0.478346
0.821056 0.473110 0.507257
0.942095 0.500095 0.538530
0.039203 0.491953 0.407790
0.130670 0.492170 0.409258
0.256034 0.492534 0.413096
0.381405 0.492905 0.421905
0.490986 0.493236 0.449236
0.580308 0.523559 0.466811
0.701344 0.552910 0.492169
0.822432 0.579588 0.520422
0.943628 0.607628 0.551628
0.058584 0.617412 0.426399
0.146017 0.617657 0.429532
0.271429 0.618069 0.437022
0.396849 0.618490 0.450417
0.513977 0.618889 0.472873
0.597845 0.619115 0.473099
0.702308 0.641567 0.493133
0.823600 0.672595 0.521591
0.944963 0.702296 0.552963
0.081115 0.743178 0.448159
0.164513 0.743451 0.452666
0.289972 0.743910 0.462748
0.415440 0.744377 0.478498
0.534121 0.744823 0.499636
0.625601 0.745125 0.499937
0.717080 0.745426 0.500238
0.824768 0.765603 0.522759
0.946298 0.796965 0.554298
0.106797 0.869250 0.473069
0.186160 0.869551 0.478796
0.311665 0.870056 0.491025
0.437178 0.870569 0.508590
0.556417 0.871060 0.529545
0.650509 0.871416 0.529900
0.744602 0.871771 0.530255
0.838694 0.872126 0.530611
0.947633 0.891633 0.555633
0.135629 0.995629 0.501129
0.210958 0.995958 0.507985
0.336509 0.996509 0.522134
0.462067 0.997067 0.541326
0.581516 0.997603 0.562603
0.676483 0.998005 0.563005
0.771450 0.998407 0.563407
0.866418 0.998809 0.563809
0.961385 0.999211 0.564211
0.039976 0.039976 0.521751
0.124323 0.040161 0.521936
0.237819 0.040469 0.522244
0.351315 0.040778 0.522553
0.464811 0.041086 0.522861
0.575387 0.049077 0.528659
0.695732 0.069682 0.547070
0.816209 0.093262 0.568456
0.936817 0.119817 0.592817
0.041013 0.154201 0.522788
0.132569 0.160848 0.523094
0.248795 0.166717 0.523492
0.358802 0.167011 0.523786
0.468809 0.167305 0.524080
0.576740 0.175431 0.530747
0.697235 0.196185 0.552396
0.817861 0.219914 0.576424
0.938617 0.246617 0.603102
0.042051 0.268426 0.523826
0.133581 0.273182 0.524106
0.259107 0.285432 0.524632
0.371523 0.293267 0.525042
0.475134 0.293534 0.525309
0.578094 0.301785 0.533402
0.698741 0.322691 0.559850
0.819517 0.346570 0.587143
0.940422 0.373422 0.616422
0.043089 0.382652 0.524864
0.134592 0.385516 0.525117
0.260049 0.392811 0.525574
0.385614 0.407814 0.526139
0.488768 0.419793 0.526568
0.579450 0.428141 0.537685
0.700254 0.449204 0.571885
0.821180 0.473233 0.602903
0.942234 0.500234 0.634755
0.044127 0.496877 0.525902
0.135603 0.497849 0.526128
0.260990 0.500190 0.526515
0.386408 0.504733 0.526933
0.511973 0.519735 0.527498
0.580759 0.550291 0.550291
0.701786 0.575736 0.597092
0.822859 0.599912 0.629524
0.944059 0.627059 0.662281
0.058701 0.617529 0.538282
0.146131 0.617772 0.539608
0.271537 0.618178 0.542668
0.396946 0.618587 0.547942
0.522365 0.619006 0.560178
0.619328 0.619328 0.588859
0.702726 0.660638 0.618551
0.824111 0.697223 0.647101
0.945511 0.728574 0.678511
0.081245 0.743308 0.558633
0.164641 0.743578 0.561509
0.290095 0.744032 0.567884
0.415553 0.744491 0.577748
0.541023 0.744961 0.595461
0.655472 0.745402 0.625214
0.725722 0.745613 0.625426
0.825064 0.774942 0.648054
0.946705 0.813205 0.679705
0.106940 0.869393 0.582133
0.186301 0.869691 0.586351
0.311801 0.870192 0.595319
0.437307 0.870698 0.608140
0.562824 0.871215 0.628217
0.679656 0.871704 0.655189
0.761673 0.872009 0.655493
0.843690 0.872313 0.655797
0.947898 0.897836 0.680898
0.135784 0.995784 0.608784
0.211111 0.996111 0.614219
0.336658 0.996658 0.625408
0.462210 0.997210 0.640543
0.587772 0.997772 0.662318
0.705530 0.998307 0.688307
0.792007 0.998674 0.688674
0.878484 0.999040 0.689040
0.964961 0.999406 0.689406
0.058404 0.058404 0.649751
0.137858 0.058611 0.649958
0.249969 0.058957 0.650304
0.362081 0.059303 0.650649
0.474192 0.059648 0.650995
0.586303 0.059994 0.651341
0.695862 0.069812 0.657544
0.816352 0.093405 0.677520
0.936972 0.119972 0.700472
0.059567 0.171332 0.650914
0.147100 0.178957 0.651259
0.262800 0.185358 0.651705
0.371891 0.185691 0.652037
0.480981 0.186023 0.652370
0.590072 0.186356 0.652703
0.697361 0.196311 0.659679
0.817999 0.220052 0.682613
0.938769 0.246769 0.708102
0.060730 0.284261 0.652076
0.148239 0.290207 0.652398
0.273831 0.304121 0.652991
0.386676 0.312100 0.653446
0.490969 0.312412 0.653759
0.595262 0.312725 0.654072
0.698860 0.322810 0.662169
0.819649 0.346702 0.689207
0.940568 0.373568 0.717818
0.061892 0.397189 0.653239
0.149378 0.401458 0.653537
0.274914 0.411397 0.654074
0.400547 0.428150 0.654706
0.508153 0.438831 0.655178
0.603651 0.439107 0.655454
0.700360 0.449310 0.665423
0.821303 0.473356 0.698550
0.942372 0.500372 0.730981
0.063055 0.510118 0.654402
0.150517 0.512708 0.654676
0.275998 0.518674 0.655157
0.401534 0.528614 0.655693
0.527220 0.549151 0.656379
0.622091 0.565531 0.656878
0.701863 0.575813 0.670872
0.822965 0.600019 0.713817
0.944186 0.627186 0.750464
0.064218 0.623046 0.655565
0.151656 0.623959 0.655816
0.277081 0.625950 0.656240
0.402521 0.629077 0.656680
0.528004 0.635232 0.657164
0.653690 0.655770 0.657849
0.703100 0.682787 0.682787
0.824652 0.726705 0.746114
0.946019 0.754019 0.783557
0.081375 0.743438 0.669106
0.164769 0.743706 0.670352
0.290217 0.744154 0.673021
0.415667 0.744605 0.676998
0.541122 0.745059 0.683919
0.666589 0.745527 0.700089
0.745812 0.745812 0.725500
0.825574 0.799570 0.773565
0.947318 0.844045 0.805318
0.107082 0.869535 0.691198
0.186441 0.869832 0.693906
0.311937 0.870328 0.699612
0.437436 0.870827 0.707690
0.562942 0.871333 0.720233
0.688462 0.871853 0.742821
0.799876 0.872335 0.780820
0.854724 0.872525 0.781009
0.948241 0.909514 0.806241
0.135940 0.995940 0.716440
0.211264 0.996264 0.720453
0.336807 0.996807 0.728682
0.462353 0.997353 0.739761
0.587907 0.997907 0.755634
0.713473 0.998473 0.780532
0.828238 0.999007 0.814007
0.899694 0.999309 0.814309
0.971150 0.999612 0.814612
0.079758 0.079758 0.777833
0.154319 0.079988 0.778063
0.265046 0.080371 0.778446
0.375772 0.080753 0.778828
0.486499 0.081136 0.779211
0.597225 0.081519 0.779594
0.707952 0.081902 0.779977
0.816494 0.093547 0.786585
0.937127 0.120127 0.808127
0.081046 0.191390 0.779121
0.164555 0.199961 0.779505
0.279626 0.206923 0.779998
0.387627 0.207295 0.780370
0.495628 0.207666 0.780741
0.603629 0.208037 0.781112
0.711630 0.208408 0.781483
0.818138 0.220191 0.788803
0.938920 0.246920 0.813102
0.082334 0.303021 0.780409
0.165821 0.310055 0.780771
0.291478 0.325537 0.781428
0.404190 0.333856 0.781931
0.508226 0.334210 0.782285
0.612263 0.334565 0.782640
0.716299 0.334919 0.782994
0.819782 0.346835 0.791270
0.940714 0.373714 0.819214
0.083621 0.414653 0.781696
0.167087 0.420148 0.782037
0.292696 0.432213 0.782646
0.418391 0.450393 0.783341
0.527355 0.460782 0.783857
0.625094 0.461110 0.784185
0.722834 0.461438 0.784513
0.821426 0.473479 0.794197
0.942511 0.500511 0.827207
0.084909 0.526284 0.782984
0.168353 0.530242 0.783303
0.293914 0.538889 0.783864
0.419536 0.551853 0.784486
0.545284 0.573759 0.785234
0.647371 0.587696 0.785771
0.733566 0.587975 0.786050
0.823072 0.600125 0.798110
0.944313 0.627313 0.838646
0.086197 0.637916 0.784272
0.169620 0.640336 0.784570
0.295132 0.645565 0.785082
0.420680 0.653313 0.785630
0.546302 0.666277 0.786252
0.672120 0.693150 0.787070
0.757492 0.714567 0.787642
0.824722 0.726776 0.804862
0.946126 0.754126 0.857510
0.087485 0.749547 0.785560
0.170886 0.750430 0.785836
0.296350 0.752242 0.786300
0.421825 0.754773 0.786775
0.547320 0.758795 0.787270
0.672872 0.766791 0.787822
0.788525 0.788525 0.788525
0.825847 0.815691 0.815691
0.947969 0.880969 0.897719
0.107225 0.869678 0.800262
0.186582 0.869972 0.801461
0.312073 0.870463 0.803906
0.437565 0.870956 0.807241
0.563060 0.871451 0.812249
0.688560 0.871951 0.821025
0.814078 0.872468 0.841640
0.872703 0.872703 0.862547
0.948854 0.940354 0.931854
0.136095 0.996095 0.824095
0.211417 0.996417 0.826687
0.336955 0.996955 0.831955
0.462496 0.997496 0.838978
0.588041 0.998041 0.848951
0.713594 0.998595 0.864477
0.839166 0.999166 0.892499
0.947190 0.999690 0.939690
0.984850 0.999850 0.939850
0.104038 0.104038 0.905997
0.173706 0.104290 0.906249
0.283047 0.104710 0.906669
0.392389 0.105130 0.907089
0.501731 0.105550 0.907509
0.611073 0.105970 0.907929
0.720415 0.106390 0.908349
0.829757 0.106810 0.908769
0.937283 0.120283 0.915783
0.105451 0.214373 0.907410
0.184936 0.223875 0.907833
0.299323 0.231415 0.908374
0.406142 0.231824 0.908783
0.512961 0.232233 0.909193
0.619780 0.232642 0.909602
0.726599 0.233052 0.910011
0.833418 0.233461 0.910420
0.939071 0.247071 0.918102
0.106864 0.324707 0.908823
0.186329 0.332771 0.909225
0.312050 0.349782 0.909947
0.424380 0.358537 0.910496
0.527741 0.358932 0.910891
0.631103 0.359326 0.911286
0.734465 0.359721 0.911680
0.837826 0.360115 0.912075
0.940860 0.373860 0.920610
0.108276 0.435042 0.910236
0.187721 0.441666 0.910618
0.313399 0.455618 0.911296
0.439157 0.475179 0.912053
0.548493 0.485655 0.912615
0.646826 0.486029 0.912988
0.745159 0.486402 0.913361
0.843492 0.486775 0.913735
0.942650 0.500650 0.923432
0.109689 0.545377 0.911648
0.189114 0.550562 0.912010
0.314749 0.561454 0.912645
0.440445 0.576680 0.913342
0.566250 0.599664 0.914147
0.670832 0.612766 0.914725
0.761178 0.613105 0.915065
0.851524 0.613445 0.915404
0.944440 0.627440 0.926829
0.111102 0.655711 0.913061
0.190506 0.659458 0.913403
0.316098 0.667290 0.913995
0.441733 0.678181 0.914630
0.567445 0.694549 0.915342
0.693317 0.722258 0.916214
0.789178 0.739860 0.916819
0.864881 0.740137 0.917097
0.946232 0.754232 0.931463
0.112515 0.766046 0.914474
0.191898 0.768353 0.914795
0.317447 0.773125 0.915344
0.443021 0.779682 0.915918
0.568640 0.789433 0.916537
0.694352 0.805801 0.917249
0.820313 0.839811 0.918210
0.894972 0.866901 0.918860
0.948030 0.881030 0.939655
0.113927 0.876380 0.915887
0.193291 0.877249 0.916188
0.318796 0.878961 0.916693
0.444309 0.881183 0.917206
0.569835 0.884318 0.917732
0.695387 0.889343 0.918284
0.821011 0.899409 0.918907
0.919559 0.919559 0.919559
0.949000 0.949000 0.949000
0.136250 0.996250 0.931750
0.211570 0.996570 0.932922
0.337104 0.997104 0.935229
0.462639 0.997639 0.938195
0.588176 0.998176 0.942267
0.713716 0.998716 0.948421
0.839262 0.999262 0.959262
0.964830 0.999830 0.984830
1.000000 1.000000 1.000000
0.124042 0.124042 0.984042
0.188816 0.124316 0.984316
0.296773 0.124773 0.984773
0.404730 0.125230 0.985230
0.512687 0.125687 0.985687
0.620644 0.126144 0.986144
0.728602 0.126602 0.986602
0.836559 0.127059 0.987059
0.944516 0.127516 0.987516
0.125580 0.233080 0.985579
0.201040 0.243473 0.986040
0.314629 0.251629 0.986629
0.420076 0.252076 0.987076
0.525522 0.252522 0.987522
0.630969 0.252969 0.987969
0.736415 0.253415 0.988415
0.841861 0.253862 0.988862
0.947308 0.254308 0.989308
0.127117 0.342117 0.987117
0.202558 0.351071 0.987558
0.328343 0.369593 0.988343
0.439940 0.378940 0.988940
0.542039 0.379373 0.989372
0.644138 0.379805 0.989805
0.746237 0.380237 0.990237
0.848336 0.380669 0.990669
0.950435 0.381102 0.991102
0.128655 0.451155 0.988655
0.204075 0.458670 0.989075
0.329818 0.474193 0.989818
0.455639 0.495269 0.990639
0.564448 0.506248 0.991248
0.661860 0.506660 0.991660
0.759273 0.507073 0.992073
0.856685 0.507485 0.992485
0.954098 0.507898 0.992898
0.130193 0.560193 0.990193
0.205593 0.566268 0.990593
0.331293 0.578793 0.991293
0.457057 0.595760 0.992057
0.582925 0.620198 0.992925
0.687549 0.633549 0.993549
0.777932 0.633932 0.993932
0.868315 0.634315 0.994315
0.958697 0.634697 0.994698
0.131730 0.669230 0.991730
0.207110 0.673867 0.992110
0.332768 0.683393 0.992768
0.458474 0.696252 0.993474
0.584258 0.714713 0.994258
0.710191 0.743721 0.995191
0.807839 0.760839 0.995839
0.886506 0.761172 0.996172
0.965172 0.761505 0.996505
0.133268 0.778268 0.993268
0.208627 0.781465 0.993627
0.334243 0.787993 0.994244
0.459891 0.796743 0.994891
0.585591 0.809227 0.995591
0.711390 0.828743 0.996390
0.837412 0.864079 0.997413
0.921099 0.888099 0.998099
0.976333 0.888333 0.998333
0.134806 0.887306 0.994806
0.210145 0.889064 0.995145
0.335719 0.892594 0.995719
0.461308 0.897234 0.996308
0.586924 0.903742 0.996924
0.712589 0.913766 0.997589
0.838366 0.931699 0.998366
0.964494 0.974494 0.999494
1.000000 1.000000 1.000000
0.136343 0.996343 0.996343
0.211662 0.996662 0.996662
0.337194 0.997194 0.997194
0.462725 0.997725 0.997725
0.588257 0.998257 0.998257
0.713788 0.998788 0.998788
0.839320 0.999320 0.999320
0.964851 0.999851 0.999851
1.000000 1.000000 1.000000
