luts/original/silver-noir.cube
TITLE "Silver Noir"
LUT_3D_SIZE 33
DOMAIN_MIN 0.0 0.0 0.0
DOMAIN_MAX 1.0 1.0 1.0
0.000000 0.000000 0.010571
0.019678 0.000000 0.011184
0.038086 0.000000 0.011816
0.065493 0.000000 0.012477
0.095048 0.000000 0.014682
0.124978 0.000000 0.017441
0.154917 0.000094 0.020385
0.184864 0.002351 0.023515
0.214819 0.004794 0.026831
0.244782 0.007422 0.030333
0.274753 0.010237 0.034021
0.304733 0.013237 0.037895
0.334720 0.016423 0.041955
0.364716 0.019796 0.046200
0.394720 0.023354 0.050632
0.424733 0.027098 0.055250
0.454753 0.031028 0.060053
0.484782 0.035144 0.065043
0.514819 0.039446 0.070218
0.544864 0.043934 0.075579
0.574917 0.048608 0.081126
0.604979 0.053467 0.086860
0.635048 0.058513 0.092779
0.665126 0.063745 0.098884
0.695212 0.069162 0.105175
0.725307 0.074766 0.111652
0.755409 0.080555 0.118314
0.785520 0.086530 0.125163
0.815639 0.092692 0.132198
0.845766 0.099039 0.139419
0.875901 0.105572 0.146825
0.906044 0.112291 0.154418
0.936196 0.119196 0.162196
0.000000 0.025033 0.011327
0.019678 0.025033 0.011327
0.038145 0.025059 0.011974
0.066278 0.026243 0.012663
0.095242 0.027583 0.015955
0.125182 0.029478 0.019126
0.155130 0.031558 0.022298
0.185086 0.033824 0.025597
0.215051 0.036276 0.029056
0.245023 0.038913 0.032687
0.275004 0.041737 0.036495
0.304992 0.044747 0.040484
0.334989 0.047942 0.044655
0.364994 0.051324 0.049010
0.395008 0.054891 0.053549
0.425029 0.058645 0.058272
0.455059 0.062584 0.063180
0.485097 0.066709 0.068273
0.515143 0.071020 0.073551
0.545197 0.075517 0.079015
0.575260 0.080200 0.084664
0.605330 0.085069 0.090498
0.635409 0.090124 0.096518
0.665496 0.095365 0.102724
0.695592 0.100792 0.109116
0.725695 0.106404 0.115693
0.755807 0.112203 0.122456
0.785927 0.118188 0.129404
0.816055 0.124358 0.136539
0.846191 0.130714 0.143859
0.876336 0.137257 0.151365
0.906488 0.143985 0.159057
0.936649 0.150899 0.166935
0.000000 0.055080 0.012795
0.019043 0.055080 0.012795
0.038988 0.055101 0.012987
0.069072 0.054773 0.015218
0.095406 0.056732 0.018059
0.125365 0.059418 0.020989
0.155325 0.061705 0.024096
0.185291 0.064055 0.027388
0.215265 0.066544 0.030865
0.245246 0.069197 0.034528
0.275236 0.072024 0.038376
0.305234 0.075029 0.042410
0.335240 0.078215 0.046630
0.365254 0.081583 0.051036
0.395276 0.085135 0.055628
0.425306 0.088870 0.060406
0.455344 0.092790 0.065369
0.485391 0.096895 0.070519
0.515446 0.101186 0.075854
0.545509 0.105661 0.081376
0.575580 0.110321 0.087083
0.605660 0.115167 0.092977
0.635747 0.120199 0.099056
0.665843 0.125416 0.105321
0.695947 0.130819 0.111772
0.726059 0.136407 0.118409
0.756179 0.142181 0.125232
0.786308 0.148141 0.132241
0.816445 0.154286 0.139435
0.846590 0.160618 0.146816
0.876743 0.167135 0.154383
0.906904 0.173838 0.162135
0.937074 0.180726 0.170074
0.000000 0.086139 0.015452
0.018408 0.086139 0.015452
0.039758 0.086161 0.015862
0.071065 0.086218 0.017734
0.098004 0.085890 0.019363
0.125514 0.087085 0.021137
0.155490 0.089875 0.024261
0.185467 0.092421 0.027564
0.215451 0.094991 0.031051
0.245442 0.097669 0.034723
0.275441 0.100489 0.038580
0.305447 0.103469 0.042623
0.335461 0.106616 0.046852
0.365483 0.109938 0.051266
0.395514 0.113436 0.055866
0.425552 0.117114 0.060652
0.455599 0.120972 0.065624
0.485653 0.125013 0.070781
0.515716 0.129236 0.076125
0.545787 0.133643 0.081654
0.575866 0.138234 0.087369
0.605954 0.143009 0.093271
0.636049 0.147968 0.099358
0.666153 0.153112 0.105631
0.696265 0.158441 0.112090
0.726385 0.163954 0.118735
0.756513 0.169653 0.125565
0.786650 0.175537 0.132582
0.816794 0.181607 0.139785
0.846947 0.187862 0.147173
0.877108 0.194302 0.154748
0.907277 0.200928 0.162508
0.937455 0.207739 0.170455
0.000000 0.117216 0.018306
0.017773 0.117216 0.018306
0.040724 0.117239 0.018833
0.072034 0.117300 0.020828
0.100816 0.117347 0.021456
0.127680 0.117033 0.022513
0.155654 0.118046 0.024425
0.185644 0.120787 0.027740
0.215638 0.123438 0.031238
0.245638 0.126140 0.034919
0.275645 0.128954 0.038785
0.305660 0.131908 0.042836
0.335683 0.135018 0.047073
0.365713 0.138292 0.051496
0.395752 0.141737 0.056104
0.425798 0.145357 0.060898
0.455853 0.149154 0.065878
0.485916 0.153131 0.071043
0.515986 0.157287 0.076395
0.546065 0.161626 0.081932
0.576153 0.166146 0.087656
0.606248 0.170850 0.093565
0.636351 0.175737 0.099660
0.666463 0.180808 0.105941
0.696583 0.186063 0.112408
0.726711 0.191502 0.119060
0.756847 0.197126 0.125899
0.786991 0.202934 0.132924
0.817144 0.208928 0.140134
0.847304 0.215106 0.147531
0.877473 0.221469 0.155113
0.907650 0.228018 0.162881
0.937836 0.234752 0.170836
0.001940 0.148312 0.021357
0.019079 0.148312 0.021357
0.041887 0.148337 0.021966
0.073200 0.148400 0.024057
0.102177 0.148451 0.024657
0.130569 0.148499 0.024705
0.157678 0.148200 0.025866
0.185820 0.149153 0.027917
0.215824 0.151884 0.031424
0.245833 0.154612 0.035114
0.275850 0.157419 0.038989
0.305873 0.160348 0.043049
0.335904 0.163419 0.047295
0.365943 0.166647 0.051725
0.395990 0.170039 0.056342
0.426044 0.173601 0.061144
0.456107 0.177336 0.066132
0.486178 0.181248 0.071306
0.516257 0.185338 0.076665
0.546344 0.189608 0.082211
0.576439 0.194059 0.087942
0.606542 0.198691 0.093859
0.636653 0.203506 0.099962
0.666773 0.208504 0.106251
0.696901 0.213685 0.112726
0.727036 0.219049 0.119386
0.757181 0.224598 0.126233
0.787333 0.230331 0.133265
0.817493 0.236248 0.140484
0.847662 0.242350 0.147888
0.877838 0.248637 0.155478
0.908023 0.255108 0.163254
0.938217 0.261765 0.171216
0.004315 0.179428 0.024605
0.020819 0.179428 0.024605
0.043247 0.179454 0.025280
0.074563 0.179520 0.027462
0.103614 0.179574 0.028054
0.132100 0.179624 0.028105
0.160586 0.179675 0.028156
0.187794 0.179391 0.029420
0.216010 0.180331 0.031610
0.246029 0.183083 0.035310
0.276054 0.185885 0.039194
0.306086 0.188788 0.043262
0.336126 0.191821 0.047516
0.366173 0.195002 0.051955
0.396228 0.198340 0.056580
0.426290 0.201844 0.061390
0.456361 0.205518 0.066386
0.486440 0.209366 0.071568
0.516527 0.213389 0.076936
0.546622 0.217591 0.082489
0.576725 0.221971 0.088228
0.606836 0.226532 0.094153
0.636955 0.231275 0.100264
0.667083 0.236199 0.106561
0.697219 0.241307 0.113044
0.727362 0.246597 0.119712
0.757514 0.252070 0.126567
0.787674 0.257727 0.133607
0.817843 0.263569 0.140833
0.848019 0.269594 0.148245
0.878204 0.275804 0.155844
0.908396 0.282199 0.163628
0.938597 0.288778 0.171597
0.006886 0.210563 0.028050
0.022755 0.210563 0.028050
0.044804 0.210590 0.028782
0.076122 0.210658 0.031053
0.105196 0.210715 0.031648
0.133708 0.210769 0.031701
0.162220 0.210822 0.031755
0.190733 0.210876 0.031808
0.217975 0.210607 0.033177
0.246225 0.211555 0.035506
0.276258 0.214350 0.039398
0.306299 0.217227 0.043476
0.336347 0.220222 0.047738
0.366402 0.223356 0.052185
0.396466 0.226642 0.056818
0.426537 0.230088 0.061636
0.456615 0.233700 0.066640
0.486702 0.237483 0.071830
0.516797 0.241440 0.077206
0.546900 0.245573 0.082767
0.577011 0.249884 0.088514
0.607130 0.254374 0.094447
0.637258 0.259044 0.100566
0.667393 0.263895 0.106871
0.697536 0.268929 0.113361
0.727688 0.274144 0.120038
0.757848 0.279543 0.126900
0.788016 0.285124 0.133949
0.818192 0.290889 0.141183
0.848376 0.296838 0.148603
0.878569 0.302972 0.156209
0.908770 0.309289 0.164001
0.938978 0.315791 0.171978
0.009654 0.241717 0.031692
0.024889 0.241717 0.031692
0.046558 0.241745 0.032475
0.077879 0.241816 0.034835
0.106946 0.241876 0.035438
0.135450 0.241932 0.035494
0.163953 0.241988 0.035551
0.192456 0.242044 0.035607
0.220960 0.242101 0.035663
0.248203 0.241846 0.037135
0.276463 0.242815 0.039603
0.306512 0.245667 0.043689
0.336569 0.248624 0.047959
0.366632 0.251711 0.052415
0.396704 0.254943 0.057056
0.426783 0.258331 0.061882
0.456870 0.261882 0.066895
0.486965 0.265601 0.072092
0.517067 0.269491 0.077476
0.547178 0.273556 0.083045
0.577297 0.277796 0.088801
0.607424 0.282215 0.094741
0.637560 0.286813 0.100868
0.667703 0.291591 0.107181
0.697854 0.296551 0.113679
0.728014 0.301692 0.120364
0.758182 0.307015 0.127234
0.788358 0.312521 0.134290
0.818542 0.318210 0.141532
0.848734 0.324083 0.148960
0.878934 0.330139 0.156574
0.909143 0.336379 0.164374
0.939359 0.342804 0.172359
0.012619 0.272890 0.035530
0.027219 0.272890 0.035530
0.048508 0.272919 0.036362
0.079832 0.272994 0.038812
0.108876 0.273055 0.039426
0.137350 0.273114 0.039484
0.165824 0.273173 0.039543
0.194297 0.273232 0.039602
0.222771 0.273290 0.039661
0.251245 0.273349 0.039719
0.278469 0.273109 0.041295
0.306725 0.274107 0.043902
0.336790 0.277025 0.048181
0.366862 0.280065 0.052645
0.396942 0.283245 0.057294
0.427029 0.286575 0.062129
0.457124 0.290064 0.067149
0.487227 0.293718 0.072355
0.517338 0.297542 0.077746
0.547457 0.301538 0.083324
0.577584 0.305709 0.089087
0.607719 0.310056 0.095036
0.637862 0.314582 0.101170
0.668013 0.319287 0.107491
0.698172 0.324173 0.113997
0.728340 0.329239 0.120690
0.758515 0.334487 0.127568
0.788699 0.339918 0.134632
0.818891 0.345531 0.141882
0.849091 0.351327 0.149317
0.879299 0.357306 0.156939
0.909516 0.363470 0.164747
0.939740 0.369817 0.172740
0.015781 0.304082 0.039566
0.029746 0.304082 0.039566
0.050656 0.304113 0.040443
0.081983 0.304190 0.042983
0.110993 0.304254 0.043610
0.139423 0.304316 0.043671
0.167853 0.304377 0.043732
0.196284 0.304438 0.043794
0.224714 0.304499 0.043855
0.253145 0.304561 0.043916
0.281575 0.304622 0.043977
0.308766 0.304396 0.045656
0.337012 0.305427 0.048402
0.367092 0.308420 0.052874
0.397180 0.311546 0.057532
0.427275 0.314818 0.062375
0.457378 0.318246 0.067403
0.487489 0.321836 0.072617
0.517608 0.325593 0.078017
0.547735 0.329520 0.083602
0.577870 0.333621 0.089373
0.608013 0.337898 0.095330
0.638164 0.342351 0.101472
0.668323 0.346983 0.107801
0.698490 0.351795 0.114315
0.728666 0.356786 0.121015
0.758849 0.361959 0.127901
0.789041 0.367314 0.134973
0.819241 0.372851 0.142231
0.849448 0.378571 0.149675
0.879665 0.384474 0.157304
0.909889 0.390560 0.165120
0.940121 0.396830 0.173121
0.019140 0.335294 0.043798
0.032470 0.335294 0.043798
0.053000 0.335325 0.044720
0.084330 0.335405 0.047349
0.113298 0.335472 0.047991
0.141676 0.335536 0.048055
0.170054 0.335600 0.048118
0.198432 0.335663 0.048182
0.226810 0.335727 0.048246
0.255188 0.335791 0.048309
0.283566 0.335855 0.048373
0.311944 0.335918 0.048437
0.339093 0.335707 0.050219
0.367322 0.336775 0.053104
0.397418 0.339847 0.057770
0.427521 0.343062 0.062621
0.457632 0.346428 0.067657
0.487751 0.349954 0.072879
0.517878 0.353644 0.078287
0.548013 0.357503 0.083880
0.578156 0.361534 0.089659
0.608307 0.365739 0.095624
0.638466 0.370120 0.101775
0.668633 0.374679 0.108111
0.698808 0.379417 0.114633
0.728991 0.384334 0.121341
0.759183 0.389432 0.128235
0.789382 0.394711 0.135315
0.819590 0.400172 0.142581
0.849806 0.405815 0.150032
0.880030 0.411641 0.157670
0.910262 0.417650 0.165493
0.940502 0.423842 0.173502
0.022696 0.366524 0.048227
0.035391 0.366524 0.048227
0.055542 0.366557 0.049192
0.086874 0.366640 0.051911
0.115796 0.366709 0.052569
0.144115 0.366776 0.052635
0.172434 0.366842 0.052701
0.200753 0.366908 0.052767
0.229071 0.366974 0.052833
0.257390 0.367040 0.052900
0.285709 0.367106 0.052966
0.314028 0.367173 0.053032
0.342347 0.367239 0.053098
0.369448 0.367042 0.054983
0.397655 0.368149 0.058008
0.427767 0.371305 0.062867
0.457886 0.374610 0.067911
0.488014 0.378071 0.073141
0.518148 0.381695 0.078557
0.548291 0.385485 0.084158
0.578442 0.389446 0.089945
0.608601 0.393580 0.095918
0.638768 0.397889 0.102077
0.668943 0.402375 0.108421
0.699126 0.407039 0.114951
0.729317 0.411881 0.121667
0.759517 0.416904 0.128569
0.789724 0.422108 0.135657
0.819939 0.427492 0.142930
0.850163 0.433059 0.150390
0.880395 0.438808 0.158035
0.910635 0.444740 0.165866
0.940883 0.450855 0.173883
0.026449 0.397774 0.052854
0.038509 0.397774 0.052854
0.058280 0.397808 0.053860
0.089615 0.397894 0.056669
0.118487 0.397966 0.057344
0.146742 0.398034 0.057412
0.174997 0.398103 0.057481
0.203252 0.398171 0.057549
0.231507 0.398240 0.057618
0.259761 0.398309 0.057687
0.288016 0.398377 0.057755
0.316271 0.398446 0.057824
0.344526 0.398514 0.057892
0.372781 0.398583 0.057961
0.399830 0.398400 0.059949
0.428013 0.399549 0.063113
0.458141 0.402792 0.068166
0.488276 0.406189 0.073404
0.518419 0.409746 0.078827
0.548570 0.413468 0.084437
0.578728 0.417359 0.090232
0.608895 0.421422 0.096212
0.639070 0.425658 0.102379
0.669253 0.430071 0.108731
0.699444 0.434661 0.115269
0.729643 0.439429 0.121993
0.759850 0.444376 0.128903
0.790066 0.449504 0.135998
0.820289 0.454813 0.143280
0.850520 0.460303 0.150747
0.880760 0.465976 0.158400
0.911008 0.471831 0.166239
0.941264 0.477868 0.174264
0.030399 0.429043 0.057677
0.041824 0.429043 0.057677
0.061215 0.429078 0.058724
0.092553 0.429167 0.061624
0.121371 0.429241 0.062315
0.149559 0.429312 0.062386
0.177746 0.429383 0.062457
0.205933 0.429454 0.062528
0.234121 0.429525 0.062599
0.262308 0.429596 0.062670
0.290496 0.429667 0.062741
0.318683 0.429738 0.062812
0.346871 0.429809 0.062883
0.375058 0.429880 0.062954
0.403246 0.429951 0.063025
0.430238 0.429782 0.065116
0.458395 0.430974 0.068420
0.488538 0.434306 0.073666
0.518689 0.437797 0.079098
0.548848 0.441450 0.084715
0.579015 0.445271 0.090518
0.609189 0.449263 0.096506
0.639372 0.453427 0.102681
0.669563 0.457767 0.109041
0.699762 0.462283 0.115587
0.729969 0.466976 0.122319
0.760184 0.471849 0.129236
0.790407 0.476901 0.136340
0.820638 0.482134 0.143629
0.850878 0.487548 0.151104
0.881125 0.493143 0.158765
0.911381 0.498921 0.166612
0.941645 0.504881 0.174645
0.034545 0.460331 0.062697
0.045336 0.460331 0.062697
0.064347 0.460368 0.063785
0.095688 0.460459 0.066775
0.124450 0.460536 0.067484
0.152567 0.460609 0.067557
0.180684 0.460683 0.067631
0.208802 0.460756 0.067704
0.236919 0.460829 0.067777
0.265036 0.460903 0.067851
0.293153 0.460976 0.067924
0.321270 0.461049 0.067998
0.349387 0.461123 0.068071
0.377504 0.461196 0.068144
0.405621 0.461269 0.068218
0.433738 0.461343 0.068291
0.460672 0.461189 0.070485
0.488800 0.462424 0.073928
0.518959 0.465848 0.079368
0.549126 0.469433 0.084993
0.579301 0.473184 0.090804
0.609484 0.477104 0.096801
0.639674 0.481196 0.102983
0.669873 0.485463 0.109351
0.700080 0.489905 0.115905
0.730295 0.494524 0.122645
0.760518 0.499321 0.129570
0.790749 0.504298 0.136681
0.820988 0.509454 0.143979
0.851235 0.514792 0.151462
0.881491 0.520311 0.159130
0.911754 0.526011 0.166985
0.942026 0.531894 0.175026
0.038889 0.491639 0.067914
0.049045 0.491639 0.067914
0.067676 0.491676 0.069041
0.099020 0.491770 0.072123
0.127725 0.491850 0.072850
0.155769 0.491925 0.072925
0.183814 0.492001 0.073001
0.211858 0.492077 0.073077
0.239903 0.492153 0.073153
0.267947 0.492228 0.073228
0.295992 0.492304 0.073304
0.324036 0.492380 0.073380
0.352080 0.492455 0.073455
0.380125 0.492531 0.073531
0.408169 0.492607 0.073607
0.436214 0.492683 0.073683
0.464258 0.492758 0.073758
0.491131 0.492619 0.076056
0.519230 0.493899 0.079638
0.549404 0.497415 0.085271
0.579587 0.501096 0.091090
0.609778 0.504946 0.097095
0.639976 0.508965 0.103285
0.670183 0.513159 0.109661
0.700398 0.517527 0.116223
0.730621 0.522071 0.122970
0.760851 0.526793 0.129904
0.791090 0.531694 0.137023
0.821337 0.536775 0.144328
0.851593 0.542036 0.151819
0.881856 0.547478 0.159496
0.912127 0.553101 0.167358
0.942407 0.558907 0.175407
0.043429 0.522965 0.073327
0.052951 0.522965 0.073327
0.071202 0.523004 0.074495
0.102549 0.523101 0.077667
0.131194 0.523183 0.078412
0.159164 0.523261 0.078490
0.187134 0.523339 0.078568
0.215105 0.523417 0.078646
0.243075 0.523495 0.078724
0.271045 0.523573 0.078803
0.299015 0.523651 0.078881
0.326985 0.523729 0.078959
0.354955 0.523807 0.079037
0.382925 0.523885 0.079115
0.410895 0.523964 0.079193
0.438865 0.524042 0.079271
0.466835 0.524120 0.079349
0.494805 0.524198 0.079427
0.521615 0.524072 0.081828
0.549683 0.525398 0.085550
0.579873 0.529009 0.091376
0.610072 0.532787 0.097389
0.640278 0.536735 0.103587
0.670493 0.540854 0.109971
0.700716 0.545149 0.116541
0.730946 0.549619 0.123296
0.761185 0.554266 0.130237
0.791432 0.559091 0.137365
0.821687 0.564096 0.144677
0.851950 0.569280 0.152176
0.882221 0.574645 0.159861
0.912500 0.580192 0.167731
0.942788 0.585920 0.175788
0.048166 0.554311 0.078938
0.057053 0.554311 0.078938
0.074925 0.554351 0.080145
0.106274 0.554450 0.083408
0.134860 0.554535 0.084171
0.162754 0.554615 0.084252
0.190648 0.554696 0.084332
0.218542 0.554776 0.084413
0.246436 0.554857 0.084493
0.274331 0.554937 0.084574
0.302225 0.555017 0.084654
0.330119 0.555098 0.084735
0.358013 0.555178 0.084815
0.385907 0.555259 0.084896
0.413801 0.555339 0.084976
0.441696 0.555420 0.085057
0.469590 0.555500 0.085137
0.497484 0.555581 0.085218
0.525378 0.555661 0.085298
0.552123 0.555550 0.087802
0.580159 0.556921 0.091663
0.610366 0.560628 0.097683
0.640581 0.564504 0.103889
0.670803 0.568550 0.110281
0.701034 0.572771 0.116859
0.731272 0.577166 0.123622
0.761519 0.581738 0.130571
0.791773 0.586488 0.137706
0.822036 0.591416 0.145027
0.852307 0.596524 0.152534
0.882586 0.601813 0.160226
0.912873 0.607282 0.168105
0.943169 0.612933 0.176169
0.053101 0.585676 0.084746
0.061352 0.585676 0.084746
0.078845 0.585717 0.085991
0.110197 0.585819 0.089346
0.138721 0.585906 0.090128
0.166538 0.585989 0.090210
0.194355 0.586072 0.090293
0.222172 0.586154 0.090376
0.249989 0.586237 0.090459
0.277806 0.586320 0.090542
0.305623 0.586403 0.090625
0.333440 0.586486 0.090707
0.361258 0.586569 0.090790
0.389075 0.586651 0.090873
0.416892 0.586734 0.090956
0.444709 0.586817 0.091039
0.472526 0.586900 0.091122
0.500343 0.586983 0.091204
0.528160 0.587066 0.091287
0.555977 0.587148 0.091370
0.582657 0.587051 0.093977
0.610660 0.588469 0.097977
0.640883 0.592273 0.104191
0.671113 0.596246 0.110591
0.701352 0.600393 0.117177
0.731598 0.604713 0.123948
0.761853 0.609210 0.130905
0.792115 0.613884 0.138048
0.822386 0.618737 0.145376
0.852665 0.623768 0.152891
0.882951 0.628980 0.160591
0.913247 0.634372 0.168478
0.943550 0.639946 0.176550
0.058232 0.617060 0.090750
0.065849 0.617060 0.090750
0.082961 0.617102 0.092035
0.114316 0.617207 0.095480
0.142779 0.617296 0.096281
0.170518 0.617382 0.096366
0.198256 0.617467 0.096451
0.225995 0.617552 0.096536
0.253734 0.617637 0.096621
0.281473 0.617722 0.096707
0.309212 0.617808 0.096792
0.336951 0.617893 0.096877
0.364690 0.617978 0.096962
0.392429 0.618063 0.097047
0.420168 0.618148 0.097133
0.447907 0.618234 0.097218
0.475645 0.618319 0.097303
0.503384 0.618404 0.097388
0.531123 0.618489 0.097473
0.558862 0.618574 0.097559
0.586601 0.618659 0.097644
0.613214 0.618577 0.100354
0.641185 0.620042 0.104493
0.671423 0.623942 0.110901
0.701669 0.628015 0.117494
0.731924 0.632261 0.124274
0.762186 0.636683 0.131239
0.792457 0.641281 0.138389
0.822735 0.646057 0.145726
0.853022 0.651013 0.153248
0.883317 0.656147 0.160957
0.913620 0.661462 0.168851
0.943931 0.666958 0.176931
0.063560 0.648463 0.096952
0.070542 0.648463 0.096952
0.087275 0.648506 0.098275
0.118633 0.648614 0.101811
0.147032 0.648706 0.102631
0.174692 0.648793 0.102718
0.202352 0.648881 0.102806
0.230012 0.648969 0.102893
0.257672 0.649056 0.102981
0.285332 0.649144 0.103068
0.312992 0.649231 0.103156
0.340652 0.649319 0.103244
0.368311 0.649406 0.103331
0.395971 0.649494 0.103419
0.423631 0.649581 0.103506
0.451291 0.649669 0.103594
0.478951 0.649756 0.103681
0.506611 0.649844 0.103769
0.534271 0.649932 0.103856
0.561931 0.650019 0.103944
0.589590 0.650107 0.104032
0.617250 0.650194 0.104119
0.643796 0.650126 0.106932
0.671733 0.651638 0.111211
0.701987 0.655637 0.117812
0.732250 0.659808 0.124599
0.762520 0.664155 0.131572
0.792798 0.668678 0.138731
0.823085 0.673378 0.146075
0.853379 0.678257 0.153606
0.883682 0.683315 0.161322
0.913993 0.688553 0.169224
0.944312 0.693971 0.177312
0.069085 0.679885 0.103350
0.075432 0.679885 0.103350
0.091785 0.679930 0.104711
0.123146 0.680041 0.108339
0.151482 0.680135 0.109178
0.179063 0.680225 0.109268
0.206643 0.680315 0.109357
0.234223 0.680404 0.109447
0.261803 0.680494 0.109537
0.289383 0.680584 0.109627
0.316963 0.680674 0.109717
0.344543 0.680764 0.109807
0.372123 0.680854 0.109897
0.399704 0.680944 0.109987
0.427284 0.681034 0.110077
0.454864 0.681124 0.110167
0.482444 0.681213 0.110256
0.510024 0.681303 0.110346
0.537604 0.681393 0.110436
0.565184 0.681483 0.110526
0.592764 0.681573 0.110616
0.620345 0.681663 0.110706
0.647925 0.681753 0.110796
0.674403 0.681699 0.113712
0.702305 0.683259 0.118130
0.732575 0.687356 0.124925
0.762854 0.691627 0.131906
0.793140 0.696074 0.139073
0.823434 0.700699 0.146425
0.853737 0.705501 0.153963
0.884047 0.710482 0.161687
0.914366 0.715643 0.169597
0.944693 0.720984 0.177693
0.074806 0.711327 0.109945
0.080519 0.711327 0.109945
0.096492 0.711372 0.111345
0.127856 0.711486 0.115064
0.156129 0.711583 0.115922
0.183629 0.711675 0.116014
0.211128 0.711767 0.116106
0.238628 0.711859 0.116198
0.266128 0.711952 0.116291
0.293628 0.712044 0.116383
0.321127 0.712136 0.116475
0.348627 0.712228 0.116567
0.376127 0.712321 0.116659
0.403627 0.712413 0.116752
0.431126 0.712505 0.116844
0.458626 0.712597 0.116936
0.486126 0.712690 0.117028
0.513626 0.712782 0.117121
0.541125 0.712874 0.117213
0.568625 0.712966 0.117305
0.596125 0.713059 0.117397
0.623624 0.713151 0.117490
0.651124 0.713243 0.117582
0.678624 0.713335 0.117674
0.705033 0.713295 0.120694
0.732901 0.714903 0.125251
0.763187 0.719100 0.132240
0.793482 0.723471 0.139414
0.823784 0.728019 0.146774
0.854094 0.732745 0.154320
0.884412 0.737650 0.162052
0.914739 0.742733 0.169970
0.945073 0.747997 0.178073
0.080725 0.742788 0.116738
0.085803 0.742788 0.116738
0.101397 0.742834 0.118175
0.132763 0.742951 0.121985
0.160972 0.743050 0.122862
0.188390 0.743144 0.122957
0.215809 0.743239 0.123051
0.243228 0.743334 0.123146
0.270647 0.743428 0.123241
0.298066 0.743523 0.123335
0.325485 0.743617 0.123430
0.352903 0.743712 0.123524
0.380322 0.743806 0.123619
0.407741 0.743901 0.123714
0.435160 0.743996 0.123808
0.462579 0.744090 0.123903
0.489997 0.744185 0.123997
0.517416 0.744279 0.124092
0.544835 0.744374 0.124187
0.572254 0.744469 0.124281
0.599673 0.744563 0.124376
0.627091 0.744658 0.124470
0.654510 0.744752 0.124565
0.681929 0.744847 0.124660
0.709348 0.744942 0.124754
0.735688 0.744916 0.127877
0.763521 0.746572 0.132573
0.793823 0.750868 0.139756
0.824133 0.755340 0.147124
0.854451 0.759989 0.154678
0.884778 0.764817 0.162417
0.915112 0.769824 0.170343
0.945454 0.775010 0.178454
0.086841 0.774267 0.123727
0.091284 0.774267 0.123727
0.106498 0.774315 0.125202
0.137867 0.774435 0.129103
0.166011 0.774536 0.130000
0.193348 0.774633 0.130097
0.220686 0.774730 0.130194
0.248023 0.774827 0.130291
0.275361 0.774924 0.130388
0.302698 0.775021 0.130485
0.330035 0.775118 0.130582
0.357373 0.775215 0.130678
0.384710 0.775312 0.130775
0.412048 0.775408 0.130872
0.439385 0.775505 0.130969
0.466722 0.775602 0.131066
0.494060 0.775699 0.131163
0.521397 0.775796 0.131260
0.548735 0.775893 0.131357
0.576072 0.775990 0.131454
0.603409 0.776087 0.131551
0.630747 0.776184 0.131648
0.658084 0.776281 0.131745
0.685422 0.776378 0.131842
0.712759 0.776475 0.131939
0.740096 0.776572 0.132036
0.766367 0.776560 0.135261
0.794165 0.778265 0.140097
0.824483 0.782661 0.147473
0.854809 0.787233 0.155035
0.885143 0.791984 0.162783
0.915485 0.796914 0.170716
0.945835 0.802023 0.178835
0.093153 0.805767 0.130913
0.096962 0.805767 0.130913
0.111796 0.805815 0.132426
0.143168 0.805938 0.136418
0.171247 0.806042 0.137334
0.198503 0.806141 0.137434
0.225758 0.806240 0.137533
0.253014 0.806339 0.137632
0.280269 0.806439 0.137732
0.307525 0.806538 0.137831
0.334780 0.806637 0.137930
0.362036 0.806736 0.138029
0.389291 0.806836 0.138129
0.416547 0.806935 0.138228
0.443803 0.807034 0.138327
0.471058 0.807134 0.138427
0.498314 0.807233 0.138526
0.525569 0.807332 0.138625
0.552825 0.807431 0.138724
0.580080 0.807531 0.138824
0.607336 0.807630 0.138923
0.634591 0.807729 0.139022
0.661847 0.807828 0.139121
0.689103 0.807928 0.139221
0.716358 0.808027 0.139320
0.743614 0.808126 0.139419
0.770869 0.808226 0.139519
