luts/original/silver-noir.cube
TITLE "Silver Noir"
LUT_3D_SIZE 5
DOMAIN_MIN 0.0 0.0 0.0
DOMAIN_MAX 1.0 1.0 1.0
0.000000 0.000000 0.010571
0.214819 0.004794 0.026831
0.454753 0.031028 0.060053
0.695212 0.069162 0.105175
0.936196 0.119196 0.162196
0.009654 0.241717 0.031692
0.220960 0.242101 0.035663
0.456870 0.261882 0.066895
0.697854 0.296551 0.113679
0.939359 0.342804 0.172359
0.038889 0.491639 0.067914
0.239903 0.492153 0.073153
0.464258 0.492758 0.073758
0.700398 0.517527 0.116223
0.942407 0.558907 0.175407
0.080725 0.742788 0.116738
0.270647 0.743428 0.123241
0.489997 0.744185 0.123997
0.709348 0.744942 0.124754
0.945454 0.775010 0.178454
0.135164 0.995164 0.178164
0.313825 0.995930 0.185930
0.527889 0.996836 0.186836
0.741953 0.997743 0.187743
0.956017 0.998649 0.188649
0.011896 0.011896 0.265996
0.222296 0.012271 0.266371
0.454963 0.031238 0.286638
0.695472 0.069422 0.326122
0.936506 0.119506 0.377506
0.013473 0.245535 0.267573
0.238386 0.253249 0.268111
0.457402 0.283677 0.306796
0.698505 0.322455 0.355210
0.940129 0.373129 0.413629
0.039098 0.491848 0.294498
0.255940 0.492440 0.307690
0.471093 0.493030 0.324030
0.700926 0.533838 0.366751
0.943134 0.585211 0.426134
0.080985 0.743048 0.337685
0.289850 0.743788 0.357611
0.511326 0.744576 0.374389
0.713155 0.745259 0.375071
0.945978 0.786901 0.428978
0.135474 0.995474 0.393474
0.336360 0.996360 0.418860
0.557320 0.997320 0.437320
0.758171 0.998171 0.438171
0.959021 0.999021 0.439021
0.039976 0.039976 0.521751
0.237819 0.040469 0.522244
0.464811 0.041086 0.522861
0.695732 0.069682 0.547070
0.936817 0.119817 0.592817
0.042051 0.268426 0.523826
0.259107 0.285432 0.524632
0.475134 0.293534 0.525309
0.698741 0.322691 0.559850
0.940422 0.373422 0.616422
0.044127 0.496877 0.525902
0.260990 0.500190 0.526515
0.511973 0.519735 0.527498
0.701786 0.575736 0.597092
0.944059 0.627059 0.662281
0.081245 0.743308 0.558633
0.290095 0.744032 0.567884
0.541023 0.744961 0.595461
0.725722 0.745613 0.625426
0.946705 0.813205 0.679705
0.135784 0.995784 0.608784
0.336658 0.996658 0.625408
0.587772 0.997772 0.662318
0.792007 0.998674 0.688674
0.964961 0.999406 0.689406
0.079758 0.079758 0.777833
0.265046 0.080371 0.778446
0.486499 0.081136 0.779211
0.707952 0.081902 0.779977
0.937127 0.120127 0.808127
0.082334 0.303021 0.780409
0.291478 0.325537 0.781428
0.508226 0.334210 0.782285
0.716299 0.334919 0.782994
0.940714 0.373714 0.819214
0.084909 0.526284 0.782984
0.293914 0.538889 0.783864
0.545284 0.573759 0.785234
0.733566 0.587975 0.786050
0.944313 0.627313 0.838646
0.087485 0.749547 0.785560
0.296350 0.752242 0.786300
0.547320 0.758795 0.787270
0.788525 0.788525 0.788525
0.947969 0.880969 0.897719
0.136095 0.996095 0.824095
0.336955 0.996955 0.831955
0.588041 0.998041 0.848951
0.839166 0.999166 0.892499
0.984850 0.999850 0.939850
0.124042 0.124042 0.984042
0.296773 0.124773 0.984773
0.512687 0.125687 0.985687
0.728602 0.126602 0.986602
0.944516 0.127516 0.987516
0.127117 0.342117 0.987117
0.328343 0.369593 0.988343
0.542039 0.379373 0.989372
0.746237 0.380237 0.990237
0.950435 0.381102 0.991102
0.130193 0.560193 0.990193
0.331293 0.578793 0.991293
0.582925 0.620198 0.992925
0.777932 0.633932 0.993932
0.958697 0.634697 0.994698
0.133268 0.778268 0.993268
0.334243 0.787993 0.994244
0.585591 0.809227 0.995591
0.837412 0.864079 0.997413
0.976333 0.888333 0.998333
0.136343 0.996343 0.996343
0.337194 0.997194 0.997194
0.588257 0.998257 0.998257
0.839320 0.999320 0.999320
1.000000 1.000000 1.000000
