luts/original/skate-garage.cube
TITLE "Skate Garage"
LUT_3D_SIZE 33
DOMAIN_MIN 0.0 0.0 0.0
DOMAIN_MAX 1.0 1.0 1.0
0.020650 0.016800 0.012950
0.053492 0.021416 0.017342
0.086377 0.023853 0.019556
0.119305 0.026421 0.021900
0.152277 0.029120 0.024376
0.185291 0.031951 0.026984
0.218349 0.034913 0.029722
0.251450 0.038006 0.032592
0.284594 0.041231 0.035593
0.317781 0.044586 0.038725
0.351011 0.048073 0.041989
0.384285 0.051692 0.045384
0.417602 0.055441 0.048910
0.450961 0.059322 0.052568
0.484364 0.063334 0.056356
0.517811 0.067478 0.060276
0.551300 0.071753 0.064328
0.584833 0.076158 0.068510
0.618408 0.080696 0.072824
0.652027 0.085364 0.077269
0.685689 0.090164 0.081845
0.719394 0.095095 0.086553
0.753143 0.100157 0.091392
0.786934 0.105351 0.096362
0.820769 0.110676 0.101463
0.854647 0.116132 0.106696
0.888568 0.121719 0.112060
0.922532 0.127438 0.117555
0.956539 0.133288 0.123181
0.990590 0.139269 0.128939
0.997461 0.145381 0.134828
0.999365 0.151625 0.140848
1.000000 0.158000 0.147000
0.025489 0.049418 0.017342
0.053492 0.049418 0.017342
0.086377 0.052966 0.019556
0.119305 0.055875 0.021900
0.152277 0.058723 0.024376
0.185291 0.061625 0.026984
0.218349 0.064620 0.029722
0.251450 0.067725 0.032592
0.284594 0.070946 0.035593
0.317781 0.074290 0.038725
0.351011 0.077759 0.041989
0.384285 0.081354 0.045384
0.417602 0.085077 0.048910
0.450961 0.088929 0.052568
0.484364 0.092910 0.056356
0.517811 0.097020 0.060276
0.551300 0.101260 0.064328
0.584833 0.105631 0.068510
0.618408 0.110131 0.072824
0.652027 0.114762 0.077269
0.685689 0.119524 0.081845
0.719394 0.124417 0.086553
0.753143 0.129440 0.091392
0.786934 0.134594 0.096362
0.820769 0.139879 0.101463
0.854647 0.145295 0.106696
0.888568 0.150842 0.112060
0.922532 0.156520 0.117555
0.956539 0.162329 0.123181
0.990590 0.168269 0.128939
0.997461 0.174340 0.134828
0.999365 0.180542 0.140848
1.000000 0.186875 0.147000
0.028149 0.082080 0.019556
0.057263 0.082080 0.019556
0.086377 0.082080 0.019556
0.119305 0.085330 0.021900
0.152277 0.088326 0.024376
0.185291 0.091300 0.026984
0.218349 0.094328 0.029722
0.251450 0.097443 0.032592
0.284594 0.100662 0.035593
0.317781 0.103994 0.038725
0.351011 0.107444 0.041989
0.384285 0.111016 0.045384
0.417602 0.114713 0.048910
0.450961 0.118535 0.052568
0.484364 0.122485 0.056356
0.517811 0.126562 0.060276
0.551300 0.130768 0.064328
0.584833 0.135103 0.068510
0.618408 0.139567 0.072824
0.652027 0.144161 0.077269
0.685689 0.148885 0.081845
0.719394 0.153738 0.086553
0.753143 0.158723 0.091392
0.786934 0.163837 0.096362
0.820769 0.169082 0.101463
0.854647 0.174458 0.106696
0.888568 0.179964 0.112060
0.922532 0.185602 0.117555
0.956539 0.191369 0.123181
0.990590 0.197268 0.128939
0.997461 0.203298 0.134828
0.999365 0.209458 0.140848
1.000000 0.215750 0.147000
0.030941 0.114785 0.021900
0.060396 0.114785 0.021900
0.089850 0.114785 0.021900
0.119305 0.114785 0.021900
0.152277 0.117930 0.024376
0.185291 0.120975 0.026984
0.218349 0.124036 0.029722
0.251450 0.127162 0.032592
0.284594 0.130378 0.035593
0.317781 0.133698 0.038725
0.351011 0.137130 0.041989
0.384285 0.140679 0.045384
0.417602 0.144349 0.048910
0.450961 0.148142 0.052568
0.484364 0.152060 0.056356
0.517811 0.156104 0.060276
0.551300 0.160275 0.064328
0.584833 0.164575 0.068510
0.618408 0.169002 0.072824
0.652027 0.173559 0.077269
0.685689 0.178245 0.081845
0.719394 0.183060 0.086553
0.753143 0.188005 0.091392
0.786934 0.193080 0.096362
0.820769 0.198286 0.101463
0.854647 0.203621 0.106696
0.888568 0.209087 0.112060
0.922532 0.214683 0.117555
0.956539 0.220410 0.123181
0.990590 0.226268 0.128939
0.997461 0.232256 0.134828
0.999365 0.238375 0.140848
1.000000 0.244625 0.147000
0.033864 0.147533 0.024376
0.063467 0.147533 0.024376
0.093070 0.147533 0.024376
0.122673 0.147533 0.024376
0.152277 0.147533 0.024376
0.185291 0.150649 0.026984
0.218349 0.153743 0.029722
0.251450 0.156880 0.032592
0.284594 0.160093 0.035593
0.317781 0.163401 0.038725
0.351011 0.166815 0.041989
0.384285 0.170341 0.045384
0.417602 0.173984 0.048910
0.450961 0.177748 0.052568
0.484364 0.181635 0.056356
0.517811 0.185646 0.060276
0.551300 0.189783 0.064328
0.584833 0.194047 0.068510
0.618408 0.198438 0.072824
0.652027 0.202957 0.077269
0.685689 0.207605 0.081845
0.719394 0.212382 0.086553
0.753143 0.217288 0.091392
0.786934 0.222324 0.096362
0.820769 0.227489 0.101463
0.854647 0.232784 0.106696
0.888568 0.238210 0.112060
0.922532 0.243765 0.117555
0.956539 0.249451 0.123181
0.990590 0.255268 0.128939
0.997461 0.261214 0.134828
0.999365 0.267292 0.140848
1.000000 0.273500 0.147000
0.036918 0.180324 0.026984
0.066593 0.180324 0.026984
0.096267 0.180324 0.026984
0.125942 0.180324 0.026984
0.155617 0.180324 0.026984
0.185291 0.180324 0.026984
0.218349 0.183451 0.029722
0.251450 0.186599 0.032592
0.284594 0.189809 0.035593
0.317781 0.193105 0.038725
0.351011 0.196500 0.041989
0.384285 0.200003 0.045384
0.417602 0.203620 0.048910
0.450961 0.207355 0.052568
0.484364 0.211210 0.056356
0.517811 0.215188 0.060276
0.551300 0.219291 0.064328
0.584833 0.223519 0.068510
0.618408 0.227874 0.072824
0.652027 0.232356 0.077269
0.685689 0.236966 0.081845
0.719394 0.241704 0.086553
0.753143 0.246571 0.091392
0.786934 0.251567 0.096362
0.820769 0.256692 0.101463
0.854647 0.261948 0.106696
0.888568 0.267332 0.112060
0.922532 0.272847 0.117555
0.956539 0.278492 0.123181
0.990590 0.284267 0.128939
0.997461 0.290173 0.134828
0.999365 0.296209 0.140848
1.000000 0.302375 0.147000
0.040103 0.213158 0.029722
0.069811 0.213158 0.029722
0.099519 0.213158 0.029722
0.129226 0.213158 0.029722
0.158934 0.213158 0.029722
0.188641 0.213158 0.029722
0.218349 0.213158 0.029722
0.251450 0.216317 0.032592
0.284594 0.219525 0.035593
0.317781 0.222809 0.038725
0.351011 0.226186 0.041989
0.384285 0.229666 0.045384
0.417602 0.233256 0.048910
0.450961 0.236961 0.052568
0.484364 0.240785 0.056356
0.517811 0.244730 0.060276
0.551300 0.248798 0.064328
0.584833 0.252991 0.068510
0.618408 0.257309 0.072824
0.652027 0.261754 0.077269
0.685689 0.266326 0.081845
0.719394 0.271026 0.086553
0.753143 0.275854 0.091392
0.786934 0.280810 0.096362
0.820769 0.285896 0.101463
0.854647 0.291111 0.106696
0.888568 0.296455 0.112060
0.922532 0.301929 0.117555
0.956539 0.307533 0.123181
0.990590 0.313267 0.128939
0.997461 0.319131 0.134828
0.999365 0.325125 0.140848
1.000000 0.331250 0.147000
0.043420 0.246036 0.032592
0.073139 0.246036 0.032592
0.102857 0.246036 0.032592
0.132576 0.246036 0.032592
0.162294 0.246036 0.032592
0.192013 0.246036 0.032592
0.221731 0.246036 0.032592
0.251450 0.246036 0.032592
0.284594 0.249241 0.035593
0.317781 0.252513 0.038725
0.351011 0.255871 0.041989
0.384285 0.259328 0.045384
0.417602 0.262892 0.048910
0.450961 0.266568 0.052568
0.484364 0.270360 0.056356
0.517811 0.274272 0.060276
0.551300 0.278306 0.064328
0.584833 0.282463 0.068510
0.618408 0.286745 0.072824
0.652027 0.291152 0.077269
0.685689 0.295686 0.081845
0.719394 0.300347 0.086553
0.753143 0.305136 0.091392
0.786934 0.310053 0.096362
0.820769 0.315099 0.101463
0.854647 0.320274 0.106696
0.888568 0.325578 0.112060
0.922532 0.331011 0.117555
0.956539 0.336574 0.123181
0.990590 0.342267 0.128939
0.997461 0.348089 0.134828
0.999365 0.354042 0.140848
1.000000 0.360125 0.147000
0.046868 0.278956 0.035593
0.076584 0.278956 0.035593
0.106300 0.278956 0.035593
0.136015 0.278956 0.035593
0.165731 0.278956 0.035593
0.195447 0.278956 0.035593
0.225162 0.278956 0.035593
0.254878 0.278956 0.035593
0.284594 0.278956 0.035593
0.317781 0.282216 0.038725
0.351011 0.285556 0.041989
0.384285 0.288990 0.045384
0.417602 0.292527 0.048910
0.450961 0.296174 0.052568
0.484364 0.299936 0.056356
0.517811 0.303815 0.060276
0.551300 0.307814 0.064328
0.584833 0.311935 0.068510
0.618408 0.316180 0.072824
0.652027 0.320551 0.077269
0.685689 0.325046 0.081845
0.719394 0.329669 0.086553
0.753143 0.334419 0.091392
0.786934 0.339297 0.096362
0.820769 0.344303 0.101463
0.854647 0.349437 0.106696
0.888568 0.354700 0.112060
0.922532 0.360093 0.117555
0.956539 0.365615 0.123181
0.990590 0.371266 0.128939
0.997461 0.377048 0.134828
0.999365 0.382959 0.140848
1.000000 0.389000 0.147000
0.050447 0.311920 0.038725
0.080151 0.311920 0.038725
0.109855 0.311920 0.038725
0.139559 0.311920 0.038725
0.169262 0.311920 0.038725
0.198966 0.311920 0.038725
0.228670 0.311920 0.038725
0.258373 0.311920 0.038725
0.288077 0.311920 0.038725
0.317781 0.311920 0.038725
0.351011 0.315242 0.041989
0.384285 0.318652 0.045384
0.417602 0.322163 0.048910
0.450961 0.325781 0.052568
0.484364 0.329511 0.056356
0.517811 0.333357 0.060276
0.551300 0.337321 0.064328
0.584833 0.341407 0.068510
0.618408 0.345616 0.072824
0.652027 0.349949 0.077269
0.685689 0.354407 0.081845
0.719394 0.358991 0.086553
0.753143 0.363702 0.091392
0.786934 0.368540 0.096362
0.820769 0.373506 0.101463
0.854647 0.378600 0.106696
0.888568 0.383823 0.112060
0.922532 0.389175 0.117555
0.956539 0.394656 0.123181
0.990590 0.400266 0.128939
0.997461 0.406006 0.134828
0.999365 0.411876 0.140848
1.000000 0.417875 0.147000
0.054158 0.344927 0.041989
0.083843 0.344927 0.041989
0.113529 0.344927 0.041989
0.143214 0.344927 0.041989
0.172899 0.344927 0.041989
0.202585 0.344927 0.041989
0.232270 0.344927 0.041989
0.261955 0.344927 0.041989
0.291641 0.344927 0.041989
0.321326 0.344927 0.041989
0.351011 0.344927 0.041989
0.384285 0.348315 0.045384
0.417602 0.351799 0.048910
0.450961 0.355387 0.052568
0.484364 0.359086 0.056356
0.517811 0.362899 0.060276
0.551300 0.366829 0.064328
0.584833 0.370879 0.068510
0.618408 0.375052 0.072824
0.652027 0.379347 0.077269
0.685689 0.383767 0.081845
0.719394 0.388313 0.086553
0.753143 0.392984 0.091392
0.786934 0.397783 0.096362
0.820769 0.402709 0.101463
0.854647 0.407763 0.106696
0.888568 0.412946 0.112060
0.922532 0.418257 0.117555
0.956539 0.423697 0.123181
0.990590 0.429266 0.128939
0.997461 0.434964 0.134828
0.999365 0.440792 0.140848
1.000000 0.446750 0.147000
0.058000 0.377977 0.045384
0.087662 0.377977 0.045384
0.117324 0.377977 0.045384
0.146986 0.377977 0.045384
0.176649 0.377977 0.045384
0.206311 0.377977 0.045384
0.235973 0.377977 0.045384
0.265636 0.377977 0.045384
0.295298 0.377977 0.045384
0.324960 0.377977 0.045384
0.354623 0.377977 0.045384
0.384285 0.377977 0.045384
0.417602 0.381435 0.048910
0.450961 0.384994 0.052568
0.484364 0.388661 0.056356
0.517811 0.392441 0.060276
0.551300 0.396337 0.064328
0.584833 0.400351 0.068510
0.618408 0.404487 0.072824
0.652027 0.408745 0.077269
0.685689 0.413127 0.081845
0.719394 0.417634 0.086553
0.753143 0.422267 0.091392
0.786934 0.427026 0.096362
0.820769 0.431913 0.101463
0.854647 0.436926 0.106696
0.888568 0.442068 0.112060
0.922532 0.447339 0.117555
0.956539 0.452738 0.123181
0.990590 0.458265 0.128939
0.997461 0.463923 0.134828
0.999365 0.469709 0.140848
1.000000 0.475625 0.147000
0.061973 0.411070 0.048910
0.091608 0.411070 0.048910
0.121244 0.411070 0.048910
0.150880 0.411070 0.048910
0.180516 0.411070 0.048910
0.210151 0.411070 0.048910
0.239787 0.411070 0.048910
0.269423 0.411070 0.048910
0.299059 0.411070 0.048910
0.328694 0.411070 0.048910
0.358330 0.411070 0.048910
0.387966 0.411070 0.048910
0.417602 0.411070 0.048910
0.450961 0.414600 0.052568
0.484364 0.418236 0.056356
0.517811 0.421983 0.060276
0.551300 0.425844 0.064328
0.584833 0.429824 0.068510
0.618408 0.433923 0.072824
0.652027 0.438144 0.077269
0.685689 0.442488 0.081845
0.719394 0.446956 0.086553
0.753143 0.451550 0.091392
0.786934 0.456270 0.096362
0.820769 0.461116 0.101463
0.854647 0.466090 0.106696
0.888568 0.471191 0.112060
0.922532 0.476420 0.117555
0.956539 0.481778 0.123181
0.990590 0.487265 0.128939
0.997461 0.492881 0.134828
0.999365 0.498626 0.140848
1.000000 0.504500 0.147000
0.066077 0.444207 0.052568
0.095683 0.444207 0.052568
0.125290 0.444207 0.052568
0.154896 0.444207 0.052568
0.184503 0.444207 0.052568
0.214109 0.444207 0.052568
0.243716 0.444207 0.052568
0.273322 0.444207 0.052568
0.302929 0.444207 0.052568
0.332535 0.444207 0.052568
0.362142 0.444207 0.052568
0.391748 0.444207 0.052568
0.421355 0.444207 0.052568
0.450961 0.444207 0.052568
0.484364 0.447811 0.056356
0.517811 0.451525 0.060276
0.551300 0.455352 0.064328
0.584833 0.459296 0.068510
0.618408 0.463358 0.072824
0.652027 0.467542 0.077269
0.685689 0.471848 0.081845
0.719394 0.476278 0.086553
0.753143 0.480833 0.091392
0.786934 0.485513 0.096362
0.820769 0.490319 0.101463
0.854647 0.495253 0.106696
0.888568 0.500314 0.112060
0.922532 0.505502 0.117555
0.956539 0.510819 0.123181
0.990590 0.516265 0.128939
0.997461 0.521839 0.134828
0.999365 0.527542 0.140848
1.000000 0.533375 0.147000
0.070313 0.477386 0.056356
0.099888 0.477386 0.056356
0.129463 0.477386 0.056356
0.159038 0.477386 0.056356
0.188613 0.477386 0.056356
0.218188 0.477386 0.056356
0.247763 0.477386 0.056356
0.277339 0.477386 0.056356
0.306914 0.477386 0.056356
0.336489 0.477386 0.056356
0.366064 0.477386 0.056356
0.395639 0.477386 0.056356
0.425214 0.477386 0.056356
0.454789 0.477386 0.056356
0.484364 0.477386 0.056356
0.517811 0.481067 0.060276
0.551300 0.484860 0.064328
0.584833 0.488768 0.068510
0.618408 0.492794 0.072824
0.652027 0.496940 0.077269
0.685689 0.501208 0.081845
0.719394 0.505600 0.086553
0.753143 0.510115 0.091392
0.786934 0.514756 0.096362
0.820769 0.519523 0.101463
0.854647 0.524416 0.106696
0.888568 0.529436 0.112060
0.922532 0.534584 0.117555
0.956539 0.539860 0.123181
0.990590 0.545264 0.128939
0.997461 0.550797 0.134828
0.999365 0.556459 0.140848
1.000000 0.562250 0.147000
0.074679 0.510609 0.060276
0.104221 0.510609 0.060276
0.133764 0.510609 0.060276
0.163306 0.510609 0.060276
0.192848 0.510609 0.060276
0.222390 0.510609 0.060276
0.251932 0.510609 0.060276
0.281474 0.510609 0.060276
0.311016 0.510609 0.060276
0.340558 0.510609 0.060276
0.370100 0.510609 0.060276
0.399642 0.510609 0.060276
0.429184 0.510609 0.060276
0.458726 0.510609 0.060276
0.488269 0.510609 0.060276
0.517811 0.510609 0.060276
0.551300 0.514367 0.064328
0.584833 0.518240 0.068510
0.618408 0.522230 0.072824
0.652027 0.526339 0.077269
0.685689 0.530569 0.081845
0.719394 0.534921 0.086553
0.753143 0.539398 0.091392
0.786934 0.543999 0.096362
0.820769 0.548726 0.101463
0.854647 0.553579 0.106696
0.888568 0.558559 0.112060
0.922532 0.563666 0.117555
0.956539 0.568901 0.123181
0.990590 0.574264 0.128939
0.997461 0.579756 0.134828
0.999365 0.585376 0.140848
1.000000 0.591125 0.147000
0.079177 0.543875 0.064328
0.108685 0.543875 0.064328
0.138193 0.543875 0.064328
0.167700 0.543875 0.064328
0.197208 0.543875 0.064328
0.226716 0.543875 0.064328
0.256223 0.543875 0.064328
0.285731 0.543875 0.064328
0.315239 0.543875 0.064328
0.344746 0.543875 0.064328
0.374254 0.543875 0.064328
0.403762 0.543875 0.064328
0.433269 0.543875 0.064328
0.462777 0.543875 0.064328
0.492285 0.543875 0.064328
0.521792 0.543875 0.064328
0.551300 0.543875 0.064328
0.584833 0.547712 0.068510
0.618408 0.551665 0.072824
0.652027 0.555737 0.077269
0.685689 0.559929 0.081845
0.719394 0.564243 0.086553
0.753143 0.568681 0.091392
0.786934 0.573242 0.096362
0.820769 0.577929 0.101463
0.854647 0.582742 0.106696
0.888568 0.587682 0.112060
0.922532 0.592748 0.117555
0.956539 0.597942 0.123181
0.990590 0.603264 0.128939
0.997461 0.608714 0.134828
0.999365 0.614293 0.140848
1.000000 0.620000 0.147000
0.083807 0.577184 0.068510
0.113279 0.577184 0.068510
0.142751 0.577184 0.068510
0.172223 0.577184 0.068510
0.201695 0.577184 0.068510
0.231167 0.577184 0.068510
0.260639 0.577184 0.068510
0.290112 0.577184 0.068510
0.319584 0.577184 0.068510
0.349056 0.577184 0.068510
0.378528 0.577184 0.068510
0.408000 0.577184 0.068510
0.437472 0.577184 0.068510
0.466944 0.577184 0.068510
0.496416 0.577184 0.068510
0.525888 0.577184 0.068510
0.555360 0.577184 0.068510
0.584833 0.577184 0.068510
0.618408 0.581101 0.072824
0.652027 0.585135 0.077269
0.685689 0.589289 0.081845
0.719394 0.593565 0.086553
0.753143 0.597963 0.091392
0.786934 0.602486 0.096362
0.820769 0.607133 0.101463
0.854647 0.611905 0.106696
0.888568 0.616804 0.112060
0.922532 0.621830 0.117555
0.956539 0.626983 0.123181
0.990590 0.632264 0.128939
0.997461 0.637672 0.134828
0.999365 0.643209 0.140848
1.000000 0.648875 0.147000
0.088568 0.610536 0.072824
0.118003 0.610536 0.072824
0.147439 0.610536 0.072824
0.176874 0.610536 0.072824
0.206310 0.610536 0.072824
0.235746 0.610536 0.072824
0.265181 0.610536 0.072824
0.294617 0.610536 0.072824
0.324052 0.610536 0.072824
0.353488 0.610536 0.072824
0.382923 0.610536 0.072824
0.412359 0.610536 0.072824
0.441795 0.610536 0.072824
0.471230 0.610536 0.072824
0.500666 0.610536 0.072824
0.530101 0.610536 0.072824
0.559537 0.610536 0.072824
0.588973 0.610536 0.072824
0.618408 0.610536 0.072824
0.652027 0.614533 0.077269
0.685689 0.618650 0.081845
0.719394 0.622887 0.086553
0.753143 0.627246 0.091392
0.786934 0.631729 0.096362
0.820769 0.636336 0.101463
0.854647 0.641069 0.106696
0.888568 0.645927 0.112060
0.922532 0.650912 0.117555
0.956539 0.656024 0.123181
0.990590 0.661263 0.128939
0.997461 0.666631 0.134828
0.999365 0.672126 0.140848
1.000000 0.677750 0.147000
0.093459 0.643932 0.077269
0.122858 0.643932 0.077269
0.152256 0.643932 0.077269
0.181654 0.643932 0.077269
0.211053 0.643932 0.077269
0.240451 0.643932 0.077269
0.269849 0.643932 0.077269
0.299248 0.643932 0.077269
0.328646 0.643932 0.077269
0.358044 0.643932 0.077269
0.387442 0.643932 0.077269
0.416841 0.643932 0.077269
0.446239 0.643932 0.077269
0.475637 0.643932 0.077269
0.505036 0.643932 0.077269
0.534434 0.643932 0.077269
0.563832 0.643932 0.077269
0.593230 0.643932 0.077269
0.622629 0.643932 0.077269
0.652027 0.643932 0.077269
0.685689 0.648010 0.081845
0.719394 0.652209 0.086553
0.753143 0.656529 0.091392
0.786934 0.660972 0.096362
0.820769 0.665539 0.101463
0.854647 0.670232 0.106696
0.888568 0.675050 0.112060
0.922532 0.679994 0.117555
0.956539 0.685065 0.123181
0.990590 0.690263 0.128939
0.997461 0.695589 0.134828
0.999365 0.701043 0.140848
1.000000 0.706625 0.147000
0.098483 0.677370 0.081845
0.127843 0.677370 0.081845
0.157203 0.677370 0.081845
0.186564 0.677370 0.081845
0.215924 0.677370 0.081845
0.245284 0.677370 0.081845
0.274645 0.677370 0.081845
0.304005 0.677370 0.081845
0.333365 0.677370 0.081845
0.362726 0.677370 0.081845
0.392086 0.677370 0.081845
0.421446 0.677370 0.081845
0.450806 0.677370 0.081845
0.480167 0.677370 0.081845
0.509527 0.677370 0.081845
0.538887 0.677370 0.081845
0.568248 0.677370 0.081845
0.597608 0.677370 0.081845
0.626968 0.677370 0.081845
0.656329 0.677370 0.081845
0.685689 0.677370 0.081845
0.719394 0.681530 0.086553
0.753143 0.685812 0.091392
0.786934 0.690215 0.096362
0.820769 0.694743 0.101463
0.854647 0.699395 0.106696
0.888568 0.704172 0.112060
0.922532 0.709076 0.117555
0.956539 0.714106 0.123181
0.990590 0.719263 0.128939
0.997461 0.724547 0.134828
0.999365 0.729959 0.140848
1.000000 0.735500 0.147000
0.103637 0.710852 0.086553
0.132959 0.710852 0.086553
0.162281 0.710852 0.086553
0.191602 0.710852 0.086553
0.220924 0.710852 0.086553
0.250246 0.710852 0.086553
0.279568 0.710852 0.086553
0.308889 0.710852 0.086553
0.338211 0.710852 0.086553
0.367533 0.710852 0.086553
0.396855 0.710852 0.086553
0.426177 0.710852 0.086553
0.455498 0.710852 0.086553
0.484820 0.710852 0.086553
0.514142 0.710852 0.086553
0.543464 0.710852 0.086553
0.572785 0.710852 0.086553
0.602107 0.710852 0.086553
0.631429 0.710852 0.086553
0.660751 0.710852 0.086553
0.690072 0.710852 0.086553
0.719394 0.710852 0.086553
0.753143 0.715094 0.091392
0.786934 0.719459 0.096362
0.820769 0.723946 0.101463
0.854647 0.728558 0.106696
0.888568 0.733295 0.112060
0.922532 0.738158 0.117555
0.956539 0.743147 0.123181
0.990590 0.748262 0.128939
0.997461 0.753505 0.134828
0.999365 0.758876 0.140848
1.000000 0.764375 0.147000
0.108923 0.744377 0.091392
0.138206 0.744377 0.091392
0.167488 0.744377 0.091392
0.196771 0.744377 0.091392
0.226054 0.744377 0.091392
0.255336 0.744377 0.091392
0.284619 0.744377 0.091392
0.313902 0.744377 0.091392
0.343185 0.744377 0.091392
0.372467 0.744377 0.091392
0.401750 0.744377 0.091392
0.431033 0.744377 0.091392
0.460315 0.744377 0.091392
0.489598 0.744377 0.091392
0.518881 0.744377 0.091392
0.548164 0.744377 0.091392
0.577446 0.744377 0.091392
0.606729 0.744377 0.091392
0.636012 0.744377 0.091392
0.665294 0.744377 0.091392
0.694577 0.744377 0.091392
0.723860 0.744377 0.091392
0.753143 0.744377 0.091392
0.786934 0.748702 0.096362
0.820769 0.753150 0.101463
0.854647 0.757721 0.106696
0.888568 0.762418 0.112060
0.922532 0.767239 0.117555
0.956539 0.772187 0.123181
0.990590 0.777262 0.128939
0.997461 0.782464 0.134828
0.999365 0.787793 0.140848
1.000000 0.793250 0.147000
0.114340 0.777945 0.096362
0.143583 0.777945 0.096362
0.172826 0.777945 0.096362
0.202070 0.777945 0.096362
0.231313 0.777945 0.096362
0.260556 0.777945 0.096362
0.289799 0.777945 0.096362
0.319042 0.777945 0.096362
0.348286 0.777945 0.096362
0.377529 0.777945 0.096362
0.406772 0.777945 0.096362
0.436015 0.777945 0.096362
0.465259 0.777945 0.096362
0.494502 0.777945 0.096362
0.523745 0.777945 0.096362
0.552988 0.777945 0.096362
0.582231 0.777945 0.096362
0.611475 0.777945 0.096362
0.640718 0.777945 0.096362
0.669961 0.777945 0.096362
0.699204 0.777945 0.096362
0.728448 0.777945 0.096362
0.757691 0.777945 0.096362
0.786934 0.777945 0.096362
0.820769 0.782353 0.101463
0.854647 0.786884 0.106696
0.888568 0.791540 0.112060
0.922532 0.796321 0.117555
0.956539 0.801228 0.123181
0.990590 0.806262 0.128939
0.997461 0.811422 0.134828
0.999365 0.816710 0.140848
1.000000 0.822125 0.147000
0.119888 0.811556 0.101463
0.149091 0.811556 0.101463
0.178295 0.811556 0.101463
0.207498 0.811556 0.101463
0.236702 0.811556 0.101463
0.265905 0.811556 0.101463
0.295108 0.811556 0.101463
0.324312 0.811556 0.101463
0.353515 0.811556 0.101463
0.382718 0.811556 0.101463
0.411922 0.811556 0.101463
0.441125 0.811556 0.101463
0.470328 0.811556 0.101463
0.499532 0.811556 0.101463
0.528735 0.811556 0.101463
0.557939 0.811556 0.101463
0.587142 0.811556 0.101463
0.616345 0.811556 0.101463
0.645549 0.811556 0.101463
0.674752 0.811556 0.101463
0.703955 0.811556 0.101463
0.733159 0.811556 0.101463
0.762362 0.811556 0.101463
0.791565 0.811556 0.101463
0.820769 0.811556 0.101463
0.854647 0.816047 0.106696
0.888568 0.820663 0.112060
0.922532 0.825403 0.117555
0.956539 0.830269 0.123181
0.990590 0.835261 0.128939
0.997461 0.840380 0.134828
0.999365 0.845626 0.140848
1.000000 0.851000 0.147000
0.125568 0.845211 0.106696
0.154731 0.845211 0.106696
0.183894 0.845211 0.106696
0.213057 0.845211 0.106696
0.242220 0.845211 0.106696
0.271383 0.845211 0.106696
0.300547 0.845211 0.106696
0.329710 0.845211 0.106696
0.358873 0.845211 0.106696
0.388036 0.845211 0.106696
0.417199 0.845211 0.106696
0.446362 0.845211 0.106696
0.475526 0.845211 0.106696
0.504689 0.845211 0.106696
0.533852 0.845211 0.106696
0.563015 0.845211 0.106696
0.592178 0.845211 0.106696
0.621341 0.845211 0.106696
0.650504 0.845211 0.106696
0.679668 0.845211 0.106696
0.708831 0.845211 0.106696
0.737994 0.845211 0.106696
0.767157 0.845211 0.106696
0.796320 0.845211 0.106696
0.825483 0.845211 0.106696
0.854647 0.845211 0.106696
0.888568 0.849786 0.112060
0.922532 0.854485 0.117555
0.956539 0.859310 0.123181
0.990590 0.864261 0.128939
0.997461 0.869339 0.134828
0.999365 0.874543 0.140848
1.000000 0.879875 0.147000
0.131378 0.878908 0.112060
0.160501 0.878908 0.112060
0.189624 0.878908 0.112060
0.218746 0.878908 0.112060
0.247869 0.878908 0.112060
0.276992 0.878908 0.112060
0.306114 0.878908 0.112060
0.335237 0.878908 0.112060
0.364360 0.878908 0.112060
0.393482 0.878908 0.112060
0.422605 0.878908 0.112060
0.451728 0.878908 0.112060
0.480850 0.878908 0.112060
0.509973 0.878908 0.112060
0.539096 0.878908 0.112060
0.568218 0.878908 0.112060
0.597341 0.878908 0.112060
0.626464 0.878908 0.112060
0.655586 0.878908 0.112060
0.684709 0.878908 0.112060
0.713832 0.878908 0.112060
0.742954 0.878908 0.112060
0.772077 0.878908 0.112060
0.801200 0.878908 0.112060
0.830322 0.878908 0.112060
0.859445 0.878908 0.112060
0.888568 0.878908 0.112060
