luts/original/skate-garage.cube
TITLE "Skate Garage"
LUT_3D_SIZE 5
DOMAIN_MIN 0.0 0.0 0.0
DOMAIN_MAX 1.0 1.0 1.0
0.020650 0.016800 0.012950
0.284594 0.041231 0.035593
0.551300 0.071753 0.064328
0.820769 0.110676 0.101463
1.000000 0.158000 0.147000
0.046868 0.278956 0.035593
0.284594 0.278956 0.035593
0.551300 0.307814 0.064328
0.820769 0.344303 0.101463
1.000000 0.389000 0.147000
0.079177 0.543875 0.064328
0.315239 0.543875 0.064328
0.551300 0.543875 0.064328
0.820769 0.577929 0.101463
1.000000 0.620000 0.147000
0.119888 0.811556 0.101463
0.353515 0.811556 0.101463
0.587142 0.811556 0.101463
0.820769 0.811556 0.101463
1.000000 0.851000 0.147000
0.169000 1.000000 0.147000
0.400000 1.000000 0.147000
0.631000 1.000000 0.147000
0.862000 1.000000 0.147000
1.000000 1.000000 0.147000
0.046868 0.041231 0.273319
0.284594 0.041231 0.273319
0.551300 0.071753 0.300389
0.820769 0.110676 0.335090
1.000000 0.158000 0.378000
0.046868 0.278956 0.273319
0.284594 0.278956 0.273319
0.551300 0.327490 0.320065
0.820769 0.367794 0.358582
1.000000 0.416500 0.405500
0.079177 0.543875 0.300389
0.334915 0.543875 0.320065
0.551300 0.543875 0.320065
0.820769 0.589675 0.358582
1.000000 0.638333 0.405500
0.119888 0.811556 0.335090
0.377007 0.811556 0.358582
0.598888 0.811556 0.358582
0.820769 0.811556 0.358582
1.000000 0.860167 0.405500
0.169000 1.000000 0.378000
0.427500 1.000000 0.405500
0.649333 1.000000 0.405500
0.871167 1.000000 0.405500
1.000000 1.000000 0.405500
0.079177 0.071753 0.536450
0.315239 0.071753 0.536450
0.551300 0.071753 0.536450
0.820769 0.110676 0.568717
1.000000 0.158000 0.609000
0.079177 0.307814 0.536450
0.334915 0.327490 0.536450
0.551300 0.327490 0.536450
0.820769 0.367794 0.580463
1.000000 0.416500 0.627333
0.079177 0.543875 0.536450
0.334915 0.543875 0.536450
0.551300 0.543875 0.536450
0.820769 0.624913 0.615701
1.000000 0.675000 0.664000
0.119888 0.811556 0.568717
0.377007 0.811556 0.580463
0.634126 0.811556 0.615701
0.820769 0.811556 0.615701
1.000000 0.878500 0.664000
0.169000 1.000000 0.609000
0.427500 1.000000 0.627333
0.686000 1.000000 0.664000
0.889500 1.000000 0.664000
1.000000 1.000000 0.664000
0.119888 0.110676 0.802344
0.353515 0.110676 0.802344
0.587142 0.110676 0.802344
0.820769 0.110676 0.802344
1.000000 0.158000 0.840000
0.119888 0.344303 0.802344
0.377007 0.367794 0.802344
0.598888 0.367794 0.802344
0.820769 0.367794 0.802344
1.000000 0.416500 0.849167
0.119888 0.577929 0.802344
0.377007 0.589675 0.802344
0.634126 0.624913 0.802344
0.820769 0.624913 0.802344
1.000000 0.675000 0.867500
0.119888 0.811556 0.802344
0.377007 0.811556 0.802344
0.634126 0.811556 0.802344
0.820769 0.811556 0.802344
1.000000 0.933500 0.922500
0.169000 1.000000 0.840000
0.427500 1.000000 0.849167
0.686000 1.000000 0.867500
0.944500 1.000000 0.922500
1.000000 1.000000 0.922500
0.169000 0.158000 1.000000
0.400000 0.158000 1.000000
0.631000 0.158000 1.000000
0.862000 0.158000 1.000000
1.000000 0.158000 1.000000
0.169000 0.389000 1.000000
0.427500 0.416500 1.000000
0.649333 0.416500 1.000000
0.871167 0.416500 1.000000
1.000000 0.416500 1.000000
0.169000 0.620000 1.000000
0.427500 0.638333 1.000000
0.686000 0.675000 1.000000
0.889500 0.675000 1.000000
1.000000 0.675000 1.000000
0.169000 0.851000 1.000000
0.427500 0.860167 1.000000
0.686000 0.878500 1.000000
0.944500 0.933500 1.000000
1.000000 0.933500 1.000000
0.169000 1.000000 1.000000
0.427500 1.000000 1.000000
0.686000 1.000000 1.000000
0.944500 1.000000 1.000000
1.000000 1.000000 1.000000
