luts/original/skate-garage.cube
TITLE "Skate Garage"
LUT_3D_SIZE 9
DOMAIN_MIN 0.0 0.0 0.0
DOMAIN_MAX 1.0 1.0 1.0
0.020650 0.016800 0.012950
0.152277 0.029120 0.024376
0.284594 0.041231 0.035593
0.417602 0.055441 0.048910
0.551300 0.071753 0.064328
0.685689 0.090164 0.081845
0.820769 0.110676 0.101463
0.956539 0.133288 0.123181
1.000000 0.158000 0.147000
0.033864 0.147533 0.024376
0.152277 0.147533 0.024376
0.284594 0.160093 0.035593
0.417602 0.173984 0.048910
0.551300 0.189783 0.064328
0.685689 0.207605 0.081845
0.820769 0.227489 0.101463
0.956539 0.249451 0.123181
1.000000 0.273500 0.147000
0.046868 0.278956 0.035593
0.165731 0.278956 0.035593
0.284594 0.278956 0.035593
0.417602 0.292527 0.048910
0.551300 0.307814 0.064328
0.685689 0.325046 0.081845
0.820769 0.344303 0.101463
0.956539 0.365615 0.123181
1.000000 0.389000 0.147000
0.061973 0.411070 0.048910
0.180516 0.411070 0.048910
0.299059 0.411070 0.048910
0.417602 0.411070 0.048910
0.551300 0.425844 0.064328
0.685689 0.442488 0.081845
0.820769 0.461116 0.101463
0.956539 0.481778 0.123181
1.000000 0.504500 0.147000
0.079177 0.543875 0.064328
0.197208 0.543875 0.064328
0.315239 0.543875 0.064328
0.433269 0.543875 0.064328
0.551300 0.543875 0.064328
0.685689 0.559929 0.081845
0.820769 0.577929 0.101463
0.956539 0.597942 0.123181
1.000000 0.620000 0.147000
0.098483 0.677370 0.081845
0.215924 0.677370 0.081845
0.333365 0.677370 0.081845
0.450806 0.677370 0.081845
0.568248 0.677370 0.081845
0.685689 0.677370 0.081845
0.820769 0.694743 0.101463
0.956539 0.714106 0.123181
1.000000 0.735500 0.147000
0.119888 0.811556 0.101463
0.236702 0.811556 0.101463
0.353515 0.811556 0.101463
0.470328 0.811556 0.101463
0.587142 0.811556 0.101463
0.703955 0.811556 0.101463
0.820769 0.811556 0.101463
0.956539 0.830269 0.123181
1.000000 0.851000 0.147000
0.143394 0.946433 0.123181
0.259557 0.946433 0.123181
0.375721 0.946433 0.123181
0.491885 0.946433 0.123181
0.608048 0.946433 0.123181
0.724212 0.946433 0.123181
0.840375 0.946433 0.123181
0.956539 0.946433 0.123181
1.000000 0.966500 0.147000
0.169000 1.000000 0.147000
0.284500 1.000000 0.147000
0.400000 1.000000 0.147000
0.515500 1.000000 0.147000
0.631000 1.000000 0.147000
0.746500 1.000000 0.147000
0.862000 1.000000 0.147000
0.977500 1.000000 0.147000
1.000000 1.000000 0.147000
0.033864 0.029120 0.142789
0.152277 0.029120 0.142789
0.284594 0.041231 0.154456
0.417602 0.055441 0.167453
0.551300 0.071753 0.182358
0.685689 0.090164 0.199286
0.820769 0.110676 0.218277
0.956539 0.133288 0.239345
1.000000 0.158000 0.262500
0.033864 0.147533 0.142789
0.152277 0.147533 0.142789
0.284594 0.168409 0.162771
0.417602 0.182965 0.176434
0.551300 0.199621 0.192196
0.685689 0.218378 0.210059
0.820769 0.239235 0.230023
0.956539 0.262192 0.252086
1.000000 0.287250 0.276250
0.046868 0.278956 0.154456
0.174046 0.278956 0.162771
0.284594 0.278956 0.162771
0.417602 0.297018 0.176434
0.551300 0.314373 0.192196
0.685689 0.333126 0.210059
0.820769 0.353699 0.230023
0.956539 0.376232 0.252086
1.000000 0.400786 0.276250
0.061973 0.411070 0.167453
0.189496 0.411070 0.176434
0.303549 0.411070 0.176434
0.417602 0.411070 0.176434
0.551300 0.429124 0.192196
0.685689 0.447874 0.210059
0.820769 0.468163 0.230023
0.956539 0.490272 0.252086
1.000000 0.514321 0.276250
0.079177 0.543875 0.182358
0.207046 0.543875 0.192196
0.321797 0.543875 0.192196
0.436549 0.543875 0.192196
0.551300 0.543875 0.192196
0.685689 0.562622 0.210059
0.820769 0.582628 0.230023
0.956539 0.604313 0.252086
1.000000 0.627857 0.276250
0.098483 0.677370 0.199286
0.226697 0.677370 0.210059
0.341445 0.677370 0.210059
0.456193 0.677370 0.210059
0.570941 0.677370 0.210059
0.685689 0.677370 0.210059
0.820769 0.697092 0.230023
0.956539 0.718353 0.252086
1.000000 0.741393 0.276250
0.119888 0.811556 0.218277
0.248447 0.811556 0.230023
0.362912 0.811556 0.230023
0.477376 0.811556 0.230023
0.591840 0.811556 0.230023
0.706304 0.811556 0.230023
0.820769 0.811556 0.230023
0.956539 0.832393 0.252086
1.000000 0.854929 0.276250
0.143394 0.946433 0.239345
0.272299 0.946433 0.252086
0.386339 0.946433 0.252086
0.500379 0.946433 0.252086
0.614419 0.946433 0.252086
0.728459 0.946433 0.252086
0.842499 0.946433 0.252086
0.956539 0.946433 0.252086
1.000000 0.968464 0.276250
0.169000 1.000000 0.262500
0.298250 1.000000 0.276250
0.411786 1.000000 0.276250
0.525321 1.000000 0.276250
0.638857 1.000000 0.276250
0.752393 1.000000 0.276250
0.865929 1.000000 0.276250
0.979464 1.000000 0.276250
1.000000 1.000000 0.276250
0.046868 0.041231 0.273319
0.165731 0.041231 0.273319
0.284594 0.041231 0.273319
0.417602 0.055441 0.285996
0.551300 0.071753 0.300389
0.685689 0.090164 0.316728
0.820769 0.110676 0.335090
0.956539 0.133288 0.355509
1.000000 0.158000 0.378000
0.046868 0.160093 0.273319
0.174046 0.168409 0.273319
0.284594 0.168409 0.273319
0.417602 0.182965 0.290486
0.551300 0.199621 0.306947
0.685689 0.218378 0.324807
0.820769 0.239235 0.344487
0.956539 0.262192 0.366126
1.000000 0.287250 0.389786
0.046868 0.278956 0.273319
0.174046 0.278956 0.273319
0.284594 0.278956 0.273319
0.417602 0.310488 0.303957
0.551300 0.327490 0.320065
0.685689 0.346592 0.338273
0.820769 0.367794 0.358582
0.956539 0.391097 0.380991
1.000000 0.416500 0.405500
0.061973 0.411070 0.285996
0.189496 0.411070 0.290486
0.317020 0.411070 0.303957
0.417602 0.411070 0.303957
0.551300 0.435683 0.320065
0.685689 0.456851 0.338273
0.820769 0.478735 0.358582
0.956539 0.502164 0.380991
1.000000 0.527417 0.405500
0.079177 0.543875 0.300389
0.207046 0.543875 0.306947
0.334915 0.543875 0.320065
0.443107 0.543875 0.320065
0.551300 0.543875 0.320065
0.685689 0.567111 0.338273
0.820769 0.589675 0.358582
0.956539 0.613231 0.380991
1.000000 0.638333 0.405500
0.098483 0.677370 0.316728
0.226697 0.677370 0.324807
0.354911 0.677370 0.338273
0.465170 0.677370 0.338273
0.575430 0.677370 0.338273
0.685689 0.677370 0.338273
0.820769 0.700616 0.358582
0.956539 0.724298 0.380991
1.000000 0.749250 0.405500
0.119888 0.811556 0.335090
0.248447 0.811556 0.344487
0.377007 0.811556 0.358582
0.487947 0.811556 0.358582
0.598888 0.811556 0.358582
0.709828 0.811556 0.358582
0.820769 0.811556 0.358582
0.956539 0.835366 0.380991
1.000000 0.860167 0.405500
0.143394 0.946433 0.355509
0.272299 0.946433 0.366126
0.401203 0.946433 0.380991
0.512270 0.946433 0.380991
0.623338 0.946433 0.380991
0.734405 0.946433 0.380991
0.845472 0.946433 0.380991
0.956539 0.946433 0.380991
1.000000 0.971083 0.405500
0.169000 1.000000 0.378000
0.298250 1.000000 0.389786
0.427500 1.000000 0.405500
0.538417 1.000000 0.405500
0.649333 1.000000 0.405500
0.760250 1.000000 0.405500
0.871167 1.000000 0.405500
0.982083 1.000000 0.405500
1.000000 1.000000 0.405500
0.061973 0.055441 0.404539
0.180516 0.055441 0.404539
0.299059 0.055441 0.404539
0.417602 0.055441 0.404539
0.551300 0.071753 0.418419
0.685689 0.090164 0.434169
0.820769 0.110676 0.451903
0.956539 0.133288 0.471672
1.000000 0.158000 0.493500
0.061973 0.173984 0.404539
0.189496 0.182965 0.404539
0.303549 0.182965 0.404539
0.417602 0.182965 0.404539
0.551300 0.199621 0.421699
0.685689 0.218378 0.439555
0.820769 0.239235 0.458951
0.956539 0.262192 0.480166
1.000000 0.287250 0.503321
0.061973 0.292527 0.404539
0.189496 0.297018 0.404539
0.317020 0.310488 0.404539
0.417602 0.310488 0.404539
0.551300 0.327490 0.428257
0.685689 0.346592 0.448533
0.820769 0.367794 0.469522
0.956539 0.391097 0.492058
1.000000 0.416500 0.516417
0.061973 0.411070 0.404539
0.189496 0.411070 0.404539
0.317020 0.411070 0.404539
0.417602 0.411070 0.404539
0.551300 0.455359 0.447934
0.685689 0.474806 0.466487
0.820769 0.496354 0.487141
0.956539 0.520002 0.509895
1.000000 0.545750 0.534750
0.079177 0.543875 0.418419
0.207046 0.543875 0.421699
0.334915 0.543875 0.428257
0.462784 0.543875 0.447934
0.551300 0.543875 0.447934
0.685689 0.576088 0.466487
0.820769 0.601421 0.487141
0.956539 0.626610 0.509895
1.000000 0.653000 0.534750
0.098483 0.677370 0.434169
0.226697 0.677370 0.439555
0.354911 0.677370 0.448533
0.483125 0.677370 0.466487
0.584407 0.677370 0.466487
0.685689 0.677370 0.466487
0.820769 0.706489 0.487141
0.956539 0.733217 0.509895
1.000000 0.760250 0.534750
0.119888 0.811556 0.451903
0.248447 0.811556 0.458951
0.377007 0.811556 0.469522
0.505566 0.811556 0.487141
0.610634 0.811556 0.487141
0.715701 0.811556 0.487141
0.820769 0.811556 0.487141
0.956539 0.839825 0.509895
1.000000 0.867500 0.534750
0.143394 0.946433 0.471672
0.272299 0.946433 0.480166
0.401203 0.946433 0.492058
0.530108 0.946433 0.509895
0.636716 0.946433 0.509895
0.743324 0.946433 0.509895
0.849931 0.946433 0.509895
0.956539 0.946433 0.509895
1.000000 0.974750 0.534750
0.169000 1.000000 0.493500
0.298250 1.000000 0.503321
0.427500 1.000000 0.516417
0.556750 1.000000 0.534750
0.664000 1.000000 0.534750
0.771250 1.000000 0.534750
0.878500 1.000000 0.534750
0.985750 1.000000 0.534750
1.000000 1.000000 0.534750
0.079177 0.071753 0.536450
0.197208 0.071753 0.536450
0.315239 0.071753 0.536450
0.433269 0.071753 0.536450
0.551300 0.071753 0.536450
0.685689 0.090164 0.551610
0.820769 0.110676 0.568717
0.956539 0.133288 0.587836
1.000000 0.158000 0.609000
0.079177 0.189783 0.536450
0.207046 0.199621 0.536450
0.321797 0.199621 0.536450
0.436549 0.199621 0.536450
0.551300 0.199621 0.536450
0.685689 0.218378 0.554303
0.820769 0.239235 0.573415
0.956539 0.262192 0.594206
1.000000 0.287250 0.616857
0.079177 0.307814 0.536450
0.207046 0.314373 0.536450
0.334915 0.327490 0.536450
0.443107 0.327490 0.536450
0.551300 0.327490 0.536450
0.685689 0.346592 0.558792
0.820769 0.367794 0.580463
0.956539 0.391097 0.603125
1.000000 0.416500 0.627333
0.079177 0.425844 0.536450
0.207046 0.429124 0.536450
0.334915 0.435683 0.536450
0.462784 0.455359 0.536450
0.551300 0.455359 0.536450
0.685689 0.474806 0.567769
0.820769 0.496354 0.592209
0.956539 0.520002 0.616503
1.000000 0.545750 0.642000
0.079177 0.543875 0.536450
0.207046 0.543875 0.536450
0.334915 0.543875 0.536450
0.462784 0.543875 0.536450
0.551300 0.543875 0.536450
0.685689 0.603020 0.594701
0.820769 0.624913 0.615701
0.956539 0.648906 0.638800
1.000000 0.675000 0.664000
0.098483 0.677370 0.551610
0.226697 0.677370 0.554303
0.354911 0.677370 0.558792
0.483125 0.677370 0.567769
0.611339 0.677370 0.594701
0.685689 0.677370 0.594701
0.820769 0.718235 0.615701
0.956539 0.748082 0.638800
1.000000 0.776750 0.664000
0.119888 0.811556 0.568717
0.248447 0.811556 0.573415
0.377007 0.811556 0.580463
0.505566 0.811556 0.592209
0.634126 0.811556 0.615701
0.727447 0.811556 0.615701
0.820769 0.811556 0.615701
0.956539 0.847257 0.638800
1.000000 0.878500 0.664000
0.143394 0.946433 0.587836
0.272299 0.946433 0.594206
0.401203 0.946433 0.603125
0.530108 0.946433 0.616503
0.659013 0.946433 0.638800
0.758188 0.946433 0.638800
0.857364 0.946433 0.638800
0.956539 0.946433 0.638800
1.000000 0.980250 0.664000
0.169000 1.000000 0.609000
0.298250 1.000000 0.616857
0.427500 1.000000 0.627333
0.556750 1.000000 0.642000
0.686000 1.000000 0.664000
0.787750 1.000000 0.664000
0.889500 1.000000 0.664000
0.991250 1.000000 0.664000
1.000000 1.000000 0.664000
0.098483 0.090164 0.669052
0.215924 0.090164 0.669052
0.333365 0.090164 0.669052
0.450806 0.090164 0.669052
0.568248 0.090164 0.669052
0.685689 0.090164 0.669052
0.820769 0.110676 0.685530
0.956539 0.133288 0.703999
1.000000 0.158000 0.724500
0.098483 0.207605 0.669052
0.226697 0.218378 0.669052
0.341445 0.218378 0.669052
0.456193 0.218378 0.669052
0.570941 0.218378 0.669052
0.685689 0.218378 0.669052
0.820769 0.239235 0.687880
0.956539 0.262192 0.708246
1.000000 0.287250 0.730393
0.098483 0.325046 0.669052
0.226697 0.333126 0.669052
0.354911 0.346592 0.669052
0.465170 0.346592 0.669052
0.575430 0.346592 0.669052
0.685689 0.346592 0.669052
0.820769 0.367794 0.691403
0.956539 0.391097 0.714192
1.000000 0.416500 0.738250
0.098483 0.442488 0.669052
0.226697 0.447874 0.669052
0.354911 0.456851 0.669052
0.483125 0.474806 0.669052
0.584407 0.474806 0.669052
0.685689 0.474806 0.669052
0.820769 0.496354 0.697276
0.956539 0.520002 0.723111
1.000000 0.545750 0.749250
0.098483 0.559929 0.669052
0.226697 0.562622 0.669052
0.354911 0.567111 0.669052
0.483125 0.576088 0.669052
0.611339 0.603020 0.669052
0.685689 0.603020 0.669052
0.820769 0.624913 0.709022
0.956539 0.648906 0.737976
1.000000 0.675000 0.765750
0.098483 0.677370 0.669052
0.226697 0.677370 0.669052
0.354911 0.677370 0.669052
0.483125 0.677370 0.669052
0.611339 0.677370 0.669052
0.685689 0.677370 0.669052
0.820769 0.753473 0.744260
0.956539 0.777811 0.767705
1.000000 0.804250 0.793250
0.119888 0.811556 0.685530
0.248447 0.811556 0.687880
0.377007 0.811556 0.691403
0.505566 0.811556 0.697276
0.634126 0.811556 0.709022
0.762685 0.811556 0.744260
0.820769 0.811556 0.744260
0.956539 0.862122 0.767705
1.000000 0.896833 0.793250
0.143394 0.946433 0.703999
0.272299 0.946433 0.708246
0.401203 0.946433 0.714192
0.530108 0.946433 0.723111
0.659013 0.946433 0.737976
0.787917 0.946433 0.767705
0.872228 0.946433 0.767705
0.956539 0.946433 0.767705
1.000000 0.989417 0.793250
0.169000 1.000000 0.724500
0.298250 1.000000 0.730393
0.427500 1.000000 0.738250
0.556750 1.000000 0.749250
0.686000 1.000000 0.765750
0.815250 1.000000 0.793250
0.907833 1.000000 0.793250
1.000000 1.000000 0.793250
1.000000 1.000000 0.793250
0.119888 0.110676 0.802344
0.236702 0.110676 0.802344
0.353515 0.110676 0.802344
0.470328 0.110676 0.802344
0.587142 0.110676 0.802344
0.703955 0.110676 0.802344
0.820769 0.110676 0.802344
0.956539 0.133288 0.820163
1.000000 0.158000 0.840000
0.119888 0.227489 0.802344
0.248447 0.239235 0.802344
0.362912 0.239235 0.802344
0.477376 0.239235 0.802344
0.591840 0.239235 0.802344
0.706304 0.239235 0.802344
0.820769 0.239235 0.802344
0.956539 0.262192 0.822286
1.000000 0.287250 0.843929
0.119888 0.344303 0.802344
0.248447 0.353699 0.802344
0.377007 0.367794 0.802344
0.487947 0.367794 0.802344
0.598888 0.367794 0.802344
0.709828 0.367794 0.802344
0.820769 0.367794 0.802344
0.956539 0.391097 0.825259
1.000000 0.416500 0.849167
0.119888 0.461116 0.802344
0.248447 0.468163 0.802344
0.377007 0.478735 0.802344
0.505566 0.496354 0.802344
0.610634 0.496354 0.802344
0.715701 0.496354 0.802344
0.820769 0.496354 0.802344
0.956539 0.520002 0.829719
1.000000 0.545750 0.856500
0.119888 0.577929 0.802344
0.248447 0.582628 0.802344
0.377007 0.589675 0.802344
0.505566 0.601421 0.802344
0.634126 0.624913 0.802344
0.727447 0.624913 0.802344
0.820769 0.624913 0.802344
0.956539 0.648906 0.837151
1.000000 0.675000 0.867500
0.119888 0.694743 0.802344
0.248447 0.697092 0.802344
0.377007 0.700616 0.802344
0.505566 0.706489 0.802344
0.634126 0.718235 0.802344
0.762685 0.753473 0.802344
0.820769 0.753473 0.802344
0.956539 0.777811 0.852016
1.000000 0.804250 0.885833
0.119888 0.811556 0.802344
0.248447 0.811556 0.802344
0.377007 0.811556 0.802344
0.505566 0.811556 0.802344
0.634126 0.811556 0.802344
0.762685 0.811556 0.802344
0.820769 0.811556 0.802344
0.956539 0.906716 0.896610
1.000000 0.933500 0.922500
0.143394 0.946433 0.820163
0.272299 0.946433 0.822286
0.401203 0.946433 0.825259
0.530108 0.946433 0.829719
0.659013 0.946433 0.837151
0.787917 0.946433 0.852016
0.916822 0.946433 0.896610
0.956539 0.946433 0.896610
1.000000 1.000000 0.922500
0.169000 1.000000 0.840000
0.298250 1.000000 0.843929
0.427500 1.000000 0.849167
0.556750 1.000000 0.856500
0.686000 1.000000 0.867500
0.815250 1.000000 0.885833
0.944500 1.000000 0.922500
1.000000 1.000000 0.922500
1.000000 1.000000 0.922500
0.143394 0.133288 0.936327
0.259557 0.133288 0.936327
0.375721 0.133288 0.936327
0.491885 0.133288 0.936327
0.608048 0.133288 0.936327
0.724212 0.133288 0.936327
0.840375 0.133288 0.936327
0.956539 0.133288 0.936327
1.000000 0.158000 0.955500
0.143394 0.249451 0.936327
0.272299 0.262192 0.936327
0.386339 0.262192 0.936327
0.500379 0.262192 0.936327
0.614419 0.262192 0.936327
0.728459 0.262192 0.936327
0.842499 0.262192 0.936327
0.956539 0.262192 0.936327
1.000000 0.287250 0.957464
0.143394 0.365615 0.936327
0.272299 0.376232 0.936327
0.401203 0.391097 0.936327
0.512270 0.391097 0.936327
0.623338 0.391097 0.936327
0.734405 0.391097 0.936327
0.845472 0.391097 0.936327
0.956539 0.391097 0.936327
1.000000 0.416500 0.960083
0.143394 0.481778 0.936327
0.272299 0.490272 0.936327
0.401203 0.502164 0.936327
0.530108 0.520002 0.936327
0.636716 0.520002 0.936327
0.743324 0.520002 0.936327
0.849931 0.520002 0.936327
0.956539 0.520002 0.936327
1.000000 0.545750 0.963750
0.143394 0.597942 0.936327
0.272299 0.604313 0.936327
0.401203 0.613231 0.936327
0.530108 0.626610 0.936327
0.659013 0.648906 0.936327
0.758188 0.648906 0.936327
0.857364 0.648906 0.936327
0.956539 0.648906 0.936327
1.000000 0.675000 0.969250
0.143394 0.714106 0.936327
0.272299 0.718353 0.936327
0.401203 0.724298 0.936327
0.530108 0.733217 0.936327
0.659013 0.748082 0.936327
0.787917 0.777811 0.936327
0.872228 0.777811 0.936327
0.956539 0.777811 0.936327
1.000000 0.804250 0.978417
0.143394 0.830269 0.936327
0.272299 0.832393 0.936327
0.401203 0.835366 0.936327
0.530108 0.839825 0.936327
0.659013 0.847257 0.936327
0.787917 0.862122 0.936327
0.916822 0.906716 0.936327
0.956539 0.906716 0.936327
1.000000 0.933500 0.996750
0.143394 0.946433 0.936327
0.272299 0.946433 0.936327
0.401203 0.946433 0.936327
0.530108 0.946433 0.936327
0.659013 0.946433 0.936327
0.787917 0.946433 0.936327
0.916822 0.946433 0.936327
0.956539 0.946433 0.936327
1.000000 1.000000 1.000000
0.169000 1.000000 0.955500
0.298250 1.000000 0.957464
0.427500 1.000000 0.960083
0.556750 1.000000 0.963750
0.686000 1.000000 0.969250
0.815250 1.000000 0.978417
0.944500 1.000000 0.996750
1.000000 1.000000 1.000000
1.000000 1.000000 1.000000
0.169000 0.158000 1.000000
0.284500 0.158000 1.000000
0.400000 0.158000 1.000000
0.515500 0.158000 1.000000
0.631000 0.158000 1.000000
0.746500 0.158000 1.000000
0.862000 0.158000 1.000000
0.977500 0.158000 1.000000
1.000000 0.158000 1.000000
0.169000 0.273500 1.000000
0.298250 0.287250 1.000000
0.411786 0.287250 1.000000
0.525321 0.287250 1.000000
0.638857 0.287250 1.000000
0.752393 0.287250 1.000000
0.865929 0.287250 1.000000
0.979464 0.287250 1.000000
1.000000 0.287250 1.000000
0.169000 0.389000 1.000000
0.298250 0.400786 1.000000
0.427500 0.416500 1.000000
0.538417 0.416500 1.000000
0.649333 0.416500 1.000000
0.760250 0.416500 1.000000
0.871167 0.416500 1.000000
0.982083 0.416500 1.000000
1.000000 0.416500 1.000000
0.169000 0.504500 1.000000
0.298250 0.514321 1.000000
0.427500 0.527417 1.000000
0.556750 0.545750 1.000000
0.664000 0.545750 1.000000
0.771250 0.545750 1.000000
0.878500 0.545750 1.000000
0.985750 0.545750 1.000000
1.000000 0.545750 1.000000
0.169000 0.620000 1.000000
0.298250 0.627857 1.000000
0.427500 0.638333 1.000000
0.556750 0.653000 1.000000
0.686000 0.675000 1.000000
0.787750 0.675000 1.000000
0.889500 0.675000 1.000000
0.991250 0.675000 1.000000
1.000000 0.675000 1.000000
0.169000 0.735500 1.000000
0.298250 0.741393 1.000000
0.427500 0.749250 1.000000
0.556750 0.760250 1.000000
0.686000 0.776750 1.000000
0.815250 0.804250 1.000000
0.907833 0.804250 1.000000
1.000000 0.804250 1.000000
1.000000 0.804250 1.000000
0.169000 0.851000 1.000000
0.298250 0.854929 1.000000
0.427500 0.860167 1.000000
0.556750 0.867500 1.000000
0.686000 0.878500 1.000000
0.815250 0.896833 1.000000
0.944500 0.933500 1.000000
1.000000 0.933500 1.000000
1.000000 0.933500 1.000000
0.169000 0.966500 1.000000
0.298250 0.968464 1.000000
0.427500 0.971083 1.000000
0.556750 0.974750 1.000000
0.686000 0.980250 1.000000
0.815250 0.989417 1.000000
0.944500 1.000000 1.000000
1.000000 1.000000 1.000000
1.000000 1.000000 1.000000
0.169000 1.000000 1.000000
0.298250 1.000000 1.000000
0.427500 1.000000 1.000000
0.556750 1.000000 1.000000
0.686000 1.000000 1.000000
0.815250 1.000000 1.000000
0.944500 1.000000 1.000000
1.000000 1.000000 1.000000
1.000000 1.000000 1.000000
