luts/original/soft-sunrise.cube
TITLE "Soft Sunrise"
LUT_3D_SIZE 33
DOMAIN_MIN 0.0 0.0 0.0
DOMAIN_MAX 1.0 1.0 1.0
0.027888 0.009273 0.009273
0.060683 0.009277 0.009277
0.093470 0.009223 0.009223
0.126248 0.009110 0.009110
0.159019 0.008939 0.008939
0.191781 0.008709 0.008709
0.224535 0.008421 0.008421
0.257281 0.008074 0.008074
0.290019 0.007669 0.007669
0.322749 0.007205 0.007205
0.355471 0.006682 0.006682
0.388185 0.006101 0.006101
0.420891 0.005461 0.005461
0.453588 0.004763 0.004763
0.486278 0.004006 0.004006
0.518959 0.003191 0.003191
0.551632 0.002317 0.002317
0.584297 0.001384 0.001384
0.616954 0.000393 0.000393
0.649603 0.000000 0.000000
0.682244 0.000000 0.000000
0.714877 0.000000 0.000000
0.747502 0.000000 0.000000
0.780118 0.000000 0.000000
0.812727 0.000000 0.000000
0.845327 0.000000 0.000000
0.877919 0.000000 0.000000
0.910504 0.000000 0.000000
0.943080 0.000000 0.000000
0.975648 0.000000 0.000000
0.997461 0.000000 0.000000
0.999365 0.000000 0.000000
1.000000 0.000000 0.000000
0.029259 0.041554 0.009573
0.060435 0.040916 0.009039
0.093208 0.040834 0.008972
0.125973 0.040711 0.008846
0.158730 0.040538 0.008662
0.191478 0.040310 0.008419
0.224219 0.040026 0.008117
0.256951 0.039686 0.007757
0.289676 0.039288 0.007339
0.322392 0.038832 0.006862
0.355100 0.038319 0.006326
0.387800 0.037747 0.005732
0.420492 0.037118 0.005079
0.453176 0.036430 0.004368
0.485852 0.035683 0.003598
0.518520 0.034879 0.002769
0.551180 0.034016 0.001882
0.583831 0.033094 0.000937
0.616475 0.032178 0.000000
0.649110 0.032151 0.000000
0.681737 0.032126 0.000000
0.714356 0.032103 0.000000
0.746967 0.032082 0.000000
0.779570 0.032061 0.000000
0.812165 0.032043 0.000000
0.844752 0.032025 0.000000
0.877331 0.032008 0.000000
0.909901 0.031992 0.000000
0.942464 0.031977 0.000000
0.975018 0.031963 0.000000
0.997461 0.031957 0.000000
0.999365 0.031969 0.000000
1.000000 0.031984 0.000000
0.030318 0.073570 0.009651
0.061774 0.073098 0.009283
0.092946 0.072439 0.008720
0.125697 0.072307 0.008581
0.158440 0.072132 0.008384
0.191175 0.071907 0.008128
0.223902 0.071628 0.007814
0.256621 0.071294 0.007440
0.289332 0.070904 0.007009
0.322035 0.070457 0.006519
0.354729 0.069953 0.005970
0.387416 0.069391 0.005363
0.420094 0.068772 0.004697
0.452765 0.068094 0.003972
0.485427 0.067359 0.003189
0.518081 0.066565 0.002348
0.550727 0.065713 0.001448
0.583365 0.064802 0.000489
0.615995 0.064307 0.000000
0.648616 0.064254 0.000000
0.681230 0.064205 0.000000
0.713836 0.064160 0.000000
0.746433 0.064118 0.000000
0.779022 0.064078 0.000000
0.811604 0.064041 0.000000
0.844177 0.064006 0.000000
0.876742 0.063974 0.000000
0.909299 0.063942 0.000000
0.941848 0.063913 0.000000
0.974388 0.063885 0.000000
0.997461 0.063871 0.000000
0.999365 0.063895 0.000000
1.000000 0.063924 0.000000
0.030986 0.105120 0.009375
0.062820 0.105039 0.009296
0.094254 0.104574 0.008909
0.125422 0.103898 0.008317
0.158151 0.103722 0.008106
0.190873 0.103500 0.007837
0.223586 0.103227 0.007510
0.256291 0.102900 0.007124
0.288989 0.102518 0.006679
0.321678 0.102080 0.006176
0.354359 0.101585 0.005614
0.387031 0.101033 0.004994
0.419696 0.100424 0.004315
0.452353 0.099756 0.003577
0.485002 0.099031 0.002781
0.517642 0.098248 0.001927
0.550274 0.097407 0.001013
0.582899 0.096508 0.000042
0.615515 0.096388 0.000000
0.648123 0.096310 0.000000
0.680723 0.096238 0.000000
0.713315 0.096171 0.000000
0.745899 0.096109 0.000000
0.778475 0.096051 0.000000
0.811042 0.095996 0.000000
0.843602 0.095945 0.000000
0.876153 0.095896 0.000000
0.908696 0.095850 0.000000
0.941232 0.095807 0.000000
0.973759 0.095765 0.000000
0.997461 0.095744 0.000000
0.999365 0.095779 0.000000
1.000000 0.095821 0.000000
0.031633 0.136643 0.009021
0.063453 0.136557 0.008939
0.095272 0.136471 0.008856
0.126698 0.136003 0.008450
0.157862 0.135308 0.007829
0.190570 0.135089 0.007547
0.223270 0.134822 0.007206
0.255961 0.134502 0.006807
0.288645 0.134129 0.006349
0.321320 0.133700 0.005833
0.353988 0.133214 0.005258
0.386647 0.132672 0.004624
0.419298 0.132073 0.003932
0.451941 0.131416 0.003182
0.484576 0.130702 0.002373
0.517203 0.129930 0.001505
0.549822 0.129100 0.000579
0.582433 0.128531 0.000000
0.615035 0.128419 0.000000
0.647630 0.128317 0.000000
0.680216 0.128223 0.000000
0.712794 0.128136 0.000000
0.745364 0.128054 0.000000
0.777927 0.127978 0.000000
0.810481 0.127907 0.000000
0.843026 0.127840 0.000000
0.875564 0.127777 0.000000
0.908094 0.127716 0.000000
0.940616 0.127659 0.000000
0.973129 0.127605 0.000000
0.997461 0.127575 0.000000
0.999365 0.127619 0.000000
1.000000 0.127673 0.000000
0.032225 0.168139 0.008591
0.064046 0.168049 0.008505
0.095866 0.167959 0.008418
0.127684 0.167869 0.008332
0.159107 0.167391 0.007907
0.190267 0.166675 0.007256
0.222953 0.166414 0.006902
0.255631 0.166102 0.006490
0.288301 0.165736 0.006019
0.320963 0.165317 0.005490
0.353617 0.164841 0.004902
0.386262 0.164309 0.004255
0.418900 0.163720 0.003550
0.451529 0.163074 0.002787
0.484151 0.162371 0.001964
0.516764 0.161610 0.001084
0.549369 0.160791 0.000144
0.581966 0.160538 0.000000
0.614555 0.160402 0.000000
0.647136 0.160277 0.000000
0.679709 0.160161 0.000000
0.712274 0.160054 0.000000
0.744830 0.159955 0.000000
0.777379 0.159862 0.000000
0.809919 0.159774 0.000000
0.842451 0.159692 0.000000
0.874976 0.159614 0.000000
0.907492 0.159540 0.000000
0.940000 0.159470 0.000000
0.972499 0.159403 0.000000
0.997461 0.159364 0.000000
0.999365 0.159417 0.000000
1.000000 0.159483 0.000000
0.032751 0.199607 0.008084
0.064579 0.199513 0.007994
0.096407 0.199419 0.007903
0.128233 0.199325 0.007813
0.160058 0.199231 0.007723
0.191481 0.198741 0.007279
0.222637 0.198002 0.006599
0.255301 0.197698 0.006173
0.287958 0.197341 0.005689
0.320606 0.196931 0.005147
0.353246 0.196465 0.004546
0.385878 0.195943 0.003886
0.418502 0.195365 0.003168
0.451118 0.194730 0.002391
0.483725 0.194037 0.001556
0.516325 0.193287 0.000662
0.548917 0.192670 0.000000
0.581500 0.192495 0.000000
0.614075 0.192335 0.000000
0.646643 0.192188 0.000000
0.679202 0.192053 0.000000
0.711753 0.191927 0.000000
0.744296 0.191810 0.000000
0.776831 0.191700 0.000000
0.809357 0.191597 0.000000
0.841876 0.191500 0.000000
0.874387 0.191409 0.000000
0.906889 0.191322 0.000000
0.939384 0.191239 0.000000
0.971870 0.191160 0.000000
0.997461 0.191111 0.000000
0.999365 0.191172 0.000000
1.000000 0.191248 0.000000
0.033206 0.231049 0.007500
0.065046 0.230950 0.007406
0.096885 0.230852 0.007312
0.128722 0.230754 0.007217
0.160559 0.230656 0.007123
0.192394 0.230558 0.007029
0.223819 0.230054 0.006566
0.254971 0.229291 0.005856
0.287614 0.228943 0.005359
0.320249 0.228542 0.004804
0.352875 0.228087 0.004190
0.385493 0.227575 0.003517
0.418104 0.227007 0.002786
0.450706 0.226383 0.001996
0.483300 0.225701 0.001148
0.515886 0.224962 0.000241
0.548464 0.224602 0.000000
0.581034 0.224402 0.000000
0.613596 0.224219 0.000000
0.646149 0.224052 0.000000
0.678695 0.223897 0.000000
0.711232 0.223753 0.000000
0.743762 0.223620 0.000000
0.776283 0.223494 0.000000
0.808796 0.223377 0.000000
0.841301 0.223266 0.000000
0.873798 0.223161 0.000000
0.906287 0.223061 0.000000
0.938768 0.222967 0.000000
0.971240 0.222876 0.000000
0.997461 0.222816 0.000000
0.999365 0.222885 0.000000
1.000000 0.222971 0.000000
0.033589 0.262463 0.006839
0.065442 0.262360 0.006741
0.097295 0.262258 0.006643
0.129146 0.262156 0.006545
0.160997 0.262054 0.006447
0.192846 0.261952 0.006349
0.224695 0.261850 0.006251
0.256122 0.261330 0.005768
0.287270 0.260543 0.005030
0.319891 0.260151 0.004461
0.352504 0.259706 0.003834
0.385109 0.259205 0.003148
0.417706 0.258648 0.002404
0.450294 0.258034 0.001601
0.482875 0.257363 0.000739
0.515447 0.256729 0.000000
0.548011 0.256482 0.000000
0.580568 0.256259 0.000000
0.613116 0.256055 0.000000
0.645656 0.255868 0.000000
0.678188 0.255695 0.000000
0.710712 0.255534 0.000000
0.743227 0.255384 0.000000
0.775735 0.255244 0.000000
0.808234 0.255112 0.000000
0.840726 0.254988 0.000000
0.873209 0.254870 0.000000
0.905684 0.254759 0.000000
0.938152 0.254652 0.000000
0.970611 0.254551 0.000000
0.997461 0.254480 0.000000
0.999365 0.254555 0.000000
1.000000 0.254649 0.000000
0.033897 0.293849 0.006101
0.065766 0.293743 0.005999
0.097634 0.293637 0.005897
0.129501 0.293531 0.005795
0.161367 0.293424 0.005693
0.193232 0.293318 0.005591
0.225096 0.293212 0.005489
0.256959 0.293106 0.005387
0.288390 0.292571 0.004886
0.319534 0.291758 0.004118
0.352133 0.291322 0.003478
0.384724 0.290832 0.002779
0.417308 0.290285 0.002022
0.449883 0.289683 0.001206
0.482449 0.289023 0.000331
0.515008 0.288582 0.000000
0.547559 0.288311 0.000000
0.580101 0.288066 0.000000
0.612636 0.287841 0.000000
0.645162 0.287635 0.000000
0.677681 0.287445 0.000000
0.710191 0.287268 0.000000
0.742693 0.287104 0.000000
0.775187 0.286949 0.000000
0.807673 0.286804 0.000000
0.840151 0.286667 0.000000
0.872620 0.286537 0.000000
0.905082 0.286414 0.000000
0.937536 0.286297 0.000000
0.969981 0.286185 0.000000
0.997461 0.286103 0.000000
0.999365 0.286183 0.000000
1.000000 0.286285 0.000000
0.034130 0.325209 0.005286
0.066015 0.325098 0.005180
0.097900 0.324988 0.005075
0.129783 0.324878 0.004969
0.161666 0.324768 0.004863
0.193548 0.324657 0.004757
0.225428 0.324547 0.004651
0.257308 0.324437 0.004545
0.289187 0.324327 0.004440
0.320623 0.323775 0.003919
0.351762 0.322936 0.003122
0.384340 0.322456 0.002410
0.416909 0.321921 0.001639
0.449471 0.321329 0.000810
0.482024 0.320709 0.000000
0.514569 0.320382 0.000000
0.547106 0.320089 0.000000
0.579635 0.319822 0.000000
0.612156 0.319579 0.000000
0.644669 0.319355 0.000000
0.677174 0.319149 0.000000
0.709670 0.318957 0.000000
0.742159 0.318778 0.000000
0.774639 0.318610 0.000000
0.807111 0.318452 0.000000
0.839575 0.318303 0.000000
0.872032 0.318161 0.000000
0.904480 0.318027 0.000000
0.936919 0.317899 0.000000
0.969351 0.317777 0.000000
0.997461 0.317684 0.000000
0.999365 0.317768 0.000000
1.000000 0.317878 0.000000
0.034288 0.356541 0.004394
0.066190 0.356427 0.004285
0.098092 0.356312 0.004175
0.129993 0.356198 0.004065
0.161893 0.356084 0.003956
0.193792 0.355969 0.003846
0.225690 0.355855 0.003736
0.257588 0.355741 0.003626
0.289484 0.355627 0.003517
0.321380 0.355512 0.003407
0.352820 0.354944 0.002867
0.383956 0.354078 0.002041
0.416511 0.353554 0.001257
0.449059 0.352973 0.000415
0.481599 0.352479 0.000000
0.514130 0.352130 0.000000
0.546654 0.351815 0.000000
0.579169 0.351529 0.000000
0.611676 0.351268 0.000000
0.644175 0.351027 0.000000
0.676666 0.350805 0.000000
0.709149 0.350599 0.000000
0.741624 0.350406 0.000000
0.774091 0.350226 0.000000
0.806550 0.350056 0.000000
0.839000 0.349895 0.000000
0.871443 0.349743 0.000000
0.903877 0.349598 0.000000
0.936303 0.349460 0.000000
0.968722 0.349329 0.000000
0.997461 0.349223 0.000000
0.999365 0.349312 0.000000
1.000000 0.349427 0.000000
0.034369 0.387846 0.003426
0.066290 0.387727 0.003312
0.098209 0.387609 0.003199
0.130128 0.387491 0.003085
0.162046 0.387372 0.002971
0.193963 0.387254 0.002858
0.225880 0.387136 0.002744
0.257795 0.387017 0.002631
0.289710 0.386899 0.002517
0.321624 0.386781 0.002403
0.353537 0.386662 0.002290
0.384982 0.386077 0.001731
0.416113 0.385184 0.000875
0.448647 0.384615 0.000020
0.481173 0.384196 0.000000
0.513691 0.383824 0.000000
0.546201 0.383489 0.000000
0.578703 0.383185 0.000000
0.611196 0.382907 0.000000
0.643682 0.382652 0.000000
0.676159 0.382415 0.000000
0.708629 0.382195 0.000000
0.741090 0.381990 0.000000
0.773543 0.381797 0.000000
0.805988 0.381616 0.000000
0.838425 0.381444 0.000000
0.870854 0.381282 0.000000
0.903275 0.381127 0.000000
0.935687 0.380980 0.000000
0.968092 0.380839 0.000000
0.997461 0.380722 0.000000
0.999365 0.380813 0.000000
1.000000 0.380933 0.000000
0.034375 0.419124 0.002380
0.066313 0.419001 0.002263
0.098251 0.418879 0.002145
0.130189 0.418756 0.002028
0.162125 0.418634 0.001910
0.194061 0.418512 0.001793
0.225996 0.418389 0.001675
0.257930 0.418267 0.001558
0.289863 0.418144 0.001440
0.321796 0.418022 0.001323
0.353728 0.417900 0.001205
0.385659 0.417777 0.001088
0.417108 0.417174 0.000510
0.448236 0.416296 0.000000
0.480748 0.415858 0.000000
0.513252 0.415466 0.000000
0.545749 0.415113 0.000000
0.578237 0.414792 0.000000
0.610717 0.414498 0.000000
0.643189 0.414228 0.000000
0.675652 0.413978 0.000000
0.708108 0.413745 0.000000
0.740556 0.413528 0.000000
0.772995 0.413324 0.000000
0.805427 0.413132 0.000000
0.837850 0.412950 0.000000
0.870265 0.412778 0.000000
0.902672 0.412614 0.000000
0.935071 0.412457 0.000000
0.967462 0.412308 0.000000
0.997461 0.412179 0.000000
0.999365 0.412272 0.000000
1.000000 0.412397 0.000000
0.034304 0.450374 0.001258
0.066261 0.450248 0.001136
0.098218 0.450121 0.001015
0.130174 0.449995 0.000893
0.162129 0.449868 0.000772
0.194084 0.449742 0.000651
0.226038 0.449615 0.000529
0.257991 0.449489 0.000408
0.289943 0.449363 0.000286
0.321895 0.449236 0.000165
0.353846 0.449110 0.000044
0.385804 0.448983 0.000000
0.417751 0.448857 0.000000
0.449199 0.448269 0.000000
0.480323 0.447465 0.000000
0.512813 0.447055 0.000000
0.545296 0.446684 0.000000
0.577770 0.446348 0.000000
0.610237 0.446040 0.000000
0.642695 0.445756 0.000000
0.675145 0.445493 0.000000
0.707587 0.445249 0.000000
0.740021 0.445021 0.000000
0.772447 0.444806 0.000000
0.804865 0.444604 0.000000
0.837275 0.444413 0.000000
0.869676 0.444231 0.000000
0.902070 0.444059 0.000000
0.934455 0.443894 0.000000
0.966833 0.443736 0.000000
0.997461 0.443596 0.000000
0.999365 0.443689 0.000000
1.000000 0.443818 0.000000
0.034157 0.481597 0.000058
0.066189 0.481467 0.000000
0.098255 0.481336 0.000000
0.130304 0.481206 0.000000
0.162336 0.481075 0.000000
0.194350 0.480945 0.000000
0.226347 0.480814 0.000000
0.258326 0.480684 0.000000
0.290289 0.480553 0.000000
0.322233 0.480423 0.000000
0.354161 0.480292 0.000000
0.386070 0.480162 0.000000
0.417963 0.480031 0.000000
0.449838 0.479901 0.000000
0.481255 0.479347 0.000000
0.512374 0.478590 0.000000
0.544843 0.478205 0.000000
0.577304 0.477854 0.000000
0.609757 0.477532 0.000000
0.642202 0.477237 0.000000
0.674638 0.476962 0.000000
0.707067 0.476707 0.000000
0.739487 0.476468 0.000000
0.771899 0.476244 0.000000
0.804304 0.476032 0.000000
0.836700 0.475832 0.000000
0.869088 0.475642 0.000000
0.901468 0.475461 0.000000
0.933839 0.475288 0.000000
0.966203 0.475123 0.000000
0.997461 0.474971 0.000000
0.999365 0.475065 0.000000
1.000000 0.475196 0.000000
0.035029 0.512793 0.000000
0.067057 0.512659 0.000000
0.099068 0.512524 0.000000
0.131062 0.512390 0.000000
0.163039 0.512255 0.000000
0.195000 0.512121 0.000000
0.226943 0.511986 0.000000
0.258870 0.511852 0.000000
0.290780 0.511717 0.000000
0.322673 0.511582 0.000000
0.354550 0.511448 0.000000
0.386409 0.511313 0.000000
0.418252 0.511179 0.000000
0.450078 0.511044 0.000000
0.481887 0.510910 0.000000
0.513275 0.510386 0.000000
0.544391 0.509673 0.000000
0.576838 0.509310 0.000000
0.609277 0.508976 0.000000
0.641708 0.508669 0.000000
0.674131 0.508384 0.000000
0.706546 0.508119 0.000000
0.738953 0.507871 0.000000
0.771351 0.507637 0.000000
0.803742 0.507417 0.000000
0.836125 0.507208 0.000000
0.868499 0.507010 0.000000
0.900865 0.506821 0.000000
0.933223 0.506641 0.000000
0.965573 0.506468 0.000000
0.997461 0.506305 0.000000
0.999365 0.506399 0.000000
1.000000 0.506531 0.000000
0.035962 0.543962 0.000000
0.067939 0.543824 0.000000
0.099899 0.543685 0.000000
0.131843 0.543546 0.000000
0.163771 0.543408 0.000000
0.195682 0.543269 0.000000
0.227577 0.543131 0.000000
0.259456 0.542992 0.000000
0.291318 0.542853 0.000000
0.323164 0.542715 0.000000
0.354994 0.542576 0.000000
0.386808 0.542438 0.000000
0.418605 0.542299 0.000000
0.450386 0.542161 0.000000
0.482150 0.542022 0.000000
0.513899 0.541883 0.000000
0.545260 0.541387 0.000000
0.576372 0.540715 0.000000
0.608797 0.540371 0.000000
0.641215 0.540054 0.000000
0.673624 0.539759 0.000000
0.706025 0.539485 0.000000
0.738419 0.539228 0.000000
0.770804 0.538986 0.000000
0.803181 0.538758 0.000000
0.835549 0.538541 0.000000
0.867910 0.538336 0.000000
0.900263 0.538140 0.000000
0.932607 0.537952 0.000000
0.964944 0.537773 0.000000
0.997272 0.537600 0.000000
0.999365 0.537691 0.000000
1.000000 0.537824 0.000000
0.036902 0.575104 0.000000
0.068831 0.574961 0.000000
0.100745 0.574818 0.000000
0.132643 0.574676 0.000000
0.164525 0.574533 0.000000
0.196391 0.574390 0.000000
0.228241 0.574248 0.000000
0.260076 0.574105 0.000000
0.291895 0.573963 0.000000
0.323697 0.573820 0.000000
0.355484 0.573677 0.000000
0.387256 0.573535 0.000000
0.419011 0.573392 0.000000
0.450750 0.573249 0.000000
0.482474 0.573107 0.000000
0.514182 0.572964 0.000000
0.545873 0.572822 0.000000
0.577210 0.572351 0.000000
0.608317 0.571717 0.000000
0.640721 0.571390 0.000000
0.673117 0.571087 0.000000
0.705505 0.570804 0.000000
0.737884 0.570539 0.000000
0.770256 0.570290 0.000000
0.802619 0.570054 0.000000
0.834974 0.569831 0.000000
0.867321 0.569619 0.000000
0.899660 0.569416 0.000000
0.931991 0.569222 0.000000
0.964314 0.569036 0.000000
0.996629 0.568857 0.000000
0.999365 0.568941 0.000000
1.000000 0.569075 0.000000
0.037847 0.606218 0.000000
0.069733 0.606071 0.000000
0.101604 0.605925 0.000000
0.133459 0.605778 0.000000
0.165299 0.605631 0.000000
0.197123 0.605485 0.000000
0.228932 0.605338 0.000000
0.260726 0.605191 0.000000
0.292504 0.605044 0.000000
0.324266 0.604898 0.000000
0.356013 0.604751 0.000000
0.387745 0.604604 0.000000
0.419461 0.604458 0.000000
0.451162 0.604311 0.000000
0.482848 0.604164 0.000000
0.514518 0.604018 0.000000
0.546172 0.603871 0.000000
0.577811 0.603724 0.000000
0.609125 0.603277 0.000000
0.640228 0.602679 0.000000
0.672610 0.602368 0.000000
0.704984 0.602078 0.000000
0.737350 0.601806 0.000000
0.769708 0.601550 0.000000
0.802057 0.601307 0.000000
0.834399 0.601077 0.000000
0.866733 0.600859 0.000000
0.899058 0.600650 0.000000
0.931375 0.600450 0.000000
0.963684 0.600258 0.000000
0.995986 0.600073 0.000000
0.999365 0.600150 0.000000
1.000000 0.600283 0.000000
0.038797 0.637305 0.000000
0.070643 0.637154 0.000000
0.102473 0.637004 0.000000
0.134289 0.636853 0.000000
0.166089 0.636702 0.000000
0.197874 0.636551 0.000000
0.229645 0.636401 0.000000
0.261400 0.636250 0.000000
0.293140 0.636099 0.000000
0.324865 0.635948 0.000000
0.356575 0.635798 0.000000
0.388270 0.635647 0.000000
0.419950 0.635496 0.000000
0.451615 0.635346 0.000000
0.483264 0.635195 0.000000
0.514899 0.635044 0.000000
0.546519 0.634893 0.000000
0.578123 0.634743 0.000000
0.609713 0.634592 0.000000
0.641004 0.634166 0.000000
0.672103 0.633602 0.000000
0.704463 0.633305 0.000000
0.736816 0.633027 0.000000
0.769160 0.632765 0.000000
0.801496 0.632516 0.000000
0.833824 0.632281 0.000000
0.866144 0.632056 0.000000
0.898456 0.631842 0.000000
0.930759 0.631636 0.000000
0.963055 0.631439 0.000000
0.995342 0.631249 0.000000
0.999365 0.631317 0.000000
1.000000 0.631448 0.000000
0.039751 0.668365 0.000000
0.071559 0.668210 0.000000
0.103352 0.668055 0.000000
0.135130 0.667901 0.000000
0.166894 0.667746 0.000000
0.198642 0.667591 0.000000
0.230376 0.667436 0.000000
0.262096 0.667281 0.000000
0.293800 0.667127 0.000000
0.325490 0.666972 0.000000
0.357165 0.666817 0.000000
0.388825 0.666662 0.000000
0.420471 0.666507 0.000000
0.452102 0.666353 0.000000
0.483718 0.666198 0.000000
0.515319 0.666043 0.000000
0.546906 0.665888 0.000000
0.578478 0.665734 0.000000
0.610035 0.665579 0.000000
0.641577 0.665424 0.000000
0.672847 0.665019 0.000000
0.703943 0.664487 0.000000
0.736281 0.664203 0.000000
0.768612 0.663935 0.000000
0.800934 0.663681 0.000000
0.833249 0.663441 0.000000
0.865555 0.663211 0.000000
0.897853 0.662992 0.000000
0.930143 0.662781 0.000000
0.962425 0.662579 0.000000
0.994699 0.662384 0.000000
0.999365 0.662444 0.000000
1.000000 0.662572 0.000000
0.040709 0.699397 0.000000
0.072481 0.699239 0.000000
0.104239 0.699080 0.000000
0.135982 0.698921 0.000000
0.167710 0.698762 0.000000
0.199425 0.698603 0.000000
0.231125 0.698444 0.000000
0.262810 0.698286 0.000000
0.294481 0.698127 0.000000
0.326137 0.697968 0.000000
0.357779 0.697809 0.000000
0.389407 0.697650 0.000000
0.421020 0.697492 0.000000
0.452619 0.697333 0.000000
0.484203 0.697174 0.000000
0.515773 0.697015 0.000000
0.547329 0.696856 0.000000
0.578870 0.696697 0.000000
0.610396 0.696539 0.000000
0.641908 0.696380 0.000000
0.673406 0.696221 0.000000
0.704656 0.695835 0.000000
0.735747 0.695334 0.000000
0.768064 0.695061 0.000000
0.800373 0.694803 0.000000
0.832674 0.694557 0.000000
0.864966 0.694323 0.000000
0.897251 0.694099 0.000000
0.929527 0.693884 0.000000
0.961796 0.693678 0.000000
0.994056 0.693478 0.000000
0.999365 0.693528 0.000000
1.000000 0.693653 0.000000
0.041670 0.730403 0.000000
0.073408 0.730240 0.000000
0.105132 0.730077 0.000000
0.136842 0.729914 0.000000
0.168538 0.729751 0.000000
0.200220 0.729588 0.000000
0.231887 0.729425 0.000000
0.263540 0.729263 0.000000
0.295179 0.729100 0.000000
0.326804 0.728937 0.000000
0.358415 0.728774 0.000000
0.390012 0.728611 0.000000
0.421594 0.728448 0.000000
0.453162 0.728285 0.000000
0.484716 0.728123 0.000000
0.516256 0.727960 0.000000
0.547782 0.727797 0.000000
0.579294 0.727634 0.000000
0.610791 0.727471 0.000000
0.642274 0.727308 0.000000
0.673744 0.727145 0.000000
0.705199 0.726982 0.000000
0.736429 0.726614 0.000000
0.767516 0.726142 0.000000
0.799811 0.725880 0.000000
0.832098 0.725631 0.000000
0.864377 0.725393 0.000000
0.896648 0.725165 0.000000
0.928911 0.724946 0.000000
0.961166 0.724735 0.000000
0.993413 0.724532 0.000000
0.999365 0.724572 0.000000
1.000000 0.724693 0.000000
0.042634 0.761381 0.000000
0.074340 0.761214 0.000000
0.106032 0.761047 0.000000
0.137710 0.760880 0.000000
0.169375 0.760713 0.000000
0.201025 0.760546 0.000000
0.232662 0.760379 0.000000
0.264284 0.760212 0.000000
0.295893 0.760045 0.000000
0.327488 0.759879 0.000000
0.359069 0.759712 0.000000
0.390636 0.759545 0.000000
0.422189 0.759378 0.000000
0.453728 0.759211 0.000000
0.485254 0.759044 0.000000
0.516765 0.758877 0.000000
0.548262 0.758710 0.000000
0.579746 0.758543 0.000000
0.611216 0.758376 0.000000
0.642671 0.758209 0.000000
0.674113 0.758042 0.000000
0.705541 0.757875 0.000000
0.736955 0.757709 0.000000
0.768167 0.757358 0.000000
0.799250 0.756914 0.000000
0.831523 0.756661 0.000000
0.863789 0.756419 0.000000
0.896046 0.756188 0.000000
0.928295 0.755966 0.000000
0.960536 0.755751 0.000000
0.992769 0.755545 0.000000
0.999365 0.755575 0.000000
1.000000 0.755690 0.000000
0.043600 0.792332 0.000000
0.075275 0.792161 0.000000
0.106937 0.791990 0.000000
0.138585 0.791819 0.000000
0.170220 0.791648 0.000000
0.201841 0.791477 0.000000
0.233448 0.791306 0.000000
0.265041 0.791135 0.000000
0.296621 0.790964 0.000000
0.328187 0.790793 0.000000
0.359739 0.790622 0.000000
0.391278 0.790451 0.000000
0.422803 0.790280 0.000000
0.454314 0.790109 0.000000
0.485812 0.789938 0.000000
0.517296 0.789767 0.000000
0.548766 0.789596 0.000000
0.580223 0.789425 0.000000
0.611666 0.789254 0.000000
0.643095 0.789083 0.000000
0.674511 0.788912 0.000000
0.705913 0.788741 0.000000
0.737301 0.788570 0.000000
0.768676 0.788399 0.000000
0.799869 0.788065 0.000000
0.830948 0.787648 0.000000
0.863200 0.787404 0.000000
0.895444 0.787169 0.000000
0.927679 0.786944 0.000000
0.959907 0.786727 0.000000
0.992126 0.786517 0.000000
0.999365 0.786536 0.000000
1.000000 0.786646 0.000000
0.044568 0.823255 0.000000
0.076214 0.823080 0.000000
0.107847 0.822905 0.000000
0.139466 0.822730 0.000000
0.171072 0.822555 0.000000
0.202664 0.822380 0.000000
0.234243 0.822205 0.000000
0.265809 0.822030 0.000000
0.297360 0.821855 0.000000
0.328899 0.821680 0.000000
0.360424 0.821505 0.000000
0.391935 0.821330 0.000000
0.423434 0.821155 0.000000
0.454918 0.820980 0.000000
0.486389 0.820805 0.000000
0.517847 0.820630 0.000000
0.549291 0.820455 0.000000
0.580722 0.820280 0.000000
0.612139 0.820105 0.000000
0.643543 0.819930 0.000000
0.674933 0.819755 0.000000
0.706310 0.819580 0.000000
0.737674 0.819405 0.000000
0.769024 0.819230 0.000000
0.800360 0.819055 0.000000
0.831536 0.818736 0.000000
0.862611 0.818345 0.000000
