luts/original/soft-sunrise.cube
TITLE "Soft Sunrise"
LUT_3D_SIZE 9
DOMAIN_MIN 0.0 0.0 0.0
DOMAIN_MAX 1.0 1.0 1.0
0.027888 0.009273 0.009273
0.159019 0.008939 0.008939
0.290019 0.007669 0.007669
0.420891 0.005461 0.005461
0.551632 0.002317 0.002317
0.682244 0.000000 0.000000
0.812727 0.000000 0.000000
0.943080 0.000000 0.000000
1.000000 0.000000 0.000000
0.031633 0.136643 0.009021
0.157862 0.135308 0.007829
0.288645 0.134129 0.006349
0.419298 0.132073 0.003932
0.549822 0.129100 0.000579
0.680216 0.128223 0.000000
0.810481 0.127907 0.000000
0.940616 0.127659 0.000000
1.000000 0.127673 0.000000
0.033589 0.262463 0.006839
0.160997 0.262054 0.006447
0.287270 0.260543 0.005030
0.417706 0.258648 0.002404
0.548011 0.256482 0.000000
0.678188 0.255695 0.000000
0.808234 0.255112 0.000000
0.938152 0.254652 0.000000
1.000000 0.254649 0.000000
0.034369 0.387846 0.003426
0.162046 0.387372 0.002971
0.289710 0.386899 0.002517
0.416113 0.385184 0.000875
0.546201 0.383489 0.000000
0.676159 0.382415 0.000000
0.805988 0.381616 0.000000
0.935687 0.380980 0.000000
1.000000 0.380933 0.000000
0.035029 0.512793 0.000000
0.163039 0.512255 0.000000
0.290780 0.511717 0.000000
0.418252 0.511179 0.000000
0.544391 0.509673 0.000000
0.674131 0.508384 0.000000
0.803742 0.507417 0.000000
0.933223 0.506641 0.000000
1.000000 0.506531 0.000000
0.038797 0.637305 0.000000
0.166089 0.636702 0.000000
0.293140 0.636099 0.000000
0.419950 0.635496 0.000000
0.546519 0.634893 0.000000
0.672103 0.633602 0.000000
0.801496 0.632516 0.000000
0.930759 0.631636 0.000000
1.000000 0.631448 0.000000
0.042634 0.761381 0.000000
0.169375 0.760713 0.000000
0.295893 0.760045 0.000000
0.422189 0.759378 0.000000
0.548262 0.758710 0.000000
0.674113 0.758042 0.000000
0.799250 0.756914 0.000000
0.928295 0.755966 0.000000
1.000000 0.755690 0.000000
0.046510 0.885021 0.000000
0.172795 0.884288 0.000000
0.298871 0.883556 0.000000
0.424737 0.882823 0.000000
0.550395 0.882091 0.000000
0.675843 0.881359 0.000000
0.801081 0.880626 0.000000
0.925831 0.879629 0.000000
1.000000 0.879263 0.000000
0.050415 1.000000 0.000000
0.176310 1.000000 0.000000
0.302002 1.000000 0.000000
0.427494 1.000000 0.000000
0.552784 1.000000 0.000000
0.677873 1.000000 0.000000
0.802763 1.000000 0.000000
0.927453 1.000000 0.000000
1.000000 1.000000 0.000000
0.033691 0.010927 0.116167
0.158949 0.008872 0.113815
0.289936 0.007589 0.108644
0.420794 0.005369 0.102576
0.551522 0.002212 0.095584
0.682121 0.000000 0.089333
0.812591 0.000000 0.085067
0.942930 0.000000 0.080846
1.000000 0.000000 0.076802
0.030517 0.136573 0.113265
0.157792 0.134496 0.111199
0.288562 0.132751 0.105644
0.419202 0.130365 0.099152
0.549712 0.127104 0.091724
0.680093 0.122930 0.083358
0.810345 0.117830 0.074056
0.940466 0.111800 0.063816
1.000000 0.107989 0.055778
0.032384 0.262379 0.106837
0.160194 0.261971 0.105742
0.287187 0.260093 0.104325
0.417609 0.257616 0.097624
0.547902 0.254415 0.089986
0.678065 0.250357 0.081411
0.808098 0.245400 0.071899
0.938002 0.239528 0.061451
1.000000 0.235814 0.053096
0.033021 0.387749 0.099370
0.160699 0.387276 0.098191
0.289146 0.386803 0.097737
0.416017 0.384823 0.096095
0.546091 0.381689 0.088248
0.676037 0.377750 0.079464
0.805852 0.372939 0.069743
0.935538 0.367227 0.059085
1.000000 0.363606 0.050414
0.032426 0.512684 0.090705
0.160201 0.512146 0.089410
0.288786 0.511607 0.088893
0.417359 0.511069 0.088376
0.544281 0.508924 0.086510
0.674008 0.505110 0.077517
0.803606 0.500447 0.067587
0.933074 0.494897 0.056720
1.000000 0.491366 0.047732
0.030601 0.637182 0.080819
0.158544 0.636579 0.079397
0.287358 0.635976 0.078819
0.416160 0.635373 0.078240
0.544952 0.634771 0.077661
0.671980 0.632435 0.075570
0.801360 0.627924 0.065430
0.930610 0.622538 0.054354
1.000000 0.619095 0.045050
0.027545 0.761245 0.069708
0.155689 0.760577 0.068154
0.284770 0.759909 0.067513
0.413842 0.759242 0.066872
0.542903 0.758574 0.066231
0.671955 0.757906 0.065590
0.799114 0.755370 0.063274
0.928146 0.750150 0.051989
1.000000 0.746791 0.042368
0.023258 0.884872 0.057369
0.151620 0.884139 0.055680
0.280990 0.883407 0.054977
0.410351 0.882674 0.054274
0.539703 0.881942 0.053570
0.669046 0.881209 0.052867
0.798379 0.880477 0.052164
0.925682 0.877734 0.049623
1.000000 0.874456 0.039686
0.018063 1.000000 0.044124
0.146624 1.000000 0.042265
0.276266 1.000000 0.041468
0.405899 1.000000 0.040671
0.535523 1.000000 0.039874
0.665137 1.000000 0.039076
0.794742 1.000000 0.038279
0.924338 1.000000 0.037482
1.000000 1.000000 0.037004
0.037090 0.010290 0.239365
0.164621 0.009898 0.238956
0.289797 0.007455 0.236308
0.420633 0.005214 0.230577
0.551340 0.002036 0.223942
0.681917 0.000000 0.217848
0.812364 0.000000 0.213247
0.942682 0.000000 0.208764
1.000000 0.000000 0.204748
0.034595 0.136293 0.237990
0.162289 0.133578 0.237581
0.288423 0.131136 0.233366
0.419041 0.128686 0.226665
0.549529 0.125298 0.219280
0.679888 0.120974 0.211039
0.810118 0.115713 0.201897
0.940218 0.109515 0.191837
1.000000 0.105507 0.184018
0.032251 0.262240 0.235212
0.156859 0.261832 0.232475
0.287048 0.258120 0.229191
0.417448 0.254513 0.222469
0.547719 0.250762 0.214810
0.677860 0.246240 0.206214
0.807872 0.240843 0.196682
0.937753 0.234540 0.186212
1.000000 0.230382 0.177825
0.032866 0.387589 0.227834
0.157412 0.387115 0.224211
0.287313 0.386642 0.222582
0.415856 0.383826 0.220941
0.527545 0.377694 0.227843
0.655499 0.374877 0.222560
0.805625 0.369377 0.194525
0.935289 0.363128 0.183847
1.000000 0.359062 0.175143
0.032251 0.512501 0.219418
0.156734 0.511963 0.215310
0.285870 0.511425 0.213718
0.416153 0.510886 0.213201
0.544098 0.508168 0.211334
0.654282 0.501984 0.221392
0.803379 0.497874 0.192369
0.932825 0.491682 0.181481
1.000000 0.487698 0.172461
0.030405 0.636977 0.209837
0.154826 0.636374 0.205276
0.283797 0.635772 0.203622
0.413893 0.635169 0.203043
0.543974 0.634566 0.202464
0.671775 0.631776 0.200373
0.801133 0.626333 0.190213
0.930361 0.620201 0.179116
1.000000 0.616292 0.169779
0.027327 0.761018 0.199056
0.151686 0.760350 0.194047
0.280684 0.759683 0.192295
0.410830 0.759015 0.191654
0.540964 0.758347 0.191013
0.671087 0.757680 0.190372
0.798887 0.754755 0.188056
0.927897 0.748687 0.176750
1.000000 0.744843 0.167097
0.023019 0.884623 0.187061
0.147316 0.883890 0.181602
0.276425 0.883158 0.179738
0.406727 0.882425 0.179035
0.537019 0.881693 0.178332
0.667300 0.880961 0.177628
0.797569 0.880228 0.176925
0.925433 0.877139 0.174385
1.000000 0.873352 0.164415
0.017792 1.000000 0.174160
0.141995 1.000000 0.168217
0.271236 1.000000 0.166197
0.401727 1.000000 0.165400
0.532204 1.000000 0.164603
0.662669 1.000000 0.163806
0.793122 1.000000 0.163008
0.923562 1.000000 0.162211
1.000000 1.000000 0.161733
0.039779 0.008798 0.362518
0.167548 0.008344 0.362044
0.295302 0.007889 0.361571
0.420473 0.005060 0.358574
0.551157 0.001861 0.352297
0.681712 0.000000 0.346287
0.812137 0.000000 0.341357
0.942433 0.000000 0.336615
1.000000 0.000000 0.332623
0.036957 0.134545 0.360925
0.163584 0.131815 0.360452
0.293315 0.131361 0.359978
0.418880 0.128531 0.355951
0.549347 0.125123 0.348655
0.679684 0.120778 0.340635
0.809891 0.115495 0.331775
0.939969 0.109276 0.322028
1.000000 0.105236 0.314595
0.035428 0.261762 0.359333
0.159974 0.259417 0.358859
0.290014 0.254832 0.358386
0.417288 0.252002 0.351857
0.547536 0.248385 0.343485
0.677655 0.243830 0.334726
0.807645 0.238339 0.325205
0.937505 0.231911 0.314824
1.000000 0.227554 0.306650
0.032712 0.387428 0.356294
0.157258 0.386955 0.354921
0.281803 0.386481 0.350550
0.415695 0.380741 0.345786
0.545726 0.375053 0.337897
0.675627 0.369873 0.329071
0.805399 0.364061 0.319308
0.935041 0.357425 0.308608
1.000000 0.352902 0.299872
0.032075 0.512318 0.348127
0.156559 0.511780 0.345507
0.281042 0.511242 0.340286
0.413485 0.510704 0.338026
0.543916 0.506775 0.336159
0.654159 0.500217 0.346274
0.781891 0.496440 0.340291
0.909546 0.492338 0.333745
1.000000 0.482751 0.297190
0.030208 0.636773 0.338850
0.154629 0.636170 0.335455
0.279050 0.635567 0.329912
0.409907 0.634964 0.327847
0.542353 0.634361 0.327268
0.671571 0.630791 0.325176
0.780544 0.624415 0.338997
0.908068 0.620197 0.332326
1.000000 0.612540 0.294508
0.027110 0.760791 0.328400
0.151469 0.760124 0.324379
0.275828 0.759456 0.318495
0.406181 0.758788 0.316437
0.538019 0.758121 0.315796
0.669841 0.757453 0.315155
0.798660 0.753936 0.312839
0.906589 0.748031 0.330907
1.000000 0.742269 0.291826
0.022780 0.884374 0.316749
0.147077 0.883642 0.312167
0.271374 0.882909 0.305911
0.401570 0.882177 0.303796
0.533228 0.881444 0.303093
0.664873 0.880712 0.302390
0.796505 0.879979 0.301686
0.925184 0.876400 0.299146
1.000000 0.871938 0.289144
0.017521 1.000000 0.304193
0.141724 1.000000 0.299056
0.265927 1.000000 0.292367
0.396101 1.000000 0.290129
0.527752 1.000000 0.289332
0.659385 1.000000 0.288535
0.791000 1.000000 0.287738
0.922598 1.000000 0.286940
1.000000 1.000000 0.286462
0.041638 0.006452 0.485627
0.169703 0.005935 0.485089
0.297757 0.005419 0.484551
0.425798 0.004902 0.484012
0.550974 0.001685 0.480649
0.681507 0.000000 0.474651
0.811910 0.000000 0.469395
0.942184 0.000000 0.464399
1.000000 0.000000 0.460427
0.038464 0.132124 0.483816
0.164921 0.129197 0.483278
0.294328 0.128681 0.482740
0.423718 0.128164 0.482202
0.549164 0.124947 0.478025
0.679479 0.120581 0.470228
0.809664 0.115278 0.461649
0.939720 0.109038 0.452215
1.000000 0.104965 0.445169
0.036726 0.259366 0.482006
0.161209 0.255939 0.481468
0.288877 0.251943 0.480930
0.421302 0.251426 0.480392
0.547354 0.248209 0.474722
0.677451 0.243634 0.465706
0.807418 0.238121 0.456218
0.937256 0.231672 0.446000
1.000000 0.227283 0.438202
0.034988 0.386563 0.480196
0.159471 0.384948 0.479658
0.283955 0.381537 0.479119
0.416867 0.374688 0.478581
0.545543 0.371471 0.469288
0.675422 0.366687 0.459105
0.805172 0.360965 0.448913
0.934792 0.354306 0.438080
1.000000 0.349601 0.429516
0.031900 0.512135 0.476831
0.156383 0.511597 0.475699
0.280867 0.511059 0.473824
0.405350 0.510521 0.467490
0.543733 0.502358 0.460984
0.673394 0.494371 0.451927
0.802926 0.487700 0.441934
0.932328 0.480567 0.431003
1.000000 0.475636 0.421919
0.030011 0.636568 0.467860
0.154433 0.635965 0.465629
0.278854 0.635362 0.462146
0.403275 0.634759 0.455062
0.538709 0.634156 0.452071
0.671366 0.628940 0.449980
0.780408 0.622137 0.463866
0.907918 0.617339 0.457183
1.000000 0.607182 0.419237
0.026892 0.760565 0.457741
0.151251 0.759897 0.454707
0.275610 0.759229 0.450358
0.399969 0.758561 0.443178
0.532808 0.757894 0.440578
0.667748 0.757226 0.439937
0.798433 0.752692 0.437621
0.906440 0.746306 0.455763
1.000000 0.738637 0.416555
0.022542 0.884125 0.446435
0.146838 0.883393 0.442728
0.271135 0.882660 0.437729
0.395432 0.881928 0.430359
0.527353 0.881195 0.427854
0.661165 0.880463 0.427151
0.794960 0.879731 0.426448
0.924936 0.875403 0.423907
1.000000 0.870002 0.413873
0.017250 1.000000 0.434222
0.141453 1.000000 0.429892
0.265656 1.000000 0.424297
0.389859 1.000000 0.416613
0.521388 1.000000 0.414061
0.654725 1.000000 0.413264
0.788036 1.000000 0.412467
0.921320 1.000000 0.411670
1.000000 1.000000 0.411191
0.042650 0.003251 0.608692
0.171032 0.002672 0.608089
0.299404 0.002093 0.607486
0.427765 0.001514 0.606883
0.556116 0.000935 0.606280
0.681302 0.000000 0.602938
0.811684 0.000000 0.597362
0.941935 0.000000 0.592115
1.000000 0.000000 0.588161
0.039116 0.128900 0.606664
0.165554 0.125725 0.606061
0.295007 0.125146 0.605458
0.424446 0.124567 0.604855
0.553873 0.123988 0.604252
0.679274 0.120384 0.599817
0.809438 0.115060 0.591520
0.939471 0.108799 0.582400
1.000000 0.104695 0.575740
0.037169 0.256248 0.604635
0.161590 0.252165 0.604033
0.288787 0.248199 0.603430
0.420135 0.247620 0.602827
0.551464 0.247041 0.602224
0.677246 0.243437 0.596681
0.807191 0.237904 0.587227
0.937007 0.231433 0.577173
1.000000 0.227013 0.569748
0.035222 0.383559 0.602607
0.159643 0.380824 0.602004
0.284064 0.376150 0.601401
0.412970 0.370673 0.600798
0.548581 0.370094 0.600195
0.675218 0.366490 0.592621
0.804945 0.360747 0.581730
0.934543 0.354068 0.570689
1.000000 0.349331 0.562431
0.033275 0.510830 0.600579
0.157696 0.509431 0.599976
0.282117 0.507309 0.599373
0.406538 0.502654 0.598770
0.542848 0.493147 0.598167
0.673189 0.489543 0.585659
0.802699 0.483591 0.573524
0.932079 0.476702 0.561842
1.000000 0.471649 0.552792
0.029815 0.636363 0.596867
0.154236 0.635760 0.595799
0.278657 0.635157 0.594374
0.403078 0.634554 0.591920
0.527500 0.633951 0.583296
0.671161 0.622972 0.574783
0.800453 0.612467 0.564560
0.929615 0.604243 0.553399
1.000000 0.598774 0.543967
0.026674 0.760338 0.587078
0.151033 0.759670 0.585031
0.275392 0.759002 0.582217
0.399751 0.758335 0.577751
0.524110 0.757667 0.568539
0.662986 0.756999 0.564719
0.798207 0.750320 0.562403
0.906291 0.743455 0.580620
1.000000 0.733002 0.541285
0.022303 0.883877 0.576117
0.146600 0.883144 0.573286
0.270896 0.882412 0.569542
0.395193 0.881679 0.564126
0.519490 0.880947 0.555107
0.654575 0.880214 0.551912
0.792335 0.879482 0.551209
0.924687 0.873872 0.548668
1.000000 0.867079 0.538603
0.016980 1.000000 0.564249
0.141182 1.000000 0.560723
0.265385 1.000000 0.556221
0.389588 1.000000 0.550107
0.513791 1.000000 0.541032
0.647472 1.000000 0.537993
0.783483 1.000000 0.537196
0.919449 1.000000 0.536399
1.000000 1.000000 0.535921
0.043560 0.000000 0.731713
0.172605 0.000000 0.731045
0.301412 0.000000 0.730378
0.429980 0.000000 0.729710
0.558310 0.000000 0.729042
0.686401 0.000000 0.728375
0.811457 0.000000 0.725259
0.941687 0.000000 0.719765
1.000000 0.000000 0.715824
0.038913 0.124843 0.729467
0.165383 0.121397 0.728799
0.295012 0.120756 0.728132
0.424629 0.120115 0.727464
0.554234 0.119474 0.726796
0.683828 0.118833 0.726128
0.809211 0.114842 0.721388
0.939223 0.108560 0.712581
1.000000 0.104424 0.706306
0.036757 0.252332 0.727221
0.161116 0.247696 0.726553
0.288159 0.243600 0.725885
0.419219 0.242959 0.725218
0.550264 0.242318 0.724550
0.681295 0.241677 0.723882
0.806965 0.237686 0.718232
0.936759 0.231194 0.708341
1.000000 0.226742 0.701290
0.034601 0.379788 0.724975
0.158960 0.376265 0.724307
0.283319 0.370957 0.723639
0.411377 0.365803 0.722971
0.544969 0.365162 0.722304
0.678541 0.364521 0.721636
0.804718 0.360530 0.714542
0.934294 0.353829 0.703294
1.000000 0.349060 0.695338
0.032444 0.507208 0.722728
0.156803 0.504790 0.722061
0.281162 0.501278 0.721393
0.405521 0.495179 0.720725
0.535862 0.488005 0.720058
0.675152 0.487364 0.719390
0.802472 0.483373 0.709648
0.931830 0.476463 0.696728
1.000000 0.471378 0.687750
0.030288 0.634594 0.720482
0.154647 0.633273 0.719815
0.279006 0.631542 0.719147
0.403365 0.628846 0.718479
0.527724 0.622768 0.717811
0.667957 0.610208 0.717144
0.800226 0.606217 0.700971
0.929366 0.599098 0.686743
1.000000 0.593696 0.676886
0.026457 0.760111 0.716413
0.150816 0.759443 0.715351
0.275175 0.758776 0.714070
0.399534 0.758108 0.712318
0.523893 0.757440 0.709210
0.648252 0.756773 0.697967
0.797980 0.742583 0.687186
0.926902 0.729340 0.675795
1.000000 0.722817 0.666014
0.022064 0.883628 0.705796
0.146361 0.882895 0.703840
0.270658 0.882163 0.701352
0.394955 0.881430 0.697888
0.519251 0.880698 0.692323
0.643548 0.879966 0.680718
0.786317 0.879233 0.675970
0.924438 0.870915 0.673429
1.000000 0.861927 0.663332
0.016709 1.000000 0.694272
0.140912 1.000000 0.691550
0.265114 1.000000 0.688140
0.389317 1.000000 0.683592
0.513520 1.000000 0.676958
0.637723 1.000000 0.665826
0.775345 1.000000 0.661925
0.916241 1.000000 0.661128
1.000000 1.000000 0.660650
0.047491 0.000000 0.854690
0.176218 0.000000 0.853958
0.304724 0.000000 0.853225
0.433008 0.000000 0.852493
0.561069 0.000000 0.851760
0.688909 0.000000 0.851028
0.816527 0.000000 0.850295
0.941438 0.000000 0.847347
1.000000 0.000000 0.843416
0.037856 0.119942 0.852226
0.164382 0.116215 0.851494
0.294246 0.115512 0.850761
0.424100 0.114809 0.850029
0.553942 0.114106 0.849296
0.683775 0.113402 0.848564
0.813597 0.112699 0.847831
0.938974 0.108321 0.842759
1.000000 0.104153 0.836869
0.035490 0.247591 0.849762
0.159787 0.242440 0.849030
0.286787 0.238146 0.848297
0.417834 0.237443 0.847565
0.548867 0.236740 0.846832
0.679888 0.236037 0.846100
0.810896 0.235334 0.845367
0.936510 0.230956 0.839506
1.000000 0.226471 0.832826
0.033125 0.375208 0.847298
0.157422 0.371028 0.846565
0.281718 0.365208 0.845833
0.409455 0.360078 0.845101
0.542341 0.359375 0.844368
0.675210 0.358671 0.843636
0.808063 0.357968 0.842903
0.934046 0.353590 0.835895
1.000000 0.348789 0.828239
0.030759 0.502793 0.844834
0.155056 0.499579 0.844101
0.279353 0.495183 0.843369
0.403650 0.488499 0.842636
0.532690 0.482009 0.841904
0.668830 0.481306 0.841172
0.804947 0.480603 0.840439
0.931582 0.476225 0.831608
1.000000 0.471107 0.822698
0.028394 0.630346 0.842370
0.152691 0.628091 0.841637
0.276987 0.625112 0.840905
0.401284 0.620728 0.840172
0.525581 0.613026 0.839440
0.657554 0.603940 0.838707
0.801016 0.603237 0.837975
0.929118 0.598859 0.825802
1.000000 0.593425 0.815249
0.026028 0.757867 0.839906
0.150325 0.756566 0.839173
0.274622 0.754993 0.838441
0.398919 0.752896 0.837708
0.523216 0.749558 0.836976
0.647512 0.741878 0.836243
0.792194 0.725872 0.835511
0.926653 0.721494 0.815223
1.000000 0.715743 0.803025
0.021825 0.883379 0.835472
0.146122 0.882647 0.834390
0.270419 0.881914 0.833156
0.394716 0.881182 0.831644
0.519013 0.880449 0.829531
0.643309 0.879717 0.825693
0.767606 0.878984 0.811503
0.924189 0.861190 0.798190
1.000000 0.849693 0.788061
0.016438 1.000000 0.824292
0.140641 1.000000 0.822373
0.264844 1.000000 0.820053
0.389046 1.000000 0.817070
0.513249 1.000000 0.812871
0.637452 1.000000 0.806054
0.761655 1.000000 0.791696
0.908827 1.000000 0.785857
1.000000 1.000000 0.785379
0.051454 0.000000 0.977623
0.179942 0.000000 0.976826
0.308220 0.000000 0.976029
0.436288 0.000000 0.975232
0.564146 0.000000 0.974434
0.691795 0.000000 0.973637
0.819234 0.000000 0.972840
0.946463 0.000000 0.972043
1.000000 0.000000 0.970938
0.035944 0.114194 0.974941
0.162540 0.110178 0.974144
0.292672 0.109413 0.973347
0.422794 0.108648 0.972550
0.552906 0.107882 0.971752
0.683009 0.107117 0.970955
0.813102 0.106352 0.970158
0.943186 0.105586 0.969361
1.000000 0.103882 0.967428
0.033369 0.242011 0.972259
0.157604 0.236364 0.971462
0.284612 0.231838 0.970665
0.415772 0.231073 0.969868
0.546920 0.230308 0.969070
0.678057 0.229542 0.968273
0.809183 0.228777 0.967476
0.940298 0.228012 0.966679
1.000000 0.226200 0.964358
0.030794 0.369799 0.969577
0.155029 0.365029 0.968780
0.279264 0.358731 0.967983
0.406862 0.353498 0.967186
0.539498 0.352733 0.966388
0.672119 0.351968 0.965591
0.804726 0.351202 0.964794
0.937320 0.350437 0.963997
1.000000 0.348518 0.961132
0.028220 0.497557 0.966895
0.152454 0.493660 0.966098
0.276689 0.488569 0.965301
0.400923 0.481435 0.964504
0.529441 0.475158 0.963706
0.664371 0.474393 0.962909
0.799284 0.473627 0.962112
0.934178 0.472862 0.961315
1.000000 0.470836 0.957634
0.025645 0.625286 0.964213
0.149880 0.622256 0.963416
0.274114 0.618367 0.962619
0.398349 0.613005 0.961822
0.522583 0.604791 0.961024
0.652727 0.596818 0.960227
0.791717 0.596053 0.959430
0.930683 0.595287 0.958633
1.000000 0.593154 0.953592
0.023070 0.752984 0.961531
0.147305 0.750817 0.960734
0.271539 0.748122 0.959937
0.395774 0.744524 0.959140
0.520009 0.739176 0.958342
0.644243 0.729689 0.957545
0.778045 0.718478 0.956748
0.926171 0.717713 0.955951
1.000000 0.715472 0.948188
0.020495 0.880653 0.958849
0.144730 0.879344 0.958052
0.268965 0.877837 0.957255
0.393199 0.875992 0.956458
0.517434 0.873493 0.955660
0.641669 0.869446 0.954863
0.765903 0.859985 0.954066
0.915558 0.840138 0.953269
1.000000 0.837790 0.937338
0.016167 1.000000 0.954310
0.140370 1.000000 0.953192
0.264573 1.000000 0.951960
0.388776 1.000000 0.950539
0.512978 1.000000 0.948771
0.637181 1.000000 0.946256
0.761384 1.000000 0.941593
0.885587 1.000000 0.924025
1.000000 1.000000 0.910108
