luts/original/soft-sunrise.cube
TITLE "Soft Sunrise"
LUT_3D_SIZE 5
DOMAIN_MIN 0.0 0.0 0.0
DOMAIN_MAX 1.0 1.0 1.0
0.027888 0.009273 0.009273
0.290019 0.007669 0.007669
0.551632 0.002317 0.002317
0.812727 0.000000 0.000000
1.000000 0.000000 0.000000
0.033589 0.262463 0.006839
0.287270 0.260543 0.005030
0.548011 0.256482 0.000000
0.808234 0.255112 0.000000
1.000000 0.254649 0.000000
0.035029 0.512793 0.000000
0.290780 0.511717 0.000000
0.544391 0.509673 0.000000
0.803742 0.507417 0.000000
1.000000 0.506531 0.000000
0.042634 0.761381 0.000000
0.295893 0.760045 0.000000
0.548262 0.758710 0.000000
0.799250 0.756914 0.000000
1.000000 0.755690 0.000000
0.050415 1.000000 0.000000
0.302002 1.000000 0.000000
0.552784 1.000000 0.000000
0.802763 1.000000 0.000000
1.000000 1.000000 0.000000
0.037090 0.010290 0.239365
0.289797 0.007455 0.236308
0.551340 0.002036 0.223942
0.812364 0.000000 0.213247
1.000000 0.000000 0.204748
0.032251 0.262240 0.235212
0.287048 0.258120 0.229191
0.547719 0.250762 0.214810
0.807872 0.240843 0.196682
1.000000 0.230382 0.177825
0.032251 0.512501 0.219418
0.285870 0.511425 0.213718
0.544098 0.508168 0.211334
0.803379 0.497874 0.192369
1.000000 0.487698 0.172461
0.027327 0.761018 0.199056
0.280684 0.759683 0.192295
0.540964 0.758347 0.191013
0.798887 0.754755 0.188056
1.000000 0.744843 0.167097
0.017792 1.000000 0.174160
0.271236 1.000000 0.166197
0.532204 1.000000 0.164603
0.793122 1.000000 0.163008
1.000000 1.000000 0.161733
0.041638 0.006452 0.485627
0.297757 0.005419 0.484551
0.550974 0.001685 0.480649
0.811910 0.000000 0.469395
1.000000 0.000000 0.460427
0.036726 0.259366 0.482006
0.288877 0.251943 0.480930
0.547354 0.248209 0.474722
0.807418 0.238121 0.456218
1.000000 0.227283 0.438202
0.031900 0.512135 0.476831
0.280867 0.511059 0.473824
0.543733 0.502358 0.460984
0.802926 0.487700 0.441934
1.000000 0.475636 0.421919
0.026892 0.760565 0.457741
0.275610 0.759229 0.450358
0.532808 0.757894 0.440578
0.798433 0.752692 0.437621
1.000000 0.738637 0.416555
0.017250 1.000000 0.434222
0.265656 1.000000 0.424297
0.521388 1.000000 0.414061
0.788036 1.000000 0.412467
1.000000 1.000000 0.411191
0.043560 0.000000 0.731713
0.301412 0.000000 0.730378
0.558310 0.000000 0.729042
0.811457 0.000000 0.725259
1.000000 0.000000 0.715824
0.036757 0.252332 0.727221
0.288159 0.243600 0.725885
0.550264 0.242318 0.724550
0.806965 0.237686 0.718232
1.000000 0.226742 0.701290
0.032444 0.507208 0.722728
0.281162 0.501278 0.721393
0.535862 0.488005 0.720058
0.802472 0.483373 0.709648
1.000000 0.471378 0.687750
0.026457 0.760111 0.716413
0.275175 0.758776 0.714070
0.523893 0.757440 0.709210
0.797980 0.742583 0.687186
1.000000 0.722817 0.666014
0.016709 1.000000 0.694272
0.265114 1.000000 0.688140
0.513520 1.000000 0.676958
0.775345 1.000000 0.661925
1.000000 1.000000 0.660650
0.051454 0.000000 0.977623
0.308220 0.000000 0.976029
0.564146 0.000000 0.974434
0.819234 0.000000 0.972840
1.000000 0.000000 0.970938
0.033369 0.242011 0.972259
0.284612 0.231838 0.970665
0.546920 0.230308 0.969070
0.809183 0.228777 0.967476
1.000000 0.226200 0.964358
0.028220 0.497557 0.966895
0.276689 0.488569 0.965301
0.529441 0.475158 0.963706
0.799284 0.473627 0.962112
1.000000 0.470836 0.957634
0.023070 0.752984 0.961531
0.271539 0.748122 0.959937
0.520009 0.739176 0.958342
0.778045 0.718478 0.956748
1.000000 0.715472 0.948188
0.016167 1.000000 0.954310
0.264573 1.000000 0.951960
0.512978 1.000000 0.948771
0.761384 1.000000 0.941593
1.000000 1.000000 0.910108
