luts/original/street-hype.cube
TITLE "Street Hype"
LUT_3D_SIZE 5
DOMAIN_MIN 0.0 0.0 0.0
DOMAIN_MAX 1.0 1.0 1.0
0.016800 0.000000 0.000000
0.287412 0.000000 0.000000
0.566150 0.000000 0.000000
0.853013 0.000000 0.000000
1.000000 0.000000 0.000000
0.024600 0.253588 0.000000
0.287412 0.253588 0.000000
0.566150 0.254725 0.000000
0.853013 0.255863 0.000000
1.000000 0.257000 0.000000
0.032400 0.521600 0.000000
0.299275 0.521600 0.000000
0.566150 0.521600 0.000000
0.853013 0.526800 0.000000
1.000000 0.532000 0.000000
0.040200 0.797737 0.000000
0.311137 0.797737 0.000000
0.582075 0.797737 0.000000
0.853013 0.797737 0.000000
1.000000 0.807000 0.000000
0.048000 1.000000 0.000000
0.323000 1.000000 0.000000
0.598000 1.000000 0.000000
0.873000 1.000000 0.000000
1.000000 1.000000 0.000000
0.024600 0.000000 0.219763
0.287412 0.000000 0.219763
0.566150 0.000000 0.210175
0.853013 0.000000 0.200587
1.000000 0.000000 0.191000
0.008794 0.253588 0.214771
0.287412 0.243655 0.199898
0.566150 0.214142 0.161737
0.853013 0.176617 0.112851
1.000000 0.146790 0.071000
0.000000 0.521600 0.187348
0.272864 0.521600 0.167083
0.566150 0.513745 0.161737
0.853013 0.482932 0.112851
1.000000 0.462581 0.071000
0.000000 0.797737 0.167961
0.247413 0.797737 0.119484
0.554558 0.797737 0.119484
0.853013 0.789247 0.112851
1.000000 0.778372 0.071000
0.000000 1.000000 0.150210
0.222580 1.000000 0.071000
0.538371 1.000000 0.071000
0.854162 1.000000 0.071000
1.000000 1.000000 0.071000
0.032400 0.000000 0.477050
0.299275 0.000000 0.477050
0.566150 0.000000 0.477050
0.853013 0.000000 0.471525
1.000000 0.000000 0.466000
0.000000 0.238525 0.477050
0.273449 0.216979 0.477050
0.566150 0.206287 0.458300
0.853013 0.168126 0.413556
1.000000 0.137000 0.379755
0.000000 0.521600 0.472632
0.256183 0.521600 0.463442
0.566150 0.497381 0.428612
0.853013 0.453291 0.383788
1.000000 0.426831 0.346000
0.000000 0.797737 0.453464
0.230034 0.797737 0.414384
0.532366 0.797737 0.390422
0.853013 0.783510 0.383788
1.000000 0.763629 0.346000
0.000000 1.000000 0.439076
0.203000 1.000000 0.371347
0.507663 1.000000 0.346000
0.844461 1.000000 0.346000
1.000000 1.000000 0.346000
0.040200 0.000000 0.742463
0.311137 0.000000 0.742463
0.582075 0.000000 0.742463
0.853013 0.000000 0.742463
1.000000 0.000000 0.741000
0.000000 0.227786 0.742463
0.246822 0.181392 0.742463
0.560072 0.181392 0.742463
0.853013 0.168126 0.723662
1.000000 0.137000 0.699170
0.000000 0.514676 0.742463
0.236667 0.489565 0.742463
0.531121 0.452329 0.742463
0.853013 0.439063 0.708500
1.000000 0.412000 0.674590
0.000000 0.797737 0.738967
0.230034 0.797737 0.731403
0.500971 0.797737 0.716851
0.853013 0.753869 0.654726
1.000000 0.717579 0.621000
0.000000 1.000000 0.727941
0.203000 1.000000 0.695092
0.478000 1.000000 0.663687
0.814158 1.000000 0.621000
1.000000 1.000000 0.621000
0.048000 0.000000 1.000000
0.323000 0.000000 1.000000
0.598000 0.000000 1.000000
0.873000 0.000000 1.000000
1.000000 0.000000 1.000000
0.000000 0.219538 1.000000
0.213659 0.137000 1.000000
0.533074 0.137000 1.000000
0.852489 0.137000 1.000000
1.000000 0.137000 1.000000
0.000000 0.508403 1.000000
0.203000 0.449046 1.000000
0.494923 0.412000 1.000000
0.840436 0.412000 1.000000
1.000000 0.412000 1.000000
0.000000 0.797269 1.000000
0.203000 0.772790 1.000000
0.478000 0.749388 1.000000
0.794036 0.687000 1.000000
1.000000 0.687000 1.000000
0.000000 1.000000 1.000000
0.203000 1.000000 1.000000
0.478000 1.000000 1.000000
0.753000 1.000000 1.000000
1.000000 0.880000 0.880000
