luts/original/street-flash.cube
TITLE "Street Flash"
LUT_3D_SIZE 33
DOMAIN_MIN 0.0 0.0 0.0
DOMAIN_MAX 1.0 1.0 1.0
0.000000 0.000000 0.000000
0.032407 0.000000 0.000000
0.064941 0.000000 0.000000
0.097603 0.000000 0.000000
0.130391 0.000000 0.000000
0.163306 0.000000 0.000000
0.196348 0.000000 0.000000
0.229517 0.000000 0.000000
0.262813 0.000000 0.000000
0.296235 0.000000 0.000000
0.329785 0.000000 0.000000
0.363462 0.000000 0.000000
0.397266 0.000000 0.000000
0.431196 0.000000 0.000000
0.465254 0.000000 0.000000
0.499438 0.000000 0.000000
0.533750 0.000000 0.000000
0.568188 0.000000 0.000000
0.602754 0.000000 0.000000
0.637446 0.000000 0.000000
0.672266 0.000000 0.000000
0.707212 0.000000 0.000000
0.742285 0.000000 0.000000
0.777485 0.000000 0.000000
0.812813 0.000000 0.000000
0.848267 0.000000 0.000000
0.883848 0.000000 0.000000
0.919556 0.000000 0.000000
0.955391 0.000000 0.000000
0.991353 0.000000 0.000000
1.000000 0.000000 0.000000
1.000000 0.000000 0.000000
1.000000 0.000000 0.000000
0.000000 0.031481 0.000000
0.032407 0.031481 0.000000
0.064941 0.031494 0.000000
0.097603 0.031507 0.000000
0.130391 0.031520 0.000000
0.163306 0.031532 0.000000
0.196348 0.031545 0.000000
0.229517 0.031558 0.000000
0.262813 0.031570 0.000000
0.296235 0.031583 0.000000
0.329785 0.031596 0.000000
0.363462 0.031608 0.000000
0.397266 0.031621 0.000000
0.431196 0.031634 0.000000
0.465254 0.031646 0.000000
0.499438 0.031659 0.000000
0.533750 0.031672 0.000000
0.568188 0.031685 0.000000
0.602754 0.031697 0.000000
0.637446 0.031710 0.000000
0.672266 0.031723 0.000000
0.707212 0.031735 0.000000
0.742285 0.031748 0.000000
0.777485 0.031761 0.000000
0.812813 0.031773 0.000000
0.848267 0.031786 0.000000
0.883848 0.031799 0.000000
0.919556 0.031812 0.000000
0.955391 0.031824 0.000000
0.991353 0.031837 0.000000
1.000000 0.031850 0.000000
1.000000 0.031862 0.000000
1.000000 0.031875 0.000000
0.000000 0.062988 0.000000
0.032471 0.062988 0.000000
0.064941 0.062988 0.000000
0.097603 0.063014 0.000000
0.130391 0.063039 0.000000
0.163306 0.063064 0.000000
0.196348 0.063090 0.000000
0.229517 0.063115 0.000000
0.262813 0.063141 0.000000
0.296235 0.063166 0.000000
0.329785 0.063191 0.000000
0.363462 0.063217 0.000000
0.397266 0.063242 0.000000
0.431196 0.063268 0.000000
0.465254 0.063293 0.000000
0.499438 0.063318 0.000000
0.533750 0.063344 0.000000
0.568188 0.063369 0.000000
0.602754 0.063395 0.000000
0.637446 0.063420 0.000000
0.672266 0.063445 0.000000
0.707212 0.063471 0.000000
0.742285 0.063496 0.000000
0.777485 0.063521 0.000000
0.812813 0.063547 0.000000
0.848267 0.063572 0.000000
0.883848 0.063598 0.000000
0.919556 0.063623 0.000000
0.955391 0.063648 0.000000
0.991353 0.063674 0.000000
1.000000 0.063699 0.000000
1.000000 0.063725 0.000000
1.000000 0.063750 0.000000
0.000000 0.094521 0.000000
0.032534 0.094521 0.000000
0.065068 0.094521 0.000000
0.097603 0.094521 0.000000
0.130391 0.094559 0.000000
0.163306 0.094597 0.000000
0.196348 0.094635 0.000000
0.229517 0.094673 0.000000
0.262813 0.094711 0.000000
0.296235 0.094749 0.000000
0.329785 0.094787 0.000000
0.363462 0.094825 0.000000
0.397266 0.094863 0.000000
0.431196 0.094901 0.000000
0.465254 0.094939 0.000000
0.499438 0.094978 0.000000
0.533750 0.095016 0.000000
0.568188 0.095054 0.000000
0.602754 0.095092 0.000000
0.637446 0.095130 0.000000
0.672266 0.095168 0.000000
0.707212 0.095206 0.000000
0.742285 0.095244 0.000000
0.777485 0.095282 0.000000
0.812813 0.095320 0.000000
0.848267 0.095358 0.000000
0.883848 0.095396 0.000000
0.919556 0.095435 0.000000
0.955391 0.095473 0.000000
0.991353 0.095511 0.000000
1.000000 0.095549 0.000000
1.000000 0.095587 0.000000
1.000000 0.095625 0.000000
0.000000 0.126078 0.000000
0.032598 0.126078 0.000000
0.065195 0.126078 0.000000
0.097793 0.126078 0.000000
0.130391 0.126078 0.000000
0.163306 0.126129 0.000000
0.196348 0.126180 0.000000
0.229517 0.126230 0.000000
0.262813 0.126281 0.000000
0.296235 0.126332 0.000000
0.329785 0.126383 0.000000
0.363462 0.126434 0.000000
0.397266 0.126484 0.000000
0.431196 0.126535 0.000000
0.465254 0.126586 0.000000
0.499438 0.126637 0.000000
0.533750 0.126688 0.000000
0.568188 0.126738 0.000000
0.602754 0.126789 0.000000
0.637446 0.126840 0.000000
0.672266 0.126891 0.000000
0.707212 0.126941 0.000000
0.742285 0.126992 0.000000
0.777485 0.127043 0.000000
0.812813 0.127094 0.000000
0.848267 0.127145 0.000000
0.883848 0.127195 0.000000
0.919556 0.127246 0.000000
0.955391 0.127297 0.000000
0.991353 0.127348 0.000000
1.000000 0.127398 0.000000
1.000000 0.127449 0.000000
1.000000 0.127500 0.000000
0.000000 0.157661 0.000000
0.032661 0.157661 0.000000
0.065322 0.157661 0.000000
0.097983 0.157661 0.000000
0.130645 0.157661 0.000000
0.163306 0.157661 0.000000
0.196348 0.157725 0.000000
0.229517 0.157788 0.000000
0.262813 0.157852 0.000000
0.296235 0.157915 0.000000
0.329785 0.157979 0.000000
0.363462 0.158042 0.000000
0.397266 0.158105 0.000000
0.431196 0.158169 0.000000
0.465254 0.158232 0.000000
0.499438 0.158296 0.000000
0.533750 0.158359 0.000000
0.568188 0.158423 0.000000
0.602754 0.158486 0.000000
0.637446 0.158550 0.000000
0.672266 0.158613 0.000000
0.707212 0.158677 0.000000
0.742285 0.158740 0.000000
0.777485 0.158804 0.000000
0.812813 0.158867 0.000000
0.848267 0.158931 0.000000
0.883848 0.158994 0.000000
0.919556 0.159058 0.000000
0.955391 0.159121 0.000000
0.991353 0.159185 0.000000
1.000000 0.159248 0.000000
1.000000 0.159312 0.000000
1.000000 0.159375 0.000000
0.000000 0.189270 0.000000
0.032725 0.189270 0.000000
0.065449 0.189270 0.000000
0.098174 0.189270 0.000000
0.130898 0.189270 0.000000
0.163623 0.189270 0.000000
0.196348 0.189270 0.000000
0.229517 0.189346 0.000000
0.262813 0.189422 0.000000
0.296235 0.189498 0.000000
0.329785 0.189574 0.000000
0.363462 0.189650 0.000000
0.397266 0.189727 0.000000
0.431196 0.189803 0.000000
0.465254 0.189879 0.000000
0.499438 0.189955 0.000000
0.533750 0.190031 0.000000
0.568188 0.190107 0.000000
0.602754 0.190184 0.000000
0.637446 0.190260 0.000000
0.672266 0.190336 0.000000
0.707212 0.190412 0.000000
0.742285 0.190488 0.000000
0.777485 0.190564 0.000000
0.812813 0.190641 0.000000
0.848267 0.190717 0.000000
0.883848 0.190793 0.000000
0.919556 0.190869 0.000000
0.955391 0.190945 0.000000
0.991353 0.191021 0.000000
1.000000 0.191098 0.000000
1.000000 0.191174 0.000000
1.000000 0.191250 0.000000
0.000000 0.220903 0.000000
0.032788 0.220903 0.000000
0.065576 0.220903 0.000000
0.098364 0.220903 0.000000
0.131152 0.220903 0.000000
0.163940 0.220903 0.000000
0.196729 0.220903 0.000000
0.229517 0.220903 0.000000
0.262813 0.220992 0.000000
0.296235 0.221081 0.000000
0.329785 0.221170 0.000000
0.363462 0.221259 0.000000
0.397266 0.221348 0.000000
0.431196 0.221437 0.000000
0.465254 0.221525 0.000000
0.499438 0.221614 0.000000
0.533750 0.221703 0.000000
0.568188 0.221792 0.000000
0.602754 0.221881 0.000000
0.637446 0.221970 0.000000
0.672266 0.222059 0.000000
0.707212 0.222147 0.000000
0.742285 0.222236 0.000000
0.777485 0.222325 0.000000
0.812813 0.222414 0.000000
0.848267 0.222503 0.000000
0.883848 0.222592 0.000000
0.919556 0.222681 0.000000
0.955391 0.222770 0.000000
0.991353 0.222858 0.000000
1.000000 0.222947 0.000000
1.000000 0.223036 0.000000
1.000000 0.223125 0.000000
0.000000 0.252563 0.000000
0.032852 0.252563 0.000000
0.065703 0.252563 0.000000
0.098555 0.252563 0.000000
0.131406 0.252563 0.000000
0.164258 0.252563 0.000000
0.197109 0.252563 0.000000
0.229961 0.252563 0.000000
0.262813 0.252563 0.000000
0.296235 0.252664 0.000000
0.329785 0.252766 0.000000
0.363462 0.252867 0.000000
0.397266 0.252969 0.000000
0.431196 0.253070 0.000000
0.465254 0.253172 0.000000
0.499438 0.253273 0.000000
0.533750 0.253375 0.000000
0.568188 0.253477 0.000000
0.602754 0.253578 0.000000
0.637446 0.253680 0.000000
0.672266 0.253781 0.000000
0.707212 0.253883 0.000000
0.742285 0.253984 0.000000
0.777485 0.254086 0.000000
0.812813 0.254188 0.000000
0.848267 0.254289 0.000000
0.883848 0.254391 0.000000
0.919556 0.254492 0.000000
0.955391 0.254594 0.000000
0.991353 0.254695 0.000000
1.000000 0.254797 0.000000
1.000000 0.254898 0.000000
1.000000 0.255000 0.000000
0.000000 0.284247 0.000000
0.032915 0.284247 0.000000
0.065830 0.284247 0.000000
0.098745 0.284247 0.000000
0.131660 0.284247 0.000000
0.164575 0.284247 0.000000
0.197490 0.284247 0.000000
0.230405 0.284247 0.000000
0.263320 0.284247 0.000000
0.296235 0.284247 0.000000
0.329785 0.284361 0.000000
0.363462 0.284476 0.000000
0.397266 0.284590 0.000000
0.431196 0.284704 0.000000
0.465254 0.284818 0.000000
0.499438 0.284933 0.000000
0.533750 0.285047 0.000000
0.568188 0.285161 0.000000
0.602754 0.285275 0.000000
0.637446 0.285390 0.000000
0.672266 0.285504 0.000000
0.707212 0.285618 0.000000
0.742285 0.285732 0.000000
0.777485 0.285847 0.000000
0.812813 0.285961 0.000000
0.848267 0.286075 0.000000
0.883848 0.286189 0.000000
0.919556 0.286304 0.000000
0.955391 0.286418 0.000000
0.991353 0.286532 0.000000
1.000000 0.286646 0.000000
1.000000 0.286761 0.000000
1.000000 0.286875 0.000000
0.000000 0.315957 0.000000
0.032979 0.315957 0.000000
0.065957 0.315957 0.000000
0.098936 0.315957 0.000000
0.131914 0.315957 0.000000
0.164893 0.315957 0.000000
0.197871 0.315957 0.000000
0.230850 0.315957 0.000000
0.263828 0.315957 0.000000
0.296807 0.315957 0.000000
0.329785 0.315957 0.000000
0.363462 0.316084 0.000000
0.397266 0.316211 0.000000
0.431196 0.316338 0.000000
0.465254 0.316465 0.000000
0.499438 0.316592 0.000000
0.533750 0.316719 0.000000
0.568188 0.316846 0.000000
0.602754 0.316973 0.000000
0.637446 0.317100 0.000000
0.672266 0.317227 0.000000
0.707212 0.317354 0.000000
0.742285 0.317480 0.000000
0.777485 0.317607 0.000000
0.812813 0.317734 0.000000
0.848267 0.317861 0.000000
0.883848 0.317988 0.000000
0.919556 0.318115 0.000000
0.955391 0.318242 0.000000
0.991353 0.318369 0.000000
1.000000 0.318496 0.000000
1.000000 0.318623 0.000000
1.000000 0.318750 0.000000
0.000000 0.347692 0.000000
0.033042 0.347692 0.000000
0.066084 0.347692 0.000000
0.099126 0.347692 0.000000
0.132168 0.347692 0.000000
0.165210 0.347692 0.000000
0.198252 0.347692 0.000000
0.231294 0.347692 0.000000
0.264336 0.347692 0.000000
0.297378 0.347692 0.000000
0.330420 0.347692 0.000000
0.363462 0.347692 0.000000
0.397266 0.347832 0.000000
0.431196 0.347972 0.000000
0.465254 0.348111 0.000000
0.499438 0.348251 0.000000
0.533750 0.348391 0.000000
0.568188 0.348530 0.000000
0.602754 0.348670 0.000000
0.637446 0.348810 0.000000
0.672266 0.348949 0.000000
0.707212 0.349089 0.000000
0.742285 0.349229 0.000000
0.777485 0.349368 0.000000
0.812813 0.349508 0.000000
0.848267 0.349647 0.000000
0.883848 0.349787 0.000000
0.919556 0.349927 0.000000
0.955391 0.350066 0.000000
0.991353 0.350206 0.000000
1.000000 0.350346 0.000000
1.000000 0.350485 0.000000
1.000000 0.350625 0.000000
0.000000 0.379453 0.000000
0.033105 0.379453 0.000000
0.066211 0.379453 0.000000
0.099316 0.379453 0.000000
0.132422 0.379453 0.000000
0.165527 0.379453 0.000000
0.198633 0.379453 0.000000
0.231738 0.379453 0.000000
0.264844 0.379453 0.000000
0.297949 0.379453 0.000000
0.331055 0.379453 0.000000
0.364160 0.379453 0.000000
0.397266 0.379453 0.000000
0.431196 0.379605 0.000000
0.465254 0.379758 0.000000
0.499438 0.379910 0.000000
0.533750 0.380062 0.000000
0.568188 0.380215 0.000000
0.602754 0.380367 0.000000
0.637446 0.380520 0.000000
0.672266 0.380672 0.000000
0.707212 0.380824 0.000000
0.742285 0.380977 0.000000
0.777485 0.381129 0.000000
0.812813 0.381281 0.000000
0.848267 0.381434 0.000000
0.883848 0.381586 0.000000
0.919556 0.381738 0.000000
0.955391 0.381891 0.000000
0.991353 0.382043 0.000000
1.000000 0.382195 0.000000
1.000000 0.382348 0.000000
1.000000 0.382500 0.000000
0.000000 0.411239 0.000000
0.033169 0.411239 0.000000
0.066338 0.411239 0.000000
0.099507 0.411239 0.000000
0.132676 0.411239 0.000000
0.165845 0.411239 0.000000
0.199014 0.411239 0.000000
0.232183 0.411239 0.000000
0.265352 0.411239 0.000000
0.298521 0.411239 0.000000
0.331689 0.411239 0.000000
0.364858 0.411239 0.000000
0.398027 0.411239 0.000000
0.431196 0.411239 0.000000
0.465254 0.411404 0.000000
0.499438 0.411569 0.000000
0.533750 0.411734 0.000000
0.568188 0.411899 0.000000
0.602754 0.412064 0.000000
0.637446 0.412229 0.000000
0.672266 0.412395 0.000000
0.707212 0.412560 0.000000
0.742285 0.412725 0.000000
0.777485 0.412890 0.000000
0.812813 0.413055 0.000000
0.848267 0.413220 0.000000
0.883848 0.413385 0.000000
0.919556 0.413550 0.000000
0.955391 0.413715 0.000000
0.991353 0.413880 0.000000
1.000000 0.414045 0.000000
1.000000 0.414210 0.000000
1.000000 0.414375 0.000000
0.000000 0.443051 0.000000
0.033232 0.443051 0.000000
0.066465 0.443051 0.000000
0.099697 0.443051 0.000000
0.132930 0.443051 0.000000
0.166162 0.443051 0.000000
0.199395 0.443051 0.000000
0.232627 0.443051 0.000000
0.265859 0.443051 0.000000
0.299092 0.443051 0.000000
0.332324 0.443051 0.000000
0.365557 0.443051 0.000000
0.398789 0.443051 0.000000
0.432021 0.443051 0.000000
0.465254 0.443051 0.000000
0.499438 0.443229 0.000000
0.533750 0.443406 0.000000
0.568188 0.443584 0.000000
0.602754 0.443762 0.000000
0.637446 0.443939 0.000000
0.672266 0.444117 0.000000
0.707212 0.444295 0.000000
0.742285 0.444473 0.000000
0.777485 0.444650 0.000000
0.812813 0.444828 0.000000
0.848267 0.445006 0.000000
0.883848 0.445184 0.000000
0.919556 0.445361 0.000000
0.955391 0.445539 0.000000
0.991353 0.445717 0.000000
1.000000 0.445895 0.000000
1.000000 0.446072 0.000000
1.000000 0.446250 0.000000
0.000000 0.474888 0.000000
0.033296 0.474888 0.000000
0.066592 0.474888 0.000000
0.099888 0.474888 0.000000
0.133184 0.474888 0.000000
0.166479 0.474888 0.000000
0.199775 0.474888 0.000000
0.233071 0.474888 0.000000
0.266367 0.474888 0.000000
0.299663 0.474888 0.000000
0.332959 0.474888 0.000000
0.366255 0.474888 0.000000
0.399551 0.474888 0.000000
0.432847 0.474888 0.000000
0.466143 0.474888 0.000000
0.499438 0.474888 0.000000
0.533750 0.475078 0.000000
0.568188 0.475269 0.000000
0.602754 0.475459 0.000000
0.637446 0.475649 0.000000
0.672266 0.475840 0.000000
0.707212 0.476030 0.000000
0.742285 0.476221 0.000000
0.777485 0.476411 0.000000
0.812813 0.476602 0.000000
0.848267 0.476792 0.000000
0.883848 0.476982 0.000000
0.919556 0.477173 0.000000
0.955391 0.477363 0.000000
0.991353 0.477554 0.000000
1.000000 0.477744 0.000000
1.000000 0.477935 0.000000
1.000000 0.478125 0.000000
0.000000 0.506750 0.000000
0.033359 0.506750 0.000000
0.066719 0.506750 0.000000
0.100078 0.506750 0.000000
0.133438 0.506750 0.000000
0.166797 0.506750 0.000000
0.200156 0.506750 0.000000
0.233516 0.506750 0.000000
0.266875 0.506750 0.000000
0.300234 0.506750 0.000000
0.333594 0.506750 0.000000
0.366953 0.506750 0.000000
0.400313 0.506750 0.000000
0.433672 0.506750 0.000000
0.467031 0.506750 0.000000
0.500391 0.506750 0.000000
0.533750 0.506750 0.000000
0.568188 0.506953 0.000000
0.602754 0.507156 0.000000
0.637446 0.507359 0.000000
0.672266 0.507563 0.000000
0.707212 0.507766 0.000000
0.742285 0.507969 0.000000
0.777485 0.508172 0.000000
0.812813 0.508375 0.000000
0.848267 0.508578 0.000000
0.883848 0.508781 0.000000
0.919556 0.508984 0.000000
0.955391 0.509188 0.000000
0.991353 0.509391 0.000000
1.000000 0.509594 0.000000
1.000000 0.509797 0.000000
1.000000 0.510000 0.000000
0.000000 0.538638 0.000000
0.033423 0.538638 0.000000
0.066846 0.538638 0.000000
0.100269 0.538638 0.000000
0.133691 0.538638 0.000000
0.167114 0.538638 0.000000
0.200537 0.538638 0.000000
0.233960 0.538638 0.000000
0.267383 0.538638 0.000000
0.300806 0.538638 0.000000
0.334229 0.538638 0.000000
0.367651 0.538638 0.000000
0.401074 0.538638 0.000000
0.434497 0.538638 0.000000
0.467920 0.538638 0.000000
0.501343 0.538638 0.000000
0.534766 0.538638 0.000000
0.568188 0.538638 0.000000
0.602754 0.538854 0.000000
0.637446 0.539069 0.000000
0.672266 0.539285 0.000000
0.707212 0.539501 0.000000
0.742285 0.539717 0.000000
0.777485 0.539933 0.000000
0.812813 0.540148 0.000000
0.848267 0.540364 0.000000
0.883848 0.540580 0.000000
0.919556 0.540796 0.000000
0.955391 0.541012 0.000000
0.991353 0.541228 0.000000
1.000000 0.541443 0.000000
1.000000 0.541659 0.000000
1.000000 0.541875 0.000000
0.000000 0.570551 0.000000
0.033486 0.570551 0.000000
0.066973 0.570551 0.000000
0.100459 0.570551 0.000000
0.133945 0.570551 0.000000
0.167432 0.570551 0.000000
0.200918 0.570551 0.000000
0.234404 0.570551 0.000000
0.267891 0.570551 0.000000
0.301377 0.570551 0.000000
0.334863 0.570551 0.000000
0.368350 0.570551 0.000000
0.401836 0.570551 0.000000
0.435322 0.570551 0.000000
0.468809 0.570551 0.000000
0.502295 0.570551 0.000000
0.535781 0.570551 0.000000
0.569268 0.570551 0.000000
0.602754 0.570551 0.000000
0.637446 0.570779 0.000000
0.672266 0.571008 0.000000
0.707212 0.571236 0.000000
0.742285 0.571465 0.000000
0.777485 0.571693 0.000000
0.812813 0.571922 0.000000
0.848267 0.572150 0.000000
0.883848 0.572379 0.000000
0.919556 0.572607 0.000000
0.955391 0.572836 0.000000
0.991353 0.573064 0.000000
1.000000 0.573293 0.000000
1.000000 0.573521 0.000000
1.000000 0.573750 0.000000
0.000000 0.602489 0.000000
0.033550 0.602489 0.000000
0.067100 0.602489 0.000000
0.100649 0.602489 0.000000
0.134199 0.602489 0.000000
0.167749 0.602489 0.000000
0.201299 0.602489 0.000000
0.234849 0.602489 0.000000
0.268398 0.602489 0.000000
0.301948 0.602489 0.000000
0.335498 0.602489 0.000000
0.369048 0.602489 0.000000
0.402598 0.602489 0.000000
0.436147 0.602489 0.000000
0.469697 0.602489 0.000000
0.503247 0.602489 0.000000
0.536797 0.602489 0.000000
0.570347 0.602489 0.000000
0.603896 0.602489 0.000000
0.637446 0.602489 0.000000
0.672266 0.602730 0.000000
0.707212 0.602972 0.000000
0.742285 0.603213 0.000000
0.777485 0.603454 0.000000
0.812813 0.603695 0.000000
0.848267 0.603937 0.000000
0.883848 0.604178 0.000000
0.919556 0.604419 0.000000
0.955391 0.604660 0.000000
0.991353 0.604901 0.000000
1.000000 0.605143 0.000000
1.000000 0.605384 0.000000
1.000000 0.605625 0.000000
0.000000 0.634453 0.000000
0.033613 0.634453 0.000000
0.067227 0.634453 0.000000
0.100840 0.634453 0.000000
0.134453 0.634453 0.000000
0.168066 0.634453 0.000000
0.201680 0.634453 0.000000
0.235293 0.634453 0.000000
0.268906 0.634453 0.000000
0.302520 0.634453 0.000000
0.336133 0.634453 0.000000
0.369746 0.634453 0.000000
0.403359 0.634453 0.000000
0.436973 0.634453 0.000000
0.470586 0.634453 0.000000
0.504199 0.634453 0.000000
0.537813 0.634453 0.000000
0.571426 0.634453 0.000000
0.605039 0.634453 0.000000
0.638652 0.634453 0.000000
0.672266 0.634453 0.000000
0.707212 0.634707 0.000000
0.742285 0.634961 0.000000
0.777485 0.635215 0.000000
0.812813 0.635469 0.000000
0.848267 0.635723 0.000000
0.883848 0.635977 0.000000
0.919556 0.636230 0.000000
0.955391 0.636484 0.000000
0.991353 0.636738 0.000000
1.000000 0.636992 0.000000
1.000000 0.637246 0.000000
1.000000 0.637500 0.000000
0.000000 0.666442 0.000000
0.033677 0.666442 0.000000
0.067354 0.666442 0.000000
0.101030 0.666442 0.000000
0.134707 0.666442 0.000000
0.168384 0.666442 0.000000
0.202061 0.666442 0.000000
0.235737 0.666442 0.000000
0.269414 0.666442 0.000000
0.303091 0.666442 0.000000
0.336768 0.666442 0.000000
0.370444 0.666442 0.000000
0.404121 0.666442 0.000000
0.437798 0.666442 0.000000
0.471475 0.666442 0.000000
0.505151 0.666442 0.000000
0.538828 0.666442 0.000000
0.572505 0.666442 0.000000
0.606182 0.666442 0.000000
0.639858 0.666442 0.000000
0.673535 0.666442 0.000000
0.707212 0.666442 0.000000
0.742285 0.666709 0.000000
0.777485 0.666976 0.000000
0.812813 0.667242 0.000000
0.848267 0.667509 0.000000
0.883848 0.667775 0.000000
0.919556 0.668042 0.000000
0.955391 0.668309 0.000000
0.991353 0.668575 0.000000
1.000000 0.668842 0.000000
1.000000 0.669108 0.000000
1.000000 0.669375 0.000000
0.000000 0.698457 0.000000
0.033740 0.698457 0.000000
0.067480 0.698457 0.000000
0.101221 0.698457 0.000000
0.134961 0.698457 0.000000
0.168701 0.698457 0.000000
0.202441 0.698457 0.000000
0.236182 0.698457 0.000000
0.269922 0.698457 0.000000
0.303662 0.698457 0.000000
0.337402 0.698457 0.000000
0.371143 0.698457 0.000000
0.404883 0.698457 0.000000
0.438623 0.698457 0.000000
0.472363 0.698457 0.000000
0.506104 0.698457 0.000000
0.539844 0.698457 0.000000
0.573584 0.698457 0.000000
0.607324 0.698457 0.000000
0.641064 0.698457 0.000000
0.674805 0.698457 0.000000
0.708545 0.698457 0.000000
0.742285 0.698457 0.000000
0.777485 0.698736 0.000000
0.812813 0.699016 0.000000
0.848267 0.699295 0.000000
0.883848 0.699574 0.000000
0.919556 0.699854 0.000000
0.955391 0.700133 0.000000
0.991353 0.700412 0.000000
1.000000 0.700691 0.000000
1.000000 0.700971 0.000000
1.000000 0.701250 0.000000
0.000000 0.730497 0.000000
0.033804 0.730497 0.000000
0.067607 0.730497 0.000000
0.101411 0.730497 0.000000
0.135215 0.730497 0.000000
0.169019 0.730497 0.000000
0.202822 0.730497 0.000000
0.236626 0.730497 0.000000
0.270430 0.730497 0.000000
0.304233 0.730497 0.000000
0.338037 0.730497 0.000000
0.371841 0.730497 0.000000
0.405645 0.730497 0.000000
0.439448 0.730497 0.000000
0.473252 0.730497 0.000000
0.507056 0.730497 0.000000
0.540859 0.730497 0.000000
0.574663 0.730497 0.000000
0.608467 0.730497 0.000000
0.642271 0.730497 0.000000
0.676074 0.730497 0.000000
0.709878 0.730497 0.000000
0.743682 0.730497 0.000000
0.777485 0.730497 0.000000
0.812813 0.730789 0.000000
0.848267 0.731081 0.000000
0.883848 0.731373 0.000000
0.919556 0.731665 0.000000
0.955391 0.731957 0.000000
0.991353 0.732249 0.000000
1.000000 0.732541 0.000000
1.000000 0.732833 0.000000
1.000000 0.733125 0.000000
0.000000 0.762563 0.000000
0.033867 0.762563 0.000000
0.067734 0.762563 0.000000
0.101602 0.762563 0.000000
0.135469 0.762563 0.000000
0.169336 0.762563 0.000000
0.203203 0.762563 0.000000
0.237070 0.762563 0.000000
0.270938 0.762563 0.000000
0.304805 0.762563 0.000000
0.338672 0.762563 0.000000
0.372539 0.762563 0.000000
0.406406 0.762563 0.000000
0.440273 0.762563 0.000000
0.474141 0.762563 0.000000
0.508008 0.762563 0.000000
0.541875 0.762563 0.000000
0.575742 0.762563 0.000000
0.609609 0.762563 0.000000
0.643477 0.762563 0.000000
0.677344 0.762563 0.000000
0.711211 0.762563 0.000000
0.745078 0.762563 0.000000
0.778945 0.762563 0.000000
0.812813 0.762563 0.000000
0.848267 0.762867 0.000000
0.883848 0.763172 0.000000
0.919556 0.763477 0.000000
0.955391 0.763781 0.000000
0.991353 0.764086 0.000000
1.000000 0.764391 0.000000
1.000000 0.764695 0.000000
1.000000 0.765000 0.000000
0.000000 0.794653 0.000000
0.033931 0.794653 0.000000
0.067861 0.794653 0.000000
0.101792 0.794653 0.000000
0.135723 0.794653 0.000000
0.169653 0.794653 0.000000
0.203584 0.794653 0.000000
0.237515 0.794653 0.000000
0.271445 0.794653 0.000000
0.305376 0.794653 0.000000
0.339307 0.794653 0.000000
0.373237 0.794653 0.000000
0.407168 0.794653 0.000000
0.441099 0.794653 0.000000
0.475029 0.794653 0.000000
0.508960 0.794653 0.000000
0.542891 0.794653 0.000000
0.576821 0.794653 0.000000
0.610752 0.794653 0.000000
0.644683 0.794653 0.000000
0.678613 0.794653 0.000000
0.712544 0.794653 0.000000
0.746475 0.794653 0.000000
0.780405 0.794653 0.000000
0.814336 0.794653 0.000000
0.848267 0.794653 0.000000
0.883848 0.794971 0.000000
0.919556 0.795288 0.000000
0.955391 0.795605 0.000000
0.991353 0.795923 0.000000
1.000000 0.796240 0.000000
1.000000 0.796558 0.000000
1.000000 0.796875 0.000000
0.000000 0.826770 0.000000
0.033994 0.826770 0.000000
0.067988 0.826770 0.000000
0.101982 0.826770 0.000000
0.135977 0.826770 0.000000
0.169971 0.826770 0.000000
0.203965 0.826770 0.000000
0.237959 0.826770 0.000000
0.271953 0.826770 0.000000
0.305947 0.826770 0.000000
0.339941 0.826770 0.000000
0.373936 0.826770 0.000000
0.407930 0.826770 0.000000
0.441924 0.826770 0.000000
0.475918 0.826770 0.000000
0.509912 0.826770 0.000000
0.543906 0.826770 0.000000
0.577900 0.826770 0.000000
0.611895 0.826770 0.000000
0.645889 0.826770 0.000000
0.679883 0.826770 0.000000
0.713877 0.826770 0.000000
0.747871 0.826770 0.000000
0.781865 0.826770 0.000000
0.815859 0.826770 0.000000
0.849854 0.826770 0.000000
0.883848 0.826770 0.000000
