luts/original/street-flash.cube
TITLE "Street Flash"
LUT_3D_SIZE 9
DOMAIN_MIN 0.0 0.0 0.0
DOMAIN_MAX 1.0 1.0 1.0
0.000000 0.000000 0.000000
0.130391 0.000000 0.000000
0.262813 0.000000 0.000000
0.397266 0.000000 0.000000
0.533750 0.000000 0.000000
0.672266 0.000000 0.000000
0.812813 0.000000 0.000000
0.955391 0.000000 0.000000
1.000000 0.000000 0.000000
0.000000 0.126078 0.000000
0.130391 0.126078 0.000000
0.262813 0.126281 0.000000
0.397266 0.126484 0.000000
0.533750 0.126688 0.000000
0.672266 0.126891 0.000000
0.812813 0.127094 0.000000
0.955391 0.127297 0.000000
1.000000 0.127500 0.000000
0.000000 0.252563 0.000000
0.131406 0.252563 0.000000
0.262813 0.252563 0.000000
0.397266 0.252969 0.000000
0.533750 0.253375 0.000000
0.672266 0.253781 0.000000
0.812813 0.254188 0.000000
0.955391 0.254594 0.000000
1.000000 0.255000 0.000000
0.000000 0.379453 0.000000
0.132422 0.379453 0.000000
0.264844 0.379453 0.000000
0.397266 0.379453 0.000000
0.533750 0.380062 0.000000
0.672266 0.380672 0.000000
0.812813 0.381281 0.000000
0.955391 0.381891 0.000000
1.000000 0.382500 0.000000
0.000000 0.506750 0.000000
0.133438 0.506750 0.000000
0.266875 0.506750 0.000000
0.400313 0.506750 0.000000
0.533750 0.506750 0.000000
0.672266 0.507563 0.000000
0.812813 0.508375 0.000000
0.955391 0.509188 0.000000
1.000000 0.510000 0.000000
0.000000 0.634453 0.000000
0.134453 0.634453 0.000000
0.268906 0.634453 0.000000
0.403359 0.634453 0.000000
0.537813 0.634453 0.000000
0.672266 0.634453 0.000000
0.812813 0.635469 0.000000
0.955391 0.636484 0.000000
1.000000 0.637500 0.000000
0.000000 0.762563 0.000000
0.135469 0.762563 0.000000
0.270938 0.762563 0.000000
0.406406 0.762563 0.000000
0.541875 0.762563 0.000000
0.677344 0.762563 0.000000
0.812813 0.762563 0.000000
0.955391 0.763781 0.000000
1.000000 0.765000 0.000000
0.000000 0.891078 0.000000
0.136484 0.891078 0.000000
0.272969 0.891078 0.000000
0.409453 0.891078 0.000000
0.545938 0.891078 0.000000
0.682422 0.891078 0.000000
0.818906 0.891078 0.000000
0.955391 0.891078 0.000000
1.000000 0.892500 0.000000
0.000000 1.000000 0.000000
0.137500 1.000000 0.000000
0.275000 1.000000 0.000000
0.412500 1.000000 0.000000
0.550000 1.000000 0.000000
0.687500 1.000000 0.000000
0.825000 1.000000 0.000000
0.962500 1.000000 0.000000
1.000000 1.000000 0.000000
0.000000 0.000000 0.122305
0.130391 0.000000 0.122305
0.262813 0.000000 0.121797
0.397266 0.000000 0.121289
0.533750 0.000000 0.120781
0.672266 0.000000 0.120273
0.812813 0.000000 0.119766
0.955391 0.000000 0.119258
1.000000 0.000000 0.118750
0.000000 0.126078 0.122305
0.130391 0.126078 0.122305
0.262813 0.126281 0.121797
0.397266 0.126484 0.121289
0.533750 0.126688 0.120781
0.672266 0.126891 0.120273
0.812813 0.127094 0.119766
0.955391 0.127297 0.119258
1.000000 0.127500 0.118750
0.000000 0.252563 0.121797
0.131406 0.252563 0.121797
0.262813 0.252563 0.121797
0.397266 0.252969 0.121289
0.533750 0.253375 0.120781
0.672266 0.253781 0.120273
0.812813 0.254188 0.119766
0.955391 0.254594 0.119258
1.000000 0.255000 0.118750
0.000000 0.379453 0.121289
0.132422 0.379453 0.121289
0.264844 0.379453 0.121289
0.397266 0.379453 0.121289
0.533750 0.380062 0.120781
0.672266 0.380672 0.120273
0.812813 0.381281 0.119766
0.955391 0.381891 0.119258
1.000000 0.382500 0.118750
0.000000 0.506750 0.120781
0.133438 0.506750 0.120781
0.266875 0.506750 0.120781
0.400313 0.506750 0.120781
0.533750 0.506750 0.120781
0.672266 0.507563 0.120273
0.812813 0.508375 0.119766
0.955391 0.509188 0.119258
1.000000 0.510000 0.118750
0.000000 0.634453 0.120273
0.134453 0.634453 0.120273
0.268906 0.634453 0.120273
0.403359 0.634453 0.120273
0.537813 0.634453 0.120273
0.672266 0.634453 0.120273
0.812813 0.635469 0.119766
0.955391 0.636484 0.119258
1.000000 0.637500 0.118750
0.000000 0.762563 0.119766
0.135469 0.762563 0.119766
0.270938 0.762563 0.119766
0.406406 0.762563 0.119766
0.541875 0.762563 0.119766
0.677344 0.762563 0.119766
0.812813 0.762563 0.119766
0.955391 0.763781 0.119258
1.000000 0.765000 0.118750
0.000000 0.891078 0.119258
0.136484 0.891078 0.119258
0.272969 0.891078 0.119258
0.409453 0.891078 0.119258
0.545938 0.891078 0.119258
0.682422 0.891078 0.119258
0.818906 0.891078 0.119258
0.955391 0.891078 0.119258
1.000000 0.892500 0.118750
0.000000 1.000000 0.118750
0.137500 1.000000 0.118750
0.275000 1.000000 0.118750
0.412500 1.000000 0.118750
0.550000 1.000000 0.118750
0.687500 1.000000 0.118750
0.825000 1.000000 0.118750
0.962500 1.000000 0.118750
1.000000 1.000000 0.118750
0.000000 0.000000 0.243594
0.131406 0.000000 0.243594
0.262813 0.000000 0.243594
0.397266 0.000000 0.242578
0.533750 0.000000 0.241562
0.672266 0.000000 0.240547
0.812813 0.000000 0.239531
0.955391 0.000000 0.238516
1.000000 0.000000 0.237500
0.000000 0.126281 0.243594
0.131406 0.126281 0.243594
0.262813 0.126281 0.243594
0.397266 0.126484 0.242578
0.533750 0.126688 0.241562
0.672266 0.126891 0.240547
0.812813 0.127094 0.239531
0.955391 0.127297 0.238516
1.000000 0.127500 0.237500
0.000000 0.252563 0.243594
0.131406 0.252563 0.243594
0.262813 0.252563 0.243594
0.397266 0.252969 0.242578
0.533750 0.253375 0.241562
0.672266 0.253781 0.240547
0.812813 0.254188 0.239531
0.955391 0.254594 0.238516
1.000000 0.255000 0.237500
0.000000 0.379453 0.242578
0.132422 0.379453 0.242578
0.264844 0.379453 0.242578
0.397266 0.379453 0.242578
0.533750 0.380062 0.241562
0.672266 0.380672 0.240547
0.812813 0.381281 0.239531
0.955391 0.381891 0.238516
1.000000 0.382500 0.237500
0.000000 0.506750 0.241562
0.133438 0.506750 0.241562
0.266875 0.506750 0.241562
0.400313 0.506750 0.241562
0.533750 0.506750 0.241562
0.672266 0.507563 0.240547
0.812813 0.508375 0.239531
0.955391 0.509188 0.238516
1.000000 0.510000 0.237500
0.000000 0.634453 0.240547
0.134453 0.634453 0.240547
0.268906 0.634453 0.240547
0.403359 0.634453 0.240547
0.537813 0.634453 0.240547
0.672266 0.634453 0.240547
0.812813 0.635469 0.239531
0.955391 0.636484 0.238516
1.000000 0.637500 0.237500
0.000000 0.762563 0.239531
0.135469 0.762563 0.239531
0.270938 0.762563 0.239531
0.406406 0.762563 0.239531
0.541875 0.762563 0.239531
0.677344 0.762563 0.239531
0.812813 0.762563 0.239531
0.955391 0.763781 0.238516
1.000000 0.765000 0.237500
0.000000 0.891078 0.238516
0.136484 0.891078 0.238516
0.272969 0.891078 0.238516
0.409453 0.891078 0.238516
0.545938 0.891078 0.238516
0.682422 0.891078 0.238516
0.818906 0.891078 0.238516
0.955391 0.891078 0.238516
1.000000 0.892500 0.237500
0.000000 1.000000 0.237500
0.137500 1.000000 0.237500
0.275000 1.000000 0.237500
0.412500 1.000000 0.237500
0.550000 1.000000 0.237500
0.687500 1.000000 0.237500
0.825000 1.000000 0.237500
0.962500 1.000000 0.237500
1.000000 1.000000 0.237500
0.000000 0.000000 0.363867
0.132422 0.000000 0.363867
0.264844 0.000000 0.363867
0.397266 0.000000 0.363867
0.533750 0.000000 0.362344
0.672266 0.000000 0.360820
0.812813 0.000000 0.359297
0.955391 0.000000 0.357773
1.000000 0.000000 0.356250
0.000000 0.126484 0.363867
0.132422 0.126484 0.363867
0.264844 0.126484 0.363867
0.397266 0.126484 0.363867
0.533750 0.126688 0.362344
0.672266 0.126891 0.360820
0.812813 0.127094 0.359297
0.955391 0.127297 0.357773
1.000000 0.127500 0.356250
0.000000 0.252969 0.363867
0.132422 0.252969 0.363867
0.264844 0.252969 0.363867
0.397266 0.252969 0.363867
0.533750 0.253375 0.362344
0.672266 0.253781 0.360820
0.812813 0.254188 0.359297
0.955391 0.254594 0.357773
1.000000 0.255000 0.356250
0.000000 0.379453 0.363867
0.132422 0.379453 0.363867
0.264844 0.379453 0.363867
0.397266 0.379453 0.363867
0.533750 0.380062 0.362344
0.672266 0.380672 0.360820
0.812813 0.381281 0.359297
0.955391 0.381891 0.357773
1.000000 0.382500 0.356250
0.000000 0.506750 0.362344
0.133438 0.506750 0.362344
0.266875 0.506750 0.362344
0.400313 0.506750 0.362344
0.533750 0.506750 0.362344
0.672266 0.507563 0.360820
0.812813 0.508375 0.359297
0.955391 0.509188 0.357773
1.000000 0.510000 0.356250
0.000000 0.634453 0.360820
0.134453 0.634453 0.360820
0.268906 0.634453 0.360820
0.403359 0.634453 0.360820
0.537813 0.634453 0.360820
0.672266 0.634453 0.360820
0.812813 0.635469 0.359297
0.955391 0.636484 0.357773
1.000000 0.637500 0.356250
0.000000 0.762563 0.359297
0.135469 0.762563 0.359297
0.270938 0.762563 0.359297
0.406406 0.762563 0.359297
0.541875 0.762563 0.359297
0.677344 0.762563 0.359297
0.812813 0.762563 0.359297
0.955391 0.763781 0.357773
1.000000 0.765000 0.356250
0.000000 0.891078 0.357773
0.136484 0.891078 0.357773
0.272969 0.891078 0.357773
0.409453 0.891078 0.357773
0.545938 0.891078 0.357773
0.682422 0.891078 0.357773
0.818906 0.891078 0.357773
0.955391 0.891078 0.357773
1.000000 0.892500 0.356250
0.000000 1.000000 0.356250
0.137500 1.000000 0.356250
0.275000 1.000000 0.356250
0.412500 1.000000 0.356250
0.550000 1.000000 0.356250
0.687500 1.000000 0.356250
0.825000 1.000000 0.356250
0.962500 1.000000 0.356250
1.000000 1.000000 0.356250
0.000000 0.000000 0.483125
0.133438 0.000000 0.483125
0.266875 0.000000 0.483125
0.400313 0.000000 0.483125
0.533750 0.000000 0.483125
0.672266 0.000000 0.481094
0.812813 0.000000 0.479063
0.955391 0.000000 0.477031
1.000000 0.000000 0.475000
0.000000 0.126688 0.483125
0.133438 0.126688 0.483125
0.266875 0.126688 0.483125
0.400313 0.126688 0.483125
0.533750 0.126688 0.483125
0.672266 0.126891 0.481094
0.812813 0.127094 0.479063
0.955391 0.127297 0.477031
1.000000 0.127500 0.475000
0.000000 0.253375 0.483125
0.133438 0.253375 0.483125
0.266875 0.253375 0.483125
0.400313 0.253375 0.483125
0.533750 0.253375 0.483125
0.672266 0.253781 0.481094
0.812813 0.254188 0.479063
0.955391 0.254594 0.477031
1.000000 0.255000 0.475000
0.000000 0.380062 0.483125
0.133438 0.380062 0.483125
0.266875 0.380062 0.483125
0.400313 0.380062 0.483125
0.533750 0.380062 0.483125
0.672266 0.380672 0.481094
0.812813 0.381281 0.479063
0.955391 0.381891 0.477031
1.000000 0.382500 0.475000
0.000000 0.506750 0.483125
0.133438 0.506750 0.483125
0.266875 0.506750 0.483125
0.400313 0.506750 0.483125
0.533750 0.506750 0.483125
0.672266 0.507563 0.481094
0.812813 0.508375 0.479063
0.955391 0.509188 0.477031
1.000000 0.510000 0.475000
0.000000 0.634453 0.481094
0.134453 0.634453 0.481094
0.268906 0.634453 0.481094
0.403359 0.634453 0.481094
0.537813 0.634453 0.481094
0.672266 0.634453 0.481094
0.812813 0.635469 0.479063
0.955391 0.636484 0.477031
1.000000 0.637500 0.475000
0.000000 0.762563 0.479063
0.135469 0.762563 0.479063
0.270938 0.762563 0.479063
0.406406 0.762563 0.479063
0.541875 0.762563 0.479063
0.677344 0.762563 0.479063
0.812813 0.762563 0.479063
0.955391 0.763781 0.477031
1.000000 0.765000 0.475000
0.000000 0.891078 0.477031
0.136484 0.891078 0.477031
0.272969 0.891078 0.477031
0.409453 0.891078 0.477031
0.545938 0.891078 0.477031
0.682422 0.891078 0.477031
0.818906 0.891078 0.477031
0.955391 0.891078 0.477031
1.000000 0.892500 0.475000
0.000000 1.000000 0.475000
0.137500 1.000000 0.475000
0.275000 1.000000 0.475000
0.412500 1.000000 0.475000
0.550000 1.000000 0.475000
0.687500 1.000000 0.475000
0.825000 1.000000 0.475000
0.962500 1.000000 0.475000
1.000000 1.000000 0.475000
0.000000 0.000000 0.601367
0.134453 0.000000 0.601367
0.268906 0.000000 0.601367
0.403359 0.000000 0.601367
0.537813 0.000000 0.601367
0.672266 0.000000 0.601367
0.812813 0.000000 0.598828
0.955391 0.000000 0.596289
1.000000 0.000000 0.593750
0.000000 0.126891 0.601367
0.134453 0.126891 0.601367
0.268906 0.126891 0.601367
0.403359 0.126891 0.601367
0.537813 0.126891 0.601367
0.672266 0.126891 0.601367
0.812813 0.127094 0.598828
0.955391 0.127297 0.596289
1.000000 0.127500 0.593750
0.000000 0.253781 0.601367
0.134453 0.253781 0.601367
0.268906 0.253781 0.601367
0.403359 0.253781 0.601367
0.537813 0.253781 0.601367
0.672266 0.253781 0.601367
0.812813 0.254188 0.598828
0.955391 0.254594 0.596289
1.000000 0.255000 0.593750
0.000000 0.380672 0.601367
0.134453 0.380672 0.601367
0.268906 0.380672 0.601367
0.403359 0.380672 0.601367
0.537813 0.380672 0.601367
0.672266 0.380672 0.601367
0.812813 0.381281 0.598828
0.955391 0.381891 0.596289
1.000000 0.382500 0.593750
0.000000 0.507563 0.601367
0.134453 0.507563 0.601367
0.268906 0.507563 0.601367
0.403359 0.507563 0.601367
0.537813 0.507563 0.601367
0.672266 0.507563 0.601367
0.812813 0.508375 0.598828
0.955391 0.509188 0.596289
1.000000 0.510000 0.593750
0.000000 0.634453 0.601367
0.134453 0.634453 0.601367
0.268906 0.634453 0.601367
0.403359 0.634453 0.601367
0.537813 0.634453 0.601367
0.672266 0.634453 0.601367
0.812813 0.635469 0.598828
0.955391 0.636484 0.596289
1.000000 0.637500 0.593750
0.000000 0.762563 0.598828
0.135469 0.762563 0.598828
0.270938 0.762563 0.598828
0.406406 0.762563 0.598828
0.541875 0.762563 0.598828
0.677344 0.762563 0.598828
0.812813 0.762563 0.598828
0.955391 0.763781 0.596289
1.000000 0.765000 0.593750
0.000000 0.891078 0.596289
0.136484 0.891078 0.596289
0.272969 0.891078 0.596289
0.409453 0.891078 0.596289
0.545938 0.891078 0.596289
0.682422 0.891078 0.596289
0.818906 0.891078 0.596289
0.955391 0.891078 0.596289
1.000000 0.892500 0.593750
0.000000 1.000000 0.593750
0.137500 1.000000 0.593750
0.275000 1.000000 0.593750
0.412500 1.000000 0.593750
0.550000 1.000000 0.593750
0.687500 1.000000 0.593750
0.825000 1.000000 0.593750
0.962500 1.000000 0.593750
1.000000 1.000000 0.593750
0.000000 0.000000 0.718594
0.135469 0.000000 0.718594
0.270938 0.000000 0.718594
0.406406 0.000000 0.718594
0.541875 0.000000 0.718594
0.677344 0.000000 0.718594
0.812813 0.000000 0.718594
0.955391 0.000000 0.715547
1.000000 0.000000 0.712500
0.000000 0.127094 0.718594
0.135469 0.127094 0.718594
0.270938 0.127094 0.718594
0.406406 0.127094 0.718594
0.541875 0.127094 0.718594
0.677344 0.127094 0.718594
0.812813 0.127094 0.718594
0.955391 0.127297 0.715547
1.000000 0.127500 0.712500
0.000000 0.254188 0.718594
0.135469 0.254188 0.718594
0.270938 0.254188 0.718594
0.406406 0.254188 0.718594
0.541875 0.254188 0.718594
0.677344 0.254188 0.718594
0.812813 0.254188 0.718594
0.955391 0.254594 0.715547
1.000000 0.255000 0.712500
0.000000 0.381281 0.718594
0.135469 0.381281 0.718594
0.270938 0.381281 0.718594
0.406406 0.381281 0.718594
0.541875 0.381281 0.718594
0.677344 0.381281 0.718594
0.812813 0.381281 0.718594
0.955391 0.381891 0.715547
1.000000 0.382500 0.712500
0.000000 0.508375 0.718594
0.135469 0.508375 0.718594
0.270938 0.508375 0.718594
0.406406 0.508375 0.718594
0.541875 0.508375 0.718594
0.677344 0.508375 0.718594
0.812813 0.508375 0.718594
0.955391 0.509188 0.715547
1.000000 0.510000 0.712500
0.000000 0.635469 0.718594
0.135469 0.635469 0.718594
0.270938 0.635469 0.718594
0.406406 0.635469 0.718594
0.541875 0.635469 0.718594
0.677344 0.635469 0.718594
0.812813 0.635469 0.718594
0.955391 0.636484 0.715547
1.000000 0.637500 0.712500
0.000000 0.762563 0.718594
0.135469 0.762563 0.718594
0.270938 0.762563 0.718594
0.406406 0.762563 0.718594
0.541875 0.762563 0.718594
0.677344 0.762563 0.718594
0.812813 0.762563 0.718594
0.955391 0.763781 0.715547
1.000000 0.765000 0.712500
0.000000 0.891078 0.715547
0.136484 0.891078 0.715547
0.272969 0.891078 0.715547
0.409453 0.891078 0.715547
0.545938 0.891078 0.715547
0.682422 0.891078 0.715547
0.818906 0.891078 0.715547
0.955391 0.891078 0.715547
1.000000 0.892500 0.712500
0.000000 1.000000 0.712500
0.137500 1.000000 0.712500
0.275000 1.000000 0.712500
0.412500 1.000000 0.712500
0.550000 1.000000 0.712500
0.687500 1.000000 0.712500
0.825000 1.000000 0.712500
0.962500 1.000000 0.712500
1.000000 1.000000 0.712500
0.000000 0.000000 0.834805
0.136484 0.000000 0.834805
0.272969 0.000000 0.834805
0.409453 0.000000 0.834805
0.545938 0.000000 0.834805
0.682422 0.000000 0.834805
0.818906 0.000000 0.834805
0.955391 0.000000 0.834805
1.000000 0.000000 0.831250
0.000000 0.127297 0.834805
0.136484 0.127297 0.834805
0.272969 0.127297 0.834805
0.409453 0.127297 0.834805
0.545938 0.127297 0.834805
0.682422 0.127297 0.834805
0.818906 0.127297 0.834805
0.955391 0.127297 0.834805
1.000000 0.127500 0.831250
0.000000 0.254594 0.834805
0.136484 0.254594 0.834805
0.272969 0.254594 0.834805
0.409453 0.254594 0.834805
0.545938 0.254594 0.834805
0.682422 0.254594 0.834805
0.818906 0.254594 0.834805
0.955391 0.254594 0.834805
1.000000 0.255000 0.831250
0.000000 0.381891 0.834805
0.136484 0.381891 0.834805
0.272969 0.381891 0.834805
0.409453 0.381891 0.834805
0.545938 0.381891 0.834805
0.682422 0.381891 0.834805
0.818906 0.381891 0.834805
0.955391 0.381891 0.834805
1.000000 0.382500 0.831250
0.000000 0.509188 0.834805
0.136484 0.509188 0.834805
0.272969 0.509188 0.834805
0.409453 0.509188 0.834805
0.545938 0.509188 0.834805
0.682422 0.509188 0.834805
0.818906 0.509188 0.834805
0.955391 0.509188 0.834805
1.000000 0.510000 0.831250
0.000000 0.636484 0.834805
0.136484 0.636484 0.834805
0.272969 0.636484 0.834805
0.409453 0.636484 0.834805
0.545938 0.636484 0.834805
0.682422 0.636484 0.834805
0.818906 0.636484 0.834805
0.955391 0.636484 0.834805
1.000000 0.637500 0.831250
0.000000 0.763781 0.834805
0.136484 0.763781 0.834805
0.272969 0.763781 0.834805
0.409453 0.763781 0.834805
0.545938 0.763781 0.834805
0.682422 0.763781 0.834805
0.818906 0.763781 0.834805
0.955391 0.763781 0.834805
1.000000 0.765000 0.831250
0.000000 0.891078 0.834805
0.136484 0.891078 0.834805
0.272969 0.891078 0.834805
0.409453 0.891078 0.834805
0.545938 0.891078 0.834805
0.682422 0.891078 0.834805
0.818906 0.891078 0.834805
0.955391 0.891078 0.834805
1.000000 0.892500 0.831250
0.000000 1.000000 0.831250
0.137500 1.000000 0.831250
0.275000 1.000000 0.831250
0.412500 1.000000 0.831250
0.550000 1.000000 0.831250
0.687500 1.000000 0.831250
0.825000 1.000000 0.831250
0.962500 1.000000 0.831250
1.000000 1.000000 0.831250
0.000000 0.000000 0.950000
0.137500 0.000000 0.950000
0.275000 0.000000 0.950000
0.412500 0.000000 0.950000
0.550000 0.000000 0.950000
0.687500 0.000000 0.950000
0.825000 0.000000 0.950000
0.962500 0.000000 0.950000
1.000000 0.000000 0.950000
0.000000 0.127500 0.950000
0.137500 0.127500 0.950000
0.275000 0.127500 0.950000
0.412500 0.127500 0.950000
0.550000 0.127500 0.950000
0.687500 0.127500 0.950000
0.825000 0.127500 0.950000
0.962500 0.127500 0.950000
1.000000 0.127500 0.950000
0.000000 0.255000 0.950000
0.137500 0.255000 0.950000
0.275000 0.255000 0.950000
0.412500 0.255000 0.950000
0.550000 0.255000 0.950000
0.687500 0.255000 0.950000
0.825000 0.255000 0.950000
0.962500 0.255000 0.950000
1.000000 0.255000 0.950000
0.000000 0.382500 0.950000
0.137500 0.382500 0.950000
0.275000 0.382500 0.950000
0.412500 0.382500 0.950000
0.550000 0.382500 0.950000
0.687500 0.382500 0.950000
0.825000 0.382500 0.950000
0.962500 0.382500 0.950000
1.000000 0.382500 0.950000
0.000000 0.510000 0.950000
0.137500 0.510000 0.950000
0.275000 0.510000 0.950000
0.412500 0.510000 0.950000
0.550000 0.510000 0.950000
0.687500 0.510000 0.950000
0.825000 0.510000 0.950000
0.962500 0.510000 0.950000
1.000000 0.510000 0.950000
0.000000 0.637500 0.950000
0.137500 0.637500 0.950000
0.275000 0.637500 0.950000
0.412500 0.637500 0.950000
0.550000 0.637500 0.950000
0.687500 0.637500 0.950000
0.825000 0.637500 0.950000
0.962500 0.637500 0.950000
1.000000 0.637500 0.950000
0.000000 0.765000 0.950000
0.137500 0.765000 0.950000
0.275000 0.765000 0.950000
0.412500 0.765000 0.950000
0.550000 0.765000 0.950000
0.687500 0.765000 0.950000
0.825000 0.765000 0.950000
0.962500 0.765000 0.950000
1.000000 0.765000 0.950000
0.000000 0.892500 0.950000
0.137500 0.892500 0.950000
0.275000 0.892500 0.950000
0.412500 0.892500 0.950000
0.550000 0.892500 0.950000
0.687500 0.892500 0.950000
0.825000 0.892500 0.950000
0.962500 0.892500 0.950000
1.000000 0.892500 0.950000
0.000000 1.000000 0.950000
0.137500 1.000000 0.950000
0.275000 1.000000 0.950000
0.412500 1.000000 0.950000
0.550000 1.000000 0.950000
0.687500 1.000000 0.950000
0.825000 1.000000 0.950000
0.962500 1.000000 0.950000
1.000000 1.000000 0.950000
