luts/original/street-flash.cube
TITLE "Street Flash"
LUT_3D_SIZE 5
DOMAIN_MIN 0.0 0.0 0.0
DOMAIN_MAX 1.0 1.0 1.0
0.000000 0.000000 0.000000
0.262813 0.000000 0.000000
0.533750 0.000000 0.000000
0.812813 0.000000 0.000000
1.000000 0.000000 0.000000
0.000000 0.252563 0.000000
0.262813 0.252563 0.000000
0.533750 0.253375 0.000000
0.812813 0.254188 0.000000
1.000000 0.255000 0.000000
0.000000 0.506750 0.000000
0.266875 0.506750 0.000000
0.533750 0.506750 0.000000
0.812813 0.508375 0.000000
1.000000 0.510000 0.000000
0.000000 0.762563 0.000000
0.270938 0.762563 0.000000
0.541875 0.762563 0.000000
0.812813 0.762563 0.000000
1.000000 0.765000 0.000000
0.000000 1.000000 0.000000
0.275000 1.000000 0.000000
0.550000 1.000000 0.000000
0.825000 1.000000 0.000000
1.000000 1.000000 0.000000
0.000000 0.000000 0.243594
0.262813 0.000000 0.243594
0.533750 0.000000 0.241562
0.812813 0.000000 0.239531
1.000000 0.000000 0.237500
0.000000 0.252563 0.243594
0.262813 0.252563 0.243594
0.533750 0.253375 0.241562
0.812813 0.254188 0.239531
1.000000 0.255000 0.237500
0.000000 0.506750 0.241562
0.266875 0.506750 0.241562
0.533750 0.506750 0.241562
0.812813 0.508375 0.239531
1.000000 0.510000 0.237500
0.000000 0.762563 0.239531
0.270938 0.762563 0.239531
0.541875 0.762563 0.239531
0.812813 0.762563 0.239531
1.000000 0.765000 0.237500
0.000000 1.000000 0.237500
0.275000 1.000000 0.237500
0.550000 1.000000 0.237500
0.825000 1.000000 0.237500
1.000000 1.000000 0.237500
0.000000 0.000000 0.483125
0.266875 0.000000 0.483125
0.533750 0.000000 0.483125
0.812813 0.000000 0.479063
1.000000 0.000000 0.475000
0.000000 0.253375 0.483125
0.266875 0.253375 0.483125
0.533750 0.253375 0.483125
0.812813 0.254188 0.479063
1.000000 0.255000 0.475000
0.000000 0.506750 0.483125
0.266875 0.506750 0.483125
0.533750 0.506750 0.483125
0.812813 0.508375 0.479063
1.000000 0.510000 0.475000
0.000000 0.762563 0.479063
0.270938 0.762563 0.479063
0.541875 0.762563 0.479063
0.812813 0.762563 0.479063
1.000000 0.765000 0.475000
0.000000 1.000000 0.475000
0.275000 1.000000 0.475000
0.550000 1.000000 0.475000
0.825000 1.000000 0.475000
1.000000 1.000000 0.475000
0.000000 0.000000 0.718594
0.270938 0.000000 0.718594
0.541875 0.000000 0.718594
0.812813 0.000000 0.718594
1.000000 0.000000 0.712500
0.000000 0.254188 0.718594
0.270938 0.254188 0.718594
0.541875 0.254188 0.718594
0.812813 0.254188 0.718594
1.000000 0.255000 0.712500
0.000000 0.508375 0.718594
0.270938 0.508375 0.718594
0.541875 0.508375 0.718594
0.812813 0.508375 0.718594
1.000000 0.510000 0.712500
0.000000 0.762563 0.718594
0.270938 0.762563 0.718594
0.541875 0.762563 0.718594
0.812813 0.762563 0.718594
1.000000 0.765000 0.712500
0.000000 1.000000 0.712500
0.275000 1.000000 0.712500
0.550000 1.000000 0.712500
0.825000 1.000000 0.712500
1.000000 1.000000 0.712500
0.000000 0.000000 0.950000
0.275000 0.000000 0.950000
0.550000 0.000000 0.950000
0.825000 0.000000 0.950000
1.000000 0.000000 0.950000
0.000000 0.255000 0.950000
0.275000 0.255000 0.950000
0.550000 0.255000 0.950000
0.825000 0.255000 0.950000
1.000000 0.255000 0.950000
0.000000 0.510000 0.950000
0.275000 0.510000 0.950000
0.550000 0.510000 0.950000
0.825000 0.510000 0.950000
1.000000 0.510000 0.950000
0.000000 0.765000 0.950000
0.275000 0.765000 0.950000
0.550000 0.765000 0.950000
0.825000 0.765000 0.950000
1.000000 0.765000 0.950000
0.000000 1.000000 0.950000
0.275000 1.000000 0.950000
0.550000 1.000000 0.950000
0.825000 1.000000 0.950000
1.000000 1.000000 0.950000
