luts/original/street-hype.cube
TITLE "Street Hype"
LUT_3D_SIZE 9
DOMAIN_MIN 0.0 0.0 0.0
DOMAIN_MAX 1.0 1.0 1.0
0.016800 0.000000 0.000000
0.151091 0.000000 0.000000
0.287412 0.000000 0.000000
0.425766 0.000000 0.000000
0.566150 0.000000 0.000000
0.708566 0.000000 0.000000
0.853013 0.000000 0.000000
0.989844 0.000000 0.000000
1.000000 0.000000 0.000000
0.020700 0.122628 0.000000
0.151091 0.122628 0.000000
0.287412 0.122181 0.000000
0.425766 0.121734 0.000000
0.566150 0.121288 0.000000
0.708566 0.120841 0.000000
0.853013 0.120394 0.000000
0.989844 0.119947 0.000000
1.000000 0.119500 0.000000
0.024600 0.253588 0.000000
0.156006 0.253588 0.000000
0.287412 0.253588 0.000000
0.425766 0.254156 0.000000
0.566150 0.254725 0.000000
0.708566 0.255294 0.000000
0.853013 0.255863 0.000000
0.989844 0.256431 0.000000
1.000000 0.257000 0.000000
0.028500 0.386578 0.000000
0.160922 0.386578 0.000000
0.293344 0.386578 0.000000
0.425766 0.386578 0.000000
0.566150 0.388162 0.000000
0.708566 0.389747 0.000000
0.853013 0.391331 0.000000
0.989844 0.392916 0.000000
1.000000 0.394500 0.000000
0.032400 0.521600 0.000000
0.165837 0.521600 0.000000
0.299275 0.521600 0.000000
0.432712 0.521600 0.000000
0.566150 0.521600 0.000000
0.708566 0.524200 0.000000
0.853013 0.526800 0.000000
0.989844 0.529400 0.000000
1.000000 0.532000 0.000000
0.036300 0.658653 0.000000
0.170753 0.658653 0.000000
0.305206 0.658653 0.000000
0.439659 0.658653 0.000000
0.574112 0.658653 0.000000
0.708566 0.658653 0.000000
0.853013 0.662269 0.000000
0.989844 0.665884 0.000000
1.000000 0.669500 0.000000
0.040200 0.797737 0.000000
0.175669 0.797737 0.000000
0.311137 0.797737 0.000000
0.446606 0.797737 0.000000
0.582075 0.797737 0.000000
0.717544 0.797737 0.000000
0.853013 0.797737 0.000000
0.989844 0.802369 0.000000
1.000000 0.807000 0.000000
0.044100 0.938853 0.000000
0.180584 0.938853 0.000000
0.317069 0.938853 0.000000
0.453553 0.938853 0.000000
0.590038 0.938853 0.000000
0.726522 0.938853 0.000000
0.863006 0.938853 0.000000
0.989844 0.938853 0.000000
1.000000 0.944500 0.000000
0.048000 1.000000 0.000000
0.185500 1.000000 0.000000
0.323000 1.000000 0.000000
0.460500 1.000000 0.000000
0.598000 1.000000 0.000000
0.735500 1.000000 0.000000
0.873000 1.000000 0.000000
1.000000 1.000000 0.000000
1.000000 1.000000 0.000000
0.020700 0.000000 0.094166
0.151091 0.000000 0.094166
0.287412 0.000000 0.088356
0.425766 0.000000 0.082547
0.566150 0.000000 0.076738
0.708566 0.000000 0.070928
0.853013 0.000000 0.065119
0.989844 0.000000 0.059309
1.000000 0.000000 0.053500
0.014516 0.122628 0.088457
0.151091 0.117828 0.084566
0.287412 0.107182 0.068492
0.425766 0.095120 0.050781
0.566150 0.089552 0.040625
0.708566 0.084297 0.030469
0.853013 0.079196 0.020312
0.989844 0.074221 0.010156
1.000000 0.069731 0.000000
0.008794 0.253588 0.072967
0.150453 0.253588 0.072551
0.287412 0.248723 0.068492
0.425766 0.238273 0.050781
0.566150 0.232109 0.040625
0.708566 0.226907 0.030469
0.853013 0.222183 0.020312
0.989844 0.217846 0.010156
1.000000 0.215003 0.000000
0.000392 0.386578 0.054885
0.143694 0.386578 0.054439
0.287450 0.386578 0.054439
0.425766 0.381427 0.050781
0.566150 0.374666 0.040625
0.708566 0.369517 0.030469
0.853013 0.365169 0.020312
0.989844 0.361471 0.010156
1.000000 0.360275 0.000000
0.000000 0.521600 0.044706
0.139687 0.521600 0.040625
0.283502 0.521600 0.040625
0.427316 0.521600 0.040625
0.566150 0.517223 0.040625
0.708566 0.512127 0.030469
0.853013 0.508156 0.020312
0.989844 0.505096 0.010156
1.000000 0.505547 0.000000
0.000000 0.658653 0.034949
0.138964 0.658653 0.030469
0.282448 0.658653 0.030469
0.425932 0.658653 0.030469
0.569416 0.658653 0.030469
0.708566 0.654738 0.030469
0.853013 0.651142 0.020312
0.989844 0.648721 0.010156
1.000000 0.650819 0.000000
0.000000 0.797737 0.025210
0.138712 0.797737 0.020312
0.282357 0.797737 0.020312
0.426002 0.797737 0.020312
0.569647 0.797737 0.020312
0.713292 0.797737 0.020312
0.853013 0.794129 0.020312
0.989844 0.792346 0.010156
1.000000 0.796091 0.000000
0.000000 0.938853 0.015480
0.138713 0.938853 0.010156
0.282783 0.938853 0.010156
0.426853 0.938853 0.010156
0.570922 0.938853 0.010156
0.714992 0.938853 0.010156
0.859062 0.938853 0.010156
0.989844 0.935971 0.010156
1.000000 0.941363 0.000000
0.000000 1.000000 0.005777
0.139461 1.000000 0.000000
0.284733 1.000000 0.000000
0.430005 1.000000 0.000000
0.575277 1.000000 0.000000
0.720549 1.000000 0.000000
0.865821 1.000000 0.000000
1.000000 1.000000 0.000000
1.000000 1.000000 0.000000
0.024600 0.000000 0.219763
0.156006 0.000000 0.219763
0.287412 0.000000 0.219763
0.425766 0.000000 0.214969
0.566150 0.000000 0.210175
0.708566 0.000000 0.205381
0.853013 0.000000 0.200587
0.989844 0.000000 0.195794
1.000000 0.000000 0.191000
0.012854 0.116308 0.219763
0.155103 0.110435 0.219763
0.287412 0.102317 0.206877
0.425766 0.088924 0.189038
0.566150 0.072849 0.168975
0.708566 0.054094 0.146382
0.853013 0.032657 0.121176
0.989844 0.010156 0.094919
1.000000 0.000000 0.081204
0.008794 0.253588 0.214771
0.140201 0.253588 0.205173
0.287412 0.243655 0.199898
0.425766 0.229381 0.182158
0.566150 0.214142 0.161737
0.708566 0.196638 0.138635
0.853013 0.176617 0.112851
0.989844 0.155176 0.085544
1.000000 0.146790 0.071000
0.000392 0.386578 0.198461
0.132814 0.386578 0.187600
0.283468 0.386578 0.186861
0.425766 0.378543 0.182158
0.566150 0.363943 0.161737
0.708566 0.347946 0.138635
0.853013 0.329774 0.112851
0.989844 0.310398 0.085544
1.000000 0.304685 0.071000
0.000000 0.521600 0.187348
0.122745 0.521600 0.167767
0.272864 0.521600 0.167083
0.423677 0.521600 0.167083
0.566150 0.513745 0.161737
0.708566 0.499254 0.138635
0.853013 0.482932 0.112851
0.989844 0.465621 0.085544
1.000000 0.462581 0.071000
0.000000 0.658653 0.177433
0.109996 0.658653 0.145315
0.261210 0.658653 0.144624
0.413122 0.658653 0.144624
0.565034 0.658653 0.144624
0.708566 0.650563 0.138635
0.853013 0.636089 0.112851
0.989844 0.620844 0.085544
1.000000 0.620477 0.071000
0.000000 0.797737 0.167961
0.094565 0.797737 0.120202
0.247413 0.797737 0.119484
0.400986 0.797737 0.119484
0.554558 0.797737 0.119484
0.708130 0.797737 0.119484
0.853013 0.789247 0.112851
0.989844 0.776067 0.085544
1.000000 0.778372 0.071000
0.000000 0.938853 0.158728
0.076453 0.938853 0.092417
0.231180 0.938853 0.091663
0.386666 0.938853 0.091663
0.542152 0.938853 0.091663
0.697639 0.938853 0.091663
0.853125 0.938853 0.091663
0.989844 0.931290 0.085544
1.000000 0.936268 0.071000
0.000000 1.000000 0.150210
0.065500 1.000000 0.071810
0.222580 1.000000 0.071000
0.380475 1.000000 0.071000
0.538371 1.000000 0.071000
0.696266 1.000000 0.071000
0.854162 1.000000 0.071000
1.000000 1.000000 0.071000
1.000000 1.000000 0.071000
0.028500 0.000000 0.347391
0.160922 0.000000 0.347391
0.293344 0.000000 0.347391
0.425766 0.000000 0.347391
0.566150 0.000000 0.343612
0.708566 0.000000 0.339834
0.853013 0.000000 0.336056
0.989844 0.000000 0.332278
1.000000 0.000000 0.328500
0.005094 0.104295 0.347391
0.144908 0.098329 0.347391
0.292728 0.098329 0.347391
0.425766 0.088924 0.334690
0.566150 0.072849 0.316331
0.708566 0.054094 0.295734
0.853013 0.032657 0.272655
0.989844 0.010156 0.248548
1.000000 0.000000 0.237365
0.005094 0.248190 0.347391
0.137516 0.242453 0.347391
0.291543 0.230751 0.347391
0.425766 0.221346 0.326108
0.566150 0.206287 0.305331
0.708566 0.188547 0.283061
0.853013 0.168126 0.258503
0.989844 0.146181 0.232638
1.000000 0.137000 0.220048
0.000392 0.386578 0.342037
0.132814 0.386578 0.338514
0.265236 0.386578 0.321445
0.425766 0.370173 0.314580
0.566150 0.351587 0.295175
0.708566 0.333824 0.273088
0.853013 0.314229 0.248320
0.989844 0.293502 0.222028
1.000000 0.286294 0.208500
0.000000 0.521600 0.329990
0.122745 0.521600 0.318305
0.256183 0.521600 0.301654
0.417572 0.521600 0.300521
0.566150 0.509738 0.295175
0.708566 0.490827 0.273088
0.853013 0.471854 0.248320
0.989844 0.452562 0.222028
1.000000 0.448366 0.208500
0.000000 0.658653 0.319918
0.109996 0.658653 0.297028
0.244449 0.658653 0.280042
0.402421 0.658653 0.279077
0.561373 0.658653 0.279077
0.708566 0.647829 0.273088
0.853013 0.629478 0.248320
0.989844 0.611621 0.222028
1.000000 0.610438 0.208500
0.000000 0.797737 0.310713
0.094565 0.797737 0.273614
0.230034 0.797737 0.255874
0.387876 0.797737 0.254953
0.546650 0.797737 0.254953
0.705425 0.797737 0.254953
0.853013 0.787103 0.248320
0.989844 0.770681 0.222028
1.000000 0.772510 0.208500
0.000000 0.938853 0.301976
0.076453 0.938853 0.247766
0.212938 0.938853 0.229069
0.371736 0.938853 0.228147
0.531464 0.938853 0.228147
0.691192 0.938853 0.228147
0.850920 0.938853 0.228147
0.989844 0.929741 0.222028
1.000000 0.934582 0.208500
0.000000 1.000000 0.294643
0.065500 1.000000 0.229568
0.203000 1.000000 0.209475
0.364089 1.000000 0.208500
0.526161 1.000000 0.208500
0.688233 1.000000 0.208500
0.850305 1.000000 0.208500
1.000000 1.000000 0.208500
1.000000 1.000000 0.208500
0.032400 0.000000 0.477050
0.165837 0.000000 0.477050
0.299275 0.000000 0.477050
0.432712 0.000000 0.477050
0.566150 0.000000 0.477050
0.708566 0.000000 0.474288
0.853013 0.000000 0.471525
0.989844 0.000000 0.468762
1.000000 0.000000 0.466000
0.000000 0.094430 0.477050
0.135281 0.083541 0.477050
0.283697 0.083541 0.477050
0.432113 0.083541 0.477050
0.566150 0.072849 0.463688
0.708566 0.054094 0.445086
0.853013 0.032657 0.424134
0.989844 0.010156 0.402177
1.000000 0.000000 0.393526
0.000000 0.238525 0.477050
0.128091 0.226601 0.477050
0.273449 0.216979 0.477050
0.431719 0.216979 0.477050
0.566150 0.206287 0.458300
0.708566 0.188547 0.436695
0.853013 0.168126 0.413556
0.989844 0.146181 0.389525
1.000000 0.137000 0.379755
0.000000 0.382620 0.477050
0.128091 0.378541 0.477050
0.261529 0.369289 0.477050
0.429809 0.350417 0.477050
0.566150 0.339725 0.445631
0.708566 0.323000 0.421536
0.853013 0.303595 0.396899
0.989844 0.282666 0.371531
1.000000 0.274500 0.360170
0.000000 0.521600 0.472632
0.122745 0.521600 0.468842
0.256183 0.521600 0.463442
0.389621 0.521600 0.437273
0.566150 0.497381 0.428612
0.708566 0.473799 0.407541
0.853013 0.453291 0.383788
0.989844 0.432776 0.358512
1.000000 0.426831 0.346000
0.000000 0.658653 0.462402
0.109996 0.658653 0.448742
0.244449 0.658653 0.438605
0.378902 0.658653 0.415129
0.552765 0.658653 0.413530
0.708566 0.642307 0.407541
0.853013 0.618401 0.383788
0.989844 0.597649 0.358512
1.000000 0.595230 0.346000
0.000000 0.797737 0.453464
0.094565 0.797737 0.427026
0.230034 0.797737 0.414384
0.365503 0.797737 0.391709
0.532366 0.797737 0.390422
0.700538 0.797737 0.390422
0.853013 0.783510 0.383788
0.989844 0.762522 0.358512
1.000000 0.763629 0.346000
0.000000 0.938853 0.445224
0.076453 0.938853 0.403115
0.212938 0.938853 0.388591
0.349422 0.938853 0.365815
0.514632 0.938853 0.364631
0.681039 0.938853 0.364631
0.847446 0.938853 0.364631
0.989844 0.927395 0.358512
1.000000 0.932028 0.346000
0.000000 1.000000 0.439076
0.065500 1.000000 0.387326
0.203000 1.000000 0.371347
0.340500 1.000000 0.347223
0.507663 1.000000 0.346000
0.676062 1.000000 0.346000
0.844461 1.000000 0.346000
1.000000 1.000000 0.346000
1.000000 1.000000 0.346000
0.036300 0.000000 0.608741
0.170753 0.000000 0.608741
0.305206 0.000000 0.608741
0.439659 0.000000 0.608741
0.574112 0.000000 0.608741
0.708566 0.000000 0.608741
0.853013 0.000000 0.606994
0.989844 0.000000 0.605247
1.000000 0.000000 0.603500
0.000000 0.089213 0.608741
0.123454 0.066073 0.608741
0.273466 0.066073 0.608741
0.423478 0.066073 0.608741
0.573490 0.066073 0.608741
0.708566 0.054094 0.594438
0.853013 0.032657 0.575614
0.989844 0.010156 0.555807
1.000000 0.000000 0.549688
0.000000 0.232651 0.608741
0.115985 0.209894 0.608741
0.260871 0.200526 0.608741
0.417057 0.200526 0.608741
0.573243 0.200526 0.608741
0.708566 0.188547 0.590328
0.853013 0.168126 0.568609
0.989844 0.146181 0.546412
1.000000 0.137000 0.539462
0.000000 0.376089 0.608741
0.115985 0.362363 0.608741
0.250439 0.348940 0.608741
0.402187 0.334979 0.608741
0.572671 0.334979 0.608741
0.708566 0.323000 0.582903
0.853013 0.303595 0.557579
0.989844 0.282666 0.533052
1.000000 0.274500 0.524920
0.000000 0.519528 0.608741
0.115985 0.514832 0.608741
0.250439 0.510240 0.608741
0.384892 0.496816 0.608741
0.569900 0.469432 0.608741
0.708566 0.457453 0.565446
0.853013 0.439063 0.537654
0.989844 0.419150 0.511841
1.000000 0.412000 0.501833
0.000000 0.658653 0.604886
0.109996 0.658653 0.600456
0.244449 0.658653 0.597168
0.378902 0.658653 0.589554
0.513355 0.658653 0.552657
0.708566 0.625280 0.541994
0.853013 0.596019 0.519257
0.989844 0.573986 0.494997
1.000000 0.569475 0.483500
0.000000 0.797737 0.596215
0.094565 0.797737 0.580438
0.230034 0.797737 0.572893
0.365503 0.797737 0.559362
0.500971 0.797737 0.528025
0.689048 0.797737 0.525890
0.853013 0.776251 0.519257
0.989844 0.748704 0.494997
1.000000 0.748589 0.483500
0.000000 0.938853 0.588473
0.076453 0.938853 0.558463
0.212938 0.938853 0.548113
0.349422 0.938853 0.531882
0.485906 0.938853 0.502769
0.662700 0.938853 0.501116
0.841172 0.938853 0.501116
0.989844 0.923421 0.494997
1.000000 0.927703 0.483500
0.000000 1.000000 0.583508
0.065500 1.000000 0.545084
0.203000 1.000000 0.533219
0.340500 1.000000 0.515307
0.478000 1.000000 0.485142
0.655450 1.000000 0.483500
0.834564 1.000000 0.483500
1.000000 1.000000 0.483500
1.000000 1.000000 0.483500
0.040200 0.000000 0.742463
0.175669 0.000000 0.742463
0.311137 0.000000 0.742463
0.446606 0.000000 0.742463
0.582075 0.000000 0.742463
0.717544 0.000000 0.742463
0.853013 0.000000 0.742463
0.989844 0.000000 0.741731
1.000000 0.000000 0.741000
0.000000 0.084341 0.742463
0.109107 0.045923 0.742463
0.261051 0.045923 0.742463
0.412996 0.045923 0.742463
0.564940 0.045923 0.742463
0.716885 0.045923 0.742463
0.853013 0.032657 0.727093
0.989844 0.010156 0.709436
1.000000 0.000000 0.705849
0.000000 0.227786 0.742463
0.101198 0.190977 0.742463
0.246822 0.181392 0.742463
0.403447 0.181392 0.742463
0.560072 0.181392 0.742463
0.716698 0.181392 0.742463
0.853013 0.168126 0.723662
0.989844 0.146181 0.703300
1.000000 0.137000 0.699170
0.000000 0.371231 0.742463
0.101198 0.344879 0.742463
0.236667 0.329599 0.742463
0.386321 0.316861 0.742463
0.551341 0.316861 0.742463
0.716362 0.316861 0.742463
0.853013 0.303595 0.718259
0.989844 0.282666 0.694572
1.000000 0.274500 0.689671
0.000000 0.514676 0.742463
0.101198 0.498781 0.742463
0.236667 0.489565 0.742463
0.372136 0.471312 0.742463
0.531121 0.452329 0.742463
0.715584 0.452329 0.742463
0.853013 0.439063 0.708500
0.989844 0.419150 0.680717
1.000000 0.412000 0.674590
0.000000 0.658121 0.742463
0.101198 0.652683 0.742463
0.236667 0.649530 0.742463
0.372136 0.643286 0.742463
0.507604 0.625033 0.742463
0.711815 0.587798 0.742463
0.853013 0.574532 0.685552
0.989844 0.555634 0.655333
1.000000 0.549500 0.646961
0.000000 0.797737 0.738967
0.094565 0.797737 0.733850
0.230034 0.797737 0.731403
0.365503 0.797737 0.727014
0.500971 0.797737 0.716851
0.636440 0.797737 0.667598
0.853013 0.753869 0.654726
0.989844 0.720213 0.631481
1.000000 0.717579 0.621000
0.000000 0.938853 0.731721
0.076453 0.938853 0.713812
0.212938 0.938853 0.707635
0.349422 0.938853 0.697949
0.485906 0.938853 0.680575
0.622391 0.938853 0.640340
0.826420 0.938853 0.637600
0.989844 0.915228 0.631481
1.000000 0.918786 0.621000
0.000000 1.000000 0.727941
0.065500 1.000000 0.702842
0.203000 1.000000 0.695092
0.340500 1.000000 0.683391
0.478000 1.000000 0.663687
0.615500 1.000000 0.623495
0.814158 1.000000 0.621000
1.000000 1.000000 0.621000
1.000000 1.000000 0.621000
0.044100 0.000000 0.878216
0.180584 0.000000 0.878216
0.317069 0.000000 0.878216
0.453553 0.000000 0.878216
0.590038 0.000000 0.878216
0.726522 0.000000 0.878216
0.863006 0.000000 0.878216
0.989844 0.000000 0.878216
1.000000 0.000000 0.878500
0.000000 0.079644 0.878216
0.092152 0.023092 0.878216
0.246182 0.023092 0.878216
0.400213 0.023092 0.878216
0.554243 0.023092 0.878216
0.708274 0.023092 0.878216
0.862304 0.023092 0.878216
0.989844 0.010156 0.863066
1.000000 0.000000 0.862010
0.000000 0.223429 0.878216
0.083730 0.169570 0.878216
0.230500 0.159577 0.878216
0.388412 0.159577 0.878216
0.546324 0.159577 0.878216
0.704237 0.159577 0.878216
0.862149 0.159577 0.878216
0.989844 0.146181 0.860187
1.000000 0.137000 0.858877
0.000000 0.367215 0.878216
0.083730 0.325271 0.878216
0.220214 0.308527 0.878216
0.369906 0.296061 0.878216
0.533906 0.296061 0.878216
0.697906 0.296061 0.878216
0.861906 0.296061 0.878216
0.989844 0.282666 0.856093
1.000000 0.274500 0.854421
0.000000 0.511001 0.878216
0.083730 0.480973 0.878216
0.220214 0.468986 0.878216
0.356699 0.449113 0.878216
0.511631 0.432545 0.878216
0.686550 0.432545 0.878216
0.861469 0.432545 0.878216
0.989844 0.419150 0.849593
1.000000 0.412000 0.847346
0.000000 0.654786 0.878216
0.083730 0.636674 0.878216
0.220214 0.629444 0.878216
0.356699 0.617457 0.878216
0.493183 0.593718 0.878216
0.660253 0.569030 0.878216
0.860457 0.569030 0.878216
0.989844 0.555634 0.837685
1.000000 0.549500 0.834385
0.000000 0.798572 0.878216
0.083730 0.792376 0.878216
0.220214 0.789902 0.878216
0.356699 0.785802 0.878216
0.493183 0.777680 0.878216
0.629667 0.753941 0.878216
0.855556 0.705514 0.878216
0.989844 0.692119 0.808810
1.000000 0.687000 0.802956
0.000000 0.938853 0.874969
0.076453 0.938853 0.869161
0.212938 0.938853 0.867157
0.349422 0.938853 0.864016
0.485906 0.938853 0.858381
0.622391 0.938853 0.845332
0.758875 0.938853 0.782095
0.989844 0.888492 0.767966
1.000000 0.889685 0.758500
0.000000 1.000000 0.872374
0.065500 1.000000 0.860599
0.203000 1.000000 0.856964
0.340500 1.000000 0.851475
0.478000 1.000000 0.842231
0.615500 1.000000 0.823377
0.753000 1.000000 0.763697
1.000000 1.000000 0.758500
1.000000 1.000000 0.758500
0.048000 0.000000 1.000000
0.185500 0.000000 1.000000
0.323000 0.000000 1.000000
0.460500 0.000000 1.000000
0.598000 0.000000 1.000000
0.735500 0.000000 1.000000
0.873000 0.000000 1.000000
1.000000 0.000000 1.000000
1.000000 0.000000 1.000000
0.000000 0.075105 1.000000
0.074957 0.000000 1.000000
0.231119 0.000000 1.000000
0.387280 0.000000 1.000000
0.543441 0.000000 1.000000
0.699602 0.000000 1.000000
0.855764 0.000000 1.000000
1.000000 0.000000 1.000000
1.000000 0.000000 1.000000
0.000000 0.219538 1.000000
0.065500 0.147534 1.000000
0.213659 0.137000 1.000000
0.373367 0.137000 1.000000
0.533074 0.137000 1.000000
0.692781 0.137000 1.000000
0.852489 0.137000 1.000000
1.000000 0.137000 1.000000
1.000000 0.137000 1.000000
0.000000 0.363971 1.000000
0.065500 0.305292 1.000000
0.203000 0.287174 1.000000
0.353580 0.274500 1.000000
0.518330 0.274500 1.000000
0.683080 0.274500 1.000000
0.847831 0.274500 1.000000
1.000000 0.274500 1.000000
1.000000 0.274500 1.000000
0.000000 0.508403 1.000000
0.065500 0.463050 1.000000
0.203000 0.449046 1.000000
0.340500 0.427904 1.000000
0.494923 0.412000 1.000000
0.667679 0.412000 1.000000
0.840436 0.412000 1.000000
1.000000 0.412000 1.000000
1.000000 0.412000 1.000000
0.000000 0.652836 1.000000
0.065500 0.620808 1.000000
0.203000 0.610918 1.000000
0.340500 0.595987 1.000000
0.478000 0.570843 1.000000
0.639464 0.549500 1.000000
0.826888 0.549500 1.000000
1.000000 0.549500 1.000000
1.000000 0.549500 1.000000
0.000000 0.797269 1.000000
0.065500 0.778565 1.000000
0.203000 0.772790 1.000000
0.340500 0.764071 1.000000
0.478000 0.749388 1.000000
0.615500 0.719439 1.000000
0.794036 0.687000 1.000000
1.000000 0.687000 1.000000
1.000000 0.687000 1.000000
0.000000 0.941702 1.000000
0.065500 0.936323 1.000000
0.203000 0.934662 1.000000
0.340500 0.932155 1.000000
0.478000 0.927933 1.000000
0.615500 0.919320 1.000000
0.753000 0.892059 1.000000
1.000000 0.824500 1.000000
1.000000 0.824500 1.000000
0.000000 1.000000 1.000000
0.065500 1.000000 1.000000
0.203000 1.000000 1.000000
0.340500 1.000000 1.000000
0.478000 1.000000 1.000000
0.615500 1.000000 1.000000
0.753000 1.000000 1.000000
1.000000 0.880000 0.880000
1.000000 0.880000 0.880000
