luts/original/street-hype.cube
TITLE "Street Hype"
LUT_3D_SIZE 33
DOMAIN_MIN 0.0 0.0 0.0
DOMAIN_MAX 1.0 1.0 1.0
0.016800 0.000000 0.000000
0.050182 0.000000 0.000000
0.083691 0.000000 0.000000
0.117328 0.000000 0.000000
0.151091 0.000000 0.000000
0.184981 0.000000 0.000000
0.218998 0.000000 0.000000
0.253142 0.000000 0.000000
0.287412 0.000000 0.000000
0.321810 0.000000 0.000000
0.356335 0.000000 0.000000
0.390987 0.000000 0.000000
0.425766 0.000000 0.000000
0.460671 0.000000 0.000000
0.495704 0.000000 0.000000
0.530863 0.000000 0.000000
0.566150 0.000000 0.000000
0.601563 0.000000 0.000000
0.637104 0.000000 0.000000
0.672771 0.000000 0.000000
0.708566 0.000000 0.000000
0.744487 0.000000 0.000000
0.780535 0.000000 0.000000
0.816710 0.000000 0.000000
0.853013 0.000000 0.000000
0.889442 0.000000 0.000000
0.925998 0.000000 0.000000
0.962681 0.000000 0.000000
0.989844 0.000000 0.000000
0.994287 0.000000 0.000000
0.997461 0.000000 0.000000
0.999365 0.000000 0.000000
1.000000 0.000000 0.000000
0.017775 0.025742 0.000000
0.050182 0.025742 0.000000
0.083691 0.025439 0.000000
0.117328 0.025137 0.000000
0.151091 0.024835 0.000000
0.184981 0.024533 0.000000
0.218998 0.024231 0.000000
0.253142 0.023929 0.000000
0.287412 0.023627 0.000000
0.321810 0.023324 0.000000
0.356335 0.023022 0.000000
0.390987 0.022720 0.000000
0.425766 0.022418 0.000000
0.460671 0.022116 0.000000
0.495704 0.021814 0.000000
0.530863 0.021512 0.000000
0.566150 0.021209 0.000000
0.601563 0.020907 0.000000
0.637104 0.020605 0.000000
0.672771 0.020303 0.000000
0.708566 0.020001 0.000000
0.744487 0.019699 0.000000
0.780535 0.019396 0.000000
0.816710 0.019094 0.000000
0.853013 0.018792 0.000000
0.889442 0.018490 0.000000
0.925998 0.018188 0.000000
0.962681 0.017886 0.000000
0.989844 0.017584 0.000000
0.994287 0.017281 0.000000
0.997461 0.016979 0.000000
0.999365 0.016677 0.000000
1.000000 0.016375 0.000000
0.018750 0.057910 0.000000
0.051221 0.057910 0.000000
0.083691 0.057910 0.000000
0.117328 0.057671 0.000000
0.151091 0.057433 0.000000
0.184981 0.057194 0.000000
0.218998 0.056955 0.000000
0.253142 0.056717 0.000000
0.287412 0.056478 0.000000
0.321810 0.056239 0.000000
0.356335 0.056001 0.000000
0.390987 0.055762 0.000000
0.425766 0.055523 0.000000
0.460671 0.055285 0.000000
0.495704 0.055046 0.000000
0.530863 0.054807 0.000000
0.566150 0.054569 0.000000
0.601563 0.054330 0.000000
0.637104 0.054091 0.000000
0.672771 0.053853 0.000000
0.708566 0.053614 0.000000
0.744487 0.053375 0.000000
0.780535 0.053137 0.000000
0.816710 0.052898 0.000000
0.853013 0.052659 0.000000
0.889442 0.052421 0.000000
0.925998 0.052182 0.000000
0.962681 0.051943 0.000000
0.989844 0.051705 0.000000
0.994287 0.051466 0.000000
0.997461 0.051227 0.000000
0.999365 0.050989 0.000000
1.000000 0.050750 0.000000
0.019725 0.090206 0.000000
0.052259 0.090206 0.000000
0.084793 0.090206 0.000000
0.117328 0.090206 0.000000
0.151091 0.090030 0.000000
0.184981 0.089855 0.000000
0.218998 0.089680 0.000000
0.253142 0.089505 0.000000
0.287412 0.089330 0.000000
0.321810 0.089154 0.000000
0.356335 0.088979 0.000000
0.390987 0.088804 0.000000
0.425766 0.088629 0.000000
0.460671 0.088454 0.000000
0.495704 0.088279 0.000000
0.530863 0.088103 0.000000
0.566150 0.087928 0.000000
0.601563 0.087753 0.000000
0.637104 0.087578 0.000000
0.672771 0.087403 0.000000
0.708566 0.087227 0.000000
0.744487 0.087052 0.000000
0.780535 0.086877 0.000000
0.816710 0.086702 0.000000
0.853013 0.086527 0.000000
0.889442 0.086351 0.000000
0.925998 0.086176 0.000000
0.962681 0.086001 0.000000
0.989844 0.085826 0.000000
0.994287 0.085651 0.000000
0.997461 0.085475 0.000000
0.999365 0.085300 0.000000
1.000000 0.085125 0.000000
0.020700 0.122628 0.000000
0.053298 0.122628 0.000000
0.085895 0.122628 0.000000
0.118493 0.122628 0.000000
0.151091 0.122628 0.000000
0.184981 0.122516 0.000000
0.218998 0.122405 0.000000
0.253142 0.122293 0.000000
0.287412 0.122181 0.000000
0.321810 0.122070 0.000000
0.356335 0.121958 0.000000
0.390987 0.121846 0.000000
0.425766 0.121734 0.000000
0.460671 0.121623 0.000000
0.495704 0.121511 0.000000
0.530863 0.121399 0.000000
0.566150 0.121288 0.000000
0.601563 0.121176 0.000000
0.637104 0.121064 0.000000
0.672771 0.120952 0.000000
0.708566 0.120841 0.000000
0.744487 0.120729 0.000000
0.780535 0.120617 0.000000
0.816710 0.120505 0.000000
0.853013 0.120394 0.000000
0.889442 0.120282 0.000000
0.925998 0.120170 0.000000
0.962681 0.120059 0.000000
0.989844 0.119947 0.000000
0.994287 0.119835 0.000000
0.997461 0.119723 0.000000
0.999365 0.119612 0.000000
1.000000 0.119500 0.000000
0.021675 0.155178 0.000000
0.054336 0.155178 0.000000
0.086997 0.155178 0.000000
0.119658 0.155178 0.000000
0.152320 0.155178 0.000000
0.184981 0.155178 0.000000
0.218998 0.155129 0.000000
0.253142 0.155081 0.000000
0.287412 0.155033 0.000000
0.321810 0.154985 0.000000
0.356335 0.154936 0.000000
0.390987 0.154888 0.000000
0.425766 0.154840 0.000000
0.460671 0.154792 0.000000
0.495704 0.154743 0.000000
0.530863 0.154695 0.000000
0.566150 0.154647 0.000000
0.601563 0.154599 0.000000
0.637104 0.154550 0.000000
0.672771 0.154502 0.000000
0.708566 0.154454 0.000000
0.744487 0.154406 0.000000
0.780535 0.154357 0.000000
0.816710 0.154309 0.000000
0.853013 0.154261 0.000000
0.889442 0.154213 0.000000
0.925998 0.154164 0.000000
0.962681 0.154116 0.000000
0.989844 0.154068 0.000000
0.994287 0.154020 0.000000
0.997461 0.153971 0.000000
0.999365 0.153923 0.000000
1.000000 0.153875 0.000000
0.022650 0.187854 0.000000
0.055375 0.187854 0.000000
0.088099 0.187854 0.000000
0.120824 0.187854 0.000000
0.153548 0.187854 0.000000
0.186273 0.187854 0.000000
0.218998 0.187854 0.000000
0.253142 0.187869 0.000000
0.287412 0.187884 0.000000
0.321810 0.187900 0.000000
0.356335 0.187915 0.000000
0.390987 0.187930 0.000000
0.425766 0.187945 0.000000
0.460671 0.187961 0.000000
0.495704 0.187976 0.000000
0.530863 0.187991 0.000000
0.566150 0.188006 0.000000
0.601563 0.188021 0.000000
0.637104 0.188037 0.000000
0.672771 0.188052 0.000000
0.708566 0.188067 0.000000
0.744487 0.188082 0.000000
0.780535 0.188098 0.000000
0.816710 0.188113 0.000000
0.853013 0.188128 0.000000
0.889442 0.188143 0.000000
0.925998 0.188159 0.000000
0.962681 0.188174 0.000000
0.989844 0.188189 0.000000
0.994287 0.188204 0.000000
0.997461 0.188220 0.000000
0.999365 0.188235 0.000000
1.000000 0.188250 0.000000
0.023625 0.220657 0.000000
0.056413 0.220657 0.000000
0.089201 0.220657 0.000000
0.121989 0.220657 0.000000
0.154777 0.220657 0.000000
0.187565 0.220657 0.000000
0.220354 0.220657 0.000000
0.253142 0.220657 0.000000
0.287412 0.220736 0.000000
0.321810 0.220815 0.000000
0.356335 0.220893 0.000000
0.390987 0.220972 0.000000
0.425766 0.221051 0.000000
0.460671 0.221129 0.000000
0.495704 0.221208 0.000000
0.530863 0.221287 0.000000
0.566150 0.221366 0.000000
0.601563 0.221444 0.000000
0.637104 0.221523 0.000000
0.672771 0.221602 0.000000
0.708566 0.221680 0.000000
0.744487 0.221759 0.000000
0.780535 0.221838 0.000000
0.816710 0.221917 0.000000
0.853013 0.221995 0.000000
0.889442 0.222074 0.000000
0.925998 0.222153 0.000000
0.962681 0.222231 0.000000
0.989844 0.222310 0.000000
0.994287 0.222389 0.000000
0.997461 0.222468 0.000000
0.999365 0.222546 0.000000
1.000000 0.222625 0.000000
0.024600 0.253588 0.000000
0.057452 0.253588 0.000000
0.090303 0.253588 0.000000
0.123155 0.253588 0.000000
0.156006 0.253588 0.000000
0.188858 0.253588 0.000000
0.221709 0.253588 0.000000
0.254561 0.253588 0.000000
0.287412 0.253588 0.000000
0.321810 0.253730 0.000000
0.356335 0.253872 0.000000
0.390987 0.254014 0.000000
0.425766 0.254156 0.000000
0.460671 0.254298 0.000000
0.495704 0.254441 0.000000
0.530863 0.254583 0.000000
0.566150 0.254725 0.000000
0.601563 0.254867 0.000000
0.637104 0.255009 0.000000
0.672771 0.255152 0.000000
0.708566 0.255294 0.000000
0.744487 0.255436 0.000000
0.780535 0.255578 0.000000
0.816710 0.255720 0.000000
0.853013 0.255863 0.000000
0.889442 0.256005 0.000000
0.925998 0.256147 0.000000
0.962681 0.256289 0.000000
0.989844 0.256431 0.000000
0.994287 0.256573 0.000000
0.997461 0.256716 0.000000
0.999365 0.256858 0.000000
1.000000 0.257000 0.000000
0.025575 0.286645 0.000000
0.058490 0.286645 0.000000
0.091405 0.286645 0.000000
0.124320 0.286645 0.000000
0.157235 0.286645 0.000000
0.190150 0.286645 0.000000
0.223065 0.286645 0.000000
0.255980 0.286645 0.000000
0.288895 0.286645 0.000000
0.321810 0.286645 0.000000
0.356335 0.286850 0.000000
0.390987 0.287056 0.000000
0.425766 0.287262 0.000000
0.460671 0.287467 0.000000
0.495704 0.287673 0.000000
0.530863 0.287879 0.000000
0.566150 0.288084 0.000000
0.601563 0.288290 0.000000
0.637104 0.288496 0.000000
0.672771 0.288701 0.000000
0.708566 0.288907 0.000000
0.744487 0.289113 0.000000
0.780535 0.289318 0.000000
0.816710 0.289524 0.000000
0.853013 0.289730 0.000000
0.889442 0.289935 0.000000
0.925998 0.290141 0.000000
0.962681 0.290347 0.000000
0.989844 0.290552 0.000000
0.994287 0.290758 0.000000
0.997461 0.290964 0.000000
0.999365 0.291169 0.000000
1.000000 0.291375 0.000000
0.026550 0.319829 0.000000
0.059529 0.319829 0.000000
0.092507 0.319829 0.000000
0.125486 0.319829 0.000000
0.158464 0.319829 0.000000
0.191443 0.319829 0.000000
0.224421 0.319829 0.000000
0.257400 0.319829 0.000000
0.290378 0.319829 0.000000
0.323357 0.319829 0.000000
0.356335 0.319829 0.000000
0.390987 0.320098 0.000000
0.425766 0.320367 0.000000
0.460671 0.320636 0.000000
0.495704 0.320905 0.000000
0.530863 0.321175 0.000000
0.566150 0.321444 0.000000
0.601563 0.321713 0.000000
0.637104 0.321982 0.000000
0.672771 0.322251 0.000000
0.708566 0.322520 0.000000
0.744487 0.322789 0.000000
0.780535 0.323059 0.000000
0.816710 0.323328 0.000000
0.853013 0.323597 0.000000
0.889442 0.323866 0.000000
0.925998 0.324135 0.000000
0.962681 0.324404 0.000000
0.989844 0.324673 0.000000
0.994287 0.324943 0.000000
0.997461 0.325212 0.000000
0.999365 0.325481 0.000000
1.000000 0.325750 0.000000
0.027525 0.353140 0.000000
0.060567 0.353140 0.000000
0.093609 0.353140 0.000000
0.126651 0.353140 0.000000
0.159693 0.353140 0.000000
0.192735 0.353140 0.000000
0.225777 0.353140 0.000000
0.258819 0.353140 0.000000
0.291861 0.353140 0.000000
0.324903 0.353140 0.000000
0.357945 0.353140 0.000000
0.390987 0.353140 0.000000
0.425766 0.353473 0.000000
0.460671 0.353805 0.000000
0.495704 0.354138 0.000000
0.530863 0.354471 0.000000
0.566150 0.354803 0.000000
0.601563 0.355136 0.000000
0.637104 0.355468 0.000000
0.672771 0.355801 0.000000
0.708566 0.356134 0.000000
0.744487 0.356466 0.000000
0.780535 0.356799 0.000000
0.816710 0.357131 0.000000
0.853013 0.357464 0.000000
0.889442 0.357797 0.000000
0.925998 0.358129 0.000000
0.962681 0.358462 0.000000
0.989844 0.358795 0.000000
0.994287 0.359127 0.000000
0.997461 0.359460 0.000000
0.999365 0.359792 0.000000
1.000000 0.360125 0.000000
0.028500 0.386578 0.000000
0.061605 0.386578 0.000000
0.094711 0.386578 0.000000
0.127816 0.386578 0.000000
0.160922 0.386578 0.000000
0.194027 0.386578 0.000000
0.227133 0.386578 0.000000
0.260238 0.386578 0.000000
0.293344 0.386578 0.000000
0.326449 0.386578 0.000000
0.359555 0.386578 0.000000
0.392660 0.386578 0.000000
0.425766 0.386578 0.000000
0.460671 0.386974 0.000000
0.495704 0.387370 0.000000
0.530863 0.387766 0.000000
0.566150 0.388162 0.000000
0.601563 0.388559 0.000000
0.637104 0.388955 0.000000
0.672771 0.389351 0.000000
0.708566 0.389747 0.000000
0.744487 0.390143 0.000000
0.780535 0.390539 0.000000
0.816710 0.390935 0.000000
0.853013 0.391331 0.000000
0.889442 0.391727 0.000000
0.925998 0.392123 0.000000
0.962681 0.392520 0.000000
0.989844 0.392916 0.000000
0.994287 0.393312 0.000000
0.997461 0.393708 0.000000
0.999365 0.394104 0.000000
1.000000 0.394500 0.000000
0.029475 0.420143 0.000000
0.062644 0.420143 0.000000
0.095813 0.420143 0.000000
0.128982 0.420143 0.000000
0.162151 0.420143 0.000000
0.195320 0.420143 0.000000
0.228489 0.420143 0.000000
0.261658 0.420143 0.000000
0.294827 0.420143 0.000000
0.327996 0.420143 0.000000
0.361164 0.420143 0.000000
0.394333 0.420143 0.000000
0.427502 0.420143 0.000000
0.460671 0.420143 0.000000
0.495704 0.420603 0.000000
0.530863 0.421062 0.000000
0.566150 0.421522 0.000000
0.601563 0.421981 0.000000
0.637104 0.422441 0.000000
0.672771 0.422901 0.000000
0.708566 0.423360 0.000000
0.744487 0.423820 0.000000
0.780535 0.424279 0.000000
0.816710 0.424739 0.000000
0.853013 0.425198 0.000000
0.889442 0.425658 0.000000
0.925998 0.426118 0.000000
0.962681 0.426577 0.000000
0.989844 0.427037 0.000000
0.994287 0.427496 0.000000
0.997461 0.427956 0.000000
0.999365 0.428415 0.000000
1.000000 0.428875 0.000000
0.030450 0.453835 0.000000
0.063682 0.453835 0.000000
0.096915 0.453835 0.000000
0.130147 0.453835 0.000000
0.163380 0.453835 0.000000
0.196612 0.453835 0.000000
0.229845 0.453835 0.000000
0.263077 0.453835 0.000000
0.296309 0.453835 0.000000
0.329542 0.453835 0.000000
0.362774 0.453835 0.000000
0.396007 0.453835 0.000000
0.429239 0.453835 0.000000
0.462471 0.453835 0.000000
0.495704 0.453835 0.000000
0.530863 0.454358 0.000000
0.566150 0.454881 0.000000
0.601563 0.455404 0.000000
0.637104 0.455927 0.000000
0.672771 0.456450 0.000000
0.708566 0.456973 0.000000
0.744487 0.457496 0.000000
0.780535 0.458020 0.000000
0.816710 0.458543 0.000000
0.853013 0.459066 0.000000
0.889442 0.459589 0.000000
0.925998 0.460112 0.000000
0.962681 0.460635 0.000000
0.989844 0.461158 0.000000
0.994287 0.461681 0.000000
0.997461 0.462204 0.000000
0.999365 0.462727 0.000000
1.000000 0.463250 0.000000
0.031425 0.487654 0.000000
0.064721 0.487654 0.000000
0.098017 0.487654 0.000000
0.131313 0.487654 0.000000
0.164609 0.487654 0.000000
0.197904 0.487654 0.000000
0.231200 0.487654 0.000000
0.264496 0.487654 0.000000
0.297792 0.487654 0.000000
0.331088 0.487654 0.000000
0.364384 0.487654 0.000000
0.397680 0.487654 0.000000
0.430976 0.487654 0.000000
0.464272 0.487654 0.000000
0.497568 0.487654 0.000000
0.530863 0.487654 0.000000
0.566150 0.488241 0.000000
0.601563 0.488827 0.000000
0.637104 0.489414 0.000000
0.672771 0.490000 0.000000
0.708566 0.490587 0.000000
0.744487 0.491173 0.000000
0.780535 0.491760 0.000000
0.816710 0.492346 0.000000
0.853013 0.492933 0.000000
0.889442 0.493519 0.000000
0.925998 0.494106 0.000000
0.962681 0.494692 0.000000
0.989844 0.495279 0.000000
0.994287 0.495865 0.000000
0.997461 0.496452 0.000000
0.999365 0.497038 0.000000
1.000000 0.497625 0.000000
0.032400 0.521600 0.000000
0.065759 0.521600 0.000000
0.099119 0.521600 0.000000
0.132478 0.521600 0.000000
0.165837 0.521600 0.000000
0.199197 0.521600 0.000000
0.232556 0.521600 0.000000
0.265916 0.521600 0.000000
0.299275 0.521600 0.000000
0.332634 0.521600 0.000000
0.365994 0.521600 0.000000
0.399353 0.521600 0.000000
0.432712 0.521600 0.000000
0.466072 0.521600 0.000000
0.499431 0.521600 0.000000
0.532791 0.521600 0.000000
0.566150 0.521600 0.000000
0.601563 0.522250 0.000000
0.637104 0.522900 0.000000
0.672771 0.523550 0.000000
0.708566 0.524200 0.000000
0.744487 0.524850 0.000000
0.780535 0.525500 0.000000
0.816710 0.526150 0.000000
0.853013 0.526800 0.000000
0.889442 0.527450 0.000000
0.925998 0.528100 0.000000
0.962681 0.528750 0.000000
0.989844 0.529400 0.000000
0.994287 0.530050 0.000000
0.997461 0.530700 0.000000
0.999365 0.531350 0.000000
1.000000 0.532000 0.000000
0.033375 0.555673 0.000000
0.066798 0.555673 0.000000
0.100221 0.555673 0.000000
0.133644 0.555673 0.000000
0.167066 0.555673 0.000000
0.200489 0.555673 0.000000
0.233912 0.555673 0.000000
0.267335 0.555673 0.000000
0.300758 0.555673 0.000000
0.334181 0.555673 0.000000
0.367604 0.555673 0.000000
0.401026 0.555673 0.000000
0.434449 0.555673 0.000000
0.467872 0.555673 0.000000
0.501295 0.555673 0.000000
0.534718 0.555673 0.000000
0.568141 0.555673 0.000000
0.601563 0.555673 0.000000
0.637104 0.556386 0.000000
0.672771 0.557100 0.000000
0.708566 0.557813 0.000000
0.744487 0.558527 0.000000
0.780535 0.559240 0.000000
0.816710 0.559954 0.000000
0.853013 0.560667 0.000000
0.889442 0.561381 0.000000
0.925998 0.562094 0.000000
0.962681 0.562808 0.000000
0.989844 0.563521 0.000000
0.994287 0.564235 0.000000
0.997461 0.564948 0.000000
0.999365 0.565662 0.000000
1.000000 0.566375 0.000000
0.034350 0.589873 0.000000
0.067836 0.589873 0.000000
0.101323 0.589873 0.000000
0.134809 0.589873 0.000000
0.168295 0.589873 0.000000
0.201782 0.589873 0.000000
0.235268 0.589873 0.000000
0.268754 0.589873 0.000000
0.302241 0.589873 0.000000
0.335727 0.589873 0.000000
0.369213 0.589873 0.000000
0.402700 0.589873 0.000000
0.436186 0.589873 0.000000
0.469672 0.589873 0.000000
0.503159 0.589873 0.000000
0.536645 0.589873 0.000000
0.570131 0.589873 0.000000
0.603618 0.589873 0.000000
0.637104 0.589873 0.000000
0.672771 0.590650 0.000000
0.708566 0.591427 0.000000
0.744487 0.592203 0.000000
0.780535 0.592980 0.000000
0.816710 0.593757 0.000000
0.853013 0.594534 0.000000
0.889442 0.595311 0.000000
0.925998 0.596088 0.000000
0.962681 0.596865 0.000000
0.989844 0.597642 0.000000
0.994287 0.598419 0.000000
0.997461 0.599196 0.000000
0.999365 0.599973 0.000000
1.000000 0.600750 0.000000
0.035325 0.624199 0.000000
0.068875 0.624199 0.000000
0.102425 0.624199 0.000000
0.135974 0.624199 0.000000
0.169524 0.624199 0.000000
0.203074 0.624199 0.000000
0.236624 0.624199 0.000000
0.270174 0.624199 0.000000
0.303723 0.624199 0.000000
0.337273 0.624199 0.000000
0.370823 0.624199 0.000000
0.404373 0.624199 0.000000
0.437923 0.624199 0.000000
0.471472 0.624199 0.000000
0.505022 0.624199 0.000000
0.538572 0.624199 0.000000
0.572122 0.624199 0.000000
0.605672 0.624199 0.000000
0.639221 0.624199 0.000000
0.672771 0.624199 0.000000
0.708566 0.625040 0.000000
0.744487 0.625880 0.000000
0.780535 0.626721 0.000000
0.816710 0.627561 0.000000
0.853013 0.628402 0.000000
0.889442 0.629242 0.000000
0.925998 0.630082 0.000000
0.962681 0.630923 0.000000
0.989844 0.631763 0.000000
0.994287 0.632604 0.000000
0.997461 0.633444 0.000000
0.999365 0.634285 0.000000
1.000000 0.635125 0.000000
0.036300 0.658653 0.000000
0.069913 0.658653 0.000000
0.103527 0.658653 0.000000
0.137140 0.658653 0.000000
0.170753 0.658653 0.000000
0.204366 0.658653 0.000000
0.237980 0.658653 0.000000
0.271593 0.658653 0.000000
0.305206 0.658653 0.000000
0.338820 0.658653 0.000000
0.372433 0.658653 0.000000
0.406046 0.658653 0.000000
0.439659 0.658653 0.000000
0.473273 0.658653 0.000000
0.506886 0.658653 0.000000
0.540499 0.658653 0.000000
0.574112 0.658653 0.000000
0.607726 0.658653 0.000000
0.641339 0.658653 0.000000
0.674952 0.658653 0.000000
0.708566 0.658653 0.000000
0.744487 0.659557 0.000000
0.780535 0.660461 0.000000
0.816710 0.661365 0.000000
0.853013 0.662269 0.000000
0.889442 0.663173 0.000000
0.925998 0.664077 0.000000
0.962681 0.664980 0.000000
0.989844 0.665884 0.000000
0.994287 0.666788 0.000000
0.997461 0.667692 0.000000
0.999365 0.668596 0.000000
1.000000 0.669500 0.000000
0.037275 0.693234 0.000000
0.070952 0.693234 0.000000
0.104629 0.693234 0.000000
0.138305 0.693234 0.000000
0.171982 0.693234 0.000000
0.205659 0.693234 0.000000
0.239336 0.693234 0.000000
0.273012 0.693234 0.000000
0.306689 0.693234 0.000000
0.340366 0.693234 0.000000
0.374043 0.693234 0.000000
0.407719 0.693234 0.000000
0.441396 0.693234 0.000000
0.475073 0.693234 0.000000
0.508750 0.693234 0.000000
0.542426 0.693234 0.000000
0.576103 0.693234 0.000000
0.609780 0.693234 0.000000
0.643457 0.693234 0.000000
0.677133 0.693234 0.000000
0.710810 0.693234 0.000000
0.744487 0.693234 0.000000
0.780535 0.694201 0.000000
0.816710 0.695169 0.000000
0.853013 0.696136 0.000000
0.889442 0.697103 0.000000
0.925998 0.698071 0.000000
0.962681 0.699038 0.000000
0.989844 0.700005 0.000000
0.994287 0.700973 0.000000
0.997461 0.701940 0.000000
0.999365 0.702908 0.000000
1.000000 0.703875 0.000000
0.038250 0.727941 0.000000
0.071990 0.727941 0.000000
0.105730 0.727941 0.000000
0.139471 0.727941 0.000000
0.173211 0.727941 0.000000
0.206951 0.727941 0.000000
0.240691 0.727941 0.000000
0.274432 0.727941 0.000000
0.308172 0.727941 0.000000
0.341912 0.727941 0.000000
0.375652 0.727941 0.000000
0.409393 0.727941 0.000000
0.443133 0.727941 0.000000
0.476873 0.727941 0.000000
0.510613 0.727941 0.000000
0.544354 0.727941 0.000000
0.578094 0.727941 0.000000
0.611834 0.727941 0.000000
0.645574 0.727941 0.000000
0.679314 0.727941 0.000000
0.713055 0.727941 0.000000
0.746795 0.727941 0.000000
0.780535 0.727941 0.000000
0.816710 0.728972 0.000000
0.853013 0.730003 0.000000
0.889442 0.731034 0.000000
0.925998 0.732065 0.000000
0.962681 0.733096 0.000000
0.989844 0.734127 0.000000
0.994287 0.735157 0.000000
0.997461 0.736188 0.000000
0.999365 0.737219 0.000000
1.000000 0.738250 0.000000
0.039225 0.762776 0.000000
0.073029 0.762776 0.000000
0.106832 0.762776 0.000000
0.140636 0.762776 0.000000
0.174440 0.762776 0.000000
0.208244 0.762776 0.000000
0.242047 0.762776 0.000000
0.275851 0.762776 0.000000
0.309655 0.762776 0.000000
0.343458 0.762776 0.000000
0.377262 0.762776 0.000000
0.411066 0.762776 0.000000
0.444870 0.762776 0.000000
0.478673 0.762776 0.000000
0.512477 0.762776 0.000000
0.546281 0.762776 0.000000
0.580084 0.762776 0.000000
0.613888 0.762776 0.000000
0.647692 0.762776 0.000000
0.681495 0.762776 0.000000
0.715299 0.762776 0.000000
0.749103 0.762776 0.000000
0.782907 0.762776 0.000000
0.816710 0.762776 0.000000
0.853013 0.763870 0.000000
0.889442 0.764965 0.000000
0.925998 0.766059 0.000000
0.962681 0.767153 0.000000
0.989844 0.768248 0.000000
0.994287 0.769342 0.000000
0.997461 0.770436 0.000000
0.999365 0.771531 0.000000
1.000000 0.772625 0.000000
0.040200 0.797737 0.000000
0.074067 0.797737 0.000000
0.107934 0.797737 0.000000
0.141802 0.797737 0.000000
0.175669 0.797737 0.000000
0.209536 0.797737 0.000000
0.243403 0.797737 0.000000
0.277270 0.797737 0.000000
0.311137 0.797737 0.000000
0.345005 0.797737 0.000000
0.378872 0.797737 0.000000
0.412739 0.797737 0.000000
0.446606 0.797737 0.000000
0.480473 0.797737 0.000000
0.514341 0.797737 0.000000
0.548208 0.797737 0.000000
0.582075 0.797737 0.000000
0.615942 0.797737 0.000000
0.649809 0.797737 0.000000
0.683677 0.797737 0.000000
0.717544 0.797737 0.000000
0.751411 0.797737 0.000000
0.785278 0.797737 0.000000
0.819145 0.797737 0.000000
0.853013 0.797737 0.000000
0.889442 0.798895 0.000000
0.925998 0.800053 0.000000
0.962681 0.801211 0.000000
0.989844 0.802369 0.000000
0.994287 0.803527 0.000000
0.997461 0.804684 0.000000
0.999365 0.805842 0.000000
1.000000 0.807000 0.000000
0.041175 0.832826 0.000000
0.075106 0.832826 0.000000
0.109036 0.832826 0.000000
0.142967 0.832826 0.000000
0.176898 0.832826 0.000000
0.210828 0.832826 0.000000
0.244759 0.832826 0.000000
0.278690 0.832826 0.000000
0.312620 0.832826 0.000000
0.346551 0.832826 0.000000
0.380482 0.832826 0.000000
0.414412 0.832826 0.000000
0.448343 0.832826 0.000000
0.482274 0.832826 0.000000
0.516204 0.832826 0.000000
0.550135 0.832826 0.000000
0.584066 0.832826 0.000000
0.617996 0.832826 0.000000
0.651927 0.832826 0.000000
0.685858 0.832826 0.000000
0.719788 0.832826 0.000000
0.753719 0.832826 0.000000
0.787650 0.832826 0.000000
0.821580 0.832826 0.000000
0.855511 0.832826 0.000000
0.889442 0.832826 0.000000
0.925998 0.834047 0.000000
0.962681 0.835269 0.000000
0.989844 0.836490 0.000000
0.994287 0.837711 0.000000
0.997461 0.838932 0.000000
0.999365 0.840154 0.000000
1.000000 0.841375 0.000000
0.042150 0.868041 0.000000
0.076144 0.868041 0.000000
0.110138 0.868041 0.000000
0.144132 0.868041 0.000000
0.178127 0.868041 0.000000
0.212121 0.868041 0.000000
0.246115 0.868041 0.000000
0.280109 0.868041 0.000000
0.314103 0.868041 0.000000
0.348097 0.868041 0.000000
0.382091 0.868041 0.000000
0.416086 0.868041 0.000000
0.450080 0.868041 0.000000
0.484074 0.868041 0.000000
0.518068 0.868041 0.000000
0.552062 0.868041 0.000000
0.586056 0.868041 0.000000
0.620050 0.868041 0.000000
0.654045 0.868041 0.000000
0.688039 0.868041 0.000000
0.722033 0.868041 0.000000
0.756027 0.868041 0.000000
0.790021 0.868041 0.000000
0.824015 0.868041 0.000000
0.858009 0.868041 0.000000
0.892004 0.868041 0.000000
0.925998 0.868041 0.000000
