luts/original/summer-pop.cube
TITLE "Summer Pop"
LUT_3D_SIZE 9
DOMAIN_MIN 0.0 0.0 0.0
DOMAIN_MAX 1.0 1.0 1.0
0.024411 0.007481 0.007481
0.154734 0.002447 0.002447
0.284927 0.000000 0.000000
0.414991 0.000000 0.000000
0.544925 0.000000 0.000000
0.674730 0.000000 0.000000
0.804405 0.000000 0.000000
0.933951 0.000000 0.000000
1.000000 0.000000 0.000000
0.023570 0.136671 0.003802
0.153577 0.133928 0.001429
0.283553 0.130626 0.000000
0.413398 0.129412 0.000000
0.543115 0.128730 0.000000
0.672702 0.128280 0.000000
0.802159 0.127952 0.000000
0.931487 0.127696 0.000000
1.000000 0.127673 0.000000
0.022499 0.262495 0.000000
0.153477 0.262087 0.000000
0.282178 0.260067 0.000000
0.411806 0.257865 0.000000
0.541305 0.256622 0.000000
0.670673 0.255798 0.000000
0.799913 0.255194 0.000000
0.929023 0.254719 0.000000
1.000000 0.254649 0.000000
0.025124 0.387884 0.000000
0.154211 0.387410 0.000000
0.282981 0.386937 0.000000
0.410214 0.385359 0.000000
0.539494 0.383676 0.000000
0.668645 0.382554 0.000000
0.797667 0.381725 0.000000
0.926559 0.381069 0.000000
1.000000 0.380933 0.000000
0.028027 0.512836 0.000000
0.156058 0.512298 0.000000
0.283821 0.511760 0.000000
0.411314 0.511222 0.000000
0.537684 0.509892 0.000000
0.666617 0.508547 0.000000
0.795420 0.507545 0.000000
0.924094 0.506746 0.000000
1.000000 0.506531 0.000000
0.031041 0.637353 0.000000
0.158352 0.636750 0.000000
0.285422 0.636147 0.000000
0.412252 0.635544 0.000000
0.538840 0.634942 0.000000
0.664589 0.633777 0.000000
0.793174 0.632654 0.000000
0.921630 0.631749 0.000000
1.000000 0.631448 0.000000
0.034110 0.761434 0.000000
0.160869 0.760767 0.000000
0.287405 0.760099 0.000000
0.413719 0.759431 0.000000
0.539810 0.758763 0.000000
0.665678 0.758096 0.000000
0.790928 0.757052 0.000000
0.919166 0.756079 0.000000
1.000000 0.755690 0.000000
0.037211 0.885080 0.000000
0.163513 0.884347 0.000000
0.289605 0.883615 0.000000
0.415488 0.882882 0.000000
0.541162 0.882150 0.000000
0.666627 0.881417 0.000000
0.791882 0.880685 0.000000
0.916702 0.879736 0.000000
1.000000 0.879263 0.000000
0.040334 1.000000 0.000000
0.166245 1.000000 0.000000
0.291954 1.000000 0.000000
0.417462 1.000000 0.000000
0.542768 1.000000 0.000000
0.667874 1.000000 0.000000
0.792779 1.000000 0.000000
0.917485 1.000000 0.000000
1.000000 1.000000 0.000000
0.026859 0.006820 0.120498
0.154654 0.002377 0.115293
0.284833 0.000000 0.108701
0.414882 0.000000 0.104554
0.544801 0.000000 0.100802
0.674591 0.000000 0.097222
0.804251 0.000000 0.093733
0.933782 0.000000 0.090297
1.000000 0.000000 0.087040
0.020982 0.136591 0.115643
0.153498 0.131303 0.109109
0.283458 0.122352 0.098068
0.413289 0.112021 0.084476
0.542991 0.099346 0.068332
0.672562 0.084191 0.049636
0.802005 0.066520 0.028389
0.931318 0.051613 0.010156
1.000000 0.044731 0.000000
0.016038 0.262401 0.103651
0.148830 0.261992 0.099678
0.282084 0.257832 0.096859
0.411697 0.247386 0.083074
0.541180 0.235217 0.066739
0.670534 0.220791 0.047851
0.799759 0.203951 0.026413
0.928853 0.190831 0.010156
1.000000 0.183962 0.000000
0.008273 0.387774 0.089568
0.140634 0.387301 0.085356
0.277330 0.386828 0.084940
0.410104 0.382605 0.081673
0.539370 0.370970 0.065146
0.668506 0.357286 0.046066
0.797512 0.341287 0.024436
0.926389 0.329307 0.010156
1.000000 0.322363 0.000000
0.000000 0.512712 0.074885
0.130302 0.512174 0.068213
0.267435 0.511636 0.067740
0.404530 0.511098 0.067266
0.537560 0.506603 0.063552
0.666478 0.493676 0.044282
0.795266 0.478527 0.022459
0.923925 0.467041 0.010156
1.000000 0.459941 0.000000
0.000000 0.637214 0.067766
0.117358 0.636611 0.048249
0.255252 0.636008 0.047718
0.393112 0.635405 0.047188
0.530939 0.634802 0.046657
0.664449 0.629961 0.042497
0.793020 0.615671 0.020483
0.921461 0.604032 0.010156
1.000000 0.596703 0.000000
0.000000 0.761280 0.060838
0.101685 0.760612 0.025464
0.240480 0.759945 0.024876
0.379245 0.759277 0.024289
0.517980 0.758609 0.023701
0.656685 0.757942 0.023114
0.790774 0.752822 0.020312
0.918997 0.740282 0.010156
1.000000 0.732658 0.000000
0.000000 0.884910 0.054015
0.092494 0.884178 0.010156
0.231113 0.883445 0.010156
0.369500 0.882713 0.010156
0.507655 0.881980 0.010156
0.645578 0.881248 0.010156
0.783270 0.880516 0.010156
0.916533 0.875789 0.010156
1.000000 0.867811 0.000000
0.000000 1.000000 0.047274
0.088136 1.000000 0.000000
0.225649 1.000000 0.000000
0.362922 1.000000 0.000000
0.499954 1.000000 0.000000
0.636746 1.000000 0.000000
0.773299 1.000000 0.000000
0.909613 1.000000 0.000000
1.000000 1.000000 0.000000
0.023598 0.000295 0.244511
0.156973 0.000000 0.244103
0.284694 0.000000 0.239778
0.414721 0.000000 0.234332
0.544618 0.000000 0.229852
0.674386 0.000000 0.225793
0.804024 0.000000 0.221956
0.933533 0.000000 0.218249
1.000000 0.000000 0.214980
0.019585 0.131361 0.243137
0.151050 0.123726 0.242728
0.283319 0.118446 0.232926
0.413128 0.108084 0.218507
0.542808 0.095171 0.202518
0.672358 0.079706 0.184279
0.801778 0.061690 0.163618
0.931069 0.041122 0.140475
1.000000 0.025485 0.122422
0.015916 0.262262 0.238553
0.140556 0.261853 0.233449
0.281945 0.251841 0.221737
0.411536 0.237752 0.207933
0.540998 0.224083 0.191578
0.670329 0.208386 0.172671
0.799532 0.190321 0.151213
0.928605 0.169792 0.127203
1.000000 0.154019 0.107803
0.008131 0.387614 0.224958
0.132715 0.387140 0.216252
0.270931 0.386667 0.209798
0.409944 0.380162 0.206532
0.539187 0.364586 0.189985
0.668301 0.348589 0.170886
0.797286 0.330794 0.149236
0.926141 0.310799 0.125035
1.000000 0.295674 0.105121
0.000000 0.512529 0.210609
0.122052 0.511991 0.198686
0.258130 0.511453 0.192579
0.400660 0.510915 0.192105
0.537377 0.504924 0.188392
0.666273 0.488659 0.169101
0.795040 0.471150 0.147260
0.923677 0.451702 0.122867
1.000000 0.437194 0.102439
0.000000 0.637009 0.201780
0.108569 0.636406 0.178751
0.244222 0.635803 0.172538
0.386130 0.635201 0.172008
0.527995 0.634598 0.171477
0.664245 0.628594 0.167317
0.792793 0.611390 0.145283
0.921212 0.592499 0.120698
1.000000 0.578583 0.099757
0.000000 0.761053 0.193668
0.092264 0.760386 0.156158
0.228016 0.759718 0.149677
0.370116 0.759050 0.149089
0.512179 0.758383 0.148502
0.654205 0.757715 0.147914
0.790547 0.751513 0.143307
0.918748 0.733192 0.118530
1.000000 0.719842 0.097075
0.000000 0.884662 0.185949
0.073139 0.883929 0.130821
0.209218 0.883197 0.123994
0.351864 0.882464 0.123350
0.494478 0.881732 0.122705
0.637058 0.880999 0.122061
0.779605 0.880267 0.121416
0.916284 0.873780 0.116361
1.000000 0.860971 0.094393
0.000000 1.000000 0.178540
0.052037 1.000000 0.103559
0.188488 1.000000 0.096240
0.331798 1.000000 0.095442
0.475068 1.000000 0.094645
0.618300 1.000000 0.093848
0.761493 1.000000 0.093051
0.904648 1.000000 0.092253
1.000000 1.000000 0.091711
0.025807 0.000000 0.368480
0.157003 0.000000 0.368007
0.287846 0.000000 0.367533
0.414560 0.000000 0.364012
0.544435 0.000000 0.358816
0.674181 0.000000 0.354287
0.803797 0.000000 0.350107
0.933284 0.000000 0.346134
1.000000 0.000000 0.342850
0.013642 0.122311 0.366888
0.143119 0.114476 0.366414
0.282949 0.114059 0.365941
0.412968 0.107943 0.356840
0.542625 0.095010 0.341092
0.672153 0.079526 0.323534
0.801551 0.061490 0.303746
0.930820 0.040903 0.281577
1.000000 0.025214 0.264695
0.012241 0.256682 0.365295
0.136825 0.250823 0.364822
0.273380 0.237658 0.364349
0.411375 0.231541 0.348804
0.540815 0.218417 0.329723
0.670125 0.202741 0.310217
0.799305 0.184513 0.288809
0.928356 0.163734 0.265133
1.000000 0.147532 0.246458
0.007990 0.387453 0.360334
0.132573 0.386980 0.357866
0.257157 0.386506 0.349533
0.409783 0.370586 0.331390
0.539004 0.350640 0.314824
0.668096 0.333458 0.295706
0.797059 0.314660 0.274037
0.925892 0.293640 0.249816
1.000000 0.277233 0.229850
0.000000 0.512347 0.346233
0.121891 0.511808 0.339163
0.246418 0.511270 0.326386
0.391205 0.510732 0.316944
0.537194 0.501421 0.313231
0.666068 0.479995 0.293921
0.794813 0.459844 0.272060
0.923428 0.438495 0.247648
1.000000 0.422498 0.227168
0.000000 0.636805 0.335707
0.108389 0.636202 0.319347
0.232858 0.635599 0.305148
0.373305 0.634996 0.296827
0.522688 0.634393 0.296297
0.664040 0.626347 0.292136
0.792567 0.604880 0.270084
0.920964 0.583221 0.245479
1.000000 0.567575 0.224486
0.000000 0.760827 0.326417
0.092065 0.760159 0.297323
0.216477 0.759491 0.281962
0.355624 0.758824 0.273890
0.503019 0.758156 0.273302
0.650366 0.757488 0.272715
0.790320 0.749769 0.268107
0.918500 0.727821 0.243311
1.000000 0.712466 0.221804
0.000000 0.884413 0.317809
0.072920 0.883680 0.272768
0.197275 0.882948 0.256269
0.336051 0.882215 0.248131
0.482904 0.881483 0.247486
0.629717 0.880750 0.246842
0.776488 0.880018 0.246197
0.916036 0.872293 0.241143
1.000000 0.857174 0.219122
0.000000 1.000000 0.309732
0.051766 1.000000 0.246397
0.175969 1.000000 0.228639
0.314721 1.000000 0.220172
0.461612 1.000000 0.219374
0.608448 1.000000 0.218577
0.755230 1.000000 0.217780
0.901957 1.000000 0.216983
1.000000 1.000000 0.216440
0.028687 0.000000 0.492405
0.158768 0.000000 0.491867
0.288555 0.000000 0.491329
0.418050 0.000000 0.490791
0.544253 0.000000 0.487697
0.673976 0.000000 0.482704
0.803571 0.000000 0.478187
0.933035 0.000000 0.473951
1.000000 0.000000 0.470649
0.005224 0.111192 0.490595
0.134443 0.102750 0.490057
0.273605 0.102276 0.489519
0.412718 0.101803 0.488980
0.542442 0.094849 0.479653
0.671948 0.079346 0.462777
0.801325 0.061291 0.443864
0.930571 0.040684 0.422669
1.000000 0.024944 0.406958
0.003630 0.246207 0.488785
0.128157 0.237420 0.488246
0.260117 0.225683 0.487708
0.407821 0.225210 0.487170
0.540632 0.218256 0.474115
0.669920 0.202561 0.453740
0.799078 0.184314 0.432417
0.928107 0.163516 0.409242
1.000000 0.147262 0.391653
0.002037 0.381094 0.486974
0.126564 0.377236 0.486436
0.251090 0.368494 0.485898
0.393849 0.348617 0.485360
0.538822 0.341663 0.462927
0.667892 0.325776 0.438659
0.796832 0.307337 0.415427
0.925643 0.286347 0.390739
1.000000 0.269580 0.371289
0.000000 0.512164 0.481758
0.121731 0.511626 0.479623
0.246257 0.511088 0.476120
0.370783 0.510549 0.463895
0.537011 0.487541 0.438070
0.665863 0.461015 0.418741
0.794586 0.440146 0.396861
0.923179 0.418168 0.372429
1.000000 0.400987 0.351898
0.000000 0.636600 0.469546
0.108208 0.635997 0.459929
0.232678 0.635394 0.451593
0.357147 0.634791 0.434053
0.509651 0.634188 0.421117
0.663835 0.621609 0.416956
0.792340 0.593612 0.394884
0.920715 0.568983 0.370260
1.000000 0.551519 0.349216
0.000000 0.760600 0.459087
0.091865 0.759932 0.438476
0.216278 0.759264 0.427545
0.340690 0.758597 0.408954
0.486158 0.757929 0.398103
0.643413 0.757261 0.397515
0.790094 0.746874 0.392907
0.918251 0.719636 0.368092
1.000000 0.701767 0.346534
0.000000 0.884164 0.449594
0.072701 0.883432 0.414704
0.197057 0.882699 0.401859
0.321412 0.881967 0.382431
0.464508 0.881234 0.372267
0.618102 0.880502 0.371623
0.771643 0.879769 0.370978
0.915787 0.870126 0.365924
1.000000 0.851736 0.343852
0.000000 1.000000 0.440849
0.051495 1.000000 0.389223
0.175698 1.000000 0.374663
0.299901 1.000000 0.354210
0.442017 1.000000 0.344104
0.594142 1.000000 0.343306
0.746185 1.000000 0.342509
0.898144 1.000000 0.341712
1.000000 1.000000 0.341170
0.031723 0.000000 0.616286
0.161154 0.000000 0.615683
0.290328 0.000000 0.615080
0.419245 0.000000 0.614478
0.547903 0.000000 0.613875
0.673772 0.000000 0.611044
0.803344 0.000000 0.606195
0.932787 0.000000 0.601700
1.000000 0.000000 0.598377
0.000000 0.102510 0.614258
0.123611 0.088548 0.613655
0.263098 0.088017 0.613052
0.402545 0.087487 0.612449
0.541952 0.086956 0.611846
0.671743 0.079165 0.602010
0.801098 0.061091 0.583972
0.930323 0.040465 0.563752
1.000000 0.024673 0.549210
0.000000 0.238141 0.612230
0.117013 0.222917 0.611627
0.248054 0.211232 0.611024
0.393026 0.210702 0.610421
0.537944 0.210171 0.609818
0.669715 0.202381 0.597247
0.798852 0.184114 0.576012
0.927858 0.163297 0.553339
1.000000 0.146991 0.536833
0.000000 0.372842 0.610202
0.115228 0.362413 0.609599
0.239697 0.350237 0.608996
0.374591 0.333917 0.608393
0.531578 0.333386 0.607790
0.667687 0.325596 0.590127
0.796605 0.307138 0.564609
0.925394 0.286128 0.539246
1.000000 0.269309 0.520574
0.000000 0.506612 0.608173
0.113443 0.501765 0.607570
0.237913 0.496498 0.606967
0.362382 0.484373 0.606364
0.512456 0.456601 0.605762
0.665659 0.448811 0.575293
0.794359 0.430161 0.545314
0.922930 0.408960 0.518147
1.000000 0.391627 0.497513
0.000000 0.636395 0.603297
0.108028 0.635792 0.600497
0.232498 0.635189 0.598021
0.356967 0.634586 0.593314
0.481437 0.633983 0.576535
0.663630 0.602703 0.541776
0.792113 0.568878 0.519684
0.920466 0.544146 0.495042
1.000000 0.525766 0.473945
0.000000 0.760373 0.591677
0.091666 0.759705 0.579617
0.216078 0.759038 0.573112
0.340491 0.758370 0.562250
0.464903 0.757702 0.539253
0.626270 0.757035 0.522315
0.789867 0.740726 0.517708
0.918002 0.705438 0.492873
1.000000 0.684705 0.471263
0.000000 0.883915 0.581306
0.072482 0.883183 0.556629
0.196838 0.882450 0.547435
0.321193 0.881718 0.533642
0.445548 0.880985 0.510103
0.596690 0.880253 0.496404
0.762836 0.879520 0.495759
0.915538 0.866505 0.490705
1.000000 0.843166 0.468581
0.000000 1.000000 0.571891
0.051225 1.000000 0.532037
0.175427 1.000000 0.520670
0.299630 1.000000 0.504780
0.423833 1.000000 0.480671
0.571338 1.000000 0.468036
0.731837 1.000000 0.467238
0.892195 1.000000 0.466441
1.000000 1.000000 0.465899
0.034831 0.000000 0.740123
0.163835 0.000000 0.739456
0.292604 0.000000 0.738788
0.421137 0.000000 0.738120
0.549436 0.000000 0.737453
0.677499 0.000000 0.736785
0.803117 0.000000 0.734131
0.932538 0.000000 0.729380
1.000000 0.000000 0.726034
0.000000 0.098462 0.737877
0.110418 0.071869 0.737209
0.250586 0.071282 0.736542
0.390719 0.070694 0.735874
0.530818 0.070107 0.735206
0.670883 0.069519 0.734539
0.800871 0.060892 0.724069
0.930074 0.040246 0.704826
1.000000 0.024402 0.691450
0.000000 0.232996 0.735631
0.103393 0.206367 0.734963
0.234196 0.194305 0.734296
0.378550 0.193718 0.733628
0.522860 0.193130 0.732960
0.667127 0.192542 0.732293
0.798625 0.183915 0.719594
0.927610 0.163078 0.697425
1.000000 0.146720 0.681998
0.000000 0.366692 0.733385
0.101416 0.346161 0.732717
0.225829 0.332147 0.732049
0.358974 0.316741 0.731382
0.510638 0.316153 0.730714
0.662243 0.315566 0.730046
0.796379 0.306938 0.713776
0.925146 0.285909 0.687739
1.000000 0.269038 0.669836
0.000000 0.499550 0.731139
0.099439 0.485830 0.730471
0.223852 0.476828 0.729803
0.348264 0.460761 0.729136
0.486542 0.439177 0.728468
0.654219 0.438589 0.727800
0.794132 0.429962 0.704878
0.922682 0.408741 0.673702
1.000000 0.391356 0.652927
0.000000 0.631570 0.728893
0.097463 0.625377 0.728225
0.221875 0.621348 0.727557
0.346288 0.614470 0.726889
0.470700 0.598461 0.726222
0.629203 0.561613 0.725554
0.791886 0.552985 0.685904
0.920217 0.531573 0.649688
1.000000 0.513674 0.626518
0.000000 0.760146 0.724187
0.091466 0.759479 0.720747
0.215879 0.758811 0.718665
0.340291 0.758143 0.715527
0.464703 0.757476 0.709448
0.589116 0.756808 0.687453
0.789640 0.716074 0.642508
0.917753 0.674228 0.617654
1.000000 0.652893 0.595992
0.000000 0.883667 0.712942
0.072263 0.882934 0.698544
0.196619 0.882202 0.692999
0.320974 0.881469 0.684838
0.445330 0.880737 0.671133
0.569685 0.880004 0.641986
0.741062 0.879272 0.620540
0.915289 0.858773 0.615486
1.000000 0.827374 0.593310
0.000000 1.000000 0.702859
0.050954 1.000000 0.674840
0.175157 1.000000 0.666662
0.299359 1.000000 0.655326
0.423562 1.000000 0.638256
0.547765 1.000000 0.609018
0.705297 1.000000 0.591968
0.881342 1.000000 0.591170
1.000000 1.000000 0.590628
0.037980 0.000000 0.863916
0.166677 0.000000 0.863184
0.295155 0.000000 0.862451
0.423414 0.000000 0.861719
0.551454 0.000000 0.860987
0.679274 0.000000 0.860254
0.806875 0.000000 0.859522
0.932289 0.000000 0.856993
1.000000 0.000000 0.853620
0.000000 0.094660 0.861452
0.094803 0.052715 0.860720
0.235820 0.052070 0.859987
0.376807 0.051426 0.859255
0.517762 0.050781 0.858522
0.658686 0.050136 0.857790
0.799580 0.049492 0.857058
0.929825 0.040027 0.845890
1.000000 0.024131 0.833679
0.000000 0.228436 0.858988
0.087296 0.187530 0.858256
0.218105 0.174902 0.857523
0.362600 0.174257 0.856791
0.507058 0.173613 0.856058
0.651478 0.172968 0.855326
0.795861 0.172323 0.854593
0.927361 0.162859 0.841500
1.000000 0.146449 0.827148
0.000000 0.361436 0.856524
0.085128 0.327892 0.855792
0.209483 0.312406 0.855059
0.342012 0.297089 0.854327
0.491876 0.296444 0.853594
0.641692 0.295800 0.852862
0.791461 0.295155 0.852129
0.924897 0.285690 0.836218
1.000000 0.268767 0.819077
0.000000 0.493662 0.854060
0.082960 0.468144 0.853328
0.207315 0.456700 0.852595
0.331670 0.438882 0.851863
0.467202 0.419276 0.851130
0.626442 0.418631 0.850398
0.785615 0.417987 0.849665
0.922433 0.408522 0.829239
1.000000 0.391085 0.808308
0.000000 0.625113 0.851596
0.080791 0.608285 0.850864
0.205147 0.600860 0.850131
0.329502 0.589450 0.849399
0.453857 0.568993 0.848666
0.595969 0.541463 0.847934
0.775744 0.540818 0.847201
0.919969 0.531354 0.818368
1.000000 0.513403 0.792144
0.000000 0.755789 0.849132
0.078623 0.748316 0.848399
0.202978 0.744883 0.847667
0.327334 0.739843 0.846934
0.451689 0.731152 0.846202
0.576044 0.710757 0.845470
0.744088 0.663650 0.844737
0.917505 0.654185 0.794759
1.000000 0.635721 0.762477
0.000000 0.883418 0.844504
0.072044 0.882685 0.840449
0.196400 0.881953 0.838550
0.320755 0.881220 0.836017
0.445111 0.880488 0.832141
0.569466 0.879755 0.824522
0.693821 0.879023 0.796649
0.915040 0.827654 0.740267
1.000000 0.787676 0.718039
0.000000 1.000000 0.833753
0.050683 1.000000 0.817630
0.174886 1.000000 0.812637
0.299089 1.000000 0.805849
0.423291 1.000000 0.795802
0.547494 1.000000 0.778846
0.671697 1.000000 0.742621
0.854400 1.000000 0.715900
1.000000 1.000000 0.715357
0.041153 0.000000 0.987666
0.169618 0.000000 0.986868
0.297876 0.000000 0.986071
0.425926 0.000000 0.985274
0.553768 0.000000 0.984477
0.681403 0.000000 0.983679
0.808830 0.000000 0.982882
0.936050 0.000000 0.982085
1.000000 0.000000 0.981136
0.000000 0.091004 0.984984
0.076742 0.031084 0.984186
0.218701 0.030382 0.983389
0.360632 0.029681 0.982592
0.502534 0.028979 0.981795
0.644408 0.028278 0.980997
0.786253 0.027576 0.980200
0.928069 0.026874 0.979403
1.000000 0.023861 0.975898
0.000000 0.224221 0.982302
0.068724 0.166317 0.981504
0.199652 0.153022 0.980707
0.344648 0.152321 0.979910
0.489609 0.151619 0.979113
0.634537 0.150917 0.978315
0.779432 0.150216 0.977518
0.924292 0.149514 0.976721
1.000000 0.146179 0.972283
0.000000 0.356709 0.979620
0.066364 0.307390 0.978822
0.190662 0.290551 0.978025
0.322979 0.274960 0.977228
0.472307 0.274259 0.976431
0.621595 0.273557 0.975633
0.770842 0.272856 0.974836
0.920048 0.272154 0.974039
1.000000 0.268497 0.968296
0.000000 0.488469 0.976938
0.064003 0.448363 0.976140
0.188302 0.434986 0.975343
0.312600 0.415839 0.974546
0.447060 0.396899 0.973749
0.603076 0.396197 0.972951
0.759041 0.395496 0.972154
0.914954 0.394794 0.971357
1.000000 0.390815 0.963655
0.000000 0.619499 0.974256
0.061643 0.589234 0.973458
0.185942 0.579301 0.972661
0.310240 0.565178 0.971864
0.434539 0.543122 0.971067
0.572739 0.518837 0.970269
0.740436 0.518135 0.969472
0.908060 0.517434 0.968675
1.000000 0.513133 0.957709
0.000000 0.749801 0.971574
0.059283 0.730004 0.970776
0.183582 0.723496 0.969979
0.307880 0.714368 0.969182
0.432178 0.700281 0.968385
0.556477 0.674932 0.967587
0.702873 0.640775 0.966790
0.896153 0.640074 0.965993
1.000000 0.635451 0.948497
0.000000 0.879374 0.968892
0.056923 0.870673 0.968094
0.181221 0.867571 0.967297
0.305520 0.863411 0.966500
0.429818 0.857250 0.965703
0.554117 0.846542 0.964905
0.678415 0.821262 0.964108
0.857112 0.762713 0.963311
1.000000 0.757769 0.926217
0.000000 1.000000 0.964572
0.050412 1.000000 0.960409
0.174615 1.000000 0.958595
0.298818 1.000000 0.956347
0.423021 1.000000 0.953310
0.547223 1.000000 0.948601
0.671426 1.000000 0.939233
0.795629 1.000000 0.904632
1.000000 1.000000 0.840087
