luts/original/summer-pop.cube
TITLE "Summer Pop"
LUT_3D_SIZE 33
DOMAIN_MIN 0.0 0.0 0.0
DOMAIN_MAX 1.0 1.0 1.0
0.024411 0.007481 0.007481
0.057004 0.006462 0.006462
0.089588 0.005283 0.005283
0.122165 0.003945 0.003945
0.154734 0.002447 0.002447
0.187294 0.000790 0.000790
0.219847 0.000000 0.000000
0.252391 0.000000 0.000000
0.284927 0.000000 0.000000
0.317455 0.000000 0.000000
0.349975 0.000000 0.000000
0.382487 0.000000 0.000000
0.414991 0.000000 0.000000
0.447487 0.000000 0.000000
0.479974 0.000000 0.000000
0.512454 0.000000 0.000000
0.544925 0.000000 0.000000
0.577389 0.000000 0.000000
0.609844 0.000000 0.000000
0.642291 0.000000 0.000000
0.674730 0.000000 0.000000
0.707161 0.000000 0.000000
0.739584 0.000000 0.000000
0.771999 0.000000 0.000000
0.804405 0.000000 0.000000
0.836804 0.000000 0.000000
0.869194 0.000000 0.000000
0.901577 0.000000 0.000000
0.933951 0.000000 0.000000
0.966317 0.000000 0.000000
0.997461 0.000000 0.000000
0.999365 0.000000 0.000000
1.000000 0.000000 0.000000
0.025579 0.041345 0.007697
0.056755 0.039445 0.006243
0.089326 0.038177 0.005053
0.121890 0.036821 0.003702
0.154445 0.035337 0.002192
0.186991 0.033709 0.000523
0.219530 0.033057 0.000000
0.252061 0.032895 0.000000
0.284583 0.032768 0.000000
0.317098 0.032664 0.000000
0.349604 0.032578 0.000000
0.382103 0.032505 0.000000
0.414593 0.032443 0.000000
0.447075 0.032389 0.000000
0.479549 0.032341 0.000000
0.512015 0.032299 0.000000
0.544473 0.032261 0.000000
0.576922 0.032227 0.000000
0.609364 0.032196 0.000000
0.641797 0.032168 0.000000
0.674223 0.032142 0.000000
0.706640 0.032117 0.000000
0.739049 0.032095 0.000000
0.771451 0.032074 0.000000
0.803844 0.032055 0.000000
0.836229 0.032036 0.000000
0.868605 0.032019 0.000000
0.900974 0.032003 0.000000
0.933335 0.031987 0.000000
0.965687 0.031972 0.000000
0.997461 0.031959 0.000000
0.999365 0.031969 0.000000
1.000000 0.031984 0.000000
0.025186 0.073595 0.006834
0.057892 0.072945 0.006355
0.089065 0.071052 0.004822
0.121614 0.069683 0.003460
0.154155 0.068213 0.001938
0.186689 0.066616 0.000257
0.219214 0.066027 0.000000
0.251731 0.065711 0.000000
0.284240 0.065461 0.000000
0.316741 0.065258 0.000000
0.349233 0.065090 0.000000
0.381718 0.064948 0.000000
0.414195 0.064826 0.000000
0.446663 0.064720 0.000000
0.479124 0.064627 0.000000
0.511576 0.064544 0.000000
0.544020 0.064470 0.000000
0.576456 0.064403 0.000000
0.608884 0.064342 0.000000
0.641304 0.064287 0.000000
0.673716 0.064236 0.000000
0.706120 0.064188 0.000000
0.738515 0.064144 0.000000
0.770903 0.064103 0.000000
0.803282 0.064065 0.000000
0.835653 0.064029 0.000000
0.868017 0.063995 0.000000
0.900372 0.063963 0.000000
0.932719 0.063932 0.000000
0.965058 0.063903 0.000000
0.997388 0.063876 0.000000
0.999365 0.063895 0.000000
1.000000 0.063924 0.000000
0.024400 0.105147 0.005406
0.057567 0.105065 0.005334
0.090170 0.104436 0.004830
0.121338 0.102528 0.003217
0.153866 0.101077 0.001684
0.186386 0.099518 0.000000
0.218897 0.098910 0.000000
0.251401 0.098447 0.000000
0.283896 0.098081 0.000000
0.316383 0.097783 0.000000
0.348863 0.097537 0.000000
0.381334 0.097328 0.000000
0.413797 0.097149 0.000000
0.446251 0.096993 0.000000
0.478698 0.096857 0.000000
0.511137 0.096735 0.000000
0.543567 0.096626 0.000000
0.575990 0.096528 0.000000
0.608404 0.096439 0.000000
0.640811 0.096357 0.000000
0.673209 0.096282 0.000000
0.705599 0.096212 0.000000
0.737981 0.096148 0.000000
0.770355 0.096087 0.000000
0.802721 0.096031 0.000000
0.835078 0.095978 0.000000
0.867428 0.095928 0.000000
0.899769 0.095880 0.000000
0.932103 0.095835 0.000000
0.964428 0.095792 0.000000
0.996745 0.095752 0.000000
0.999365 0.095779 0.000000
1.000000 0.095821 0.000000
0.023570 0.136671 0.003802
0.056706 0.136585 0.003726
0.089836 0.136499 0.003650
0.122413 0.135871 0.003122
0.153577 0.133928 0.001429
0.186083 0.132497 0.000000
0.218581 0.131707 0.000000
0.251071 0.131103 0.000000
0.283553 0.130626 0.000000
0.316026 0.130239 0.000000
0.348492 0.129917 0.000000
0.380949 0.129645 0.000000
0.413398 0.129412 0.000000
0.445840 0.129209 0.000000
0.478273 0.129031 0.000000
0.510698 0.128872 0.000000
0.543115 0.128730 0.000000
0.575524 0.128602 0.000000
0.607924 0.128485 0.000000
0.640317 0.128379 0.000000
0.672702 0.128280 0.000000
0.705078 0.128190 0.000000
0.737447 0.128105 0.000000
0.769807 0.128026 0.000000
0.802159 0.127952 0.000000
0.834503 0.127883 0.000000
0.866839 0.127817 0.000000
0.899167 0.127755 0.000000
0.931487 0.127696 0.000000
0.963798 0.127640 0.000000
0.996102 0.127587 0.000000
0.999365 0.127619 0.000000
1.000000 0.127673 0.000000
0.022617 0.168168 0.002021
0.055762 0.168078 0.001942
0.088903 0.167988 0.001862
0.122040 0.167898 0.001783
0.154620 0.167260 0.001230
0.185780 0.165380 0.000000
0.218265 0.164416 0.000000
0.250741 0.163680 0.000000
0.283209 0.163097 0.000000
0.315669 0.162625 0.000000
0.348121 0.162232 0.000000
0.380565 0.161900 0.000000
0.413000 0.161615 0.000000
0.445428 0.161367 0.000000
0.477848 0.161149 0.000000
0.510259 0.160956 0.000000
0.542662 0.160782 0.000000
0.575058 0.160625 0.000000
0.607445 0.160482 0.000000
0.639824 0.160352 0.000000
0.672195 0.160231 0.000000
0.704557 0.160120 0.000000
0.736912 0.160017 0.000000
0.769259 0.159920 0.000000
0.801597 0.159829 0.000000
0.833928 0.159744 0.000000
0.866250 0.159664 0.000000
0.898565 0.159588 0.000000
0.930871 0.159515 0.000000
0.963169 0.159446 0.000000
0.995459 0.159380 0.000000
0.999365 0.159417 0.000000
1.000000 0.159483 0.000000
0.021515 0.199638 0.000064
0.054702 0.199543 0.000000
0.087907 0.199449 0.000000
0.121082 0.199355 0.000000
0.154225 0.199261 0.000000
0.186792 0.198647 0.000000
0.217948 0.197038 0.000000
0.250411 0.196176 0.000000
0.282865 0.195495 0.000000
0.315312 0.194941 0.000000
0.347750 0.194481 0.000000
0.380180 0.194093 0.000000
0.412602 0.193759 0.000000
0.445016 0.193468 0.000000
0.477422 0.193212 0.000000
0.509820 0.192985 0.000000
0.542210 0.192781 0.000000
0.574591 0.192597 0.000000
0.606965 0.192429 0.000000
0.639330 0.192276 0.000000
0.671688 0.192135 0.000000
0.704037 0.192004 0.000000
0.736378 0.191882 0.000000
0.768711 0.191769 0.000000
0.801036 0.191662 0.000000
0.833353 0.191562 0.000000
0.865662 0.191467 0.000000
0.897962 0.191377 0.000000
0.930255 0.191292 0.000000
0.962539 0.191211 0.000000
0.994815 0.191133 0.000000
0.999365 0.191172 0.000000
1.000000 0.191248 0.000000
0.021942 0.231080 0.000000
0.054922 0.230982 0.000000
0.087873 0.230884 0.000000
0.120796 0.230786 0.000000
0.153692 0.230688 0.000000
0.186559 0.230589 0.000000
0.218929 0.230040 0.000000
0.250081 0.228593 0.000000
0.282522 0.227818 0.000000
0.314954 0.227188 0.000000
0.347379 0.226665 0.000000
0.379796 0.226222 0.000000
0.412204 0.225842 0.000000
0.444605 0.225511 0.000000
0.476997 0.225219 0.000000
0.509381 0.224960 0.000000
0.541757 0.224728 0.000000
0.574125 0.224518 0.000000
0.606485 0.224327 0.000000
0.638837 0.224152 0.000000
0.671180 0.223990 0.000000
0.703516 0.223841 0.000000
0.735844 0.223702 0.000000
0.768163 0.223572 0.000000
0.800474 0.223450 0.000000
0.832778 0.223335 0.000000
0.865073 0.223227 0.000000
0.897360 0.223124 0.000000
0.929639 0.223027 0.000000
0.961909 0.222934 0.000000
0.994172 0.222845 0.000000
0.999365 0.222885 0.000000
1.000000 0.222971 0.000000
0.022499 0.262495 0.000000
0.055282 0.262393 0.000000
0.088039 0.262291 0.000000
0.120771 0.262189 0.000000
0.153477 0.262087 0.000000
0.186158 0.261984 0.000000
0.218813 0.261882 0.000000
0.251030 0.261382 0.000000
0.282178 0.260067 0.000000
0.314597 0.259365 0.000000
0.347008 0.258782 0.000000
0.379411 0.258289 0.000000
0.411806 0.257865 0.000000
0.444193 0.257496 0.000000
0.476571 0.257171 0.000000
0.508942 0.256882 0.000000
0.541305 0.256622 0.000000
0.573659 0.256388 0.000000
0.606005 0.256174 0.000000
0.638343 0.255979 0.000000
0.670673 0.255798 0.000000
0.702995 0.255631 0.000000
0.735309 0.255476 0.000000
0.767615 0.255330 0.000000
0.799913 0.255194 0.000000
0.832202 0.255065 0.000000
0.864484 0.254944 0.000000
0.896757 0.254829 0.000000
0.929023 0.254719 0.000000
0.961280 0.254615 0.000000
0.993529 0.254515 0.000000
0.999365 0.254555 0.000000
1.000000 0.254649 0.000000
0.023109 0.293883 0.000000
0.055736 0.293777 0.000000
0.088339 0.293671 0.000000
0.120919 0.293565 0.000000
0.153475 0.293458 0.000000
0.186007 0.293352 0.000000
0.218516 0.293246 0.000000
0.251001 0.293140 0.000000
0.283096 0.292678 0.000000
0.314240 0.291473 0.000000
0.346637 0.290834 0.000000
0.379027 0.290293 0.000000
0.411408 0.289828 0.000000
0.443781 0.289423 0.000000
0.476146 0.289067 0.000000
0.508503 0.288749 0.000000
0.540852 0.288465 0.000000
0.573193 0.288207 0.000000
0.605525 0.287972 0.000000
0.637850 0.287757 0.000000
0.670166 0.287559 0.000000
0.702475 0.287375 0.000000
0.734775 0.287204 0.000000
0.767067 0.287044 0.000000
0.799351 0.286893 0.000000
0.831627 0.286752 0.000000
0.863895 0.286618 0.000000
0.896155 0.286491 0.000000
0.928407 0.286370 0.000000
0.960650 0.286255 0.000000
0.992886 0.286144 0.000000
0.999365 0.286183 0.000000
1.000000 0.286285 0.000000
0.023756 0.325244 0.000000
0.056255 0.325134 0.000000
0.088733 0.325023 0.000000
0.121188 0.324913 0.000000
0.153621 0.324803 0.000000
0.186032 0.324693 0.000000
0.218421 0.324582 0.000000
0.250788 0.324472 0.000000
0.283133 0.324362 0.000000
0.315127 0.323932 0.000000
0.346266 0.322820 0.000000
0.378642 0.322235 0.000000
0.411010 0.321732 0.000000
0.443369 0.321293 0.000000
0.475721 0.320907 0.000000
0.508064 0.320563 0.000000
0.540399 0.320254 0.000000
0.572726 0.319975 0.000000
0.605045 0.319720 0.000000
0.637356 0.319487 0.000000
0.669659 0.319271 0.000000
0.701954 0.319072 0.000000
0.734241 0.318886 0.000000
0.766519 0.318712 0.000000
0.798790 0.318548 0.000000
0.831052 0.318394 0.000000
0.863306 0.318248 0.000000
0.895553 0.318110 0.000000
0.927791 0.317978 0.000000
0.960021 0.317853 0.000000
0.992242 0.317733 0.000000
0.999365 0.317768 0.000000
1.000000 0.317878 0.000000
0.024430 0.356577 0.000000
0.056823 0.356463 0.000000
0.089194 0.356349 0.000000
0.121545 0.356235 0.000000
0.153875 0.356120 0.000000
0.186185 0.356006 0.000000
0.218473 0.355892 0.000000
0.250741 0.355777 0.000000
0.282988 0.355663 0.000000
0.315214 0.355549 0.000000
0.347122 0.355144 0.000000
0.378258 0.354114 0.000000
0.410612 0.353575 0.000000
0.442958 0.353105 0.000000
0.475295 0.352691 0.000000
0.507625 0.352323 0.000000
0.539947 0.351992 0.000000
0.572260 0.351692 0.000000
0.604566 0.351418 0.000000
0.636863 0.351168 0.000000
0.669152 0.350936 0.000000
0.701433 0.350722 0.000000
0.733706 0.350522 0.000000
0.765971 0.350335 0.000000
0.798228 0.350159 0.000000
0.830477 0.349993 0.000000
0.862718 0.349836 0.000000
0.894950 0.349687 0.000000
0.927175 0.349545 0.000000
0.959391 0.349409 0.000000
0.991599 0.349280 0.000000
0.999365 0.349312 0.000000
1.000000 0.349427 0.000000
0.025124 0.387884 0.000000
0.057425 0.387765 0.000000
0.089707 0.387647 0.000000
0.121969 0.387529 0.000000
0.154211 0.387410 0.000000
0.186433 0.387292 0.000000
0.218635 0.387174 0.000000
0.250818 0.387055 0.000000
0.282981 0.386937 0.000000
0.315125 0.386819 0.000000
0.347248 0.386700 0.000000
0.379082 0.386318 0.000000
0.410214 0.385359 0.000000
0.442546 0.384860 0.000000
0.474870 0.384420 0.000000
0.507186 0.384028 0.000000
0.539494 0.383676 0.000000
0.571794 0.383358 0.000000
0.604086 0.383067 0.000000
0.636370 0.382800 0.000000
0.668645 0.382554 0.000000
0.700913 0.382325 0.000000
0.733172 0.382112 0.000000
0.765423 0.381912 0.000000
0.797667 0.381725 0.000000
0.829902 0.381548 0.000000
0.862129 0.381380 0.000000
0.894348 0.381221 0.000000
0.926559 0.381069 0.000000
0.958761 0.380924 0.000000
0.990956 0.380786 0.000000
0.999365 0.380813 0.000000
1.000000 0.380933 0.000000
0.025834 0.419163 0.000000
0.058056 0.419040 0.000000
0.090259 0.418918 0.000000
0.122443 0.418796 0.000000
0.154608 0.418673 0.000000
0.186755 0.418551 0.000000
0.218882 0.418428 0.000000
0.250991 0.418306 0.000000
0.283081 0.418184 0.000000
0.315152 0.418061 0.000000
0.347205 0.417939 0.000000
0.379238 0.417816 0.000000
0.411007 0.417453 0.000000
0.442134 0.416557 0.000000
0.474445 0.416093 0.000000
0.506747 0.415680 0.000000
0.539042 0.415309 0.000000
0.571328 0.414973 0.000000
0.603606 0.414666 0.000000
0.635876 0.414384 0.000000
0.668138 0.414123 0.000000
0.700392 0.413882 0.000000
0.732638 0.413656 0.000000
0.764875 0.413445 0.000000
0.797105 0.413246 0.000000
0.829327 0.413059 0.000000
0.861540 0.412881 0.000000
0.893745 0.412712 0.000000
0.925942 0.412551 0.000000
0.958132 0.412398 0.000000
0.990313 0.412250 0.000000
0.999365 0.412272 0.000000
1.000000 0.412397 0.000000
0.026556 0.450415 0.000000
0.058708 0.450288 0.000000
0.090841 0.450162 0.000000
0.122957 0.450035 0.000000
0.155055 0.449909 0.000000
0.187135 0.449782 0.000000
0.219196 0.449656 0.000000
0.251240 0.449529 0.000000
0.283265 0.449403 0.000000
0.315272 0.449277 0.000000
0.347262 0.449150 0.000000
0.379233 0.449024 0.000000
0.411186 0.448897 0.000000
0.442896 0.448550 0.000000
0.474019 0.447711 0.000000
0.506308 0.447278 0.000000
0.538589 0.446889 0.000000
0.570862 0.446537 0.000000
0.603126 0.446215 0.000000
0.635383 0.445919 0.000000
0.667631 0.445645 0.000000
0.699871 0.445392 0.000000
0.732103 0.445155 0.000000
0.764328 0.444932 0.000000
0.796544 0.444723 0.000000
0.828751 0.444526 0.000000
0.860951 0.444339 0.000000
0.893143 0.444161 0.000000
0.925326 0.443991 0.000000
0.957502 0.443829 0.000000
0.989669 0.443674 0.000000
0.999365 0.443689 0.000000
1.000000 0.443818 0.000000
0.027287 0.481639 0.000000
0.059377 0.481509 0.000000
0.091449 0.481378 0.000000
0.123503 0.481248 0.000000
0.155541 0.481117 0.000000
0.187561 0.480987 0.000000
0.219563 0.480856 0.000000
0.251548 0.480726 0.000000
0.283516 0.480595 0.000000
0.315466 0.480465 0.000000
0.347399 0.480334 0.000000
0.379314 0.480204 0.000000
0.411212 0.480073 0.000000
0.443093 0.479943 0.000000
0.474750 0.479610 0.000000
0.505869 0.478822 0.000000
0.538136 0.478417 0.000000
0.570395 0.478049 0.000000
0.602646 0.477714 0.000000
0.634889 0.477405 0.000000
0.667124 0.477120 0.000000
0.699351 0.476855 0.000000
0.731569 0.476607 0.000000
0.763780 0.476375 0.000000
0.795982 0.476156 0.000000
0.828176 0.475950 0.000000
0.860362 0.475754 0.000000
0.892541 0.475567 0.000000
0.924710 0.475390 0.000000
0.956872 0.475220 0.000000
0.989026 0.475056 0.000000
0.999365 0.475065 0.000000
1.000000 0.475196 0.000000
0.028027 0.512836 0.000000
0.060060 0.512702 0.000000
0.092076 0.512567 0.000000
0.124076 0.512433 0.000000
0.156058 0.512298 0.000000
0.188024 0.512164 0.000000
0.219973 0.512029 0.000000
0.251905 0.511895 0.000000
0.283821 0.511760 0.000000
0.315719 0.511626 0.000000
0.347601 0.511491 0.000000
0.379466 0.511356 0.000000
0.411314 0.511222 0.000000
0.443146 0.511087 0.000000
0.474960 0.510953 0.000000
0.506568 0.510632 0.000000
0.537684 0.509892 0.000000
0.569929 0.509511 0.000000
0.602167 0.509163 0.000000
0.634396 0.508843 0.000000
0.666617 0.508547 0.000000
0.698830 0.508271 0.000000
0.731035 0.508014 0.000000
0.763232 0.507772 0.000000
0.795420 0.507545 0.000000
0.827601 0.507329 0.000000
0.859774 0.507125 0.000000
0.891938 0.506931 0.000000
0.924094 0.506746 0.000000
0.956243 0.506568 0.000000
0.988383 0.506398 0.000000
0.999365 0.506399 0.000000
1.000000 0.506531 0.000000
0.028773 0.544006 0.000000
0.060755 0.543868 0.000000
0.092720 0.543729 0.000000
0.124669 0.543591 0.000000
0.156602 0.543452 0.000000
0.188519 0.543314 0.000000
0.220419 0.543175 0.000000
0.252303 0.543036 0.000000
0.284171 0.542898 0.000000
0.316022 0.542759 0.000000
0.347857 0.542621 0.000000
0.379676 0.542482 0.000000
0.411478 0.542343 0.000000
0.443265 0.542205 0.000000
0.475034 0.542066 0.000000
0.506788 0.541928 0.000000
0.538352 0.541618 0.000000
0.569463 0.540922 0.000000
0.601687 0.540563 0.000000
0.633902 0.540232 0.000000
0.666110 0.539926 0.000000
0.698309 0.539641 0.000000
0.730501 0.539374 0.000000
0.762684 0.539124 0.000000
0.794859 0.538889 0.000000
0.827026 0.538665 0.000000
0.859185 0.538454 0.000000
0.891336 0.538252 0.000000
0.923478 0.538060 0.000000
0.955613 0.537875 0.000000
0.987740 0.537698 0.000000
0.999365 0.537691 0.000000
1.000000 0.537824 0.000000
0.029525 0.575149 0.000000
0.061459 0.575007 0.000000
0.093378 0.574864 0.000000
0.125281 0.574721 0.000000
0.157168 0.574579 0.000000
0.189039 0.574436 0.000000
0.220895 0.574293 0.000000
0.252734 0.574151 0.000000
0.284558 0.574008 0.000000
0.316366 0.573866 0.000000
0.348158 0.573723 0.000000
0.379934 0.573580 0.000000
0.411695 0.573438 0.000000
0.443439 0.573295 0.000000
0.475168 0.573152 0.000000
0.506881 0.573010 0.000000
0.538577 0.572867 0.000000
0.570100 0.572568 0.000000
0.601207 0.571913 0.000000
0.633409 0.571572 0.000000
0.665603 0.571257 0.000000
0.697789 0.570964 0.000000
0.729966 0.570689 0.000000
0.762136 0.570431 0.000000
0.794297 0.570188 0.000000
0.826451 0.569958 0.000000
0.858596 0.569739 0.000000
0.890733 0.569531 0.000000
0.922862 0.569331 0.000000
0.954983 0.569141 0.000000
0.987096 0.568957 0.000000
0.999365 0.568941 0.000000
1.000000 0.569075 0.000000
0.030281 0.606265 0.000000
0.062172 0.606118 0.000000
0.094047 0.605972 0.000000
0.125908 0.605825 0.000000
0.157752 0.605678 0.000000
0.189582 0.605532 0.000000
0.221395 0.605385 0.000000
0.253194 0.605238 0.000000
0.284977 0.605091 0.000000
0.316744 0.604945 0.000000
0.348497 0.604798 0.000000
0.380233 0.604651 0.000000
0.411954 0.604505 0.000000
0.443660 0.604358 0.000000
0.475351 0.604211 0.000000
0.507026 0.604065 0.000000
0.538685 0.603918 0.000000
0.570329 0.603771 0.000000
0.601812 0.603481 0.000000
0.632915 0.602864 0.000000
0.665096 0.602541 0.000000
0.697268 0.602240 0.000000
0.729432 0.601958 0.000000
0.761588 0.601693 0.000000
0.793736 0.601443 0.000000
0.825876 0.601206 0.000000
0.858007 0.600981 0.000000
0.890131 0.600766 0.000000
0.922246 0.600561 0.000000
0.954354 0.600364 0.000000
0.986453 0.600175 0.000000
0.999365 0.600150 0.000000
1.000000 0.600283 0.000000
0.031041 0.637353 0.000000
0.062891 0.637203 0.000000
0.094726 0.637052 0.000000
0.126547 0.636901 0.000000
0.158352 0.636750 0.000000
0.190142 0.636600 0.000000
0.221917 0.636449 0.000000
0.253677 0.636298 0.000000
0.285422 0.636147 0.000000
0.317152 0.635997 0.000000
0.348867 0.635846 0.000000
0.380567 0.635695 0.000000
0.412252 0.635544 0.000000
0.443921 0.635394 0.000000
0.475576 0.635243 0.000000
0.507215 0.635092 0.000000
0.538840 0.634942 0.000000
0.570449 0.634791 0.000000
0.602043 0.634640 0.000000
0.633489 0.634358 0.000000
0.664589 0.633777 0.000000
0.696747 0.633469 0.000000
0.728898 0.633181 0.000000
0.761040 0.632910 0.000000
0.793174 0.632654 0.000000
0.825300 0.632411 0.000000
0.857419 0.632180 0.000000
0.889529 0.631960 0.000000
0.921630 0.631749 0.000000
0.953724 0.631547 0.000000
0.985810 0.631352 0.000000
0.999365 0.631317 0.000000
1.000000 0.631448 0.000000
0.031804 0.668414 0.000000
0.063616 0.668260 0.000000
0.095414 0.668105 0.000000
0.127197 0.667950 0.000000
0.158965 0.667795 0.000000
0.190719 0.667640 0.000000
0.222458 0.667486 0.000000
0.254182 0.667331 0.000000
0.285891 0.667176 0.000000
0.317585 0.667021 0.000000
0.349265 0.666867 0.000000
0.380930 0.666712 0.000000
0.412580 0.666557 0.000000
0.444216 0.666402 0.000000
0.475837 0.666247 0.000000
0.507443 0.666093 0.000000
0.539034 0.665938 0.000000
0.570611 0.665783 0.000000
0.602173 0.665628 0.000000
0.633720 0.665474 0.000000
0.665131 0.665199 0.000000
0.696227 0.664652 0.000000
0.728363 0.664358 0.000000
0.760492 0.664081 0.000000
0.792613 0.663820 0.000000
0.824725 0.663572 0.000000
0.856830 0.663336 0.000000
0.888926 0.663110 0.000000
0.921014 0.662894 0.000000
0.953094 0.662687 0.000000
0.985167 0.662488 0.000000
0.999365 0.662444 0.000000
1.000000 0.662572 0.000000
0.032570 0.699448 0.000000
0.064347 0.699289 0.000000
0.096109 0.699131 0.000000
0.127857 0.698972 0.000000
0.159590 0.698813 0.000000
0.191309 0.698654 0.000000
0.223013 0.698495 0.000000
0.254703 0.698336 0.000000
0.286379 0.698178 0.000000
0.318040 0.698019 0.000000
0.349687 0.697860 0.000000
0.381319 0.697701 0.000000
0.412937 0.697542 0.000000
0.444540 0.697384 0.000000
0.476129 0.697225 0.000000
0.507704 0.697066 0.000000
0.539264 0.696907 0.000000
0.570809 0.696748 0.000000
0.602341 0.696589 0.000000
0.633857 0.696431 0.000000
0.665360 0.696272 0.000000
0.696738 0.696005 0.000000
0.727829 0.695489 0.000000
0.759944 0.695208 0.000000
0.792051 0.694942 0.000000
0.824150 0.694689 0.000000
0.856241 0.694448 0.000000
0.888324 0.694218 0.000000
0.920398 0.693998 0.000000
0.952465 0.693786 0.000000
0.984523 0.693583 0.000000
0.999365 0.693528 0.000000
1.000000 0.693653 0.000000
0.033339 0.730455 0.000000
0.065082 0.730292 0.000000
0.096810 0.730129 0.000000
0.128525 0.729966 0.000000
0.160225 0.729803 0.000000
0.191911 0.729640 0.000000
0.223583 0.729478 0.000000
0.255241 0.729315 0.000000
0.286884 0.729152 0.000000
0.318514 0.728989 0.000000
0.350129 0.728826 0.000000
0.381730 0.728663 0.000000
0.413317 0.728500 0.000000
0.444890 0.728338 0.000000
0.476449 0.728175 0.000000
0.507993 0.728012 0.000000
0.539524 0.727849 0.000000
0.571040 0.727686 0.000000
0.602542 0.727523 0.000000
0.634030 0.727360 0.000000
0.665503 0.727197 0.000000
0.696963 0.727035 0.000000
0.728309 0.726774 0.000000
0.759396 0.726289 0.000000
0.791490 0.726019 0.000000
0.823575 0.725762 0.000000
0.855652 0.725518 0.000000
0.887721 0.725284 0.000000
0.919782 0.725060 0.000000
0.951835 0.724844 0.000000
0.983880 0.724636 0.000000
0.999365 0.724572 0.000000
1.000000 0.724693 0.000000
0.034110 0.761434 0.000000
0.065820 0.761267 0.000000
0.097517 0.761100 0.000000
0.129200 0.760934 0.000000
0.160869 0.760767 0.000000
0.192524 0.760600 0.000000
0.224165 0.760433 0.000000
0.255792 0.760266 0.000000
0.287405 0.760099 0.000000
0.319004 0.759932 0.000000
0.350590 0.759765 0.000000
0.382161 0.759598 0.000000
0.413719 0.759431 0.000000
0.445262 0.759264 0.000000
0.476792 0.759097 0.000000
0.508308 0.758930 0.000000
0.539810 0.758763 0.000000
0.571298 0.758597 0.000000
0.602772 0.758430 0.000000
0.634232 0.758263 0.000000
0.665678 0.758096 0.000000
0.697111 0.757929 0.000000
0.728529 0.757762 0.000000
0.759845 0.757507 0.000000
0.790928 0.757052 0.000000
0.823000 0.756792 0.000000
0.855063 0.756544 0.000000
0.887119 0.756307 0.000000
0.919166 0.756079 0.000000
0.951206 0.755860 0.000000
0.983237 0.755648 0.000000
0.999365 0.755575 0.000000
1.000000 0.755690 0.000000
0.034883 0.792386 0.000000
0.066563 0.792215 0.000000
0.098229 0.792045 0.000000
0.129881 0.791874 0.000000
0.161520 0.791703 0.000000
0.193145 0.791532 0.000000
0.224757 0.791361 0.000000
0.256355 0.791190 0.000000
0.287939 0.791019 0.000000
0.319509 0.790848 0.000000
0.351066 0.790677 0.000000
0.382609 0.790506 0.000000
0.414138 0.790335 0.000000
0.445654 0.790164 0.000000
0.477156 0.789993 0.000000
0.508645 0.789822 0.000000
0.540119 0.789651 0.000000
0.571580 0.789480 0.000000
0.603028 0.789309 0.000000
0.634461 0.789138 0.000000
0.665881 0.788967 0.000000
0.697287 0.788796 0.000000
0.728680 0.788625 0.000000
0.760059 0.788454 0.000000
0.791346 0.788205 0.000000
0.822425 0.787778 0.000000
0.854475 0.787527 0.000000
0.886516 0.787287 0.000000
0.918550 0.787056 0.000000
0.950576 0.786834 0.000000
0.982594 0.786620 0.000000
0.999365 0.786536 0.000000
1.000000 0.786646 0.000000
0.035657 0.823311 0.000000
0.067308 0.823136 0.000000
0.098945 0.822961 0.000000
0.130568 0.822786 0.000000
0.162178 0.822611 0.000000
0.193775 0.822436 0.000000
0.225358 0.822261 0.000000
0.256928 0.822086 0.000000
0.288484 0.821911 0.000000
0.320027 0.821736 0.000000
0.351556 0.821561 0.000000
0.383072 0.821386 0.000000
0.414574 0.821211 0.000000
0.446063 0.821036 0.000000
0.477539 0.820861 0.000000
0.509001 0.820686 0.000000
0.540449 0.820511 0.000000
0.571884 0.820336 0.000000
0.603306 0.820161 0.000000
0.634714 0.819986 0.000000
0.666109 0.819811 0.000000
0.697490 0.819636 0.000000
0.728858 0.819461 0.000000
0.760212 0.819286 0.000000
0.791553 0.819111 0.000000
0.822811 0.818867 0.000000
0.853886 0.818467 0.000000
