luts/original/summer-pop.cube
TITLE "Summer Pop"
LUT_3D_SIZE 5
DOMAIN_MIN 0.0 0.0 0.0
DOMAIN_MAX 1.0 1.0 1.0
0.024411 0.007481 0.007481
0.284927 0.000000 0.000000
0.544925 0.000000 0.000000
0.804405 0.000000 0.000000
1.000000 0.000000 0.000000
0.022499 0.262495 0.000000
0.282178 0.260067 0.000000
0.541305 0.256622 0.000000
0.799913 0.255194 0.000000
1.000000 0.254649 0.000000
0.028027 0.512836 0.000000
0.283821 0.511760 0.000000
0.537684 0.509892 0.000000
0.795420 0.507545 0.000000
1.000000 0.506531 0.000000
0.034110 0.761434 0.000000
0.287405 0.760099 0.000000
0.539810 0.758763 0.000000
0.790928 0.757052 0.000000
1.000000 0.755690 0.000000
0.040334 1.000000 0.000000
0.291954 1.000000 0.000000
0.542768 1.000000 0.000000
0.792779 1.000000 0.000000
1.000000 1.000000 0.000000
0.023598 0.000295 0.244511
0.284694 0.000000 0.239778
0.544618 0.000000 0.229852
0.804024 0.000000 0.221956
1.000000 0.000000 0.214980
0.015916 0.262262 0.238553
0.281945 0.251841 0.221737
0.540998 0.224083 0.191578
0.799532 0.190321 0.151213
1.000000 0.154019 0.107803
0.000000 0.512529 0.210609
0.258130 0.511453 0.192579
0.537377 0.504924 0.188392
0.795040 0.471150 0.147260
1.000000 0.437194 0.102439
0.000000 0.761053 0.193668
0.228016 0.759718 0.149677
0.512179 0.758383 0.148502
0.790547 0.751513 0.143307
1.000000 0.719842 0.097075
0.000000 1.000000 0.178540
0.188488 1.000000 0.096240
0.475068 1.000000 0.094645
0.761493 1.000000 0.093051
1.000000 1.000000 0.091711
0.028687 0.000000 0.492405
0.288555 0.000000 0.491329
0.544253 0.000000 0.487697
0.803571 0.000000 0.478187
1.000000 0.000000 0.470649
0.003630 0.246207 0.488785
0.260117 0.225683 0.487708
0.540632 0.218256 0.474115
0.799078 0.184314 0.432417
1.000000 0.147262 0.391653
0.000000 0.512164 0.481758
0.246257 0.511088 0.476120
0.537011 0.487541 0.438070
0.794586 0.440146 0.396861
1.000000 0.400987 0.351898
0.000000 0.760600 0.459087
0.216278 0.759264 0.427545
0.486158 0.757929 0.398103
0.790094 0.746874 0.392907
1.000000 0.701767 0.346534
0.000000 1.000000 0.440849
0.175698 1.000000 0.374663
0.442017 1.000000 0.344104
0.746185 1.000000 0.342509
1.000000 1.000000 0.341170
0.034831 0.000000 0.740123
0.292604 0.000000 0.738788
0.549436 0.000000 0.737453
0.803117 0.000000 0.734131
1.000000 0.000000 0.726034
0.000000 0.232996 0.735631
0.234196 0.194305 0.734296
0.522860 0.193130 0.732960
0.798625 0.183915 0.719594
1.000000 0.146720 0.681998
0.000000 0.499550 0.731139
0.223852 0.476828 0.729803
0.486542 0.439177 0.728468
0.794132 0.429962 0.704878
1.000000 0.391356 0.652927
0.000000 0.760146 0.724187
0.215879 0.758811 0.718665
0.464703 0.757476 0.709448
0.789640 0.716074 0.642508
1.000000 0.652893 0.595992
0.000000 1.000000 0.702859
0.175157 1.000000 0.666662
0.423562 1.000000 0.638256
0.705297 1.000000 0.591968
1.000000 1.000000 0.590628
0.041153 0.000000 0.987666
0.297876 0.000000 0.986071
0.553768 0.000000 0.984477
0.808830 0.000000 0.982882
1.000000 0.000000 0.981136
0.000000 0.224221 0.982302
0.199652 0.153022 0.980707
0.489609 0.151619 0.979113
0.779432 0.150216 0.977518
1.000000 0.146179 0.972283
0.000000 0.488469 0.976938
0.188302 0.434986 0.975343
0.447060 0.396899 0.973749
0.759041 0.395496 0.972154
1.000000 0.390815 0.963655
0.000000 0.749801 0.971574
0.183582 0.723496 0.969979
0.432178 0.700281 0.968385
0.702873 0.640775 0.966790
1.000000 0.635451 0.948497
0.000000 1.000000 0.964572
0.174615 1.000000 0.958595
0.423021 1.000000 0.953310
0.671426 1.000000 0.939233
1.000000 1.000000 0.840087
