luts/original/sun-kissed.cube
TITLE "Sun Kissed"
LUT_3D_SIZE 5
DOMAIN_MIN 0.0 0.0 0.0
DOMAIN_MAX 1.0 1.0 1.0
0.027911 0.005236 0.005236
0.290324 0.000000 0.000000
0.552393 0.000000 0.000000
0.814116 0.000000 0.000000
1.000000 0.000000 0.000000
0.032816 0.258287 0.000102
0.288492 0.256243 0.000000
0.549979 0.254232 0.000000
0.811121 0.253355 0.000000
1.000000 0.253080 0.000000
0.041520 0.508500 0.000000
0.295325 0.507783 0.000000
0.547565 0.506308 0.000000
0.808126 0.504862 0.000000
1.000000 0.504335 0.000000
0.050854 0.757552 0.000000
0.303003 0.756661 0.000000
0.554559 0.755771 0.000000
0.805131 0.754519 0.000000
1.000000 0.753784 0.000000
0.060328 1.000000 0.000000
0.311363 1.000000 0.000000
0.561863 1.000000 0.000000
0.811828 1.000000 0.000000
1.000000 1.000000 0.000000
0.036321 0.003537 0.229229
0.290184 0.000000 0.225032
0.552208 0.000000 0.213472
0.813886 0.000000 0.202949
1.000000 0.000000 0.192986
0.030720 0.258146 0.224814
0.288351 0.252607 0.216863
0.549794 0.239824 0.195556
0.810891 0.223301 0.169050
1.000000 0.206408 0.141898
0.028066 0.508315 0.203196
0.285407 0.507597 0.196392
0.547380 0.503135 0.193287
0.807896 0.487065 0.166235
1.000000 0.471523 0.138322
0.019445 0.757322 0.176128
0.276767 0.756432 0.168108
0.542892 0.755541 0.167271
0.804901 0.750685 0.163420
1.000000 0.736472 0.134746
0.005167 1.000000 0.143510
0.263038 1.000000 0.134104
0.530551 1.000000 0.133041
0.798016 1.000000 0.131978
1.000000 1.000000 0.131170
0.042259 0.000000 0.472399
0.299082 0.000000 0.471681
0.551964 0.000000 0.468507
0.813583 0.000000 0.456993
1.000000 0.000000 0.446752
0.032536 0.251261 0.469985
0.287674 0.241362 0.469268
0.549550 0.235827 0.459561
0.810589 0.219016 0.432786
1.000000 0.201537 0.406974
0.027837 0.508071 0.464744
0.277163 0.507354 0.460320
0.547136 0.495097 0.443058
0.807594 0.472872 0.415951
1.000000 0.454482 0.387961
0.019161 0.757020 0.439648
0.268324 0.756129 0.429068
0.532198 0.755239 0.416987
0.804599 0.747706 0.413135
1.000000 0.727861 0.384385
0.004806 1.000000 0.409185
0.253743 1.000000 0.395109
0.515598 1.000000 0.382680
0.791374 1.000000 0.381617
1.000000 1.000000 0.380809
0.051615 0.000000 0.715452
0.306904 0.000000 0.714562
0.561548 0.000000 0.713671
0.813281 0.000000 0.710851
1.000000 0.000000 0.700331
0.027522 0.237959 0.712457
0.281510 0.226435 0.711567
0.550739 0.225598 0.710676
0.810286 0.218732 0.700935
1.000000 0.201176 0.676908
0.024707 0.499080 0.709462
0.273870 0.491221 0.708572
0.534133 0.472783 0.707682
0.807291 0.465916 0.690872
1.000000 0.447600 0.660752
0.018877 0.756717 0.703155
0.268040 0.755827 0.700390
0.517203 0.754937 0.692692
0.804296 0.733574 0.662851
1.000000 0.705789 0.634024
0.004445 1.000000 0.674848
0.253382 1.000000 0.666588
0.502319 1.000000 0.650140
0.774576 1.000000 0.631256
1.000000 1.000000 0.630448
0.061174 0.000000 0.958387
0.315713 0.000000 0.957325
0.569688 0.000000 0.956262
0.823097 0.000000 0.955199
1.000000 0.000000 0.953725
0.017523 0.219892 0.954812
0.271500 0.206524 0.953749
0.541205 0.205524 0.952686
0.810865 0.204525 0.951623
1.000000 0.200815 0.946822
0.014161 0.482698 0.951236
0.263162 0.470356 0.950173
0.519928 0.452163 0.949109
0.801240 0.451164 0.948047
1.000000 0.447239 0.940814
0.010800 0.745383 0.947659
0.259801 0.739468 0.946597
0.508802 0.727167 0.945534
0.775698 0.697802 0.944471
1.000000 0.693663 0.929941
0.004084 1.000000 0.940499
0.253021 1.000000 0.938044
0.501958 1.000000 0.934007
0.750895 1.000000 0.922141
1.000000 1.000000 0.880087
