luts/original/sun-kissed.cube
TITLE "Sun Kissed"
LUT_3D_SIZE 9
DOMAIN_MIN 0.0 0.0 0.0
DOMAIN_MAX 1.0 1.0 1.0
0.027911 0.005236 0.005236
0.159161 0.003002 0.003002
0.290324 0.000000 0.000000
0.421402 0.000000 0.000000
0.552393 0.000000 0.000000
0.683297 0.000000 0.000000
0.814116 0.000000 0.000000
0.944847 0.000000 0.000000
1.000000 0.000000 0.000000
0.031695 0.132744 0.004045
0.158390 0.130816 0.002277
0.289408 0.128491 0.000000
0.420340 0.127792 0.000000
0.551186 0.127385 0.000000
0.681945 0.127111 0.000000
0.812618 0.126909 0.000000
0.943205 0.126749 0.000000
1.000000 0.126770 0.000000
0.032816 0.258287 0.000102
0.161680 0.258014 0.000000
0.288492 0.256243 0.000000
0.419279 0.254973 0.000000
0.549979 0.254232 0.000000
0.680593 0.253729 0.000000
0.811121 0.253355 0.000000
0.941562 0.253058 0.000000
1.000000 0.253080 0.000000
0.036991 0.383539 0.000000
0.164682 0.383223 0.000000
0.292162 0.382907 0.000000
0.418217 0.381545 0.000000
0.548772 0.380539 0.000000
0.679241 0.379854 0.000000
0.809623 0.379339 0.000000
0.939919 0.378928 0.000000
1.000000 0.378935 0.000000
0.041520 0.508500 0.000000
0.168512 0.508141 0.000000
0.295325 0.507783 0.000000
0.421959 0.507424 0.000000
0.547565 0.506308 0.000000
0.677889 0.505484 0.000000
0.808126 0.504862 0.000000
0.938276 0.504359 0.000000
1.000000 0.504335 0.000000
0.046159 0.633171 0.000000
0.172675 0.632769 0.000000
0.299029 0.632367 0.000000
0.425223 0.631965 0.000000
0.551256 0.631563 0.000000
0.676536 0.630622 0.000000
0.806628 0.629922 0.000000
0.936634 0.629351 0.000000
1.000000 0.629284 0.000000
0.050854 0.757552 0.000000
0.177003 0.757106 0.000000
0.303003 0.756661 0.000000
0.428855 0.756216 0.000000
0.554559 0.755771 0.000000
0.680114 0.755326 0.000000
0.805131 0.754519 0.000000
0.934991 0.753903 0.000000
1.000000 0.753784 0.000000
0.055580 0.881642 0.000000
0.181426 0.881153 0.000000
0.307132 0.880665 0.000000
0.432698 0.880177 0.000000
0.558125 0.879688 0.000000
0.683413 0.879200 0.000000
0.808561 0.878712 0.000000
0.933348 0.878016 0.000000
1.000000 0.877837 0.000000
0.060328 1.000000 0.000000
0.185913 1.000000 0.000000
0.311363 1.000000 0.000000
0.436680 1.000000 0.000000
0.561863 1.000000 0.000000
0.686912 1.000000 0.000000
0.811828 1.000000 0.000000
0.936611 1.000000 0.000000
1.000000 1.000000 0.000000
0.034181 0.006284 0.107600
0.159120 0.002964 0.103944
0.290276 0.000000 0.096247
0.421346 0.000000 0.090977
0.552329 0.000000 0.085873
0.683226 0.000000 0.080844
0.814037 0.000000 0.075856
0.944761 0.000000 0.070892
1.000000 0.000000 0.066034
0.029882 0.132703 0.103416
0.158349 0.129857 0.101364
0.289360 0.126022 0.092811
0.420284 0.121190 0.082958
0.551122 0.115131 0.071805
0.681874 0.107802 0.059352
0.812540 0.099187 0.045600
0.943118 0.089280 0.030547
1.000000 0.082774 0.018866
0.030807 0.258238 0.094522
0.160847 0.257966 0.094051
0.288444 0.255246 0.091950
0.419223 0.250591 0.081960
0.549916 0.244858 0.070671
0.680522 0.237912 0.058081
0.811042 0.229710 0.044192
0.941476 0.220233 0.029003
1.000000 0.214105 0.017078
0.030240 0.383483 0.084210
0.160304 0.383167 0.083693
0.290577 0.382852 0.083396
0.418161 0.379950 0.080962
0.548709 0.374548 0.069536
0.679170 0.367990 0.056810
0.809545 0.360203 0.042784
0.939833 0.351157 0.027459
1.000000 0.345405 0.015290
0.028181 0.508437 0.072416
0.158563 0.508078 0.071843
0.289172 0.507719 0.071506
0.419769 0.507361 0.071169
0.547502 0.504202 0.068402
0.677818 0.498035 0.055539
0.808047 0.490666 0.041377
0.938190 0.482052 0.025914
1.000000 0.476673 0.013502
0.024630 0.633100 0.059135
0.155428 0.632698 0.058502
0.286473 0.632296 0.058124
0.417507 0.631894 0.057746
0.548531 0.631492 0.057369
0.676465 0.628047 0.054268
0.806550 0.621099 0.039969
0.936548 0.612920 0.024370
1.000000 0.607910 0.011714
0.019587 0.757473 0.044363
0.150845 0.757028 0.043669
0.282371 0.756583 0.043250
0.413888 0.756138 0.042832
0.545394 0.755692 0.042413
0.676891 0.755247 0.041995
0.805052 0.751501 0.038562
0.934905 0.743759 0.022826
1.000000 0.739116 0.009926
0.013053 0.881555 0.028101
0.144793 0.881067 0.027344
0.276825 0.880579 0.026885
0.408848 0.880090 0.026426
0.540862 0.879602 0.025967
0.672867 0.879114 0.025508
0.804862 0.878625 0.025049
0.933262 0.874569 0.021282
1.000000 0.870292 0.008138
0.005347 1.000000 0.010668
0.137556 1.000000 0.009816
0.270078 1.000000 0.009284
0.402591 1.000000 0.008753
0.535096 1.000000 0.008221
0.667590 1.000000 0.007690
0.800076 1.000000 0.007158
0.932553 1.000000 0.006627
1.000000 1.000000 0.006350
0.036321 0.003537 0.229229
0.165287 0.003281 0.228956
0.290184 0.000000 0.225032
0.421239 0.000000 0.219011
0.552208 0.000000 0.213472
0.683090 0.000000 0.208152
0.813886 0.000000 0.202949
0.944595 0.000000 0.197815
1.000000 0.000000 0.192986
0.033426 0.130869 0.228312
0.164050 0.127420 0.228040
0.289268 0.123474 0.221253
0.420177 0.118482 0.211227
0.551001 0.112191 0.200174
0.681738 0.104599 0.187911
0.812388 0.095708 0.174389
0.942953 0.085516 0.159589
1.000000 0.078686 0.148214
0.030720 0.258146 0.224814
0.155464 0.257874 0.219591
0.288351 0.252607 0.216863
0.419116 0.246404 0.206859
0.549794 0.239824 0.195556
0.680385 0.232168 0.182953
0.810891 0.223301 0.169050
0.941310 0.213177 0.153847
1.000000 0.206408 0.141898
0.030139 0.383376 0.214610
0.154842 0.383060 0.208956
0.288512 0.382745 0.208296
0.418054 0.378525 0.205861
0.526723 0.373077 0.219432
0.654718 0.368877 0.212425
0.809393 0.355201 0.167642
0.939667 0.345369 0.152303
1.000000 0.338987 0.140110
0.028066 0.508315 0.203196
0.152729 0.507956 0.197058
0.285407 0.507597 0.196392
0.418402 0.507239 0.196054
0.547380 0.503135 0.193287
0.653975 0.497539 0.211726
0.807896 0.487065 0.166235
0.938024 0.477528 0.150759
1.000000 0.471523 0.138322
0.024502 0.632964 0.190387
0.149124 0.632562 0.183701
0.281688 0.632160 0.182996
0.414569 0.631758 0.182618
0.547436 0.631356 0.182240
0.676329 0.627143 0.179140
0.806399 0.618893 0.164827
0.936382 0.609654 0.149214
1.000000 0.604018 0.136534
0.019445 0.757322 0.176128
0.144027 0.756877 0.168864
0.276767 0.756432 0.168108
0.409835 0.755986 0.167690
0.542892 0.755541 0.167271
0.675936 0.755096 0.166853
0.804901 0.750685 0.163420
0.934739 0.741746 0.147670
1.000000 0.736472 0.134746
0.012897 0.881389 0.160402
0.137438 0.880901 0.152540
0.270485 0.880413 0.151729
0.403877 0.879925 0.151270
0.537258 0.879436 0.150811
0.670628 0.878948 0.150352
0.803988 0.878460 0.149893
0.933096 0.873806 0.146126
1.000000 0.868884 0.132958
0.005167 1.000000 0.143510
0.129635 1.000000 0.135005
0.263038 1.000000 0.134104
0.396801 1.000000 0.133572
0.530551 1.000000 0.133041
0.664290 1.000000 0.132509
0.798016 1.000000 0.131978
0.931730 1.000000 0.131446
1.000000 1.000000 0.131170
0.037807 0.000000 0.350828
0.167166 0.000000 0.350513
0.296275 0.000000 0.350197
0.421132 0.000000 0.346983
0.552086 0.000000 0.341017
0.682953 0.000000 0.335409
0.813735 0.000000 0.329994
0.944430 0.000000 0.324694
1.000000 0.000000 0.319892
0.034171 0.126566 0.349767
0.162609 0.123250 0.349451
0.295075 0.122953 0.349136
0.420070 0.118382 0.342602
0.550879 0.112076 0.331754
0.681601 0.104471 0.319870
0.812237 0.095565 0.306805
0.942787 0.085360 0.292503
1.000000 0.078505 0.281738
0.033174 0.256327 0.348705
0.157877 0.253133 0.348390
0.293421 0.246955 0.348074
0.419008 0.242384 0.337380
0.549672 0.235942 0.325312
0.680249 0.228200 0.312558
0.810740 0.219158 0.298705
0.941144 0.208816 0.283645
1.000000 0.201717 0.272000
0.030038 0.383269 0.345004
0.154741 0.382953 0.342959
0.279445 0.382637 0.334258
0.417947 0.374354 0.330761
0.548465 0.365478 0.319307
0.678897 0.357052 0.306554
0.809242 0.347749 0.292500
0.939501 0.337314 0.277147
1.000000 0.330262 0.264929
0.027952 0.508193 0.333972
0.152614 0.507834 0.330165
0.277277 0.507476 0.321822
0.415352 0.507117 0.320940
0.547258 0.501105 0.318173
0.653900 0.495277 0.336655
0.781760 0.489947 0.328851
0.909572 0.484185 0.320331
1.000000 0.464540 0.263141
0.024373 0.632827 0.321635
0.148995 0.632425 0.316756
0.273618 0.632023 0.308324
0.409371 0.631621 0.307490
0.545570 0.631219 0.307112
0.676192 0.625721 0.304012
0.780936 0.619858 0.328077
0.908669 0.614075 0.319482
1.000000 0.598761 0.261353
0.019303 0.757171 0.307890
0.143885 0.756726 0.302149
0.268466 0.756280 0.293399
0.403541 0.755835 0.292548
0.539038 0.755390 0.292129
0.674519 0.754945 0.291711
0.804750 0.749534 0.288277
0.907765 0.743944 0.318633
1.000000 0.732923 0.259565
0.012741 0.881224 0.292699
0.137282 0.880735 0.286184
0.261823 0.880247 0.277002
0.396761 0.879759 0.276114
0.532119 0.879270 0.275655
0.667465 0.878782 0.275196
0.802797 0.878294 0.274737
0.932930 0.872801 0.270970
1.000000 0.867028 0.257777
0.004986 1.000000 0.276349
0.129455 1.000000 0.269078
0.253923 1.000000 0.259360
0.388955 1.000000 0.258392
0.524410 1.000000 0.257860
0.659848 1.000000 0.257329
0.795269 1.000000 0.256797
0.930673 1.000000 0.256266
1.000000 1.000000 0.255989
0.042259 0.000000 0.472399
0.170773 0.000000 0.472040
0.299082 0.000000 0.471681
0.427188 0.000000 0.471323
0.551964 0.000000 0.468507
0.682817 0.000000 0.462617
0.813583 0.000000 0.456993
0.944264 0.000000 0.451528
1.000000 0.000000 0.446752
0.033671 0.121339 0.471192
0.161857 0.117833 0.470833
0.293848 0.117496 0.470475
0.425823 0.117159 0.470116
0.550757 0.111962 0.463331
0.681465 0.104342 0.451825
0.812086 0.095423 0.439217
0.942621 0.085204 0.425415
1.000000 0.078325 0.415259
0.032536 0.251261 0.469985
0.157199 0.246396 0.469626
0.287674 0.241362 0.469268
0.424425 0.241024 0.468909
0.549550 0.235827 0.459561
0.680112 0.228071 0.446528
0.810589 0.219016 0.432786
0.940978 0.208660 0.418012
1.000000 0.201537 0.406974
0.031402 0.381135 0.468778
0.156064 0.379241 0.468419
0.280727 0.374394 0.468061
0.422293 0.364890 0.467702
0.548343 0.359693 0.452327
0.678760 0.351800 0.438048
0.809091 0.342608 0.423519
0.939335 0.332116 0.408038
1.000000 0.324749 0.396088
0.027837 0.508071 0.464744
0.152500 0.507713 0.463267
0.277163 0.507354 0.460320
0.401825 0.506995 0.447415
0.547136 0.495097 0.443058
0.677408 0.483245 0.430154
0.807594 0.472872 0.415951
0.937693 0.461874 0.400447
1.000000 0.454482 0.387961
0.024245 0.632691 0.452879
0.148867 0.632289 0.449806
0.273489 0.631887 0.444614
0.398111 0.631485 0.433118
0.541366 0.631083 0.431984
0.676056 0.622986 0.428883
0.780853 0.616926 0.452999
0.908578 0.610383 0.444396
1.000000 0.591215 0.386173
0.019161 0.757020 0.439648
0.143742 0.756574 0.435430
0.268324 0.756129 0.429068
0.392906 0.755684 0.418009
0.532198 0.755239 0.416987
0.672081 0.754794 0.416569
0.804599 0.747706 0.413135
0.907674 0.741708 0.443547
1.000000 0.727861 0.384385
0.012585 0.881058 0.424994
0.137126 0.880569 0.419825
0.261667 0.880081 0.412585
0.386208 0.879593 0.401509
0.524123 0.879105 0.400499
0.662579 0.878616 0.400040
0.801017 0.878128 0.399581
0.932765 0.871373 0.395814
1.000000 0.864421 0.382597
0.004806 1.000000 0.409185
0.129274 1.000000 0.403146
0.253743 1.000000 0.395109
0.378211 1.000000 0.383745
0.515598 1.000000 0.382680
0.653499 1.000000 0.382148
0.791374 1.000000 0.381617
0.929224 1.000000 0.381085
1.000000 1.000000 0.380809
0.046895 0.000000 0.593940
0.174931 0.000000 0.593538
0.302788 0.000000 0.593136
0.430468 0.000000 0.592734
0.557970 0.000000 0.592332
0.682680 0.000000 0.589775
0.813432 0.000000 0.583945
0.944098 0.000000 0.578318
1.000000 0.000000 0.573565
0.031923 0.114948 0.592588
0.160144 0.111170 0.592186
0.292253 0.110793 0.591784
0.424349 0.110415 0.591382
0.556431 0.110037 0.590980
0.681328 0.104214 0.583777
0.811935 0.095281 0.571626
0.942455 0.085048 0.558323
1.000000 0.078144 0.548776
0.030652 0.245185 0.591236
0.155274 0.239400 0.590834
0.284903 0.234522 0.590432
0.419942 0.234144 0.590030
0.554961 0.233766 0.589628
0.679976 0.227943 0.580493
0.810437 0.218874 0.566863
0.940812 0.208504 0.552376
1.000000 0.201356 0.541944
0.029381 0.375381 0.589884
0.154003 0.371742 0.589482
0.278625 0.364930 0.589080
0.411515 0.357873 0.588678
0.553337 0.357495 0.588276
0.678624 0.351672 0.575651
0.808940 0.342466 0.560222
0.939170 0.331960 0.544507
1.000000 0.324568 0.533092
0.028110 0.505538 0.588531
0.152732 0.504032 0.588129
0.277354 0.501444 0.587727
0.401977 0.494651 0.587326
0.550668 0.481224 0.586924
0.677272 0.475401 0.566092
0.807442 0.466058 0.549433
0.937527 0.455416 0.533059
1.000000 0.447780 0.520703
0.024117 0.632554 0.584119
0.148739 0.632152 0.582852
0.273361 0.631750 0.580896
0.397983 0.631348 0.576898
0.522605 0.630946 0.559064
0.675919 0.614837 0.553755
0.805945 0.599702 0.539401
0.935884 0.587286 0.523747
1.000000 0.579384 0.510992
0.019019 0.756868 0.571403
0.143600 0.756423 0.568707
0.268182 0.755978 0.564731
0.392763 0.755533 0.557954
0.517345 0.755088 0.542845
0.666553 0.754643 0.541427
0.804448 0.744168 0.537993
0.907583 0.738022 0.568461
1.000000 0.719970 0.509204
0.012429 0.880892 0.557286
0.136970 0.880404 0.553462
0.261511 0.879915 0.548164
0.386052 0.879427 0.540132
0.510593 0.878939 0.526112
0.653885 0.878450 0.524884
0.797936 0.877962 0.524425
0.932599 0.869092 0.520658
1.000000 0.860414 0.507416
0.004625 1.000000 0.542018
0.129094 1.000000 0.537210
0.253562 1.000000 0.530851
0.378031 1.000000 0.521910
0.502499 1.000000 0.508185
0.643594 1.000000 0.506968
0.785341 1.000000 0.506436
0.927045 1.000000 0.505904
1.000000 1.000000 0.505628
0.051615 0.000000 0.715452
0.179341 0.000000 0.715007
0.306904 0.000000 0.714562
0.434307 0.000000 0.714117
0.561548 0.000000 0.713671
0.688629 0.000000 0.713226
0.813281 0.000000 0.710851
0.943932 0.000000 0.705064
1.000000 0.000000 0.700331
0.028930 0.107345 0.713954
0.157281 0.103261 0.713509
0.289707 0.102843 0.713064
0.422122 0.102424 0.712619
0.554525 0.102006 0.712174
0.686916 0.101588 0.711729
0.811784 0.095139 0.704032
0.942289 0.084893 0.691229
1.000000 0.077964 0.682289
0.027522 0.237959 0.712457
0.152104 0.231411 0.712012
0.281510 0.226435 0.711567
0.416132 0.226017 0.711122
0.550739 0.225598 0.710676
0.685330 0.225180 0.710231
0.810286 0.218732 0.700935
0.940647 0.208348 0.686736
1.000000 0.201176 0.676908
0.026114 0.368537 0.710960
0.150696 0.363734 0.710514
0.275278 0.356064 0.710069
0.406576 0.349609 0.709624
0.545136 0.349191 0.709179
0.683675 0.348772 0.708734
0.808789 0.342324 0.696919
0.939004 0.331804 0.680971
1.000000 0.324388 0.670089
0.024707 0.499080 0.709462
0.149288 0.496013 0.709017
0.273870 0.491221 0.708572
0.398452 0.482168 0.708127
0.534133 0.472783 0.707682
0.681812 0.472365 0.707236
0.807291 0.465916 0.690872
0.937361 0.455260 0.672837
1.000000 0.447600 0.660752
0.023299 0.629586 0.707965
0.147881 0.628247 0.707520
0.272462 0.626318 0.707074
0.397044 0.622936 0.706629
0.521626 0.613905 0.706184
0.678544 0.595957 0.705739
0.805794 0.589509 0.678676
0.935718 0.578716 0.659468
1.000000 0.570812 0.646375
0.018877 0.756717 0.703155
0.143458 0.756272 0.701980
0.268040 0.755827 0.700390
0.392621 0.755382 0.697892
0.517203 0.754937 0.692692
0.641785 0.754492 0.669204
0.804296 0.733574 0.662851
0.934076 0.714852 0.647047
1.000000 0.705789 0.634024
0.012273 0.880726 0.689574
0.136814 0.880238 0.687096
0.261355 0.879749 0.683738
0.385896 0.879261 0.678748
0.510437 0.878773 0.670187
0.634978 0.878285 0.651003
0.790915 0.877796 0.649269
0.932433 0.864652 0.645503
1.000000 0.853302 0.632236
0.004445 1.000000 0.674848
0.128913 1.000000 0.671270
0.253382 1.000000 0.666588
0.377850 1.000000 0.660067
0.502319 1.000000 0.650140
0.626787 1.000000 0.632745
0.774576 1.000000 0.631256
0.923254 1.000000 0.630724
1.000000 1.000000 0.630448
0.056381 0.000000 0.836934
0.183887 0.000000 0.836446
0.311242 0.000000 0.835958
0.438448 0.000000 0.835469
0.565505 0.000000 0.834981
0.692411 0.000000 0.834493
0.819168 0.000000 0.834004
0.943766 0.000000 0.831765
1.000000 0.000000 0.827051
0.024690 0.098512 0.835292
0.153215 0.094106 0.834803
0.286050 0.093647 0.834315
0.418873 0.093188 0.833827
0.551686 0.092729 0.833338
0.684489 0.092270 0.832850
0.817281 0.091811 0.832362
0.942123 0.084737 0.824131
1.000000 0.077783 0.815799
0.023146 0.229535 0.833649
0.147687 0.222279 0.833161
0.277080 0.217103 0.832672
0.411721 0.216644 0.832184
0.546349 0.216185 0.831696
0.680964 0.215726 0.831207
0.815566 0.215267 0.830719
0.940481 0.208192 0.821093
1.000000 0.200995 0.811868
0.021601 0.360524 0.832006
0.146142 0.354777 0.831518
0.270683 0.346427 0.831030
0.401438 0.340099 0.830541
0.538912 0.339640 0.830053
0.676369 0.339181 0.829565
0.813810 0.338722 0.829076
0.938838 0.331648 0.817431
1.000000 0.324207 0.807079
0.020057 0.491482 0.830363
0.144598 0.487237 0.829875
0.269139 0.481132 0.829387
0.393680 0.471333 0.828899
0.526876 0.463096 0.828410
0.669431 0.462637 0.827922
0.811963 0.462178 0.827434
0.937195 0.455104 0.812610
1.000000 0.447419 0.800788
0.018513 0.622406 0.828721
0.143054 0.619657 0.828232
0.267595 0.615788 0.827744
0.392136 0.609696 0.827256
0.516677 0.598109 0.826768
0.655527 0.586093 0.826279
0.809849 0.585634 0.825791
0.935553 0.578560 0.805225
1.000000 0.570631 0.791495
0.016969 0.753298 0.827078
0.141510 0.752038 0.826590
0.266051 0.750396 0.826101
0.390592 0.747994 0.825613
0.515133 0.743717 0.825125
0.639674 0.732155 0.824636
0.805923 0.709090 0.824148
0.933910 0.702016 0.790080
1.000000 0.693843 0.774687
0.012117 0.880560 0.821860
0.136658 0.880072 0.820726
0.261199 0.879584 0.819307
0.385740 0.879095 0.817359
0.510281 0.878607 0.814253
0.634822 0.878119 0.807703
0.759363 0.877630 0.777836
0.932267 0.851307 0.770347
1.000000 0.836733 0.757055
0.004264 1.000000 0.807675
0.128733 1.000000 0.805326
0.253201 1.000000 0.802319
0.377670 1.000000 0.798215
0.502138 1.000000 0.792081
0.626607 1.000000 0.781495
0.751075 1.000000 0.757663
0.914577 1.000000 0.755544
1.000000 1.000000 0.755267
0.061174 0.000000 0.958387
0.188514 0.000000 0.957856
0.315713 0.000000 0.957325
0.442771 0.000000 0.956793
0.569688 0.000000 0.956262
0.696463 0.000000 0.955730
0.823097 0.000000 0.955199
0.949589 0.000000 0.954667
1.000000 0.000000 0.953725
0.019204 0.088443 0.956600
0.147927 0.083704 0.956068
0.281218 0.083204 0.955537
0.414500 0.082705 0.955005
0.547772 0.082205 0.954473
0.681034 0.081705 0.953942
0.814286 0.081206 0.953411
0.947528 0.080706 0.952879
1.000000 0.077603 0.949305
0.017523 0.219892 0.954812
0.142023 0.211953 0.954280
0.271500 0.206524 0.953749
0.406358 0.206024 0.953217
0.541205 0.205524 0.952686
0.676041 0.205025 0.952154
0.810865 0.204525 0.951623
0.945678 0.204026 0.951091
1.000000 0.200815 0.946822
0.015842 0.351310 0.953023
0.140343 0.344725 0.952492
0.264843 0.335736 0.951961
0.395405 0.329343 0.951429
0.532525 0.328844 0.950898
0.669630 0.328344 0.950366
0.806722 0.327844 0.949835
0.943799 0.327345 0.949303
1.000000 0.324027 0.944061
0.014161 0.482698 0.951236
0.138662 0.477461 0.950704
0.263162 0.470356 0.950173
0.387663 0.459996 0.949641
0.519928 0.452163 0.949109
0.660593 0.451663 0.948578
0.801240 0.451164 0.948047
0.941869 0.450664 0.947515
1.000000 0.447239 0.940814
0.012481 0.614056 0.949448
0.136981 0.610162 0.948916
0.261481 0.604933 0.948385
0.385982 0.597379 0.947853
0.510482 0.585205 0.947322
0.645803 0.574983 0.946790
0.792827 0.574483 0.946259
0.939826 0.573983 0.945727
1.000000 0.570451 0.936594
0.010800 0.745383 0.947659
0.135300 0.742827 0.947128
0.259801 0.739468 0.946597
0.384301 0.734708 0.946065
0.508802 0.727167 0.945534
0.633302 0.712755 0.945002
0.775698 0.697802 0.944471
0.937449 0.697303 0.943939
1.000000 0.693663 0.929941
0.009119 0.876680 0.945872
0.133620 0.875457 0.945340
0.258120 0.873960 0.944809
0.382620 0.871985 0.944277
0.507121 0.869060 0.943745
0.631621 0.863788 0.943214
0.756122 0.849402 0.942683
0.932803 0.820622 0.942151
1.000000 0.816875 0.913550
0.004084 1.000000 0.940499
0.128552 1.000000 0.939378
0.253021 1.000000 0.938044
0.377489 1.000000 0.936355
0.501958 1.000000 0.934007
0.626426 1.000000 0.930218
0.750895 1.000000 0.922141
0.875363 1.000000 0.885004
1.000000 1.000000 0.880087
