luts/original/teal-sunset.cube
TITLE "Teal Sunset"
LUT_3D_SIZE 33
DOMAIN_MIN 0.0 0.0 0.0
DOMAIN_MAX 1.0 1.0 1.0
0.000000 0.000000 0.021000
0.019850 0.000000 0.021899
0.039737 0.000000 0.022763
0.070159 0.000000 0.023591
0.100615 0.000000 0.024385
0.131106 0.000000 0.025144
0.161633 0.000000 0.025867
0.192194 0.000000 0.026556
0.222791 0.000000 0.027209
0.253423 0.000000 0.027827
0.284090 0.000000 0.028410
0.314792 0.000000 0.028958
0.345529 0.000000 0.029471
0.376301 0.000000 0.029949
0.407108 0.000000 0.030392
0.437950 0.000000 0.030800
0.468828 0.000000 0.031172
0.499740 0.000000 0.031510
0.530688 0.000000 0.031812
0.561671 0.000000 0.032079
0.592688 0.000000 0.032312
0.623741 0.000000 0.032509
0.654829 0.000000 0.032671
0.685952 0.000000 0.032798
0.717110 0.000000 0.032890
0.748303 0.000000 0.032947
0.779532 0.000000 0.032968
0.810795 0.000000 0.032955
0.842093 0.000000 0.032907
0.873427 0.000000 0.032823
0.904796 0.000000 0.032704
0.936199 0.000000 0.032551
0.967638 0.000000 0.032362
0.000000 0.030980 0.021143
0.019678 0.030904 0.020823
0.039575 0.030601 0.021628
0.070471 0.029906 0.022398
0.101868 0.029404 0.022316
0.132418 0.028447 0.021864
0.163004 0.027411 0.021418
0.193624 0.026298 0.020892
0.224280 0.025106 0.020266
0.254971 0.023836 0.019532
0.285697 0.022487 0.018688
0.316458 0.021060 0.017731
0.347254 0.019555 0.016661
0.378085 0.017972 0.015477
0.408951 0.016311 0.014178
0.439853 0.014571 0.012765
0.470789 0.012753 0.011236
0.501761 0.010856 0.009593
0.532767 0.008887 0.007840
0.563809 0.008252 0.007359
0.594886 0.007617 0.006847
0.625997 0.006982 0.006304
0.657144 0.006348 0.005729
0.688326 0.005713 0.005121
0.719543 0.005078 0.004481
0.750796 0.004443 0.003807
0.782083 0.003809 0.003100
0.813405 0.003174 0.002360
0.844763 0.002539 0.001585
0.876155 0.001904 0.000777
0.907583 0.001335 0.000000
0.939046 0.001576 0.000000
0.970544 0.001850 0.000000
0.000000 0.062500 0.020996
0.019043 0.062500 0.020612
0.040542 0.062500 0.020213
0.071005 0.062500 0.020378
0.103121 0.061539 0.019958
0.133730 0.060262 0.019637
0.164375 0.059170 0.019204
0.195055 0.058052 0.018657
0.225769 0.056877 0.017997
0.256519 0.055634 0.017224
0.287304 0.054319 0.016337
0.318124 0.052931 0.015336
0.348979 0.051469 0.014223
0.379869 0.049932 0.012996
0.410794 0.048319 0.011656
0.441755 0.046631 0.010202
0.472750 0.044868 0.008635
0.503781 0.043028 0.006954
0.534846 0.041113 0.005161
0.565947 0.039122 0.003253
0.597083 0.037054 0.001233
0.628254 0.035771 0.000000
0.659460 0.035701 0.000000
0.690701 0.035666 0.000000
0.721977 0.035668 0.000000
0.753288 0.035706 0.000000
0.784634 0.035779 0.000000
0.816016 0.035888 0.000000
0.847432 0.036031 0.000000
0.878884 0.036210 0.000000
0.910370 0.036424 0.000000
0.941892 0.036673 0.000000
0.973449 0.036957 0.000000
0.000000 0.093750 0.020155
0.018408 0.093750 0.019683
0.039824 0.093750 0.019100
0.071429 0.093750 0.017871
0.103498 0.093750 0.018200
0.135042 0.093012 0.018247
0.165746 0.091748 0.017751
0.196485 0.090564 0.017141
0.227258 0.089363 0.016419
0.258067 0.088116 0.015583
0.288911 0.086809 0.014633
0.319790 0.085436 0.013570
0.350704 0.083993 0.012394
0.381653 0.082479 0.011105
0.412638 0.080893 0.009702
0.443657 0.079232 0.008185
0.474711 0.077498 0.006556
0.505801 0.075689 0.004813
0.536926 0.073804 0.002956
0.568085 0.071845 0.000987
0.599280 0.070789 0.000000
0.630510 0.070654 0.000000
0.661775 0.070563 0.000000
0.693075 0.070515 0.000000
0.724410 0.070508 0.000000
0.755780 0.070541 0.000000
0.787186 0.070613 0.000000
0.818626 0.070724 0.000000
0.850102 0.070873 0.000000
0.881612 0.071060 0.000000
0.913158 0.071285 0.000000
0.944739 0.071546 0.000000
0.976354 0.071844 0.000000
0.000000 0.125000 0.019122
0.017773 0.125000 0.018591
0.039148 0.125000 0.017796
0.070859 0.125000 0.016511
0.103812 0.125000 0.016139
0.135818 0.125000 0.016509
0.167117 0.124220 0.016297
0.197915 0.123002 0.015626
0.228747 0.121794 0.014840
0.259615 0.120553 0.013942
0.290518 0.119260 0.012930
0.321456 0.117907 0.011804
0.352429 0.116488 0.010566
0.383438 0.115000 0.009213
0.414481 0.113441 0.007748
0.445559 0.111810 0.006169
0.476673 0.110106 0.004477
0.507821 0.108328 0.002671
0.539005 0.106476 0.000752
0.570224 0.105605 0.000000
0.601477 0.105402 0.000000
0.632766 0.105251 0.000000
0.664090 0.105151 0.000000
0.695449 0.105097 0.000000
0.726844 0.105089 0.000000
0.758273 0.105124 0.000000
0.789737 0.105202 0.000000
0.821237 0.105322 0.000000
0.852771 0.105482 0.000000
0.884341 0.105682 0.000000
0.915945 0.105921 0.000000
0.947585 0.106200 0.000000
0.979260 0.106516 0.000000
0.000000 0.156250 0.017897
0.017139 0.156250 0.017320
0.038513 0.156250 0.016290
0.070451 0.156250 0.015130
0.103311 0.156250 0.014740
0.136153 0.156250 0.014350
0.168143 0.156250 0.014588
0.199345 0.155377 0.014110
0.230236 0.154174 0.013262
0.261163 0.152948 0.012301
0.292125 0.151676 0.011226
0.323122 0.150347 0.010038
0.354154 0.148954 0.008737
0.385222 0.147495 0.007322
0.416324 0.145966 0.005794
0.447461 0.144366 0.004153
0.478634 0.142694 0.002398
0.509841 0.140949 0.000530
0.541084 0.140216 0.000000
0.572362 0.139941 0.000000
0.603675 0.139727 0.000000
0.635023 0.139572 0.000000
0.666406 0.139470 0.000000
0.697824 0.139419 0.000000
0.729277 0.139417 0.000000
0.760765 0.139462 0.000000
0.792289 0.139552 0.000000
0.823847 0.139685 0.000000
0.855440 0.139862 0.000000
0.887069 0.140080 0.000000
0.918733 0.140338 0.000000
0.950432 0.140637 0.000000
0.982166 0.140975 0.000000
0.000000 0.187500 0.016482
0.016504 0.187500 0.015863
0.037920 0.187500 0.014577
0.070074 0.187500 0.013555
0.102909 0.187500 0.013147
0.135730 0.187500 0.012740
0.168537 0.187500 0.012332
0.200581 0.187500 0.012438
0.231726 0.186510 0.011683
0.262711 0.185305 0.010660
0.293732 0.184058 0.009523
0.324788 0.182757 0.008272
0.355880 0.181394 0.006908
0.387006 0.179965 0.005431
0.418167 0.178468 0.003840
0.449364 0.176901 0.002136
0.480595 0.175261 0.000319
0.511862 0.174620 0.000000
0.543163 0.174266 0.000000
0.574500 0.173986 0.000000
0.605872 0.173773 0.000000
0.637279 0.173622 0.000000
0.668721 0.173528 0.000000
0.700198 0.173489 0.000000
0.731710 0.173500 0.000000
0.763258 0.173560 0.000000
0.794840 0.173668 0.000000
0.826457 0.173821 0.000000
0.858110 0.174018 0.000000
0.889798 0.174258 0.000000
0.921520 0.174540 0.000000
0.953278 0.174863 0.000000
0.985071 0.175227 0.000000
0.000000 0.218750 0.014875
0.015869 0.218750 0.014219
0.037369 0.218750 0.012655
0.069742 0.218750 0.011786
0.102580 0.218750 0.011361
0.135408 0.218750 0.010935
0.168225 0.218750 0.010510
0.201032 0.218750 0.010085
0.233160 0.218750 0.010059
0.264260 0.217628 0.009019
0.295339 0.216410 0.007819
0.326455 0.215140 0.006506
0.357605 0.213809 0.005080
0.388790 0.212412 0.003540
0.420010 0.210949 0.001887
0.451266 0.209415 0.000120
0.482556 0.208812 0.000000
0.513882 0.208374 0.000000
0.545243 0.208024 0.000000
0.576638 0.207751 0.000000
0.608069 0.207549 0.000000
0.639535 0.207411 0.000000
0.671036 0.207333 0.000000
0.702572 0.207311 0.000000
0.734144 0.207343 0.000000
0.765750 0.207425 0.000000
0.797391 0.207555 0.000000
0.829068 0.207732 0.000000
0.860779 0.207954 0.000000
0.892526 0.208220 0.000000
0.924308 0.208530 0.000000
0.956125 0.208881 0.000000
0.987976 0.209273 0.000000
0.000000 0.250000 0.013078
0.015234 0.250000 0.012385
0.036860 0.250000 0.010526
0.069458 0.250000 0.009822
0.102317 0.250000 0.009379
0.135167 0.250000 0.008937
0.168007 0.250000 0.008494
0.200839 0.250000 0.008051
0.233661 0.250000 0.007609
0.265808 0.249918 0.007378
0.296947 0.248734 0.006116
0.328121 0.247497 0.004740
0.359330 0.246199 0.003251
0.390574 0.244838 0.001649
0.421854 0.243436 0.000000
0.453168 0.242787 0.000000
0.484518 0.242259 0.000000
0.515902 0.241834 0.000000
0.547322 0.241499 0.000000
0.578777 0.241244 0.000000
0.610267 0.241062 0.000000
0.641792 0.240946 0.000000
0.673352 0.240891 0.000000
0.704947 0.240894 0.000000
0.736577 0.240951 0.000000
0.768242 0.241060 0.000000
0.799943 0.241218 0.000000
0.831678 0.241424 0.000000
0.863449 0.241676 0.000000
0.895254 0.241972 0.000000
0.927095 0.242312 0.000000
0.958971 0.242695 0.000000
0.990882 0.243119 0.000000
0.000000 0.281250 0.011089
0.014600 0.281250 0.010362
0.036393 0.281250 0.008187
0.069227 0.281250 0.007664
0.102115 0.281250 0.007204
0.134995 0.281250 0.006744
0.167867 0.281250 0.006284
0.200732 0.281250 0.005823
0.233588 0.281250 0.005363
0.266437 0.281250 0.004903
0.298554 0.281030 0.004412
0.329787 0.279829 0.002974
0.361055 0.278568 0.001422
0.392358 0.277310 0.000000
0.423697 0.276538 0.000000
0.455070 0.275912 0.000000
0.486479 0.275408 0.000000
0.517922 0.275009 0.000000
0.549401 0.274701 0.000000
0.580915 0.274474 0.000000
0.612464 0.274320 0.000000
0.644048 0.274233 0.000000
0.675667 0.274209 0.000000
0.707321 0.274243 0.000000
0.739010 0.274332 0.000000
0.770735 0.274473 0.000000
0.802494 0.274663 0.000000
0.834289 0.274902 0.000000
0.866118 0.275187 0.000000
0.897983 0.275517 0.000000
0.929883 0.275892 0.000000
0.961818 0.276309 0.000000
0.993788 0.276768 0.000000
0.000000 0.312500 0.008909
0.013965 0.312500 0.008148
0.036117 0.312500 0.005790
0.069048 0.312500 0.005312
0.101971 0.312500 0.004834
0.134888 0.312500 0.004357
0.167797 0.312500 0.003879
0.200699 0.312500 0.003401
0.233594 0.312500 0.002924
0.266482 0.312500 0.002446
0.299364 0.312500 0.001968
0.331453 0.312139 0.001208
0.362780 0.310966 0.000000
0.394142 0.310056 0.000000
0.425540 0.309325 0.000000
0.456972 0.308737 0.000000
0.488440 0.308271 0.000000
0.519943 0.307909 0.000000
0.551480 0.307638 0.000000
0.583053 0.307448 0.000000
0.614661 0.307331 0.000000
0.646304 0.307281 0.000000
0.677982 0.307293 0.000000
0.709695 0.307363 0.000000
0.741444 0.307489 0.000000
0.773227 0.307667 0.000000
0.805045 0.307894 0.000000
0.836899 0.308170 0.000000
0.868788 0.308492 0.000000
0.900711 0.308860 0.000000
0.932670 0.309271 0.000000
0.964664 0.309726 0.000000
0.996693 0.310222 0.000000
0.000000 0.343750 0.006538
0.013330 0.343750 0.005744
0.035952 0.343750 0.003261
0.068922 0.343750 0.002766
0.101885 0.343750 0.002271
0.134841 0.343750 0.001775
0.167791 0.343750 0.001280
0.200735 0.343750 0.000785
0.233672 0.343750 0.000290
0.266655 0.343750 0.000000
0.299636 0.343750 0.000000
0.332513 0.343750 0.000000
0.364505 0.343331 0.000000
0.395927 0.342484 0.000000
0.427383 0.341809 0.000000
0.458875 0.341275 0.000000
0.490401 0.340859 0.000000
0.521963 0.340544 0.000000
0.553560 0.340319 0.000000
0.585191 0.340174 0.000000
0.616858 0.340101 0.000000
0.648560 0.340094 0.000000
0.680298 0.340149 0.000000
0.712070 0.340261 0.000000
0.743877 0.340428 0.000000
0.775719 0.340647 0.000000
0.807597 0.340916 0.000000
0.839509 0.341233 0.000000
0.871457 0.341596 0.000000
0.903440 0.342003 0.000000
0.935458 0.342455 0.000000
0.967511 0.342950 0.000000
0.999599 0.343486 0.000000
0.000000 0.375000 0.003975
0.012695 0.375000 0.003149
0.035839 0.375000 0.000538
0.068850 0.375000 0.000025
0.102230 0.375000 0.000000
0.135531 0.375000 0.000000
0.168732 0.375000 0.000000
0.201833 0.375000 0.000000
0.234835 0.375000 0.000000
0.267740 0.375000 0.000000
0.300546 0.375000 0.000000
0.333257 0.375000 0.000000
0.365871 0.375000 0.000000
0.397711 0.374609 0.000000
0.429226 0.374005 0.000000
0.460777 0.373536 0.000000
0.492362 0.373181 0.000000
0.523983 0.372924 0.000000
0.555639 0.372753 0.000000
0.587330 0.372660 0.000000
0.619056 0.372638 0.000000
0.650817 0.372680 0.000000
0.682613 0.372783 0.000000
0.714444 0.372942 0.000000
0.746310 0.373155 0.000000
0.778212 0.373420 0.000000
0.810148 0.373733 0.000000
0.842120 0.374094 0.000000
0.874126 0.374501 0.000000
0.906168 0.374952 0.000000
0.938245 0.375000 0.000000
0.970357 0.375000 0.000000
1.000000 0.375000 0.000000
0.000000 0.406250 0.001222
0.012061 0.406250 0.000363
0.038024 0.406250 0.000000
0.071332 0.406250 0.000000
0.104545 0.406250 0.000000
0.137665 0.406250 0.000000
0.170691 0.406250 0.000000
0.203624 0.406250 0.000000
0.236465 0.406250 0.000000
0.269214 0.406250 0.000000
0.301872 0.406250 0.000000
0.334440 0.406250 0.000000
0.366918 0.406250 0.000000
0.399307 0.406250 0.000000
0.431069 0.405925 0.000000
0.462679 0.405532 0.000000
0.494324 0.405247 0.000000
0.526003 0.405056 0.000000
0.557718 0.404948 0.000000
0.589468 0.404914 0.000000
0.621253 0.404948 0.000000
0.653073 0.405044 0.000000
0.684928 0.405200 0.000000
0.716818 0.405411 0.000000
0.748744 0.405674 0.000000
0.780704 0.405988 0.000000
0.812700 0.406250 0.000000
0.844730 0.406250 0.000000
0.876796 0.406250 0.000000
0.908897 0.406250 0.000000
0.941033 0.406250 0.000000
0.973203 0.406250 0.000000
1.000000 0.406250 0.000000
0.001712 0.437500 0.000000
0.014015 0.437500 0.000000
0.040901 0.437500 0.000000
0.074042 0.437500 0.000000
0.107094 0.437500 0.000000
0.140057 0.437500 0.000000
0.172932 0.437500 0.000000
0.205721 0.437500 0.000000
0.238422 0.437500 0.000000
0.271037 0.437500 0.000000
0.303566 0.437500 0.000000
0.336010 0.437500 0.000000
0.368369 0.437500 0.000000
0.400644 0.437500 0.000000
0.432835 0.437500 0.000000
0.464581 0.437273 0.000000
0.496285 0.437067 0.000000
0.528024 0.436949 0.000000
0.559797 0.436910 0.000000
0.591606 0.436941 0.000000
0.623450 0.437037 0.000000
0.655329 0.437194 0.000000
0.687244 0.437407 0.000000
0.719193 0.437500 0.000000
0.751177 0.437500 0.000000
0.783197 0.437500 0.000000
0.815251 0.437500 0.000000
0.847341 0.437500 0.000000
0.879465 0.437500 0.000000
0.911625 0.437500 0.000000
0.943820 0.437500 0.000000
0.976050 0.437500 0.000000
1.000000 0.437500 0.000000
0.004783 0.468750 0.000000
0.016465 0.468750 0.000000
0.043967 0.468750 0.000000
0.076961 0.468750 0.000000
0.109872 0.468750 0.000000
0.142698 0.468750 0.000000
0.175442 0.468750 0.000000
0.208103 0.468750 0.000000
0.240681 0.468750 0.000000
0.273178 0.468750 0.000000
0.305594 0.468750 0.000000
0.337928 0.468750 0.000000
0.370182 0.468750 0.000000
0.402356 0.468750 0.000000
0.434451 0.468750 0.000000
0.466466 0.468750 0.000000
0.498246 0.468648 0.000000
0.530044 0.468611 0.000000
0.561877 0.468647 0.000000
0.593745 0.468749 0.000000
0.625648 0.468750 0.000000
0.657586 0.468750 0.000000
0.689559 0.468750 0.000000
0.721567 0.468750 0.000000
0.753610 0.468750 0.000000
0.785689 0.468750 0.000000
0.817802 0.468750 0.000000
0.849951 0.468750 0.000000
0.882135 0.468750 0.000000
0.914354 0.468750 0.000000
0.946607 0.468750 0.000000
0.978896 0.468750 0.000000
1.000000 0.468750 0.000000
0.007992 0.500000 0.000000
0.019054 0.500000 0.000000
0.047225 0.500000 0.000000
0.080091 0.500000 0.000000
0.112876 0.500000 0.000000
0.145582 0.500000 0.000000
0.178208 0.500000 0.000000
0.210756 0.500000 0.000000
0.243226 0.500000 0.000000
0.275617 0.500000 0.000000
0.307931 0.500000 0.000000
0.340167 0.500000 0.000000
0.372327 0.500000 0.000000
0.404411 0.500000 0.000000
0.436418 0.500000 0.000000
0.468350 0.500000 0.000000
0.500207 0.500000 0.000000
0.532064 0.500000 0.000000
0.563956 0.500000 0.000000
0.595883 0.500000 0.000000
0.627845 0.500000 0.000000
0.659842 0.500000 0.000000
0.691874 0.500000 0.000000
0.723941 0.500000 0.000000
0.756044 0.500000 0.000000
0.788181 0.500000 0.000000
0.820354 0.500000 0.000000
0.852561 0.500000 0.000000
0.884804 0.500000 0.000000
0.917082 0.500000 0.000000
0.949395 0.500000 0.000000
0.981743 0.500000 0.000000
1.000000 0.500000 0.000000
0.011345 0.531250 0.000000
0.021788 0.531250 0.000000
0.050681 0.531250 0.000000
0.083431 0.531250 0.000000
0.116105 0.531250 0.000000
0.148702 0.531250 0.000000
0.181224 0.531250 0.000000
0.213670 0.531250 0.000000
0.246041 0.531250 0.000000
0.278337 0.531250 0.000000
0.310559 0.531250 0.000000
0.342707 0.531250 0.000000
0.374782 0.531250 0.000000
0.406682 0.531250 0.000000
0.438533 0.531250 0.000000
0.470383 0.531250 0.000000
0.502234 0.531250 0.000000
0.534084 0.531250 0.000000
0.566035 0.531250 0.000000
0.598021 0.531250 0.000000
0.630042 0.531250 0.000000
0.662098 0.531250 0.000000
0.694189 0.531250 0.000000
0.726316 0.531250 0.000000
0.758477 0.531250 0.000000
0.790674 0.531250 0.000000
0.822905 0.531250 0.000000
0.855172 0.531250 0.000000
0.887474 0.531250 0.000000
0.919810 0.531250 0.000000
0.952182 0.531250 0.000000
0.984589 0.531250 0.000000
1.000000 0.531250 0.000000
0.014845 0.562500 0.000000
0.024671 0.562500 0.000000
0.054339 0.562500 0.000000
0.086984 0.562500 0.000000
0.119557 0.562500 0.000000
0.152056 0.562500 0.000000
0.184482 0.562500 0.000000
0.216836 0.562500 0.000000
0.249118 0.562500 0.000000
0.281302 0.562500 0.000000
0.313170 0.562500 0.000000
0.345038 0.562500 0.000000
0.376906 0.562500 0.000000
0.408774 0.562500 0.000000
0.440642 0.562500 0.000000
0.472510 0.562500 0.000000
0.504378 0.562500 0.000000
0.536246 0.562500 0.000000
0.568114 0.562500 0.000000
0.600159 0.562500 0.000000
0.632239 0.562500 0.000000
0.664355 0.562500 0.000000
0.696505 0.562500 0.000000
0.728690 0.562500 0.000000
0.760911 0.562500 0.000000
0.793166 0.562500 0.000000
0.825457 0.562500 0.000000
0.857782 0.562500 0.000000
0.890143 0.562500 0.000000
0.922539 0.562500 0.000000
0.954970 0.562500 0.000000
0.987436 0.562500 0.000000
1.000000 0.562500 0.000000
0.018496 0.593750 0.000000
0.027706 0.593750 0.000000
0.058200 0.593750 0.000000
0.090750 0.593750 0.000000
0.123230 0.593750 0.000000
0.155640 0.593750 0.000000
0.187785 0.593750 0.000000
0.219670 0.593750 0.000000
0.251556 0.593750 0.000000
0.283441 0.593750 0.000000
0.315327 0.593750 0.000000
0.347213 0.593750 0.000000
0.379098 0.593750 0.000000
0.410984 0.593750 0.000000
0.442869 0.593750 0.000000
0.474755 0.593750 0.000000
0.506641 0.593750 0.000000
0.538526 0.593750 0.000000
0.570412 0.593750 0.000000
0.602298 0.593750 0.000000
0.634437 0.593750 0.000000
0.666611 0.593750 0.000000
0.698820 0.593750 0.000000
0.731064 0.593750 0.000000
0.763344 0.593750 0.000000
0.795658 0.593750 0.000000
0.828008 0.593750 0.000000
0.860393 0.593750 0.000000
0.892812 0.593750 0.000000
0.925267 0.593750 0.000000
0.957757 0.593750 0.000000
0.990282 0.593750 0.000000
1.000000 0.593750 0.000000
0.022301 0.625000 0.000000
0.030894 0.625000 0.000000
0.062266 0.625000 0.000000
0.094280 0.625000 0.000000
0.126183 0.625000 0.000000
0.158087 0.625000 0.000000
0.189990 0.625000 0.000000
0.221893 0.625000 0.000000
0.253796 0.625000 0.000000
0.285699 0.625000 0.000000
0.317602 0.625000 0.000000
0.349505 0.625000 0.000000
0.381409 0.625000 0.000000
0.413312 0.625000 0.000000
0.445215 0.625000 0.000000
0.477118 0.625000 0.000000
0.509021 0.625000 0.000000
0.540924 0.625000 0.000000
0.572828 0.625000 0.000000
0.604731 0.625000 0.000000
0.636634 0.625000 0.000000
0.668867 0.625000 0.000000
0.701135 0.625000 0.000000
0.733439 0.625000 0.000000
0.765777 0.625000 0.000000
0.798151 0.625000 0.000000
0.830559 0.625000 0.000000
0.863003 0.625000 0.000000
0.895482 0.625000 0.000000
0.927996 0.625000 0.000000
0.960545 0.625000 0.000000
0.993129 0.625000 0.000000
1.000000 0.625000 0.000000
0.025514 0.656250 0.000000
0.032857 0.656250 0.000000
0.064630 0.656250 0.000000
0.096551 0.656250 0.000000
0.128471 0.656250 0.000000
0.160392 0.656250 0.000000
0.192313 0.656250 0.000000
0.224234 0.656250 0.000000
0.256154 0.656250 0.000000
0.288075 0.656250 0.000000
0.319996 0.656250 0.000000
0.351916 0.656250 0.000000
0.383837 0.656250 0.000000
0.415758 0.656250 0.000000
0.447679 0.656250 0.000000
0.479599 0.656250 0.000000
0.511520 0.656250 0.000000
0.543441 0.656250 0.000000
0.575361 0.656250 0.000000
0.607282 0.656250 0.000000
0.639203 0.656250 0.000000
0.671123 0.656250 0.000000
0.703451 0.656250 0.000000
0.735813 0.656250 0.000000
0.768211 0.656250 0.000000
0.800643 0.656250 0.000000
0.833111 0.656250 0.000000
0.865614 0.656250 0.000000
0.898151 0.656250 0.000000
0.930724 0.656250 0.000000
0.963332 0.656250 0.000000
0.995975 0.656250 0.000000
1.000000 0.656250 0.000000
0.027428 0.687500 0.000000
0.035063 0.687500 0.000000
0.067001 0.687500 0.000000
0.098939 0.687500 0.000000
0.130878 0.687500 0.000000
0.162816 0.687500 0.000000
0.194754 0.687500 0.000000
0.226692 0.687500 0.000000
0.258631 0.687500 0.000000
0.290569 0.687500 0.000000
0.322507 0.687500 0.000000
0.354445 0.687500 0.000000
0.386384 0.687500 0.000000
0.418322 0.687500 0.000000
0.450260 0.687500 0.000000
0.482198 0.687500 0.000000
0.514137 0.687500 0.000000
0.546075 0.687500 0.000000
0.578013 0.687500 0.000000
0.609951 0.687500 0.000000
0.641890 0.687500 0.000000
0.673828 0.687500 0.000000
0.705766 0.687500 0.000000
0.738187 0.687500 0.000000
0.770644 0.687500 0.000000
0.803136 0.687500 0.000000
0.835662 0.687500 0.000000
0.868224 0.687500 0.000000
0.900821 0.687500 0.000000
0.933453 0.687500 0.000000
0.966120 0.687500 0.000000
0.998822 0.687500 0.000000
1.000000 0.687500 0.000000
0.029405 0.718750 0.000000
0.037534 0.718750 0.000000
0.069490 0.718750 0.000000
0.101446 0.718750 0.000000
0.133402 0.718750 0.000000
0.165358 0.718750 0.000000
0.197313 0.718750 0.000000
0.229269 0.718750 0.000000
0.261225 0.718750 0.000000
0.293181 0.718750 0.000000
0.325136 0.718750 0.000000
0.357092 0.718750 0.000000
0.389048 0.718750 0.000000
0.421004 0.718750 0.000000
0.452960 0.718750 0.000000
0.484915 0.718750 0.000000
0.516871 0.718750 0.000000
0.548827 0.718750 0.000000
0.580783 0.718750 0.000000
0.612739 0.718750 0.000000
0.644694 0.718750 0.000000
0.676650 0.718750 0.000000
0.708606 0.718750 0.000000
0.740562 0.718750 0.000000
0.773077 0.718750 0.000000
0.805628 0.718750 0.000000
0.838214 0.718750 0.000000
0.870834 0.718750 0.000000
0.903490 0.718750 0.000000
0.936181 0.718750 0.000000
0.968907 0.718750 0.000000
0.999365 0.718750 0.000000
1.000000 0.718750 0.000000
0.031446 0.750000 0.000000
0.040124 0.750000 0.000000
0.072097 0.750000 0.000000
0.104071 0.750000 0.000000
0.136044 0.750000 0.000000
0.168017 0.750000 0.000000
0.199991 0.750000 0.000000
0.231964 0.750000 0.000000
0.263937 0.750000 0.000000
0.295911 0.750000 0.000000
0.327884 0.750000 0.000000
0.359857 0.750000 0.000000
0.391831 0.750000 0.000000
0.423804 0.750000 0.000000
0.455777 0.750000 0.000000
0.487751 0.750000 0.000000
0.519724 0.750000 0.000000
0.551697 0.750000 0.000000
0.583671 0.750000 0.000000
0.615644 0.750000 0.000000
0.647617 0.750000 0.000000
0.679591 0.750000 0.000000
0.711564 0.750000 0.000000
0.743537 0.750000 0.000000
0.775511 0.750000 0.000000
0.808120 0.750000 0.000000
0.840765 0.750000 0.000000
0.873445 0.750000 0.000000
0.906160 0.750000 0.000000
0.938910 0.750000 0.000000
0.971695 0.750000 0.000000
0.999365 0.750000 0.000000
1.000000 0.750000 0.000000
0.033551 0.781250 0.000000
0.042831 0.781250 0.000000
0.074822 0.781250 0.000000
0.106813 0.781250 0.000000
0.138804 0.781250 0.000000
0.170795 0.781250 0.000000
0.202786 0.781250 0.000000
0.234777 0.781250 0.000000
0.266768 0.781250 0.000000
0.298759 0.781250 0.000000
0.330749 0.781250 0.000000
0.362740 0.781250 0.000000
0.394731 0.781250 0.000000
0.426722 0.781250 0.000000
0.458713 0.781250 0.000000
0.490704 0.781250 0.000000
0.522695 0.781250 0.000000
0.554686 0.781250 0.000000
0.586676 0.781250 0.000000
0.618667 0.781250 0.000000
0.650658 0.781250 0.000000
0.682649 0.781250 0.000000
0.714640 0.781250 0.000000
0.746631 0.781250 0.000000
0.778622 0.781250 0.000000
0.810613 0.781250 0.000000
0.843316 0.781250 0.000000
0.876055 0.781250 0.000000
0.908829 0.781250 0.000000
0.941638 0.781250 0.000000
0.974482 0.781250 0.000000
0.999365 0.781250 0.000000
1.000000 0.781250 0.000000
0.035719 0.812500 0.000000
0.045657 0.812500 0.000000
0.077666 0.812500 0.000000
0.109674 0.812500 0.000000
0.141682 0.812500 0.000000
0.173691 0.812500 0.000000
0.205699 0.812500 0.000000
0.237708 0.812500 0.000000
0.269716 0.812500 0.000000
0.301725 0.812500 0.000000
0.333733 0.812500 0.000000
0.365741 0.812500 0.000000
0.397750 0.812500 0.000000
0.429758 0.812500 0.000000
0.461767 0.812500 0.000000
0.493775 0.812500 0.000000
0.525783 0.812500 0.000000
0.557792 0.812500 0.000000
0.589800 0.812500 0.000000
0.621809 0.812500 0.000000
0.653817 0.812500 0.000000
0.685826 0.812500 0.000000
0.717834 0.812500 0.000000
0.749842 0.812500 0.000000
0.781851 0.812500 0.000000
0.813859 0.812500 0.000000
0.845868 0.812500 0.000000
