luts/original/teal-horizon.cube
TITLE "Teal Horizon"
LUT_3D_SIZE 9
DOMAIN_MIN 0.0 0.0 0.0
DOMAIN_MAX 1.0 1.0 1.0
0.000000 0.000000 0.024500
0.096188 0.000000 0.028812
0.217394 0.000000 0.032606
0.339118 0.000000 0.035882
0.461360 0.000000 0.038640
0.584121 0.000000 0.040879
0.707400 0.000000 0.042600
0.831197 0.000000 0.043803
0.955512 0.000000 0.044488
0.000000 0.125000 0.024510
0.098621 0.125000 0.021490
0.222892 0.122475 0.022057
0.345488 0.117981 0.019855
0.468602 0.112647 0.016093
0.592234 0.106342 0.010772
0.716384 0.099041 0.003890
0.841053 0.094784 0.000000
0.966240 0.094543 0.000000
0.000000 0.250000 0.021050
0.096423 0.250000 0.016838
0.227090 0.250000 0.015204
0.351857 0.247111 0.013167
0.475843 0.242166 0.008490
0.600347 0.236299 0.002253
0.725369 0.233230 0.000000
0.850909 0.232463 0.000000
0.976968 0.232448 0.000000
0.000000 0.375000 0.015028
0.095131 0.375000 0.009427
0.226264 0.375000 0.007533
0.357320 0.375000 0.005640
0.483084 0.371439 0.000886
0.608460 0.368508 0.000000
0.734354 0.367177 0.000000
0.860766 0.366829 0.000000
0.987696 0.367271 0.000000
0.000000 0.500000 0.006446
0.095352 0.500000 0.000000
0.228125 0.500000 0.000000
0.359680 0.500000 0.000000
0.490040 0.500000 0.000000
0.616573 0.498408 0.000000
0.743339 0.497804 0.000000
0.870622 0.498127 0.000000
0.998424 0.499212 0.000000
0.004652 0.625000 0.000000
0.106685 0.625000 0.000000
0.237726 0.625000 0.000000
0.367729 0.625000 0.000000
0.496710 0.625000 0.000000
0.624686 0.625000 0.000000
0.752323 0.625000 0.000000
0.880479 0.625000 0.000000
1.000000 0.625000 0.000000
0.017879 0.750000 0.000000
0.121237 0.750000 0.000000
0.250625 0.750000 0.000000
0.378296 0.750000 0.000000
0.505966 0.750000 0.000000
0.633637 0.750000 0.000000
0.761308 0.750000 0.000000
0.890335 0.750000 0.000000
1.000000 0.750000 0.000000
0.028748 0.875000 0.000000
0.132612 0.875000 0.000000
0.260542 0.875000 0.000000
0.388472 0.875000 0.000000
0.516402 0.875000 0.000000
0.644331 0.875000 0.000000
0.772261 0.875000 0.000000
0.900191 0.875000 0.000000
1.000000 0.875000 0.000000
0.035760 1.000000 0.000000
0.144013 1.000000 0.000000
0.272202 1.000000 0.000000
0.400391 1.000000 0.000000
0.528580 1.000000 0.000000
0.656769 1.000000 0.000000
0.784958 1.000000 0.000000
0.913147 1.000000 0.000000
1.000000 1.000000 0.000000
0.000195 0.000000 0.154720
0.096655 0.000000 0.153345
0.217949 0.000000 0.157051
0.339761 0.000000 0.160239
0.462091 0.000000 0.162909
0.584940 0.000000 0.165060
0.708307 0.000000 0.166693
0.832192 0.000000 0.167808
0.956595 0.000000 0.168405
0.000000 0.124307 0.150094
0.097400 0.123059 0.148719
0.223447 0.119921 0.150070
0.346131 0.115311 0.146519
0.469333 0.109658 0.142441
0.593053 0.102965 0.136945
0.717291 0.095229 0.129922
0.842048 0.086452 0.121340
0.967323 0.076634 0.111187
0.000000 0.250000 0.147773
0.095904 0.250000 0.144634
0.225809 0.250000 0.139649
0.352500 0.244996 0.137492
0.476574 0.238936 0.132722
0.601166 0.232360 0.126393
0.726276 0.224920 0.118504
0.851904 0.216531 0.109055
0.978051 0.207161 0.098046
0.000000 0.375000 0.141950
0.093950 0.375000 0.136418
0.224102 0.375000 0.131890
0.357513 0.375000 0.129997
0.483816 0.370037 0.125119
0.609279 0.363577 0.117874
0.735261 0.356415 0.109070
0.861761 0.348381 0.098706
0.988779 0.339408 0.086782
0.000000 0.500000 0.133588
0.092724 0.500000 0.125461
0.223948 0.500000 0.121373
0.357248 0.500000 0.119221
0.490439 0.500000 0.117068
0.617392 0.494431 0.109355
0.744246 0.487623 0.099636
0.871617 0.479987 0.088357
0.999507 0.471439 0.075518
0.000000 0.625000 0.122674
0.092226 0.625000 0.111624
0.224796 0.625000 0.108097
0.358456 0.625000 0.105685
0.492036 0.625000 0.103274
0.625505 0.624968 0.100837
0.753230 0.618571 0.090202
0.881474 0.611369 0.078007
1.000000 0.603819 0.064765
0.000000 0.750000 0.109202
0.092455 0.750000 0.094869
0.226572 0.750000 0.092062
0.360759 0.750000 0.089391
0.494881 0.750000 0.086720
0.628938 0.750000 0.084050
0.762215 0.749286 0.080768
0.891330 0.742546 0.067658
1.000000 0.736049 0.054037
0.000000 0.875000 0.093172
0.094403 0.875000 0.076198
0.229254 0.875000 0.073268
0.364047 0.875000 0.070338
0.498784 0.875000 0.067408
0.633464 0.875000 0.064478
0.768088 0.875000 0.061548
0.901186 0.873534 0.057309
1.000000 0.868107 0.043309
0.000000 1.000000 0.074582
0.097341 1.000000 0.054904
0.232835 1.000000 0.051715
0.368277 1.000000 0.048526
0.503668 1.000000 0.045337
0.639008 1.000000 0.042148
0.774298 1.000000 0.038959
0.909539 1.000000 0.035770
1.000000 1.000000 0.032581
0.000463 0.000000 0.284765
0.091869 0.000000 0.283131
0.218504 0.000000 0.281496
0.340404 0.000000 0.284596
0.462822 0.000000 0.287178
0.585759 0.000000 0.289241
0.709214 0.000000 0.290786
0.833187 0.000000 0.291813
0.957678 0.000000 0.292322
0.000000 0.123338 0.279267
0.089580 0.119016 0.277632
0.219553 0.117294 0.275998
0.346774 0.115279 0.276790
0.470064 0.109622 0.272434
0.593872 0.102924 0.267046
0.718198 0.095184 0.260263
0.843043 0.086403 0.251982
0.968406 0.076580 0.242164
0.000000 0.249184 0.273769
0.095353 0.248465 0.272134
0.222069 0.246284 0.270500
0.353143 0.239960 0.266007
0.477305 0.234260 0.259400
0.601985 0.227518 0.252519
0.727183 0.219735 0.244296
0.852899 0.210910 0.234575
0.979134 0.201043 0.223310
0.000000 0.375000 0.269062
0.094593 0.375000 0.265626
0.221487 0.375000 0.260472
0.356578 0.375000 0.254354
0.484547 0.366949 0.249351
0.610098 0.359294 0.242014
0.736168 0.351421 0.233118
0.862756 0.342805 0.222661
0.989862 0.333297 0.210645
0.000000 0.500000 0.260892
0.093455 0.500000 0.254960
0.220608 0.500000 0.247973
0.354541 0.500000 0.243490
0.490925 0.500000 0.241337
0.618211 0.492431 0.233495
0.745153 0.484418 0.223684
0.872612 0.475921 0.212312
1.000000 0.466693 0.199410
0.000000 0.625000 0.250190
0.093045 0.625000 0.241489
0.220456 0.625000 0.233243
0.355254 0.625000 0.229866
0.490914 0.625000 0.227455
0.626324 0.624890 0.224977
0.754137 0.616944 0.214250
0.882469 0.608670 0.201963
1.000000 0.600372 0.188682
0.000000 0.750000 0.236942
0.093362 0.750000 0.225132
0.221396 0.750000 0.216155
0.357217 0.750000 0.213484
0.492937 0.750000 0.210813
0.628556 0.750000 0.208143
0.763122 0.749055 0.204816
0.892325 0.741087 0.191614
1.000000 0.733809 0.177954
0.000000 0.875000 0.221140
0.094407 0.875000 0.205861
0.224053 0.875000 0.197273
0.360202 0.875000 0.194343
0.496270 0.875000 0.191413
0.632258 0.875000 0.188483
0.768167 0.875000 0.185553
0.902181 0.873203 0.181264
1.000000 0.867016 0.167226
0.000000 1.000000 0.202782
0.096179 1.000000 0.183661
0.227515 1.000000 0.175632
0.364139 1.000000 0.172443
0.500694 1.000000 0.169254
0.637182 1.000000 0.166065
0.773602 1.000000 0.162876
0.909955 1.000000 0.159687
1.000000 1.000000 0.156498
0.000804 0.000000 0.414633
0.087260 0.000000 0.412740
0.214154 0.000000 0.410846
0.341047 0.000000 0.408953
0.463553 0.000000 0.411447
0.586578 0.000000 0.413422
0.710121 0.000000 0.414879
0.834182 0.000000 0.415818
0.958761 0.000000 0.416239
0.000000 0.122511 0.408264
0.080928 0.114185 0.406370
0.211087 0.112393 0.404477
0.343495 0.112488 0.402583
0.470795 0.109585 0.402418
0.594691 0.102883 0.397141
0.719105 0.095138 0.390600
0.844038 0.086353 0.382621
0.969489 0.076526 0.373138
0.000000 0.247461 0.401894
0.087617 0.243809 0.400000
0.214605 0.240070 0.398107
0.348366 0.237807 0.396214
0.478036 0.234223 0.392616
0.602804 0.227477 0.384731
0.728090 0.219689 0.376269
0.853894 0.210860 0.366586
0.980217 0.200989 0.355490
0.000000 0.374233 0.395524
0.094305 0.373790 0.393631
0.221293 0.373140 0.391737
0.348281 0.369063 0.389844
0.485278 0.358861 0.376995
0.610917 0.352071 0.368000
0.737075 0.344240 0.358485
0.863751 0.335367 0.347611
0.990945 0.325453 0.335236
0.000000 0.500000 0.388360
0.094186 0.500000 0.384488
0.221339 0.500000 0.380001
0.348491 0.500000 0.371217
0.490877 0.500000 0.365606
0.619030 0.488333 0.357636
0.746060 0.479060 0.347731
0.873607 0.469845 0.336267
1.000000 0.460107 0.323327
0.000000 0.625000 0.377853
0.093864 0.625000 0.371377
0.221275 0.625000 0.365031
0.348687 0.625000 0.354708
0.487865 0.625000 0.351636
0.627143 0.624737 0.349117
0.755044 0.614283 0.338297
0.883464 0.604691 0.325918
1.000000 0.595584 0.312599
0.000000 0.750000 0.364815
0.094269 0.750000 0.355416
0.221940 0.750000 0.347657
0.350791 0.750000 0.337577
0.489159 0.750000 0.334906
0.627351 0.750000 0.332236
0.764029 0.748683 0.328863
0.893320 0.738963 0.315569
1.000000 0.730714 0.301871
0.000000 0.875000 0.349234
0.095402 0.875000 0.336560
0.223331 0.875000 0.327572
0.354042 0.875000 0.318348
0.492088 0.875000 0.315418
0.630012 0.875000 0.312488
0.767815 0.875000 0.309558
0.903176 0.872727 0.305220
1.000000 0.865514 0.291143
0.000000 1.000000 0.331102
0.097262 1.000000 0.314786
0.225451 1.000000 0.304662
0.358022 1.000000 0.296360
0.496190 1.000000 0.293171
0.634263 1.000000 0.289982
0.772240 1.000000 0.286793
0.910123 1.000000 0.283604
1.000000 1.000000 0.280415
0.001218 0.000000 0.544326
0.082827 0.000000 0.542173
0.209979 0.000000 0.540021
0.337132 0.000000 0.537868
0.464284 0.000000 0.535716
0.587397 0.000000 0.537603
0.711028 0.000000 0.538972
0.835177 0.000000 0.539823
0.959844 0.000000 0.540156
0.000000 0.121681 0.537085
0.071446 0.108392 0.534932
0.202048 0.106486 0.532779
0.334927 0.106594 0.530627
0.467825 0.106701 0.528474
0.595510 0.102842 0.527230
0.720012 0.095093 0.520933
0.845033 0.086303 0.513258
0.970572 0.076471 0.504110
0.000000 0.246000 0.529843
0.079050 0.238373 0.527691
0.206310 0.233957 0.525538
0.339298 0.231956 0.523385
0.474758 0.232063 0.521233
0.603623 0.227436 0.516921
0.728997 0.219644 0.508229
0.854889 0.210810 0.498588
0.981300 0.200935 0.487663
0.000000 0.371859 0.522602
0.086653 0.368619 0.520449
0.213914 0.366105 0.518297
0.341174 0.359765 0.516144
0.481009 0.357425 0.513991
0.611736 0.352030 0.504379
0.737982 0.344195 0.493116
0.864746 0.335317 0.481625
0.992028 0.325399 0.469060
0.000000 0.499399 0.515360
0.094257 0.499171 0.513208
0.221517 0.498991 0.511055
0.348777 0.498491 0.508903
0.476038 0.491394 0.506750
0.619849 0.476625 0.483123
0.746967 0.468745 0.472238
0.874602 0.459825 0.460269
1.000000 0.450274 0.447244
0.000000 0.625000 0.505662
0.094683 0.625000 0.501289
0.222094 0.625000 0.496863
0.349506 0.625000 0.490390
0.477191 0.625000 0.475817
0.627962 0.624299 0.473257
0.755951 0.609148 0.462345
0.884459 0.598241 0.449873
1.000000 0.588485 0.436516
0.000000 0.750000 0.492824
0.095176 0.750000 0.485722
0.222847 0.750000 0.479561
0.350517 0.750000 0.470959
0.480940 0.750000 0.458999
0.624169 0.750000 0.456329
0.764936 0.747993 0.452911
0.894315 0.735588 0.439524
1.000000 0.726155 0.425788
0.000000 0.875000 0.477454
0.096397 0.875000 0.467279
0.224326 0.875000 0.459692
0.352256 0.875000 0.449624
0.484676 0.875000 0.439423
0.625760 0.875000 0.436493
0.766636 0.875000 0.433563
0.904171 0.871984 0.429175
1.000000 0.863316 0.415060
0.000000 1.000000 0.459542
0.098345 1.000000 0.445930
0.226534 1.000000 0.437076
0.354723 1.000000 0.425783
0.489088 1.000000 0.417088
0.629493 1.000000 0.413899
0.769754 1.000000 0.410710
0.909873 1.000000 0.407521
1.000000 1.000000 0.404332
0.001706 0.000000 0.673842
0.078569 0.000000 0.671431
0.205981 0.000000 0.669019
0.333393 0.000000 0.666607
0.460804 0.000000 0.664196
0.588216 0.000000 0.661784
0.711935 0.000000 0.663065
0.836172 0.000000 0.663828
0.960927 0.000000 0.664073
0.000000 0.120808 0.665729
0.061134 0.101604 0.663318
0.192266 0.099572 0.660906
0.325763 0.099692 0.658494
0.459273 0.099813 0.656083
0.592796 0.099934 0.653671
0.720919 0.095048 0.651262
0.846028 0.086253 0.643891
0.971655 0.076417 0.635080
0.000000 0.244611 0.657616
0.069652 0.232009 0.655205
0.197185 0.227028 0.652793
0.330290 0.225098 0.650381
0.465675 0.225219 0.647970
0.601108 0.225339 0.645558
0.729904 0.219599 0.640177
0.855884 0.210760 0.630582
0.982383 0.200881 0.619830
0.000000 0.369786 0.649503
0.078171 0.362631 0.647092
0.205703 0.359089 0.644680
0.333236 0.352396 0.642268
0.470292 0.350624 0.639857
0.609559 0.350745 0.637445
0.738889 0.344149 0.627713
0.865741 0.335268 0.615619
0.993111 0.325344 0.602870
0.000000 0.496435 0.641390
0.086690 0.493498 0.638979
0.214222 0.491625 0.636567
0.341754 0.487955 0.634155
0.469287 0.477526 0.631743
0.618578 0.476151 0.629332
0.747874 0.468700 0.611958
0.875597 0.459775 0.597493
1.000000 0.450000 0.583277
0.000000 0.624667 0.633277
0.095208 0.624640 0.630865
0.222741 0.624717 0.628454
0.350273 0.624871 0.626042
0.477737 0.625000 0.623283
0.628781 0.613089 0.597397
0.756858 0.595090 0.586393
0.885454 0.585981 0.573828
1.000000 0.576870 0.560433
0.000000 0.750000 0.620967
0.096083 0.750000 0.616050
0.223754 0.750000 0.611499
0.351424 0.750000 0.605630
0.479095 0.750000 0.596308
0.613786 0.750000 0.580422
0.765843 0.746259 0.576959
0.895310 0.729395 0.563479
1.000000 0.718773 0.549705
0.000000 0.875000 0.605801
0.097392 0.875000 0.598018
0.225321 0.875000 0.591842
0.353251 0.875000 0.583933
0.481181 0.875000 0.572395
0.616804 0.875000 0.560498
0.763530 0.875000 0.557568
0.905166 0.870662 0.553130
1.000000 0.859794 0.538977
0.000000 1.000000 0.588102
0.099428 1.000000 0.577092
0.227617 1.000000 0.569516
0.355806 1.000000 0.560046
0.483995 1.000000 0.547122
0.621205 1.000000 0.537816
0.765139 1.000000 0.534627
0.908834 1.000000 0.531438
1.000000 1.000000 0.528249
0.002268 0.000000 0.803183
0.074488 0.000000 0.800512
0.202159 0.000000 0.797841
0.329829 0.000000 0.795171
0.457500 0.000000 0.792500
0.585171 0.000000 0.789829
0.712842 0.000000 0.787158
0.837167 0.000000 0.787833
0.962010 0.000000 0.787990
0.000000 0.119879 0.794198
0.049990 0.093810 0.791527
0.181699 0.091651 0.788857
0.315878 0.091784 0.786186
0.450067 0.091918 0.783515
0.584266 0.092052 0.780844
0.718474 0.092185 0.778174
0.847023 0.086204 0.774521
0.972738 0.076363 0.766047
0.000000 0.243225 0.785214
0.059424 0.224669 0.782543
0.187228 0.219154 0.779872
0.320726 0.217234 0.777201
0.456444 0.217367 0.774530
0.592194 0.217501 0.771860
0.727975 0.217634 0.769189
0.856879 0.210711 0.762567
0.983466 0.200827 0.751990
0.000000 0.367832 0.776229
0.068858 0.355719 0.773558
0.196662 0.351398 0.770887
0.324466 0.344363 0.768216
0.460975 0.342816 0.765546
0.599338 0.342950 0.762875
0.737787 0.343084 0.760204
0.866736 0.335218 0.749594
0.994194 0.325290 0.736668
0.000000 0.493779 0.767244
0.078292 0.486977 0.764573
0.206096 0.483999 0.761903
0.333900 0.479050 0.759232
0.461705 0.469201 0.756561
0.604445 0.468399 0.753890
0.748416 0.468533 0.751219
0.876592 0.459725 0.734674
1.000000 0.450000 0.719586
0.000000 0.621148 0.758259
0.087726 0.618464 0.755589
0.215530 0.617004 0.752918
0.343334 0.614519 0.750247
0.471139 0.609357 0.747576
0.600536 0.593848 0.744905
0.757765 0.593206 0.737844
0.886449 0.584232 0.715264
1.000000 0.575000 0.698930
0.000000 0.750000 0.749245
0.096990 0.750000 0.746399
0.224661 0.750000 0.743471
0.352331 0.750000 0.740364
0.480002 0.750000 0.736782
0.607673 0.750000 0.731041
0.766750 0.733878 0.701006
0.896305 0.714322 0.687435
1.000000 0.704772 0.673622
0.000000 0.875000 0.734275
0.098387 0.875000 0.728776
0.226316 0.875000 0.724021
0.354246 0.875000 0.718289
0.482176 0.875000 0.710508
0.610106 0.875000 0.697137
0.753899 0.875000 0.681573
0.906161 0.867656 0.677085
1.000000 0.853231 0.662894
0.000000 1.000000 0.716783
0.100511 1.000000 0.708273
0.228700 1.000000 0.701981
0.356889 1.000000 0.694347
0.485078 1.000000 0.684263
0.613267 1.000000 0.668930
0.755680 1.000000 0.658544
0.906009 1.000000 0.655355
1.000000 1.000000 0.652166
0.002902 0.000000 0.932347
0.070582 0.000000 0.929418
0.198512 0.000000 0.926488
0.326442 0.000000 0.923558
0.454372 0.000000 0.920628
0.582302 0.000000 0.917698
0.710232 0.000000 0.914768
0.838162 0.000000 0.911838
0.963093 0.000000 0.911907
0.000000 0.118886 0.922491
0.038015 0.085006 0.919561
0.170328 0.082723 0.916631
0.305224 0.082870 0.913701
0.440129 0.083016 0.910772
0.575040 0.083163 0.907842
0.709960 0.083309 0.904912
0.844887 0.083456 0.901982
0.973821 0.076309 0.897012
0.000000 0.241810 0.912635
0.048365 0.216337 0.909705
0.176441 0.210298 0.906775
0.310455 0.208362 0.903845
0.446682 0.208509 0.900915
0.582931 0.208655 0.897985
0.719202 0.208802 0.895055
0.855497 0.208948 0.892125
0.984549 0.200773 0.884145
0.000000 0.365917 0.902778
0.058714 0.347839 0.899849
0.186790 0.342846 0.896919
0.314867 0.335426 0.893989
0.451461 0.334002 0.891059
0.589743 0.334148 0.888129
0.728077 0.334295 0.885199
0.866467 0.334441 0.882269
0.995277 0.325236 0.870452
0.000000 0.491270 0.892922
0.069063 0.479528 0.889992
0.197139 0.475685 0.887062
0.325216 0.469900 0.884132
0.453292 0.460198 0.881202
0.594315 0.459641 0.878273
0.736187 0.459788 0.875343
0.877587 0.459675 0.871812
1.000000 0.450000 0.855895
0.000000 0.617934 0.883066
0.079412 0.611417 0.880136
0.207488 0.608847 0.877206
0.335565 0.604920 0.874276
0.463641 0.598180 0.871346
0.592894 0.585134 0.868416
0.742228 0.585280 0.865486
0.887444 0.584183 0.858361
1.000000 0.575000 0.839369
0.000000 0.745980 0.873209
0.089761 0.743525 0.870279
0.217838 0.742364 0.867350
0.345914 0.740562 0.864420
0.473990 0.737387 0.861490
0.602067 0.730313 0.858560
0.738102 0.710773 0.855630
0.897300 0.708690 0.839266
1.000000 0.700000 0.817047
0.000000 0.875000 0.862876
0.099382 0.875000 0.859554
0.227311 0.875000 0.856229
0.355241 0.875000 0.852692
0.483171 0.875000 0.848709
0.611101 0.875000 0.843507
0.739031 0.875000 0.832053
0.907156 0.854098 0.801041
1.000000 0.836701 0.786811
0.000000 1.000000 0.845585
0.101594 1.000000 0.839472
0.229783 1.000000 0.834471
0.357972 1.000000 0.828686
0.486161 1.000000 0.821467
0.614350 1.000000 0.811168
0.742539 1.000000 0.792083
0.897512 1.000000 0.779272
1.000000 1.000000 0.776083
0.003610 0.000000 0.996390
0.066853 0.000000 0.995061
0.195042 0.000000 0.993733
0.323231 0.000000 0.992404
0.451420 0.000000 0.991075
0.579609 0.000000 0.989746
0.707798 0.000000 0.988418
0.835987 0.000000 0.987089
0.964176 0.000000 0.985760
0.000000 0.117880 0.991920
0.028051 0.078043 0.990591
0.160929 0.075537 0.989263
0.296524 0.075603 0.987934
0.432121 0.075670 0.986605
0.567721 0.075736 0.985276
0.703324 0.075803 0.983948
0.838929 0.075869 0.982619
0.974538 0.075935 0.981290
0.000000 0.240507 0.987450
0.039003 0.209574 0.986121
0.167258 0.202908 0.984792
0.301862 0.200827 0.983464
0.438718 0.200893 0.982135
0.575583 0.200960 0.980806
0.712455 0.201026 0.979478
0.849336 0.201093 0.978149
0.985632 0.200718 0.976230
0.000000 0.364288 0.982980
0.049954 0.341264 0.981651
0.178210 0.335602 0.980322
0.306465 0.327588 0.978994
0.443530 0.326117 0.977665
0.582199 0.326183 0.976336
0.720886 0.326250 0.975007
0.859591 0.326316 0.973679
0.996360 0.325182 0.970425
0.000000 0.489255 0.978510
0.060906 0.473122 0.977181
0.189161 0.468535 0.975852
0.317417 0.461995 0.974524
0.445672 0.451916 0.973195
0.586545 0.451407 0.971866
0.728039 0.451473 0.970537
0.869572 0.451540 0.969209
1.000000 0.450000 0.964668
0.000000 0.615443 0.974040
0.071857 0.605156 0.972711
0.200113 0.601721 0.971382
0.328368 0.596786 0.970054
0.456624 0.589093 0.968725
0.586044 0.576630 0.967396
0.732458 0.576697 0.966067
0.878962 0.576763 0.964739
1.000000 0.575000 0.958531
0.000000 0.742885 0.969570
0.082809 0.737377 0.968241
0.211064 0.735178 0.966913
0.339320 0.731992 0.965584
0.467575 0.726966 0.964255
0.595831 0.717858 0.962926
0.729123 0.701920 0.961598
0.886674 0.701987 0.960269
1.000000 0.700000 0.950728
0.000000 0.871620 0.965100
0.093760 0.869795 0.963771
0.222016 0.868922 0.962443
0.350271 0.867647 0.961114
0.478527 0.865609 0.959785
0.606782 0.861833 0.958456
0.735038 0.852442 0.957128
0.884635 0.827210 0.955799
1.000000 0.825000 0.936258
0.000000 1.000000 0.959017
0.102677 1.000000 0.956900
0.230866 1.000000 0.955050
0.359055 1.000000 0.952975
0.487244 1.000000 0.950487
0.615433 1.000000 0.947110
0.743622 1.000000 0.941188
0.871811 1.000000 0.920205
1.000000 1.000000 0.900000
