luts/original/teal-sunset.cube
TITLE "Teal Sunset"
LUT_3D_SIZE 9
DOMAIN_MIN 0.0 0.0 0.0
DOMAIN_MAX 1.0 1.0 1.0
0.000000 0.000000 0.021000
0.100615 0.000000 0.024385
0.222791 0.000000 0.027209
0.345529 0.000000 0.029471
0.468828 0.000000 0.031172
0.592688 0.000000 0.032312
0.717110 0.000000 0.032890
0.842093 0.000000 0.032907
0.967638 0.000000 0.032362
0.000000 0.125000 0.019122
0.103812 0.125000 0.016139
0.228747 0.121794 0.014840
0.352429 0.116488 0.010566
0.476673 0.110106 0.004477
0.601477 0.105402 0.000000
0.726844 0.105089 0.000000
0.852771 0.105482 0.000000
0.979260 0.106516 0.000000
0.000000 0.250000 0.013078
0.102317 0.250000 0.009379
0.233661 0.250000 0.007609
0.359330 0.246199 0.003251
0.484518 0.242259 0.000000
0.610267 0.241062 0.000000
0.736577 0.240951 0.000000
0.863449 0.241676 0.000000
0.990882 0.243119 0.000000
0.000000 0.375000 0.003975
0.102230 0.375000 0.000000
0.234835 0.375000 0.000000
0.365871 0.375000 0.000000
0.492362 0.373181 0.000000
0.619056 0.372638 0.000000
0.746310 0.373155 0.000000
0.874126 0.374501 0.000000
1.000000 0.375000 0.000000
0.007992 0.500000 0.000000
0.112876 0.500000 0.000000
0.243226 0.500000 0.000000
0.372327 0.500000 0.000000
0.500207 0.500000 0.000000
0.627845 0.500000 0.000000
0.756044 0.500000 0.000000
0.884804 0.500000 0.000000
1.000000 0.500000 0.000000
0.022301 0.625000 0.000000
0.126183 0.625000 0.000000
0.253796 0.625000 0.000000
0.381409 0.625000 0.000000
0.509021 0.625000 0.000000
0.636634 0.625000 0.000000
0.765777 0.625000 0.000000
0.895482 0.625000 0.000000
1.000000 0.625000 0.000000
0.031446 0.750000 0.000000
0.136044 0.750000 0.000000
0.263937 0.750000 0.000000
0.391831 0.750000 0.000000
0.519724 0.750000 0.000000
0.647617 0.750000 0.000000
0.775511 0.750000 0.000000
0.906160 0.750000 0.000000
1.000000 0.750000 0.000000
0.040247 0.875000 0.000000
0.147793 0.875000 0.000000
0.275967 0.875000 0.000000
0.404141 0.875000 0.000000
0.532315 0.875000 0.000000
0.660489 0.875000 0.000000
0.788663 0.875000 0.000000
0.916837 0.875000 0.000000
1.000000 0.875000 0.000000
0.050064 1.000000 0.000000
0.161431 1.000000 0.000000
0.289885 1.000000 0.000000
0.418340 1.000000 0.000000
0.546795 1.000000 0.000000
0.675250 1.000000 0.000000
0.803705 1.000000 0.000000
0.932159 1.000000 0.000000
1.000000 1.000000 0.000000
0.000272 0.000000 0.150369
0.101121 0.000000 0.148879
0.223392 0.000000 0.151608
0.346225 0.000000 0.153775
0.469620 0.000000 0.155380
0.593576 0.000000 0.156424
0.718093 0.000000 0.156907
0.843171 0.000000 0.156829
0.968811 0.000000 0.156189
0.000000 0.124152 0.145357
0.101766 0.122817 0.143867
0.229349 0.118552 0.142271
0.353126 0.112953 0.136909
0.477465 0.106102 0.130484
0.602365 0.097999 0.122353
0.727826 0.088643 0.112425
0.853849 0.078035 0.100673
0.980433 0.066174 0.087086
0.000000 0.250000 0.140692
0.100847 0.250000 0.136922
0.233017 0.250000 0.132008
0.360027 0.243770 0.127513
0.485309 0.236664 0.120322
0.611154 0.228810 0.111318
0.737560 0.219894 0.100499
0.864527 0.209831 0.087867
0.992055 0.198587 0.073421
0.000000 0.375000 0.131902
0.099465 0.375000 0.125842
0.231729 0.375000 0.121765
0.366159 0.375000 0.119714
0.493154 0.368576 0.112006
0.619943 0.360972 0.102001
0.747293 0.352446 0.090182
0.875204 0.342840 0.076549
1.000000 0.332322 0.061323
0.000000 0.500000 0.120084
0.098753 0.500000 0.111684
0.232339 0.500000 0.108415
0.366774 0.500000 0.106083
0.500999 0.499920 0.103691
0.628732 0.492716 0.092685
0.757026 0.484657 0.079865
0.885882 0.475556 0.065231
1.000000 0.466303 0.049701
0.000000 0.625000 0.105219
0.099020 0.625000 0.094570
0.234021 0.625000 0.091957
0.368921 0.625000 0.089345
0.503724 0.625000 0.086732
0.637521 0.624096 0.083368
0.766760 0.616563 0.069547
0.896560 0.608005 0.053912
1.000000 0.600053 0.038079
0.000000 0.750000 0.087301
0.101032 0.750000 0.075286
0.236650 0.750000 0.072393
0.372185 0.750000 0.069499
0.507639 0.750000 0.066606
0.643013 0.750000 0.063713
0.776493 0.748195 0.059230
0.907238 0.740208 0.042594
1.000000 0.733580 0.026457
0.000000 0.875000 0.066329
0.103867 0.875000 0.052895
0.240189 0.875000 0.049721
0.376440 0.875000 0.046547
0.512620 0.875000 0.043373
0.648730 0.875000 0.040198
0.784771 0.875000 0.037024
0.917915 0.872186 0.031275
1.000000 0.866893 0.014835
0.000000 1.000000 0.042299
0.107549 1.000000 0.027396
0.244625 1.000000 0.023941
0.381636 1.000000 0.020487
0.518583 1.000000 0.017032
0.655466 1.000000 0.013577
0.792288 1.000000 0.010122
0.929047 1.000000 0.006667
1.000000 1.000000 0.003213
0.000648 0.000000 0.279547
0.097223 0.000000 0.277777
0.223994 0.000000 0.276006
0.346922 0.000000 0.278078
0.470412 0.000000 0.279588
0.594463 0.000000 0.280537
0.719075 0.000000 0.280925
0.844249 0.000000 0.280751
0.969984 0.000000 0.280015
0.000000 0.122715 0.273591
0.094183 0.117826 0.271821
0.225711 0.116109 0.270050
0.353823 0.112911 0.268151
0.478257 0.106055 0.261487
0.603252 0.097946 0.253521
0.728809 0.088584 0.243902
0.854927 0.077970 0.232528
0.981606 0.066104 0.219356
0.000000 0.249102 0.267635
0.100496 0.248569 0.265864
0.227373 0.245733 0.264094
0.360723 0.237497 0.254752
0.486101 0.230584 0.246225
0.612041 0.222418 0.236698
0.738542 0.213000 0.225499
0.865605 0.202329 0.212518
0.993228 0.190406 0.197721
0.000000 0.375000 0.260104
0.100162 0.375000 0.256238
0.227213 0.375000 0.249080
0.366149 0.375000 0.244017
0.493946 0.365057 0.236167
0.620830 0.356119 0.226061
0.748276 0.346734 0.214140
0.876282 0.336415 0.200406
1.000000 0.325321 0.185150
0.000000 0.500000 0.248588
0.099545 0.500000 0.242385
0.226877 0.500000 0.233301
0.364237 0.500000 0.230291
0.501791 0.499788 0.227851
0.629619 0.490304 0.216744
0.758009 0.480916 0.203823
0.886960 0.470825 0.189088
1.000000 0.460860 0.173527
0.000000 0.625000 0.234053
0.099599 0.625000 0.225381
0.228304 0.625000 0.216070
0.365603 0.625000 0.213457
0.502729 0.625000 0.210845
0.638408 0.623740 0.207428
0.767742 0.614555 0.193506
0.897638 0.604801 0.177770
1.000000 0.596083 0.161905
0.000000 0.750000 0.216480
0.100322 0.750000 0.205112
0.230973 0.750000 0.196410
0.368363 0.750000 0.193517
0.505629 0.750000 0.190623
0.642773 0.750000 0.187730
0.777476 0.747718 0.183188
0.908315 0.738386 0.166451
1.000000 0.731006 0.150284
0.000000 0.875000 0.195860
0.101715 0.875000 0.181534
0.234393 0.875000 0.173643
0.372197 0.875000 0.170469
0.509901 0.875000 0.167295
0.647506 0.875000 0.164121
0.785014 0.875000 0.160946
0.918993 0.871620 0.155133
1.000000 0.865641 0.138662
0.000000 1.000000 0.172188
0.103777 1.000000 0.154627
0.238629 1.000000 0.147768
0.377003 1.000000 0.144313
0.515291 1.000000 0.140859
0.653494 1.000000 0.137404
0.791614 1.000000 0.133949
0.929651 1.000000 0.130494
1.000000 1.000000 0.127040
0.001125 0.000000 0.408535
0.093516 0.000000 0.406484
0.220567 0.000000 0.404433
0.347619 0.000000 0.402381
0.471204 0.000000 0.403796
0.595350 0.000000 0.404650
0.720058 0.000000 0.404942
0.845327 0.000000 0.404673
0.971158 0.000000 0.403842
0.000000 0.121533 0.401635
0.085582 0.112011 0.399583
0.217204 0.110289 0.397532
0.350982 0.110412 0.395481
0.479049 0.106007 0.392477
0.604139 0.097892 0.384681
0.729791 0.088525 0.375374
0.856005 0.077905 0.364379
0.982780 0.066033 0.351623
0.000000 0.246562 0.394734
0.092897 0.242790 0.392683
0.220071 0.237821 0.390631
0.357035 0.235826 0.388580
0.486893 0.230536 0.380833
0.612928 0.222365 0.370286
0.739525 0.212941 0.358870
0.866683 0.202265 0.345971
0.994402 0.190336 0.331402
0.000000 0.374294 0.387833
0.100211 0.374112 0.385782
0.227386 0.373678 0.383731
0.354560 0.368120 0.381680
0.494738 0.355066 0.361653
0.621718 0.346838 0.350618
0.749258 0.337357 0.338188
0.877360 0.326870 0.324264
1.000000 0.315573 0.308976
0.000000 0.500000 0.377326
0.100337 0.500000 0.373125
0.227669 0.500000 0.367326
0.355121 0.500000 0.354499
0.502583 0.499411 0.352012
0.630507 0.485655 0.340804
0.758992 0.474860 0.327781
0.888038 0.463896 0.312945
1.000000 0.453318 0.297354
0.000000 0.625000 0.363097
0.100486 0.625000 0.356538
0.228098 0.625000 0.348535
0.358308 0.625000 0.337570
0.499979 0.625000 0.334958
0.639296 0.623081 0.331487
0.768725 0.611374 0.317464
0.898716 0.600171 0.301627
1.000000 0.590610 0.285732
0.000000 0.750000 0.345852
0.101304 0.750000 0.336740
0.229198 0.750000 0.327078
0.361557 0.750000 0.317534
0.501776 0.750000 0.314641
0.641785 0.750000 0.311747
0.778458 0.746978 0.307147
0.909393 0.735788 0.290309
1.000000 0.727474 0.274110
0.000000 0.875000 0.325572
0.102792 0.875000 0.313661
0.230966 0.875000 0.302560
0.365492 0.875000 0.294391
0.505436 0.875000 0.291217
0.645231 0.875000 0.288043
0.784878 0.875000 0.284869
0.920071 0.870822 0.278990
1.000000 0.863930 0.262488
0.000000 1.000000 0.302250
0.104951 1.000000 0.287271
0.233405 1.000000 0.274838
0.370230 1.000000 0.268140
0.510361 1.000000 0.264685
0.650374 1.000000 0.261230
0.790270 1.000000 0.257776
0.930051 1.000000 0.254321
1.000000 1.000000 0.250866
0.001706 0.000000 0.537332
0.090000 0.000000 0.535000
0.217332 0.000000 0.532668
0.344664 0.000000 0.530336
0.471996 0.000000 0.528004
0.596237 0.000000 0.528763
0.721040 0.000000 0.528960
0.846405 0.000000 0.528595
0.972331 0.000000 0.527669
0.000000 0.120358 0.529487
0.075965 0.105053 0.527155
0.208095 0.103261 0.524823
0.342371 0.103401 0.522492
0.476674 0.103540 0.520160
0.605026 0.097839 0.515834
0.730774 0.088466 0.506841
0.857083 0.077841 0.496226
0.983953 0.065963 0.483887
0.000000 0.244460 0.521643
0.084281 0.236200 0.519311
0.211753 0.230513 0.516979
0.347258 0.228871 0.514647
0.484830 0.229011 0.512315
0.613816 0.222312 0.503850
0.740507 0.212882 0.492225
0.867760 0.202200 0.479414
0.995575 0.190266 0.465075
0.000000 0.370810 0.513798
0.092596 0.367731 0.511466
0.220068 0.364601 0.509134
0.347540 0.355776 0.506802
0.493466 0.354482 0.504470
0.622605 0.346784 0.488830
0.750241 0.337298 0.474586
0.878438 0.326559 0.459781
1.000000 0.315000 0.444112
0.000000 0.499659 0.505953
0.100912 0.499715 0.503621
0.228384 0.499847 0.501289
0.355793 0.500000 0.498703
0.503375 0.489774 0.476173
0.631394 0.472969 0.464863
0.759974 0.463379 0.451740
0.889116 0.452777 0.436803
1.000000 0.442176 0.421181
0.000000 0.625000 0.492352
0.101373 0.625000 0.487728
0.228986 0.625000 0.482196
0.356598 0.625000 0.473498
0.490868 0.625000 0.459070
0.640183 0.621442 0.455547
0.769708 0.605565 0.441422
0.899794 0.592895 0.425484
1.000000 0.582582 0.409559
0.000000 0.750000 0.475418
0.102287 0.750000 0.468397
0.230180 0.750000 0.460769
0.358074 0.750000 0.449668
0.493618 0.750000 0.438658
0.639065 0.750000 0.435765
0.779441 0.745670 0.431105
0.910471 0.731779 0.414166
1.000000 0.722328 0.397937
0.000000 0.875000 0.455468
0.103870 0.875000 0.445816
0.232044 0.875000 0.436485
0.360218 0.875000 0.423742
0.497663 0.875000 0.415139
0.640970 0.875000 0.411965
0.784029 0.875000 0.408791
0.921149 0.869612 0.402848
1.000000 0.861454 0.386315
0.000000 1.000000 0.432485
0.106124 1.000000 0.419941
0.234579 1.000000 0.409102
0.363033 1.000000 0.394976
0.502691 1.000000 0.388512
0.645338 1.000000 0.385057
0.787810 1.000000 0.381602
0.930109 1.000000 0.378148
1.000000 1.000000 0.374693
0.002389 0.000000 0.665939
0.086674 0.000000 0.663326
0.214287 0.000000 0.660713
0.341899 0.000000 0.658101
0.469512 0.000000 0.655488
0.597125 0.000000 0.652875
0.722023 0.000000 0.652977
0.847483 0.000000 0.652517
0.973504 0.000000 0.651496
0.000000 0.119129 0.657149
0.065332 0.096904 0.654537
0.198104 0.095025 0.651924
0.333077 0.095182 0.649312
0.468069 0.095339 0.646699
0.603078 0.095495 0.644086
0.731757 0.088407 0.638303
0.858161 0.077776 0.628070
0.985126 0.065892 0.616148
0.000000 0.242485 0.648360
0.074648 0.228529 0.645748
0.202417 0.222222 0.643135
0.337924 0.220709 0.640522
0.475265 0.220866 0.637910
0.612672 0.221023 0.635297
0.741490 0.212823 0.625565
0.868838 0.202135 0.612846
0.996748 0.190195 0.598740
0.000000 0.367823 0.639571
0.083965 0.360462 0.636959
0.211734 0.356018 0.634346
0.339503 0.347193 0.631733
0.480661 0.346393 0.629121
0.623042 0.346550 0.626508
0.751223 0.337239 0.610945
0.879516 0.326495 0.595523
1.000000 0.315000 0.579826
0.000000 0.495322 0.630782
0.093281 0.492745 0.628169
0.221050 0.490517 0.625557
0.348820 0.485882 0.622944
0.478048 0.471921 0.620331
0.632281 0.471204 0.613600
0.760957 0.461655 0.592010
0.890194 0.450854 0.574274
1.000000 0.440000 0.557609
0.000000 0.625000 0.621818
0.102260 0.625000 0.618952
0.229873 0.625000 0.615920
0.357486 0.625000 0.612429
0.485098 0.625000 0.606835
0.641070 0.610338 0.579606
0.770690 0.591585 0.565381
0.900872 0.579790 0.549342
1.000000 0.569665 0.533386
0.000000 0.750000 0.605179
0.103269 0.750000 0.600084
0.231163 0.750000 0.594507
0.359056 0.750000 0.586956
0.486949 0.750000 0.573980
0.630537 0.750000 0.559782
0.780424 0.742738 0.555063
0.911549 0.724786 0.538023
1.000000 0.714135 0.521764
0.000000 0.875000 0.585545
0.104948 0.875000 0.577997
0.233122 0.875000 0.570449
0.361296 0.875000 0.560471
0.489470 0.875000 0.545260
0.632220 0.875000 0.535887
0.781579 0.875000 0.532713
0.922227 0.867559 0.526705
1.000000 0.857552 0.510142
0.000000 1.000000 0.562894
0.107297 1.000000 0.552635
0.235752 1.000000 0.543401
0.364206 1.000000 0.531589
0.492661 1.000000 0.514978
0.636736 1.000000 0.508884
0.783279 1.000000 0.505429
0.929536 1.000000 0.501975
1.000000 1.000000 0.498520
0.003175 0.000000 0.794354
0.083539 0.000000 0.791461
0.211432 0.000000 0.788568
0.339326 0.000000 0.785674
0.467219 0.000000 0.782781
0.595112 0.000000 0.779888
0.723006 0.000000 0.776994
0.848561 0.000000 0.776439
0.974678 0.000000 0.775322
0.000000 0.117823 0.784621
0.053681 0.087549 0.781728
0.187162 0.085582 0.778834
0.322918 0.085756 0.775941
0.458688 0.085930 0.773048
0.594471 0.086103 0.770154
0.730267 0.086277 0.767261
0.859239 0.077711 0.759909
0.986300 0.065822 0.748406
0.000000 0.240524 0.774888
0.063999 0.219701 0.771994
0.192066 0.212790 0.769101
0.327997 0.211340 0.766208
0.465664 0.211514 0.763314
0.603373 0.211687 0.760421
0.741126 0.211861 0.757527
0.869916 0.202071 0.746268
0.997922 0.190125 0.732397
0.000000 0.365036 0.765154
0.074316 0.352118 0.762261
0.202383 0.346722 0.759367
0.330450 0.337678 0.756474
0.470581 0.337098 0.753581
0.611599 0.337271 0.750687
0.752206 0.337180 0.747266
0.880594 0.326430 0.731241
1.000000 0.315000 0.715540
0.000000 0.491492 0.755421
0.084633 0.484828 0.752527
0.212700 0.481167 0.749634
0.340767 0.474873 0.746741
0.469964 0.462682 0.743847
0.617990 0.462855 0.740954
0.761939 0.461596 0.733917
0.891272 0.450789 0.713626
1.000000 0.440000 0.696295
0.000000 0.620039 0.745687
0.094951 0.617865 0.742794
0.223018 0.616199 0.739901
0.351085 0.613252 0.737007
0.479152 0.606633 0.734114
0.615211 0.588439 0.731221
0.771673 0.586012 0.714953
0.901949 0.575149 0.690273
1.000000 0.565000 0.671966
0.000000 0.750000 0.735135
0.104252 0.750000 0.731800
0.232145 0.750000 0.728293
0.360039 0.750000 0.724334
0.487932 0.750000 0.719126
0.615825 0.750000 0.707380
0.781406 0.730214 0.679022
0.912627 0.709502 0.661881
1.000000 0.699051 0.645590
0.000000 0.875000 0.715806
0.106026 0.875000 0.710205
0.234200 0.875000 0.704453
0.362374 0.875000 0.697266
0.490548 0.875000 0.686981
0.618722 0.875000 0.667756
0.774112 0.875000 0.656635
0.923305 0.863319 0.650562
1.000000 0.850493 0.633968
0.000000 1.000000 0.693477
0.108470 1.000000 0.685354
0.236925 1.000000 0.677736
0.365380 1.000000 0.668256
0.493834 1.000000 0.655306
0.622289 1.000000 0.634679
0.774202 1.000000 0.629256
0.927588 1.000000 0.625801
1.000000 1.000000 0.622347
0.004063 0.000000 0.922580
0.080595 0.000000 0.919405
0.208769 0.000000 0.916231
0.336943 0.000000 0.913057
0.465117 0.000000 0.909883
0.593291 0.000000 0.906709
0.721465 0.000000 0.903535
0.849639 0.000000 0.900361
0.975851 0.000000 0.899149
0.000000 0.116428 0.911902
0.041014 0.076983 0.908728
0.175243 0.074932 0.905554
0.311827 0.075123 0.902380
0.448422 0.075313 0.899206
0.585026 0.075504 0.896032
0.721641 0.075694 0.892857
0.858267 0.075885 0.889683
0.987473 0.065752 0.880661
0.000000 0.238529 0.901224
0.052333 0.209689 0.898050
0.180697 0.202173 0.894876
0.317239 0.200764 0.891702
0.455464 0.200954 0.888528
0.593719 0.201144 0.885354
0.732005 0.201335 0.882180
0.870323 0.201525 0.879006
0.999095 0.190054 0.866047
0.000000 0.362319 0.890546
0.063651 0.342632 0.887372
0.192015 0.336425 0.884198
0.320380 0.327025 0.881024
0.460473 0.326595 0.877850
0.601267 0.326785 0.874676
0.742137 0.326975 0.871502
0.881672 0.326365 0.866936
1.000000 0.315000 0.851254
0.000000 0.487905 0.879869
0.074969 0.475832 0.876695
0.203334 0.471088 0.873521
0.331698 0.463786 0.870347
0.461173 0.452235 0.867172
0.606378 0.452426 0.863998
0.751770 0.452616 0.860824
0.892350 0.450725 0.852925
1.000000 0.440000 0.834981
0.000000 0.615402 0.869191
0.086288 0.609314 0.866017
0.214652 0.606208 0.862843
0.343017 0.601343 0.859669
0.471381 0.592639 0.856495
0.604637 0.578066 0.853321
0.759989 0.578257 0.850147
0.903027 0.575084 0.836116
1.000000 0.565000 0.815606
0.000000 0.744935 0.858513
0.097606 0.743107 0.855339
0.225971 0.741842 0.852165
0.354335 0.739822 0.848991
0.482700 0.736086 0.845817
0.611064 0.726854 0.842643
0.760082 0.703897 0.839469
0.913705 0.699443 0.810807
1.000000 0.690000 0.788477
0.000000 0.875000 0.846251
0.107104 0.875000 0.842440
0.235278 0.875000 0.838498
0.363452 0.875000 0.834127
0.491626 0.875000 0.828829
0.619800 0.875000 0.820844
0.747974 0.875000 0.796317
0.924383 0.849401 0.774420
1.000000 0.833838 0.757795
0.000000 1.000000 0.824234
0.109643 1.000000 0.818098
0.238098 1.000000 0.812105
0.366553 1.000000 0.804974
0.495008 1.000000 0.795721
0.623462 1.000000 0.781762
0.751917 1.000000 0.753455
0.921579 1.000000 0.749628
1.000000 1.000000 0.746173
0.005054 0.000000 0.994946
0.077841 0.000000 0.993086
0.206296 0.000000 0.991225
0.334750 0.000000 0.989365
0.463205 0.000000 0.987505
0.591660 0.000000 0.985645
0.720115 0.000000 0.983784
0.848569 0.000000 0.981924
0.977024 0.000000 0.980064
0.000000 0.115004 0.988688
0.030253 0.068135 0.986828
0.165205 0.065902 0.984968
0.302603 0.066014 0.983107
0.440006 0.066125 0.981247
0.577414 0.066237 0.979387
0.714827 0.066348 0.977526
0.852245 0.066460 0.975666
0.988646 0.065681 0.972787
0.000000 0.236663 0.982430
0.042251 0.201128 0.980570
0.170817 0.192881 0.978710
0.308092 0.191389 0.976849
0.447029 0.191501 0.974989
0.585980 0.191612 0.973129
0.724944 0.191724 0.971268
0.863923 0.191836 0.969408
1.000000 0.190000 0.964952
0.000000 0.359958 0.976172
0.054248 0.334338 0.974312
0.182814 0.327331 0.972452
0.311381 0.317286 0.970591
0.451995 0.316876 0.968731
0.593167 0.316988 0.966871
0.734369 0.317099 0.965011
0.875603 0.317211 0.963150
1.000000 0.315000 0.957574
0.000000 0.484957 0.969914
0.066246 0.467779 0.968054
0.194812 0.462117 0.966193
0.323378 0.453925 0.964333
0.453155 0.442252 0.962473
0.597798 0.442363 0.960613
0.742508 0.442475 0.958753
0.887287 0.442586 0.956892
1.000000 0.440000 0.949636
0.000000 0.611727 0.963656
0.078243 0.601466 0.961796
0.206809 0.597264 0.959935
0.335376 0.591125 0.958075
0.463942 0.581305 0.956215
0.596815 0.567739 0.954355
0.747813 0.567850 0.952495
0.898980 0.567962 0.950634
1.000000 0.565000 0.940578
0.000000 0.740341 0.957398
0.090240 0.735415 0.955538
0.218807 0.732801 0.953677
0.347373 0.728942 0.951817
0.475940 0.722670 0.949957
0.604506 0.710695 0.948097
0.744601 0.693226 0.946236
0.910700 0.693337 0.944376
1.000000 0.690000 0.928720
0.000000 0.870877 0.951140
0.102238 0.869645 0.949280
0.230804 0.868760 0.947420
0.359371 0.867439 0.945559
0.487937 0.865254 0.943699
0.616503 0.860950 0.941839
0.745070 0.848542 0.939978
0.922615 0.818713 0.938118
1.000000 0.815000 0.905662
0.000000 1.000000 0.941667
0.110817 1.000000 0.938899
0.239272 1.000000 0.936123
0.367726 1.000000 0.932937
0.496181 1.000000 0.928984
0.624636 1.000000 0.923325
0.753091 1.000000 0.912444
0.890073 1.000000 0.871860
1.000000 1.000000 0.870000
