luts/original/teal-sunset.cube
TITLE "Teal Sunset"
LUT_3D_SIZE 5
DOMAIN_MIN 0.0 0.0 0.0
DOMAIN_MAX 1.0 1.0 1.0
0.000000 0.000000 0.021000
0.222791 0.000000 0.027209
0.468828 0.000000 0.031172
0.717110 0.000000 0.032890
0.967638 0.000000 0.032362
0.000000 0.250000 0.013078
0.233661 0.250000 0.007609
0.484518 0.242259 0.000000
0.736577 0.240951 0.000000
0.990882 0.243119 0.000000
0.007992 0.500000 0.000000
0.243226 0.500000 0.000000
0.500207 0.500000 0.000000
0.756044 0.500000 0.000000
1.000000 0.500000 0.000000
0.031446 0.750000 0.000000
0.263937 0.750000 0.000000
0.519724 0.750000 0.000000
0.775511 0.750000 0.000000
1.000000 0.750000 0.000000
0.050064 1.000000 0.000000
0.289885 1.000000 0.000000
0.546795 1.000000 0.000000
0.803705 1.000000 0.000000
1.000000 1.000000 0.000000
0.000648 0.000000 0.279547
0.223994 0.000000 0.276006
0.470412 0.000000 0.279588
0.719075 0.000000 0.280925
0.969984 0.000000 0.280015
0.000000 0.249102 0.267635
0.227373 0.245733 0.264094
0.486101 0.230584 0.246225
0.738542 0.213000 0.225499
0.993228 0.190406 0.197721
0.000000 0.500000 0.248588
0.226877 0.500000 0.233301
0.501791 0.499788 0.227851
0.758009 0.480916 0.203823
1.000000 0.460860 0.173527
0.000000 0.750000 0.216480
0.230973 0.750000 0.196410
0.505629 0.750000 0.190623
0.777476 0.747718 0.183188
1.000000 0.731006 0.150284
0.000000 1.000000 0.172188
0.238629 1.000000 0.147768
0.515291 1.000000 0.140859
0.791614 1.000000 0.133949
1.000000 1.000000 0.127040
0.001706 0.000000 0.537332
0.217332 0.000000 0.532668
0.471996 0.000000 0.528004
0.721040 0.000000 0.528960
0.972331 0.000000 0.527669
0.000000 0.244460 0.521643
0.211753 0.230513 0.516979
0.484830 0.229011 0.512315
0.740507 0.212882 0.492225
0.995575 0.190266 0.465075
0.000000 0.499659 0.505953
0.228384 0.499847 0.501289
0.503375 0.489774 0.476173
0.759974 0.463379 0.451740
1.000000 0.442176 0.421181
0.000000 0.750000 0.475418
0.230180 0.750000 0.460769
0.493618 0.750000 0.438658
0.779441 0.745670 0.431105
1.000000 0.722328 0.397937
0.000000 1.000000 0.432485
0.234579 1.000000 0.409102
0.502691 1.000000 0.388512
0.787810 1.000000 0.381602
1.000000 1.000000 0.374693
0.003175 0.000000 0.794354
0.211432 0.000000 0.788568
0.467219 0.000000 0.782781
0.723006 0.000000 0.776994
0.974678 0.000000 0.775322
0.000000 0.240524 0.774888
0.192066 0.212790 0.769101
0.465664 0.211514 0.763314
0.741126 0.211861 0.757527
0.997922 0.190125 0.732397
0.000000 0.491492 0.755421
0.212700 0.481167 0.749634
0.469964 0.462682 0.743847
0.761939 0.461596 0.733917
1.000000 0.440000 0.696295
0.000000 0.750000 0.735135
0.232145 0.750000 0.728293
0.487932 0.750000 0.719126
0.781406 0.730214 0.679022
1.000000 0.699051 0.645590
0.000000 1.000000 0.693477
0.236925 1.000000 0.677736
0.493834 1.000000 0.655306
0.774202 1.000000 0.629256
1.000000 1.000000 0.622347
0.005054 0.000000 0.994946
0.206296 0.000000 0.991225
0.463205 0.000000 0.987505
0.720115 0.000000 0.983784
0.977024 0.000000 0.980064
0.000000 0.236663 0.982430
0.170817 0.192881 0.978710
0.447029 0.191501 0.974989
0.724944 0.191724 0.971268
1.000000 0.190000 0.964952
0.000000 0.484957 0.969914
0.194812 0.462117 0.966193
0.453155 0.442252 0.962473
0.742508 0.442475 0.958753
1.000000 0.440000 0.949636
0.000000 0.740341 0.957398
0.218807 0.732801 0.953677
0.475940 0.722670 0.949957
0.744601 0.693226 0.946236
1.000000 0.690000 0.928720
0.000000 1.000000 0.941667
0.239272 1.000000 0.936123
0.496181 1.000000 0.928984
0.753091 1.000000 0.912444
1.000000 1.000000 0.870000
