luts/original/teal-horizon.cube
TITLE "Teal Horizon"
LUT_3D_SIZE 5
DOMAIN_MIN 0.0 0.0 0.0
DOMAIN_MAX 1.0 1.0 1.0
0.000000 0.000000 0.024500
0.217394 0.000000 0.032606
0.461360 0.000000 0.038640
0.707400 0.000000 0.042600
0.955512 0.000000 0.044488
0.000000 0.250000 0.021050
0.227090 0.250000 0.015204
0.475843 0.242166 0.008490
0.725369 0.233230 0.000000
0.976968 0.232448 0.000000
0.000000 0.500000 0.006446
0.228125 0.500000 0.000000
0.490040 0.500000 0.000000
0.743339 0.497804 0.000000
0.998424 0.499212 0.000000
0.017879 0.750000 0.000000
0.250625 0.750000 0.000000
0.505966 0.750000 0.000000
0.761308 0.750000 0.000000
1.000000 0.750000 0.000000
0.035760 1.000000 0.000000
0.272202 1.000000 0.000000
0.528580 1.000000 0.000000
0.784958 1.000000 0.000000
1.000000 1.000000 0.000000
0.000463 0.000000 0.284765
0.218504 0.000000 0.281496
0.462822 0.000000 0.287178
0.709214 0.000000 0.290786
0.957678 0.000000 0.292322
0.000000 0.249184 0.273769
0.222069 0.246284 0.270500
0.477305 0.234260 0.259400
0.727183 0.219735 0.244296
0.979134 0.201043 0.223310
0.000000 0.500000 0.260892
0.220608 0.500000 0.247973
0.490925 0.500000 0.241337
0.745153 0.484418 0.223684
1.000000 0.466693 0.199410
0.000000 0.750000 0.236942
0.221396 0.750000 0.216155
0.492937 0.750000 0.210813
0.763122 0.749055 0.204816
1.000000 0.733809 0.177954
0.000000 1.000000 0.202782
0.227515 1.000000 0.175632
0.500694 1.000000 0.169254
0.773602 1.000000 0.162876
1.000000 1.000000 0.156498
0.001218 0.000000 0.544326
0.209979 0.000000 0.540021
0.464284 0.000000 0.535716
0.711028 0.000000 0.538972
0.959844 0.000000 0.540156
0.000000 0.246000 0.529843
0.206310 0.233957 0.525538
0.474758 0.232063 0.521233
0.728997 0.219644 0.508229
0.981300 0.200935 0.487663
0.000000 0.499399 0.515360
0.221517 0.498991 0.511055
0.476038 0.491394 0.506750
0.746967 0.468745 0.472238
1.000000 0.450274 0.447244
0.000000 0.750000 0.492824
0.222847 0.750000 0.479561
0.480940 0.750000 0.458999
0.764936 0.747993 0.452911
1.000000 0.726155 0.425788
0.000000 1.000000 0.459542
0.226534 1.000000 0.437076
0.489088 1.000000 0.417088
0.769754 1.000000 0.410710
1.000000 1.000000 0.404332
0.002268 0.000000 0.803183
0.202159 0.000000 0.797841
0.457500 0.000000 0.792500
0.712842 0.000000 0.787158
0.962010 0.000000 0.787990
0.000000 0.243225 0.785214
0.187228 0.219154 0.779872
0.456444 0.217367 0.774530
0.727975 0.217634 0.769189
0.983466 0.200827 0.751990
0.000000 0.493779 0.767244
0.206096 0.483999 0.761903
0.461705 0.469201 0.756561
0.748416 0.468533 0.751219
1.000000 0.450000 0.719586
0.000000 0.750000 0.749245
0.224661 0.750000 0.743471
0.480002 0.750000 0.736782
0.766750 0.733878 0.701006
1.000000 0.704772 0.673622
0.000000 1.000000 0.716783
0.228700 1.000000 0.701981
0.485078 1.000000 0.684263
0.755680 1.000000 0.658544
1.000000 1.000000 0.652166
0.003610 0.000000 0.996390
0.195042 0.000000 0.993733
0.451420 0.000000 0.991075
0.707798 0.000000 0.988418
0.964176 0.000000 0.985760
0.000000 0.240507 0.987450
0.167258 0.202908 0.984792
0.438718 0.200893 0.982135
0.712455 0.201026 0.979478
0.985632 0.200718 0.976230
0.000000 0.489255 0.978510
0.189161 0.468535 0.975852
0.445672 0.451916 0.973195
0.728039 0.451473 0.970537
1.000000 0.450000 0.964668
0.000000 0.742885 0.969570
0.211064 0.735178 0.966913
0.467575 0.726966 0.964255
0.729123 0.701920 0.961598
1.000000 0.700000 0.950728
0.000000 1.000000 0.959017
0.230866 1.000000 0.955050
0.487244 1.000000 0.950487
0.743622 1.000000 0.941188
1.000000 1.000000 0.900000
