luts/original/teal-horizon.cube
TITLE "Teal Horizon"
LUT_3D_SIZE 33
DOMAIN_MIN 0.0 0.0 0.0
DOMAIN_MAX 1.0 1.0 1.0
0.000000 0.000000 0.024500
0.019801 0.000000 0.025627
0.038345 0.000000 0.026721
0.065967 0.000000 0.027783
0.096188 0.000000 0.028812
0.126441 0.000000 0.029809
0.156726 0.000000 0.030774
0.187044 0.000000 0.031706
0.217394 0.000000 0.032606
0.247776 0.000000 0.033474
0.278191 0.000000 0.034309
0.308638 0.000000 0.035112
0.339118 0.000000 0.035882
0.369630 0.000000 0.036620
0.400174 0.000000 0.037326
0.430751 0.000000 0.037999
0.461360 0.000000 0.038640
0.492002 0.000000 0.039248
0.522676 0.000000 0.039824
0.553382 0.000000 0.040368
0.584121 0.000000 0.040879
0.614892 0.000000 0.041358
0.645696 0.000000 0.041804
0.676531 0.000000 0.042219
0.707400 0.000000 0.042600
0.738300 0.000000 0.042950
0.769233 0.000000 0.043267
0.800199 0.000000 0.043551
0.831197 0.000000 0.043803
0.862227 0.000000 0.044023
0.893290 0.000000 0.044210
0.924385 0.000000 0.044365
0.955512 0.000000 0.044488
0.000000 0.031025 0.024929
0.019678 0.030959 0.024633
0.038086 0.030875 0.025673
0.065735 0.030006 0.026681
0.097207 0.029867 0.027656
0.127652 0.029152 0.027592
0.157992 0.028302 0.027544
0.188364 0.027386 0.027459
0.218768 0.026405 0.027299
0.249205 0.025360 0.027051
0.279675 0.024249 0.026711
0.310176 0.023073 0.026275
0.340710 0.021832 0.025744
0.371277 0.020526 0.025115
0.401876 0.019154 0.024389
0.432507 0.017718 0.023565
0.463171 0.016216 0.022642
0.493867 0.014650 0.021621
0.524595 0.013018 0.020501
0.555356 0.011322 0.019283
0.586149 0.009560 0.017965
0.616975 0.007733 0.016549
0.647833 0.006348 0.015526
0.678723 0.005713 0.015199
0.709646 0.005078 0.014843
0.740601 0.004443 0.014458
0.771589 0.003809 0.014043
0.802609 0.003174 0.013598
0.833661 0.002539 0.013122
0.864746 0.001904 0.012616
0.895863 0.001270 0.012079
0.927012 0.000635 0.011511
0.958194 0.000000 0.010912
0.000000 0.062470 0.025248
0.019043 0.062478 0.024937
0.038086 0.062490 0.024626
0.066887 0.062500 0.025568
0.098501 0.061815 0.025129
0.128863 0.060456 0.025229
0.159257 0.059606 0.025231
0.189684 0.058705 0.025136
0.220143 0.057743 0.024944
0.250634 0.056719 0.024654
0.281158 0.055632 0.024267
0.311714 0.054482 0.023782
0.342303 0.053269 0.023199
0.372924 0.051992 0.022519
0.403577 0.050652 0.021742
0.434263 0.049248 0.020867
0.464981 0.047781 0.019895
0.495732 0.046251 0.018825
0.526514 0.044657 0.017658
0.557330 0.043000 0.016393
0.588177 0.041279 0.015031
0.619058 0.039494 0.013571
0.649970 0.037646 0.012014
0.680915 0.035735 0.010359
0.711892 0.033760 0.008607
0.742902 0.031722 0.006757
0.773944 0.029620 0.004810
0.805018 0.027454 0.002766
0.836125 0.025225 0.000624
0.867264 0.024508 0.000000
0.898436 0.024430 0.000000
0.929640 0.024383 0.000000
0.960876 0.024368 0.000000
0.000000 0.093750 0.024975
0.018408 0.093750 0.024584
0.036816 0.093750 0.024190
0.067347 0.093750 0.023371
0.098068 0.093750 0.023321
0.130074 0.093501 0.023957
0.160523 0.092213 0.023902
0.191004 0.091163 0.023750
0.221517 0.090138 0.023501
0.252063 0.089086 0.023153
0.282641 0.087990 0.022709
0.313252 0.086843 0.022167
0.343895 0.085638 0.021527
0.374571 0.084376 0.020790
0.405279 0.083053 0.019956
0.436019 0.081669 0.019024
0.466791 0.080223 0.017994
0.497596 0.078716 0.016867
0.528434 0.077146 0.015643
0.559304 0.075513 0.014321
0.590206 0.073818 0.012901
0.621140 0.072060 0.011384
0.652107 0.070239 0.009770
0.683107 0.068354 0.008058
0.714138 0.066407 0.006249
0.745202 0.064396 0.004342
0.776299 0.062323 0.002337
0.807428 0.060186 0.000236
0.838589 0.059815 0.000000
0.869783 0.059700 0.000000
0.901009 0.059619 0.000000
0.932267 0.059573 0.000000
0.963558 0.059561 0.000000
0.000000 0.125000 0.024510
0.017773 0.125000 0.024071
0.035547 0.125000 0.023630
0.066525 0.125000 0.022446
0.098621 0.125000 0.021490
0.130312 0.125000 0.022143
0.161788 0.124680 0.022574
0.192324 0.123539 0.022364
0.222892 0.122475 0.022057
0.253492 0.121409 0.021653
0.284125 0.120313 0.021151
0.314790 0.119172 0.020552
0.345488 0.117981 0.019855
0.376218 0.116735 0.019061
0.406980 0.115432 0.018169
0.437775 0.114069 0.017180
0.468602 0.112647 0.016093
0.499461 0.111163 0.014909
0.530353 0.109618 0.013627
0.561277 0.108011 0.012248
0.592234 0.106342 0.010772
0.623223 0.104611 0.009197
0.654244 0.102817 0.007526
0.685298 0.100961 0.005757
0.716384 0.099041 0.003890
0.747503 0.097059 0.001926
0.778654 0.095133 0.000000
0.809837 0.094939 0.000000
0.841053 0.094784 0.000000
0.872301 0.094668 0.000000
0.903582 0.094590 0.000000
0.934895 0.094548 0.000000
0.966240 0.094543 0.000000
0.000000 0.156250 0.023885
0.017139 0.156250 0.023408
0.034277 0.156250 0.022527
0.065748 0.156250 0.021389
0.097982 0.156250 0.020586
0.130706 0.156250 0.020226
0.162328 0.156250 0.020760
0.193644 0.155844 0.020978
0.224266 0.154760 0.020614
0.254921 0.153691 0.020153
0.285608 0.152601 0.019594
0.316328 0.151473 0.018937
0.347080 0.150299 0.018183
0.377865 0.149072 0.017332
0.408681 0.147790 0.016383
0.439530 0.146450 0.015336
0.470412 0.145052 0.014192
0.501326 0.143593 0.012951
0.532272 0.142074 0.011612
0.563251 0.140494 0.010176
0.594262 0.138852 0.008642
0.625306 0.137148 0.007011
0.656382 0.135382 0.005282
0.687490 0.133554 0.003455
0.718631 0.131663 0.001532
0.749804 0.130116 0.000000
0.781009 0.129877 0.000000
0.812247 0.129682 0.000000
0.843517 0.129529 0.000000
0.874820 0.129418 0.000000
0.906155 0.129346 0.000000
0.937522 0.129314 0.000000
0.968922 0.129320 0.000000
0.000000 0.187500 0.023100
0.016504 0.187500 0.022589
0.033391 0.187500 0.021313
0.065017 0.187500 0.020168
0.097405 0.187500 0.019509
0.130083 0.187500 0.019133
0.162749 0.187500 0.018757
0.194398 0.187500 0.019172
0.225641 0.186999 0.019171
0.256350 0.185936 0.018652
0.287092 0.184858 0.018036
0.317866 0.183747 0.017322
0.348673 0.182592 0.016511
0.379511 0.181387 0.015602
0.410383 0.180128 0.014596
0.441286 0.178813 0.013493
0.472222 0.177440 0.012291
0.503191 0.176008 0.010993
0.534192 0.174515 0.009597
0.565225 0.172962 0.008103
0.596290 0.171348 0.006512
0.627388 0.169672 0.004824
0.658519 0.167934 0.003038
0.689682 0.166134 0.001154
0.720877 0.164913 0.000000
0.752104 0.164627 0.000000
0.783364 0.164390 0.000000
0.814657 0.164200 0.000000
0.845981 0.164054 0.000000
0.877338 0.163952 0.000000
0.908728 0.163892 0.000000
0.940150 0.163873 0.000000
0.971604 0.163894 0.000000
0.000000 0.218750 0.022155
0.015869 0.218750 0.021612
0.032689 0.218750 0.020006
0.064331 0.218750 0.018774
0.096886 0.218750 0.018260
0.129555 0.218750 0.017868
0.162214 0.218750 0.017475
0.194864 0.218750 0.017083
0.226577 0.218750 0.017379
0.257779 0.218146 0.017152
0.288575 0.217086 0.016478
0.319404 0.215995 0.015707
0.350265 0.214862 0.014839
0.381158 0.213681 0.013873
0.412084 0.212447 0.012810
0.443042 0.211158 0.011649
0.474033 0.209811 0.010391
0.505056 0.208406 0.009035
0.536111 0.206941 0.007582
0.567199 0.205416 0.006031
0.598319 0.203830 0.004383
0.629471 0.202183 0.002637
0.660656 0.200474 0.000794
0.691873 0.199523 0.000000
0.723123 0.199188 0.000000
0.754405 0.198907 0.000000
0.785719 0.198678 0.000000
0.817066 0.198498 0.000000
0.848445 0.198364 0.000000
0.879857 0.198276 0.000000
0.911301 0.198232 0.000000
0.942777 0.198230 0.000000
0.974286 0.198269 0.000000
0.000000 0.250000 0.021050
0.015234 0.250000 0.020478
0.032032 0.250000 0.018513
0.063736 0.250000 0.017247
0.096423 0.250000 0.016838
0.129101 0.250000 0.016430
0.161772 0.250000 0.016021
0.194435 0.250000 0.015612
0.227090 0.250000 0.015204
0.258885 0.250000 0.015382
0.290059 0.249287 0.014921
0.320942 0.248219 0.014092
0.351857 0.247111 0.013167
0.382805 0.245955 0.012144
0.413785 0.244748 0.011023
0.444798 0.243485 0.009805
0.475843 0.242166 0.008490
0.506921 0.240789 0.007077
0.538030 0.239353 0.005566
0.569172 0.237856 0.003958
0.600347 0.236299 0.002253
0.631554 0.234681 0.000450
0.662793 0.233944 0.000000
0.694065 0.233556 0.000000
0.725369 0.233230 0.000000
0.756706 0.232961 0.000000
0.788074 0.232745 0.000000
0.819476 0.232580 0.000000
0.850909 0.232463 0.000000
0.882376 0.232393 0.000000
0.913874 0.232369 0.000000
0.945405 0.232387 0.000000
0.976968 0.232448 0.000000
0.000000 0.281250 0.019785
0.014600 0.281250 0.019184
0.031421 0.281250 0.016835
0.063310 0.281250 0.015669
0.096016 0.281250 0.015244
0.128715 0.281250 0.014819
0.161407 0.281250 0.014394
0.194092 0.281250 0.013970
0.226770 0.281250 0.013545
0.259442 0.281250 0.013120
0.291330 0.281250 0.013179
0.322480 0.280421 0.012478
0.353450 0.279340 0.011495
0.384452 0.278211 0.010415
0.415487 0.277031 0.009237
0.446554 0.275797 0.007962
0.477653 0.274506 0.006589
0.508785 0.273158 0.005119
0.539950 0.271750 0.003551
0.571146 0.270283 0.001886
0.602375 0.268755 0.000123
0.633637 0.268171 0.000000
0.664931 0.267729 0.000000
0.696257 0.267356 0.000000
0.727615 0.267045 0.000000
0.759006 0.266793 0.000000
0.790430 0.266595 0.000000
0.821885 0.266451 0.000000
0.853374 0.266355 0.000000
0.884894 0.266308 0.000000
0.916447 0.266306 0.000000
0.948032 0.266349 0.000000
0.979650 0.266435 0.000000
0.000000 0.312500 0.018359
0.013965 0.312500 0.017731
0.030855 0.312500 0.014972
0.062934 0.312500 0.013918
0.095665 0.312500 0.013477
0.128391 0.312500 0.013036
0.161110 0.312500 0.012595
0.193823 0.312500 0.012155
0.226531 0.312500 0.011714
0.259233 0.312500 0.011273
0.291928 0.312500 0.010832
0.323916 0.312500 0.010772
0.355042 0.311549 0.009823
0.386099 0.310449 0.008685
0.417188 0.309298 0.007450
0.448310 0.308093 0.006118
0.479464 0.306831 0.004688
0.510650 0.305512 0.003161
0.541869 0.304134 0.001536
0.573120 0.302785 0.000000
0.604404 0.302202 0.000000
0.635719 0.301703 0.000000
0.667068 0.301280 0.000000
0.698448 0.300927 0.000000
0.729861 0.300638 0.000000
0.761307 0.300408 0.000000
0.792785 0.300234 0.000000
0.824295 0.300114 0.000000
0.855838 0.300044 0.000000
0.887413 0.300023 0.000000
0.919020 0.300048 0.000000
0.950660 0.300118 0.000000
0.982332 0.300232 0.000000
0.000000 0.343750 0.016774
0.013330 0.343750 0.016118
0.030335 0.343750 0.012924
0.062608 0.343750 0.011996
0.095370 0.343750 0.011538
0.128127 0.343750 0.011081
0.160878 0.343750 0.010624
0.193624 0.343750 0.010167
0.226364 0.343750 0.009710
0.259099 0.343750 0.009253
0.291829 0.343750 0.008795
0.324554 0.343750 0.008338
0.356635 0.343740 0.008151
0.387746 0.342670 0.006956
0.418890 0.341549 0.005664
0.450066 0.340374 0.004274
0.481274 0.339142 0.002787
0.512515 0.337853 0.001203
0.543788 0.336686 0.000000
0.575094 0.336032 0.000000
0.606432 0.335473 0.000000
0.637802 0.335000 0.000000
0.669205 0.334602 0.000000
0.700640 0.334275 0.000000
0.732108 0.334013 0.000000
0.763608 0.333811 0.000000
0.795140 0.333666 0.000000
0.826705 0.333575 0.000000
0.858302 0.333534 0.000000
0.889931 0.333543 0.000000
0.921593 0.333598 0.000000
0.953287 0.333698 0.000000
0.985014 0.333843 0.000000
0.000000 0.375000 0.015028
0.012695 0.375000 0.014346
0.029861 0.375000 0.010691
0.062335 0.375000 0.009900
0.095131 0.375000 0.009427
0.127922 0.375000 0.008954
0.160707 0.375000 0.008480
0.193488 0.375000 0.008007
0.226264 0.375000 0.007533
0.259036 0.375000 0.007060
0.291802 0.375000 0.006587
0.324563 0.375000 0.006113
0.357320 0.375000 0.005640
0.389393 0.374874 0.005227
0.420591 0.373784 0.003877
0.451822 0.372640 0.002431
0.483084 0.371439 0.000886
0.514380 0.370387 0.000000
0.545708 0.369657 0.000000
0.577068 0.369035 0.000000
0.608460 0.368508 0.000000
0.639885 0.368067 0.000000
0.671342 0.367702 0.000000
0.702832 0.367407 0.000000
0.734354 0.367177 0.000000
0.765908 0.367008 0.000000
0.797495 0.366895 0.000000
0.829114 0.366836 0.000000
0.860766 0.366829 0.000000
0.892450 0.366870 0.000000
0.924166 0.366959 0.000000
0.955915 0.367093 0.000000
0.987696 0.367271 0.000000
0.000000 0.406250 0.013123
0.012061 0.406250 0.012414
0.029432 0.406250 0.008274
0.062115 0.406250 0.007633
0.094947 0.406250 0.007143
0.127774 0.406250 0.006654
0.160597 0.406250 0.006164
0.193415 0.406250 0.005674
0.226229 0.406250 0.005185
0.259038 0.406250 0.004695
0.291843 0.406250 0.004206
0.324643 0.406250 0.003716
0.357439 0.406250 0.003227
0.390230 0.406250 0.002737
0.422292 0.406005 0.002091
0.453577 0.404892 0.000587
0.484895 0.403882 0.000000
0.516245 0.403071 0.000000
0.547627 0.402382 0.000000
0.579041 0.401801 0.000000
0.610488 0.401313 0.000000
0.641968 0.400910 0.000000
0.673479 0.400583 0.000000
0.705023 0.400326 0.000000
0.736600 0.400133 0.000000
0.768209 0.400001 0.000000
0.799850 0.399925 0.000000
0.831524 0.399903 0.000000
0.863230 0.399932 0.000000
0.894968 0.400010 0.000000
0.926739 0.400135 0.000000
0.958542 0.400305 0.000000
0.990378 0.400519 0.000000
0.000000 0.437500 0.011057
0.011426 0.437500 0.010322
0.029075 0.437500 0.005698
0.061949 0.437500 0.005193
0.094819 0.437500 0.004687
0.127685 0.437500 0.004181
0.160546 0.437500 0.003675
0.193403 0.437500 0.003169
0.226256 0.437500 0.002664
0.259104 0.437500 0.002158
0.291948 0.437500 0.001652
0.324789 0.437500 0.001146
0.357625 0.437500 0.000641
0.390456 0.437500 0.000135
0.423303 0.437500 0.000000
0.455333 0.437163 0.000000
0.486705 0.436265 0.000000
0.518109 0.435507 0.000000
0.549546 0.434869 0.000000
0.581015 0.434335 0.000000
0.612517 0.433894 0.000000
0.644050 0.433536 0.000000
0.675617 0.433252 0.000000
0.707215 0.433038 0.000000
0.738846 0.432887 0.000000
0.770510 0.432796 0.000000
0.802205 0.432760 0.000000
0.833933 0.432778 0.000000
0.865694 0.432847 0.000000
0.897487 0.432964 0.000000
0.929312 0.433128 0.000000
0.961170 0.433337 0.000000
0.993060 0.433590 0.000000
0.000000 0.468750 0.008832
0.010791 0.468750 0.008071
0.028924 0.468750 0.003102
0.061837 0.468750 0.002580
0.094746 0.468750 0.002058
0.127652 0.468750 0.001536
0.160553 0.468750 0.001014
0.193450 0.468750 0.000492
0.226359 0.468750 0.000000
0.259492 0.468750 0.000000
0.292545 0.468750 0.000000
0.325518 0.468750 0.000000
0.358413 0.468750 0.000000
0.391230 0.468750 0.000000
0.423968 0.468750 0.000000
0.456629 0.468750 0.000000
0.488516 0.468399 0.000000
0.519974 0.467704 0.000000
0.551465 0.467124 0.000000
0.582989 0.466646 0.000000
0.614545 0.466257 0.000000
0.646133 0.465949 0.000000
0.677754 0.465714 0.000000
0.709407 0.465547 0.000000
0.741092 0.465442 0.000000
0.772810 0.465396 0.000000
0.804560 0.465405 0.000000
0.836343 0.465466 0.000000
0.868158 0.465578 0.000000
0.900005 0.465737 0.000000
0.931885 0.465943 0.000000
0.963797 0.466193 0.000000
0.995742 0.466487 0.000000
0.000000 0.500000 0.006446
0.010156 0.500000 0.005659
0.028826 0.500000 0.000333
0.061966 0.500000 0.000000
0.095352 0.500000 0.000000
0.128661 0.500000 0.000000
0.161892 0.500000 0.000000
0.195047 0.500000 0.000000
0.228125 0.500000 0.000000
0.261127 0.500000 0.000000
0.294053 0.500000 0.000000
0.326904 0.500000 0.000000
0.359680 0.500000 0.000000
0.392381 0.500000 0.000000
0.425008 0.500000 0.000000
0.457561 0.500000 0.000000
0.490040 0.500000 0.000000
0.521839 0.499669 0.000000
0.553385 0.499155 0.000000
0.584963 0.498738 0.000000
0.616573 0.498408 0.000000
0.648216 0.498156 0.000000
0.679891 0.497974 0.000000
0.711599 0.497858 0.000000
0.743339 0.497804 0.000000
0.775111 0.497806 0.000000
0.806916 0.497862 0.000000
0.838753 0.497970 0.000000
0.870622 0.498127 0.000000
0.902524 0.498331 0.000000
0.934458 0.498581 0.000000
0.966425 0.498875 0.000000
0.998424 0.499212 0.000000
0.000000 0.531250 0.003900
0.009521 0.531250 0.003088
0.031304 0.531250 0.000000
0.064631 0.531250 0.000000
0.097883 0.531250 0.000000
0.131062 0.531250 0.000000
0.164166 0.531250 0.000000
0.197197 0.531250 0.000000
0.230155 0.531250 0.000000
0.263041 0.531250 0.000000
0.295854 0.531250 0.000000
0.328595 0.531250 0.000000
0.361264 0.531250 0.000000
0.393862 0.531250 0.000000
0.426389 0.531250 0.000000
0.458845 0.531250 0.000000
0.491231 0.531250 0.000000
0.523547 0.531250 0.000000
0.555304 0.530969 0.000000
0.586937 0.530619 0.000000
0.618601 0.530353 0.000000
0.650299 0.530160 0.000000
0.682028 0.530037 0.000000
0.713790 0.529977 0.000000
0.745585 0.529975 0.000000
0.777412 0.530030 0.000000
0.809271 0.530137 0.000000
0.841162 0.530294 0.000000
0.873086 0.530499 0.000000
0.905043 0.530751 0.000000
0.937031 0.531047 0.000000
0.969052 0.531250 0.000000
1.000000 0.531250 0.000000
0.000000 0.562500 0.001194
0.008887 0.562500 0.000356
0.034280 0.562500 0.000000
0.067484 0.562500 0.000000
0.100616 0.562500 0.000000
0.133677 0.562500 0.000000
0.166668 0.562500 0.000000
0.199588 0.562500 0.000000
0.232438 0.562500 0.000000
0.265218 0.562500 0.000000
0.297929 0.562500 0.000000
0.330571 0.562500 0.000000
0.363144 0.562500 0.000000
0.395648 0.562500 0.000000
0.428085 0.562500 0.000000
0.460453 0.562500 0.000000
0.492754 0.562500 0.000000
0.524987 0.562500 0.000000
0.557153 0.562500 0.000000
0.588910 0.562294 0.000000
0.620630 0.562096 0.000000
0.652381 0.561969 0.000000
0.684165 0.561907 0.000000
0.715982 0.561906 0.000000
0.747831 0.561961 0.000000
0.779712 0.562071 0.000000
0.811626 0.562231 0.000000
0.843572 0.562441 0.000000
0.875550 0.562500 0.000000
0.907561 0.562500 0.000000
0.939604 0.562500 0.000000
0.971680 0.562500 0.000000
1.000000 0.562500 0.000000
0.001665 0.593750 0.000000
0.010773 0.593750 0.000000
0.037435 0.593750 0.000000
0.070526 0.593750 0.000000
0.103550 0.593750 0.000000
0.136505 0.593750 0.000000
0.169392 0.593750 0.000000
0.202212 0.593750 0.000000
0.234964 0.593750 0.000000
0.267649 0.593750 0.000000
0.300267 0.593750 0.000000
0.332818 0.593750 0.000000
0.365303 0.593750 0.000000
0.397722 0.593750 0.000000
0.430076 0.593750 0.000000
0.462364 0.593750 0.000000
0.494586 0.593750 0.000000
0.526744 0.593750 0.000000
0.558837 0.593750 0.000000
0.590865 0.593750 0.000000
0.622658 0.593643 0.000000
0.654464 0.593585 0.000000
0.686303 0.593589 0.000000
0.718174 0.593650 0.000000
0.750077 0.593750 0.000000
0.782013 0.593750 0.000000
0.813981 0.593750 0.000000
0.845981 0.593750 0.000000
0.878014 0.593750 0.000000
0.910080 0.593750 0.000000
0.942177 0.593750 0.000000
0.974308 0.593750 0.000000
1.000000 0.593750 0.000000
0.004652 0.625000 0.000000
0.013139 0.625000 0.000000
0.040770 0.625000 0.000000
0.073761 0.625000 0.000000
0.106685 0.625000 0.000000
0.139543 0.625000 0.000000
0.172336 0.625000 0.000000
0.205063 0.625000 0.000000
0.237726 0.625000 0.000000
0.270323 0.625000 0.000000
0.302856 0.625000 0.000000
0.335324 0.625000 0.000000
0.367729 0.625000 0.000000
0.400069 0.625000 0.000000
0.432346 0.625000 0.000000
0.464560 0.625000 0.000000
0.496710 0.625000 0.000000
0.528798 0.625000 0.000000
0.560823 0.625000 0.000000
0.592786 0.625000 0.000000
0.624686 0.625000 0.000000
0.656547 0.625000 0.000000
0.688440 0.625000 0.000000
0.720365 0.625000 0.000000
0.752323 0.625000 0.000000
0.784313 0.625000 0.000000
0.816336 0.625000 0.000000
0.848391 0.625000 0.000000
0.880479 0.625000 0.000000
0.912598 0.625000 0.000000
0.944750 0.625000 0.000000
0.976935 0.625000 0.000000
1.000000 0.625000 0.000000
0.007764 0.656250 0.000000
0.015631 0.656250 0.000000
0.044291 0.656250 0.000000
0.077188 0.656250 0.000000
0.110021 0.656250 0.000000
0.142791 0.656250 0.000000
0.175497 0.656250 0.000000
0.208139 0.656250 0.000000
0.240719 0.656250 0.000000
0.273235 0.656250 0.000000
0.305689 0.656250 0.000000
0.338081 0.656250 0.000000
0.370411 0.656250 0.000000
0.402678 0.656250 0.000000
0.434884 0.656250 0.000000
0.467029 0.656250 0.000000
0.499112 0.656250 0.000000
0.531135 0.656250 0.000000
0.563022 0.656250 0.000000
0.594891 0.656250 0.000000
0.626760 0.656250 0.000000
0.658630 0.656250 0.000000
0.690577 0.656250 0.000000
0.722557 0.656250 0.000000
0.754569 0.656250 0.000000
0.786614 0.656250 0.000000
0.818691 0.656250 0.000000
0.850801 0.656250 0.000000
0.882943 0.656250 0.000000
0.915117 0.656250 0.000000
0.947324 0.656250 0.000000
0.979563 0.656250 0.000000
1.000000 0.656250 0.000000
0.011005 0.687500 0.000000
0.018253 0.687500 0.000000
0.047999 0.687500 0.000000
0.080810 0.687500 0.000000
0.113559 0.687500 0.000000
0.146246 0.687500 0.000000
0.178871 0.687500 0.000000
0.211435 0.687500 0.000000
0.243938 0.687500 0.000000
0.276379 0.687500 0.000000
0.308760 0.687500 0.000000
0.341080 0.687500 0.000000
0.373340 0.687500 0.000000
0.405540 0.687500 0.000000
0.437632 0.687500 0.000000
0.469517 0.687500 0.000000
0.501402 0.687500 0.000000
0.533288 0.687500 0.000000
0.565173 0.687500 0.000000
0.597058 0.687500 0.000000
0.628944 0.687500 0.000000
0.660829 0.687500 0.000000
0.692714 0.687500 0.000000
0.724749 0.687500 0.000000
0.756816 0.687500 0.000000
0.788915 0.687500 0.000000
0.821046 0.687500 0.000000
0.853210 0.687500 0.000000
0.885407 0.687500 0.000000
0.917635 0.687500 0.000000
0.949897 0.687500 0.000000
0.982190 0.687500 0.000000
1.000000 0.687500 0.000000
0.014376 0.718750 0.000000
0.021005 0.718750 0.000000
0.051896 0.718750 0.000000
0.084627 0.718750 0.000000
0.117297 0.718750 0.000000
0.149907 0.718750 0.000000
0.182458 0.718750 0.000000
0.214948 0.718750 0.000000
0.247379 0.718750 0.000000
0.279751 0.718750 0.000000
0.312063 0.718750 0.000000
0.344122 0.718750 0.000000
0.376024 0.718750 0.000000
0.407925 0.718750 0.000000
0.439827 0.718750 0.000000
0.471728 0.718750 0.000000
0.503630 0.718750 0.000000
0.535531 0.718750 0.000000
0.567433 0.718750 0.000000
0.599334 0.718750 0.000000
0.631236 0.718750 0.000000
0.663137 0.718750 0.000000
0.695039 0.718750 0.000000
0.726940 0.718750 0.000000
0.759062 0.718750 0.000000
0.791215 0.718750 0.000000
0.823402 0.718750 0.000000
0.855620 0.718750 0.000000
0.887871 0.718750 0.000000
0.920154 0.718750 0.000000
0.952470 0.718750 0.000000
0.984818 0.718750 0.000000
1.000000 0.718750 0.000000
0.017879 0.750000 0.000000
0.023890 0.750000 0.000000
0.055984 0.750000 0.000000
0.088640 0.750000 0.000000
0.121237 0.750000 0.000000
0.153775 0.750000 0.000000
0.186255 0.750000 0.000000
0.218677 0.750000 0.000000
0.250625 0.750000 0.000000
0.282542 0.750000 0.000000
0.314460 0.750000 0.000000
0.346378 0.750000 0.000000
0.378296 0.750000 0.000000
0.410213 0.750000 0.000000
0.442131 0.750000 0.000000
0.474049 0.750000 0.000000
0.505966 0.750000 0.000000
0.537884 0.750000 0.000000
0.569802 0.750000 0.000000
0.601719 0.750000 0.000000
0.633637 0.750000 0.000000
0.665555 0.750000 0.000000
0.697473 0.750000 0.000000
0.729390 0.750000 0.000000
0.761308 0.750000 0.000000
0.793516 0.750000 0.000000
0.825757 0.750000 0.000000
0.858030 0.750000 0.000000
0.890335 0.750000 0.000000
0.922673 0.750000 0.000000
0.955043 0.750000 0.000000
0.987445 0.750000 0.000000
1.000000 0.750000 0.000000
0.021516 0.781250 0.000000
0.027621 0.781250 0.000000
0.060264 0.781250 0.000000
0.092849 0.781250 0.000000
0.125205 0.781250 0.000000
0.157139 0.781250 0.000000
0.189073 0.781250 0.000000
0.221007 0.781250 0.000000
0.252941 0.781250 0.000000
0.284874 0.781250 0.000000
0.316808 0.781250 0.000000
0.348742 0.781250 0.000000
0.380676 0.781250 0.000000
0.412610 0.781250 0.000000
0.444544 0.781250 0.000000
0.476478 0.781250 0.000000
0.508412 0.781250 0.000000
0.540346 0.781250 0.000000
0.572280 0.781250 0.000000
0.604213 0.781250 0.000000
0.636147 0.781250 0.000000
0.668081 0.781250 0.000000
0.700015 0.781250 0.000000
0.731949 0.781250 0.000000
0.763883 0.781250 0.000000
0.795817 0.781250 0.000000
0.828112 0.781250 0.000000
0.860439 0.781250 0.000000
0.892799 0.781250 0.000000
0.925191 0.781250 0.000000
0.957616 0.781250 0.000000
0.990073 0.781250 0.000000
1.000000 0.781250 0.000000
0.025287 0.812500 0.000000
0.031715 0.812500 0.000000
0.063665 0.812500 0.000000
0.095615 0.812500 0.000000
0.127565 0.812500 0.000000
0.159515 0.812500 0.000000
0.191465 0.812500 0.000000
0.223415 0.812500 0.000000
0.255365 0.812500 0.000000
0.287315 0.812500 0.000000
0.319266 0.812500 0.000000
0.351216 0.812500 0.000000
0.383166 0.812500 0.000000
0.415116 0.812500 0.000000
0.447066 0.812500 0.000000
0.479016 0.812500 0.000000
0.510966 0.812500 0.000000
0.542916 0.812500 0.000000
0.574866 0.812500 0.000000
0.606816 0.812500 0.000000
0.638766 0.812500 0.000000
0.670716 0.812500 0.000000
0.702667 0.812500 0.000000
0.734617 0.812500 0.000000
0.766567 0.812500 0.000000
0.798517 0.812500 0.000000
0.830467 0.812500 0.000000
