luts/original/thumbnail-punch.cube
TITLE "Thumbnail Punch"
LUT_3D_SIZE 9
DOMAIN_MIN 0.0 0.0 0.0
DOMAIN_MAX 1.0 1.0 1.0
0.000000 0.000000 0.000000
0.133194 0.000000 0.000000
0.272550 0.000000 0.000000
0.415969 0.000000 0.000000
0.563450 0.000000 0.000000
0.714994 0.000000 0.000000
0.870600 0.000000 0.000000
0.989844 0.000000 0.000000
1.000000 0.000000 0.000000
0.000000 0.120256 0.000000
0.133194 0.120256 0.000000
0.272550 0.119363 0.000000
0.415969 0.118469 0.000000
0.563450 0.117575 0.000000
0.714994 0.116681 0.000000
0.870600 0.115787 0.000000
0.989844 0.114894 0.000000
1.000000 0.114000 0.000000
0.000000 0.257175 0.000000
0.134738 0.257175 0.000000
0.272550 0.257175 0.000000
0.415969 0.258312 0.000000
0.563450 0.259450 0.000000
0.714994 0.260588 0.000000
0.870600 0.261725 0.000000
0.989844 0.262863 0.000000
1.000000 0.264000 0.000000
0.000000 0.398156 0.000000
0.136281 0.398156 0.000000
0.276125 0.398156 0.000000
0.415969 0.398156 0.000000
0.563450 0.401325 0.000000
0.714994 0.404494 0.000000
0.870600 0.407663 0.000000
0.989844 0.410831 0.000000
1.000000 0.414000 0.000000
0.000000 0.543200 0.000000
0.137825 0.543200 0.000000
0.279700 0.543200 0.000000
0.421575 0.543200 0.000000
0.563450 0.543200 0.000000
0.714994 0.548400 0.000000
0.870600 0.553600 0.000000
0.989844 0.558800 0.000000
1.000000 0.564000 0.000000
0.000000 0.692306 0.000000
0.139369 0.692306 0.000000
0.283275 0.692306 0.000000
0.427181 0.692306 0.000000
0.571087 0.692306 0.000000
0.714994 0.692306 0.000000
0.870600 0.699538 0.000000
0.989844 0.706769 0.000000
1.000000 0.714000 0.000000
0.000000 0.845475 0.000000
0.140913 0.845475 0.000000
0.286850 0.845475 0.000000
0.432788 0.845475 0.000000
0.578725 0.845475 0.000000
0.724662 0.845475 0.000000
0.870600 0.845475 0.000000
0.989844 0.854738 0.000000
1.000000 0.864000 0.000000
0.000000 0.989844 0.000000
0.142456 0.989844 0.000000
0.290425 0.989844 0.000000
0.438394 0.989844 0.000000
0.586362 0.989844 0.000000
0.734331 0.989844 0.000000
0.882300 0.989844 0.000000
0.989844 0.989844 0.000000
1.000000 1.000000 0.000000
0.000000 1.000000 0.000000
0.144000 1.000000 0.000000
0.294000 1.000000 0.000000
0.444000 1.000000 0.000000
0.594000 1.000000 0.000000
0.744000 1.000000 0.000000
0.894000 1.000000 0.000000
1.000000 1.000000 0.000000
1.000000 1.000000 0.000000
0.000000 0.000000 0.107319
0.133194 0.000000 0.107319
0.272550 0.000000 0.103988
0.415969 0.000000 0.100656
0.563450 0.000000 0.097325
0.714994 0.000000 0.093994
0.870600 0.000000 0.090663
0.989844 0.000000 0.087331
1.000000 0.000000 0.084000
0.000000 0.120256 0.107319
0.133194 0.118393 0.103593
0.272550 0.111613 0.094947
0.415969 0.103969 0.084839
0.563450 0.094933 0.073268
0.714994 0.084457 0.060235
0.870600 0.072528 0.045739
0.989844 0.061574 0.032206
1.000000 0.055965 0.024000
0.000000 0.257175 0.103988
0.129325 0.257175 0.095869
0.272550 0.255884 0.094947
0.415969 0.250404 0.084839
0.563450 0.243884 0.073268
0.714994 0.236035 0.060235
0.870600 0.226784 0.045739
0.989844 0.218570 0.032206
1.000000 0.215790 0.024000
0.000000 0.398156 0.100656
0.124214 0.398156 0.085907
0.270762 0.398156 0.085907
0.415969 0.396838 0.084839
0.563450 0.392834 0.073268
0.714994 0.387614 0.060235
0.870600 0.381041 0.045739
0.989844 0.375566 0.032206
1.000000 0.375616 0.024000
0.000000 0.543200 0.097325
0.117838 0.543200 0.074483
0.266851 0.543200 0.074483
0.415864 0.543200 0.074483
0.563450 0.541785 0.073268
0.714994 0.539193 0.060235
0.870600 0.535298 0.045739
0.989844 0.532561 0.032206
1.000000 0.535441 0.024000
0.000000 0.692306 0.093994
0.110056 0.692306 0.061596
0.261676 0.692306 0.061596
0.413296 0.692306 0.061596
0.564916 0.692306 0.061596
0.714994 0.690772 0.060235
0.870600 0.689555 0.045739
0.989844 0.689557 0.032206
1.000000 0.695266 0.024000
0.000000 0.845475 0.090663
0.100836 0.845475 0.047247
0.255123 0.845475 0.047247
0.409410 0.845475 0.047247
0.563696 0.845475 0.047247
0.717983 0.845475 0.047247
0.870600 0.843811 0.045739
0.989844 0.846553 0.032206
1.000000 0.855092 0.024000
0.000000 0.989844 0.087331
0.090942 0.989844 0.032206
0.247938 0.989844 0.032206
0.404934 0.989844 0.032206
0.561929 0.989844 0.032206
0.718925 0.989844 0.032206
0.875921 0.989844 0.032206
0.989844 0.989844 0.032206
1.000000 1.000000 0.024000
0.000000 1.000000 0.084000
0.087930 1.000000 0.024000
0.247755 1.000000 0.024000
0.407581 1.000000 0.024000
0.567406 1.000000 0.024000
0.727231 1.000000 0.024000
0.887057 1.000000 0.024000
1.000000 1.000000 0.024000
1.000000 1.000000 0.024000
0.000000 0.000000 0.241800
0.134738 0.000000 0.241800
0.272550 0.000000 0.241800
0.415969 0.000000 0.240500
0.563450 0.000000 0.239200
0.714994 0.000000 0.237900
0.870600 0.000000 0.236600
0.989844 0.000000 0.235300
1.000000 0.000000 0.234000
0.000000 0.119363 0.241800
0.129341 0.112167 0.241800
0.272550 0.110322 0.238787
0.415969 0.102651 0.230434
0.563450 0.093518 0.221157
0.714994 0.082922 0.210571
0.870600 0.070864 0.198588
0.989844 0.059769 0.187641
1.000000 0.054000 0.182126
0.000000 0.257175 0.241800
0.126620 0.257175 0.239771
0.272550 0.252655 0.232760
0.415969 0.244755 0.224682
0.563450 0.237398 0.215143
0.714994 0.228814 0.204141
0.870600 0.218843 0.191676
0.989844 0.209896 0.180175
1.000000 0.206350 0.174000
0.000000 0.398156 0.240500
0.121532 0.398156 0.230668
0.266293 0.398156 0.225751
0.415969 0.395897 0.224682
0.563450 0.389297 0.215143
0.714994 0.382650 0.204141
0.870600 0.374991 0.191676
0.989844 0.368660 0.180175
1.000000 0.368099 0.174000
0.000000 0.543200 0.239200
0.114983 0.543200 0.221253
0.261011 0.543200 0.216358
0.413269 0.543200 0.216358
0.563450 0.541195 0.215143
0.714994 0.536485 0.204141
0.870600 0.531138 0.191676
0.989844 0.527423 0.180175
1.000000 0.529849 0.174000
0.000000 0.692306 0.237900
0.106971 0.692306 0.210618
0.254927 0.692306 0.205502
0.408958 0.692306 0.205502
0.562988 0.692306 0.205502
0.714994 0.690320 0.204141
0.870600 0.687286 0.191676
0.989844 0.686187 0.180175
1.000000 0.691598 0.174000
0.000000 0.845475 0.236600
0.097497 0.845475 0.198611
0.247569 0.845475 0.193184
0.403843 0.845475 0.193184
0.560118 0.845475 0.193184
0.716393 0.845475 0.193184
0.870600 0.843433 0.191676
0.989844 0.844950 0.180175
1.000000 0.853347 0.174000
0.000000 0.989844 0.235300
0.087331 0.989844 0.185971
0.239618 0.989844 0.180175
0.398381 0.989844 0.180175
0.557145 0.989844 0.180175
0.715908 0.989844 0.180175
0.874672 0.989844 0.180175
0.989844 0.989844 0.180175
1.000000 1.000000 0.174000
0.000000 1.000000 0.234000
0.084000 1.000000 0.180308
0.238700 1.000000 0.174000
0.400449 1.000000 0.174000
0.562198 1.000000 0.174000
0.723948 1.000000 0.174000
0.885697 1.000000 0.174000
1.000000 1.000000 0.174000
1.000000 1.000000 0.174000
0.000000 0.000000 0.380344
0.136281 0.000000 0.380344
0.276125 0.000000 0.380344
0.415969 0.000000 0.380344
0.563450 0.000000 0.381075
0.714994 0.000000 0.381806
0.870600 0.000000 0.382538
0.989844 0.000000 0.383269
1.000000 0.000000 0.384000
0.000000 0.118469 0.380344
0.124121 0.104789 0.380344
0.271565 0.104789 0.380344
0.415969 0.102651 0.377468
0.563450 0.093518 0.370550
0.714994 0.082922 0.362515
0.870600 0.070864 0.353164
0.989844 0.059769 0.344943
1.000000 0.054000 0.342284
0.000000 0.258312 0.380344
0.122601 0.251473 0.380344
0.265865 0.244632 0.380344
0.415969 0.242495 0.375071
0.563450 0.235393 0.365766
0.714994 0.226829 0.356487
0.870600 0.216801 0.346171
0.989844 0.207738 0.337132
1.000000 0.204000 0.333783
0.000000 0.398156 0.380344
0.121532 0.398156 0.378705
0.261376 0.398156 0.376657
0.415969 0.390247 0.364526
0.563450 0.380705 0.357018
0.714994 0.373548 0.348047
0.870600 0.365382 0.337614
0.989844 0.358391 0.328144
1.000000 0.356922 0.324000
0.000000 0.543200 0.381075
0.114983 0.543200 0.371286
0.256858 0.543200 0.365847
0.406347 0.543200 0.358233
0.563450 0.539763 0.357018
0.714994 0.531520 0.348047
0.870600 0.524532 0.337614
0.989844 0.519783 0.328144
1.000000 0.521532 0.324000
0.000000 0.692306 0.381806
0.106971 0.692306 0.363050
0.250877 0.692306 0.356351
0.400674 0.692306 0.349409
0.559307 0.692306 0.349409
0.714994 0.689493 0.348047
0.870600 0.683682 0.337614
0.989844 0.681175 0.328144
1.000000 0.686143 0.324000
0.000000 0.845475 0.382538
0.097497 0.845475 0.353593
0.243434 0.845475 0.345977
0.394798 0.845475 0.339121
0.554304 0.845475 0.339121
0.713808 0.845475 0.339121
0.870600 0.842832 0.337614
0.989844 0.842567 0.328144
1.000000 0.850753 0.324000
0.000000 0.989844 0.383269
0.087331 0.989844 0.343599
0.235300 0.989844 0.335171
0.388638 0.989844 0.328144
0.550030 0.989844 0.328144
0.711422 0.989844 0.328144
0.872814 0.989844 0.328144
0.989844 0.989844 0.328144
1.000000 1.000000 0.324000
0.000000 1.000000 0.384000
0.084000 1.000000 0.340822
0.234000 1.000000 0.331649
0.389844 1.000000 0.324000
0.554455 1.000000 0.324000
0.719065 1.000000 0.324000
0.883675 1.000000 0.324000
1.000000 1.000000 0.324000
1.000000 1.000000 0.324000
0.000000 0.000000 0.522950
0.137825 0.000000 0.522950
0.279700 0.000000 0.522950
0.421575 0.000000 0.522950
0.563450 0.000000 0.522950
0.714994 0.000000 0.525712
0.870600 0.000000 0.528475
0.989844 0.000000 0.531237
1.000000 0.000000 0.534000
0.000000 0.117575 0.522950
0.117743 0.095948 0.522950
0.267342 0.095948 0.522950
0.416941 0.095948 0.522950
0.563450 0.093518 0.519943
0.714994 0.082922 0.514459
0.870600 0.070864 0.507741
0.989844 0.059769 0.502244
1.000000 0.054000 0.502442
0.000000 0.259450 0.522950
0.116198 0.244477 0.522950
0.260476 0.237823 0.522950
0.414366 0.237823 0.522950
0.563450 0.235393 0.518576
0.714994 0.226829 0.510943
0.870600 0.216801 0.502804
0.989844 0.207738 0.496335
1.000000 0.204000 0.496011
0.000000 0.401325 0.522950
0.116198 0.394671 0.522950
0.258073 0.390512 0.522950
0.405355 0.379698 0.522950
0.563450 0.377268 0.514931
0.714994 0.370735 0.504229
0.870600 0.362739 0.494782
0.989844 0.355706 0.487401
1.000000 0.354000 0.486287
0.000000 0.543200 0.522950
0.114983 0.543200 0.521318
0.256858 0.543200 0.520412
0.398733 0.543200 0.517240
0.563450 0.531172 0.498893
0.714994 0.519464 0.491953
0.870600 0.512420 0.483552
0.989844 0.507224 0.476113
1.000000 0.507863 0.474000
0.000000 0.692306 0.525712
0.106971 0.692306 0.515482
0.250877 0.692306 0.511828
0.394783 0.692306 0.504114
0.549489 0.692306 0.493315
0.714994 0.687484 0.491953
0.870600 0.677076 0.483552
0.989844 0.672937 0.476113
1.000000 0.677176 0.474000
0.000000 0.845475 0.528475
0.097497 0.845475 0.508576
0.243434 0.845475 0.503339
0.389372 0.845475 0.494362
0.543203 0.845475 0.485059
0.708875 0.845475 0.485059
0.870600 0.841731 0.483552
0.989844 0.838650 0.476113
1.000000 0.846489 0.474000
0.000000 0.989844 0.531237
0.087331 0.989844 0.501228
0.235300 0.989844 0.494852
0.383269 0.989844 0.485036
0.538335 0.989844 0.476113
0.704048 0.989844 0.476113
0.869761 0.989844 0.476113
0.989844 0.989844 0.476113
1.000000 1.000000 0.474000
0.000000 1.000000 0.534000
0.084000 1.000000 0.501336
0.234000 1.000000 0.494397
0.384000 1.000000 0.483712
0.541725 1.000000 0.474000
0.711039 1.000000 0.474000
0.880352 1.000000 0.474000
1.000000 1.000000 0.474000
1.000000 1.000000 0.474000
0.000000 0.000000 0.669619
0.139369 0.000000 0.669619
0.283275 0.000000 0.669619
0.427181 0.000000 0.669619
0.571087 0.000000 0.669619
0.714994 0.000000 0.669619
0.870600 0.000000 0.674412
0.989844 0.000000 0.679206
1.000000 0.000000 0.684000
0.000000 0.116681 0.669619
0.109966 0.085645 0.669619
0.262040 0.085645 0.669619
0.414113 0.085645 0.669619
0.566187 0.085645 0.669619
0.714994 0.082922 0.666404
0.870600 0.070864 0.662318
0.989844 0.059769 0.659545
1.000000 0.054000 0.662600
0.000000 0.260588 0.669619
0.108332 0.236448 0.669619
0.254455 0.229551 0.669619
0.409446 0.229551 0.669619
0.564437 0.229551 0.669619
0.714994 0.226829 0.665399
0.870600 0.216801 0.659438
0.989844 0.207738 0.655538
1.000000 0.204000 0.658239
0.000000 0.404494 0.669619
0.108332 0.388976 0.669619
0.252239 0.383007 0.669619
0.399593 0.373457 0.669619
0.560742 0.373457 0.669619
0.714994 0.370735 0.663481
0.870600 0.362739 0.654758
0.989844 0.355706 0.649480
1.000000 0.354000 0.651645
0.000000 0.548400 0.669619
0.108332 0.541503 0.669619
0.252239 0.538850 0.669619
0.396145 0.532882 0.669619
0.547810 0.517363 0.669619
0.714994 0.514641 0.658366
0.870600 0.508677 0.645825
0.989844 0.503675 0.639253
1.000000 0.504000 0.640514
0.000000 0.692306 0.669619
0.106971 0.692306 0.667914
0.250877 0.692306 0.667305
0.394783 0.692306 0.666019
0.538690 0.692306 0.661519
0.714994 0.675427 0.635860
0.870600 0.661032 0.629489
0.989844 0.656877 0.624081
1.000000 0.659696 0.624000
0.000000 0.845475 0.674412
0.097497 0.845475 0.663558
0.243434 0.845475 0.660702
0.389372 0.845475 0.655806
0.535309 0.845475 0.645468
0.695719 0.845475 0.630997
0.870600 0.839057 0.629489
0.989844 0.831013 0.624081
1.000000 0.838177 0.624000
0.000000 0.989844 0.679206
0.087331 0.989844 0.658856
0.235300 0.989844 0.654533
0.383269 0.989844 0.647876
0.531237 0.989844 0.636301
0.689673 0.989844 0.624081
0.863809 0.989844 0.624081
0.989844 0.989844 0.624081
1.000000 1.000000 0.624000
0.000000 1.000000 0.684000
0.084000 1.000000 0.661850
0.234000 1.000000 0.657144
0.384000 1.000000 0.649899
0.534000 1.000000 0.637300
0.695392 1.000000 0.624000
0.873873 1.000000 0.624000
1.000000 1.000000 0.624000
1.000000 1.000000 0.624000
0.000000 0.000000 0.820350
0.140913 0.000000 0.820350
0.286850 0.000000 0.820350
0.432788 0.000000 0.820350
0.578725 0.000000 0.820350
0.724662 0.000000 0.820350
0.870600 0.000000 0.820350
0.989844 0.000000 0.827175
1.000000 0.000000 0.834000
0.000000 0.115787 0.820350
0.100750 0.073879 0.820350
0.255419 0.073879 0.820350
0.410087 0.073879 0.820350
0.564755 0.073879 0.820350
0.719424 0.073879 0.820350
0.870600 0.070864 0.816894
0.989844 0.059769 0.816847
1.000000 0.054000 0.822758
0.000000 0.261725 0.820350
0.099004 0.227105 0.820350
0.247147 0.219817 0.820350
0.404113 0.219817 0.820350
0.561079 0.219817 0.820350
0.718045 0.219817 0.820350
0.870600 0.216801 0.816072
0.989844 0.207738 0.814742
1.000000 0.204000 0.820467
0.000000 0.407663 0.820350
0.099004 0.382153 0.820350
0.244942 0.375067 0.820350
0.393872 0.365754 0.820350
0.554777 0.365754 0.820350
0.715682 0.365754 0.820350
0.870600 0.362739 0.814735
0.989844 0.355706 0.811559
1.000000 0.354000 0.817003
0.000000 0.553600 0.820350
0.099004 0.537201 0.820350
0.244942 0.532646 0.820350
0.390879 0.524586 0.820350
0.541473 0.511692 0.820350
0.710693 0.511692 0.820350
0.870600 0.508677 0.812182
0.989844 0.503675 0.806187
1.000000 0.504000 0.811156
0.000000 0.699538 0.820350
0.099004 0.692249 0.820350
0.244942 0.690225 0.820350
0.390879 0.686643 0.820350
0.536816 0.678583 0.820350
0.693231 0.657629 0.820350
0.870600 0.654614 0.805376
0.989844 0.651644 0.795179
1.000000 0.654000 0.799175
0.000000 0.845475 0.820350
0.097497 0.845475 0.818541
0.243434 0.845475 0.818065
0.389372 0.845475 0.817249
0.535309 0.845475 0.815526
0.681247 0.845475 0.809496
0.870600 0.823013 0.775427
0.989844 0.809575 0.772050
1.000000 0.814843 0.774000
0.000000 0.989844 0.827175
0.087331 0.989844 0.816485
0.235300 0.989844 0.814214
0.383269 0.989844 0.810717
0.531237 0.989844 0.804636
0.679206 0.989844 0.791430
0.847100 0.989844 0.772050
0.989844 0.989844 0.772050
1.000000 1.000000 0.774000
0.000000 1.000000 0.834000
0.084000 1.000000 0.822365
0.234000 1.000000 0.819892
0.384000 1.000000 0.816086
0.534000 1.000000 0.809468
0.684000 1.000000 0.795094
0.855687 1.000000 0.774000
1.000000 1.000000 0.774000
1.000000 1.000000 0.774000
0.000000 0.000000 0.975144
0.142456 0.000000 0.975144
0.290425 0.000000 0.975144
0.438394 0.000000 0.975144
0.586362 0.000000 0.975144
0.734331 0.000000 0.975144
0.882300 0.000000 0.975144
0.989844 0.000000 0.975144
1.000000 0.000000 0.984000
0.000000 0.114894 0.975144
0.090084 0.060651 0.975144
0.247405 0.060651 0.975144
0.404726 0.060651 0.975144
0.562047 0.060651 0.975144
0.719368 0.060651 0.975144
0.876689 0.060651 0.975144
0.989844 0.059769 0.974148
1.000000 0.054000 0.982916
0.000000 0.262863 0.975144
0.088213 0.216368 0.975144
0.238442 0.208620 0.975144
0.397711 0.208620 0.975144
0.556981 0.208620 0.975144
0.716250 0.208620 0.975144
0.875520 0.208620 0.975144
0.989844 0.207738 0.973945
1.000000 0.204000 0.982696
0.000000 0.410831 0.975144
0.088213 0.374023 0.975144
0.236182 0.366022 0.975144
0.387006 0.356588 0.975144
0.549249 0.356588 0.975144
0.711492 0.356588 0.975144
0.873735 0.356588 0.975144
0.989844 0.355706 0.973639
1.000000 0.354000 0.982362
0.000000 0.558800 0.975144
0.088213 0.531678 0.975144
0.236182 0.525783 0.975144
0.384151 0.516611 0.975144
0.535994 0.504557 0.975144
0.703335 0.504557 0.975144
0.870677 0.504557 0.975144
0.989844 0.503675 0.973121
1.000000 0.504000 0.981798
0.000000 0.706769 0.975144
0.088213 0.689333 0.975144
0.236182 0.685543 0.975144
0.384151 0.679647 0.975144
0.532120 0.669216 0.975144
0.686115 0.652526 0.975144
0.864219 0.652526 0.975144
0.989844 0.651644 0.972060
1.000000 0.654000 0.980643
0.000000 0.854738 0.975144
0.088213 0.846988 0.975144
0.236182 0.845304 0.975144
0.384151 0.842683 0.975144
0.532120 0.838047 0.975144
0.680088 0.827616 0.975144
0.841618 0.800494 0.975144
0.989844 0.799613 0.968658
1.000000 0.804000 0.976941
0.000000 0.989844 0.975144
0.087331 0.989844 0.974113
0.235300 0.989844 0.973894
0.383269 0.989844 0.973557
0.531237 0.989844 0.972971
0.679206 0.989844 0.971698
0.827175 0.989844 0.966823
0.989844 0.989844 0.920019
1.000000 1.000000 0.924000
0.000000 1.000000 0.984000
0.084000 1.000000 0.982879
0.234000 1.000000 0.982640
0.384000 1.000000 0.982273
0.534000 1.000000 0.981635
0.684000 1.000000 0.980250
0.834000 1.000000 0.974943
1.000000 1.000000 0.924000
1.000000 1.000000 0.924000
0.000000 0.000000 1.000000
0.144000 0.000000 1.000000
0.294000 0.000000 1.000000
0.444000 0.000000 1.000000
0.594000 0.000000 1.000000
0.744000 0.000000 1.000000
0.894000 0.000000 1.000000
1.000000 0.000000 1.000000
1.000000 0.000000 1.000000
0.000000 0.114000 1.000000
0.086032 0.054000 1.000000
0.246190 0.054000 1.000000
0.406348 0.054000 1.000000
0.566506 0.054000 1.000000
0.726664 0.054000 1.000000
0.886822 0.054000 1.000000
1.000000 0.054000 1.000000
1.000000 0.054000 1.000000
0.000000 0.264000 1.000000
0.084000 0.212411 1.000000
0.236446 0.204000 1.000000
0.398674 0.204000 1.000000
0.560902 0.204000 1.000000
0.723130 0.204000 1.000000
0.885359 0.204000 1.000000
1.000000 0.204000 1.000000
1.000000 0.204000 1.000000
0.000000 0.414000 1.000000
0.084000 0.372925 1.000000
0.234000 0.364198 1.000000
0.387072 0.354000 1.000000
0.552430 0.354000 1.000000
0.717788 0.354000 1.000000
0.883147 0.354000 1.000000
1.000000 0.354000 1.000000
1.000000 0.354000 1.000000
0.000000 0.564000 1.000000
0.084000 0.533439 1.000000
0.234000 0.526946 1.000000
0.384000 0.516950 1.000000
0.538128 0.504000 1.000000
0.708771 0.504000 1.000000
0.879413 0.504000 1.000000
1.000000 0.504000 1.000000
1.000000 0.504000 1.000000
0.000000 0.714000 1.000000
0.084000 0.693953 1.000000
0.234000 0.689694 1.000000
0.384000 0.683137 1.000000
0.534000 0.671734 1.000000
0.690294 0.654000 1.000000
0.871762 0.654000 1.000000
1.000000 0.654000 1.000000
1.000000 0.654000 1.000000
0.000000 0.864000 1.000000
0.084000 0.854467 1.000000
0.234000 0.852442 1.000000
0.384000 0.849324 1.000000
0.534000 0.843901 1.000000
0.684000 0.832125 1.000000
0.847235 0.804000 1.000000
1.000000 0.804000 1.000000
1.000000 0.804000 1.000000
0.000000 1.000000 1.000000
0.084000 1.000000 1.000000
0.234000 1.000000 1.000000
0.384000 1.000000 1.000000
0.534000 1.000000 1.000000
0.684000 1.000000 1.000000
0.834000 1.000000 1.000000
1.000000 0.940000 0.940000
1.000000 0.940000 0.940000
0.000000 1.000000 1.000000
0.084000 1.000000 1.000000
0.234000 1.000000 1.000000
0.384000 1.000000 1.000000
0.534000 1.000000 1.000000
0.684000 1.000000 1.000000
0.834000 1.000000 1.000000
1.000000 0.940000 0.940000
1.000000 0.940000 0.940000
