luts/original/thumbnail-punch.cube
TITLE "Thumbnail Punch"
LUT_3D_SIZE 33
DOMAIN_MIN 0.0 0.0 0.0
DOMAIN_MAX 1.0 1.0 1.0
0.000000 0.000000 0.000000
0.031343 0.000000 0.000000
0.065039 0.000000 0.000000
0.098989 0.000000 0.000000
0.133194 0.000000 0.000000
0.167652 0.000000 0.000000
0.202364 0.000000 0.000000
0.237330 0.000000 0.000000
0.272550 0.000000 0.000000
0.308024 0.000000 0.000000
0.343752 0.000000 0.000000
0.379733 0.000000 0.000000
0.415969 0.000000 0.000000
0.452458 0.000000 0.000000
0.489202 0.000000 0.000000
0.526199 0.000000 0.000000
0.563450 0.000000 0.000000
0.600955 0.000000 0.000000
0.638714 0.000000 0.000000
0.676727 0.000000 0.000000
0.714994 0.000000 0.000000
0.753514 0.000000 0.000000
0.792289 0.000000 0.000000
0.831318 0.000000 0.000000
0.870600 0.000000 0.000000
0.910136 0.000000 0.000000
0.949927 0.000000 0.000000
0.984131 0.000000 0.000000
0.989844 0.000000 0.000000
0.994287 0.000000 0.000000
0.997461 0.000000 0.000000
0.999365 0.000000 0.000000
1.000000 0.000000 0.000000
0.000000 0.020233 0.000000
0.031343 0.020233 0.000000
0.065039 0.019629 0.000000
0.098989 0.019025 0.000000
0.133194 0.018420 0.000000
0.167652 0.017816 0.000000
0.202364 0.017212 0.000000
0.237330 0.016607 0.000000
0.272550 0.016003 0.000000
0.308024 0.015399 0.000000
0.343752 0.014795 0.000000
0.379733 0.014190 0.000000
0.415969 0.013586 0.000000
0.452458 0.012982 0.000000
0.489202 0.012377 0.000000
0.526199 0.011773 0.000000
0.563450 0.011169 0.000000
0.600955 0.010564 0.000000
0.638714 0.009960 0.000000
0.676727 0.009356 0.000000
0.714994 0.008752 0.000000
0.753514 0.008147 0.000000
0.792289 0.007543 0.000000
0.831318 0.006939 0.000000
0.870600 0.006334 0.000000
0.910136 0.005730 0.000000
0.949927 0.005126 0.000000
0.984131 0.004521 0.000000
0.989844 0.003917 0.000000
0.994287 0.003313 0.000000
0.997461 0.002709 0.000000
0.999365 0.002104 0.000000
1.000000 0.001500 0.000000
0.000000 0.053320 0.000000
0.031348 0.053320 0.000000
0.065039 0.053320 0.000000
0.098989 0.052843 0.000000
0.133194 0.052366 0.000000
0.167652 0.051888 0.000000
0.202364 0.051411 0.000000
0.237330 0.050934 0.000000
0.272550 0.050456 0.000000
0.308024 0.049979 0.000000
0.343752 0.049502 0.000000
0.379733 0.049024 0.000000
0.415969 0.048547 0.000000
0.452458 0.048070 0.000000
0.489202 0.047592 0.000000
0.526199 0.047115 0.000000
0.563450 0.046638 0.000000
0.600955 0.046160 0.000000
0.638714 0.045683 0.000000
0.676727 0.045205 0.000000
0.714994 0.044728 0.000000
0.753514 0.044251 0.000000
0.792289 0.043773 0.000000
0.831318 0.043296 0.000000
0.870600 0.042819 0.000000
0.910136 0.042341 0.000000
0.949927 0.041864 0.000000
0.984131 0.041387 0.000000
0.989844 0.040909 0.000000
0.994287 0.040432 0.000000
0.997461 0.039955 0.000000
0.999365 0.039477 0.000000
1.000000 0.039000 0.000000
0.000000 0.086661 0.000000
0.031353 0.086661 0.000000
0.065171 0.086661 0.000000
0.098989 0.086661 0.000000
0.133194 0.086311 0.000000
0.167652 0.085961 0.000000
0.202364 0.085610 0.000000
0.237330 0.085260 0.000000
0.272550 0.084909 0.000000
0.308024 0.084559 0.000000
0.343752 0.084209 0.000000
0.379733 0.083858 0.000000
0.415969 0.083508 0.000000
0.452458 0.083157 0.000000
0.489202 0.082807 0.000000
0.526199 0.082457 0.000000
0.563450 0.082106 0.000000
0.600955 0.081756 0.000000
0.638714 0.081405 0.000000
0.676727 0.081055 0.000000
0.714994 0.080705 0.000000
0.753514 0.080354 0.000000
0.792289 0.080004 0.000000
0.831318 0.079654 0.000000
0.870600 0.079303 0.000000
0.910136 0.078953 0.000000
0.949927 0.078602 0.000000
0.984131 0.078252 0.000000
0.989844 0.077902 0.000000
0.994287 0.077551 0.000000
0.997461 0.077201 0.000000
0.999365 0.076850 0.000000
1.000000 0.076500 0.000000
0.000000 0.120256 0.000000
0.031358 0.120256 0.000000
0.065303 0.120256 0.000000
0.099248 0.120256 0.000000
0.133194 0.120256 0.000000
0.167652 0.120033 0.000000
0.202364 0.119809 0.000000
0.237330 0.119586 0.000000
0.272550 0.119363 0.000000
0.308024 0.119139 0.000000
0.343752 0.118916 0.000000
0.379733 0.118692 0.000000
0.415969 0.118469 0.000000
0.452458 0.118245 0.000000
0.489202 0.118022 0.000000
0.526199 0.117798 0.000000
0.563450 0.117575 0.000000
0.600955 0.117352 0.000000
0.638714 0.117128 0.000000
0.676727 0.116905 0.000000
0.714994 0.116681 0.000000
0.753514 0.116458 0.000000
0.792289 0.116234 0.000000
0.831318 0.116011 0.000000
0.870600 0.115787 0.000000
0.910136 0.115564 0.000000
0.949927 0.115341 0.000000
0.984131 0.115117 0.000000
0.989844 0.114894 0.000000
0.994287 0.114670 0.000000
0.997461 0.114447 0.000000
0.999365 0.114223 0.000000
1.000000 0.114000 0.000000
0.000000 0.154105 0.000000
0.031363 0.154105 0.000000
0.065435 0.154105 0.000000
0.099507 0.154105 0.000000
0.133580 0.154105 0.000000
0.167652 0.154105 0.000000
0.202364 0.154009 0.000000
0.237330 0.153912 0.000000
0.272550 0.153816 0.000000
0.308024 0.153719 0.000000
0.343752 0.153623 0.000000
0.379733 0.153526 0.000000
0.415969 0.153430 0.000000
0.452458 0.153333 0.000000
0.489202 0.153237 0.000000
0.526199 0.153140 0.000000
0.563450 0.153044 0.000000
0.600955 0.152947 0.000000
0.638714 0.152851 0.000000
0.676727 0.152754 0.000000
0.714994 0.152658 0.000000
0.753514 0.152561 0.000000
0.792289 0.152465 0.000000
0.831318 0.152368 0.000000
0.870600 0.152272 0.000000
0.910136 0.152175 0.000000
0.949927 0.152079 0.000000
0.984131 0.151982 0.000000
0.989844 0.151886 0.000000
0.994287 0.151789 0.000000
0.997461 0.151693 0.000000
0.999365 0.151596 0.000000
1.000000 0.151500 0.000000
0.000000 0.188208 0.000000
0.031368 0.188208 0.000000
0.065567 0.188208 0.000000
0.099766 0.188208 0.000000
0.133966 0.188208 0.000000
0.168165 0.188208 0.000000
0.202364 0.188208 0.000000
0.237330 0.188238 0.000000
0.272550 0.188269 0.000000
0.308024 0.188299 0.000000
0.343752 0.188330 0.000000
0.379733 0.188360 0.000000
0.415969 0.188391 0.000000
0.452458 0.188421 0.000000
0.489202 0.188452 0.000000
0.526199 0.188482 0.000000
0.563450 0.188513 0.000000
0.600955 0.188543 0.000000
0.638714 0.188573 0.000000
0.676727 0.188604 0.000000
0.714994 0.188634 0.000000
0.753514 0.188665 0.000000
0.792289 0.188695 0.000000
0.831318 0.188726 0.000000
0.870600 0.188756 0.000000
0.910136 0.188787 0.000000
0.949927 0.188817 0.000000
0.984131 0.188848 0.000000
0.989844 0.188878 0.000000
0.994287 0.188909 0.000000
0.997461 0.188939 0.000000
0.999365 0.188970 0.000000
1.000000 0.189000 0.000000
0.000000 0.222564 0.000000
0.031373 0.222564 0.000000
0.065699 0.222564 0.000000
0.100025 0.222564 0.000000
0.134352 0.222564 0.000000
0.168678 0.222564 0.000000
0.203004 0.222564 0.000000
0.237330 0.222564 0.000000
0.272550 0.222722 0.000000
0.308024 0.222879 0.000000
0.343752 0.223037 0.000000
0.379733 0.223194 0.000000
0.415969 0.223352 0.000000
0.452458 0.223509 0.000000
0.489202 0.223666 0.000000
0.526199 0.223824 0.000000
0.563450 0.223981 0.000000
0.600955 0.224139 0.000000
0.638714 0.224296 0.000000
0.676727 0.224454 0.000000
0.714994 0.224611 0.000000
0.753514 0.224768 0.000000
0.792289 0.224926 0.000000
0.831318 0.225083 0.000000
0.870600 0.225241 0.000000
0.910136 0.225398 0.000000
0.949927 0.225555 0.000000
0.984131 0.225713 0.000000
0.989844 0.225870 0.000000
0.994287 0.226028 0.000000
0.997461 0.226185 0.000000
0.999365 0.226343 0.000000
1.000000 0.226500 0.000000
0.000000 0.257175 0.000000
0.031378 0.257175 0.000000
0.065831 0.257175 0.000000
0.100284 0.257175 0.000000
0.134738 0.257175 0.000000
0.169191 0.257175 0.000000
0.203644 0.257175 0.000000
0.238097 0.257175 0.000000
0.272550 0.257175 0.000000
0.308024 0.257459 0.000000
0.343752 0.257744 0.000000
0.379733 0.258028 0.000000
0.415969 0.258312 0.000000
0.452458 0.258597 0.000000
0.489202 0.258881 0.000000
0.526199 0.259166 0.000000
0.563450 0.259450 0.000000
0.600955 0.259734 0.000000
0.638714 0.260019 0.000000
0.676727 0.260303 0.000000
0.714994 0.260588 0.000000
0.753514 0.260872 0.000000
0.792289 0.261156 0.000000
0.831318 0.261441 0.000000
0.870600 0.261725 0.000000
0.910136 0.262009 0.000000
0.949927 0.262294 0.000000
0.984131 0.262578 0.000000
0.989844 0.262863 0.000000
0.994287 0.263147 0.000000
0.997461 0.263431 0.000000
0.999365 0.263716 0.000000
1.000000 0.264000 0.000000
0.000000 0.292039 0.000000
0.031383 0.292039 0.000000
0.065963 0.292039 0.000000
0.100543 0.292039 0.000000
0.135123 0.292039 0.000000
0.169704 0.292039 0.000000
0.204284 0.292039 0.000000
0.238864 0.292039 0.000000
0.273444 0.292039 0.000000
0.308024 0.292039 0.000000
0.343752 0.292451 0.000000
0.379733 0.292862 0.000000
0.415969 0.293273 0.000000
0.452458 0.293685 0.000000
0.489202 0.294096 0.000000
0.526199 0.294507 0.000000
0.563450 0.294919 0.000000
0.600955 0.295330 0.000000
0.638714 0.295741 0.000000
0.676727 0.296153 0.000000
0.714994 0.296564 0.000000
0.753514 0.296975 0.000000
0.792289 0.297387 0.000000
0.831318 0.297798 0.000000
0.870600 0.298209 0.000000
0.910136 0.298621 0.000000
0.949927 0.299032 0.000000
0.984131 0.299443 0.000000
0.989844 0.299855 0.000000
0.994287 0.300266 0.000000
0.997461 0.300677 0.000000
0.999365 0.301089 0.000000
1.000000 0.301500 0.000000
0.000000 0.327158 0.000000
0.031388 0.327158 0.000000
0.066095 0.327158 0.000000
0.100802 0.327158 0.000000
0.135509 0.327158 0.000000
0.170216 0.327158 0.000000
0.204923 0.327158 0.000000
0.239630 0.327158 0.000000
0.274338 0.327158 0.000000
0.309045 0.327158 0.000000
0.343752 0.327158 0.000000
0.379733 0.327696 0.000000
0.415969 0.328234 0.000000
0.452458 0.328773 0.000000
0.489202 0.329311 0.000000
0.526199 0.329849 0.000000
0.563450 0.330388 0.000000
0.600955 0.330926 0.000000
0.638714 0.331464 0.000000
0.676727 0.332002 0.000000
0.714994 0.332541 0.000000
0.753514 0.333079 0.000000
0.792289 0.333617 0.000000
0.831318 0.334155 0.000000
0.870600 0.334694 0.000000
0.910136 0.335232 0.000000
0.949927 0.335770 0.000000
0.984131 0.336309 0.000000
0.989844 0.336847 0.000000
0.994287 0.337385 0.000000
0.997461 0.337923 0.000000
0.999365 0.338462 0.000000
1.000000 0.339000 0.000000
0.000000 0.362530 0.000000
0.031393 0.362530 0.000000
0.066227 0.362530 0.000000
0.101061 0.362530 0.000000
0.135895 0.362530 0.000000
0.170729 0.362530 0.000000
0.205563 0.362530 0.000000
0.240397 0.362530 0.000000
0.275231 0.362530 0.000000
0.310065 0.362530 0.000000
0.344899 0.362530 0.000000
0.379733 0.362530 0.000000
0.415969 0.363195 0.000000
0.452458 0.363861 0.000000
0.489202 0.364526 0.000000
0.526199 0.365191 0.000000
0.563450 0.365856 0.000000
0.600955 0.366521 0.000000
0.638714 0.367187 0.000000
0.676727 0.367852 0.000000
0.714994 0.368517 0.000000
0.753514 0.369182 0.000000
0.792289 0.369848 0.000000
0.831318 0.370513 0.000000
0.870600 0.371178 0.000000
0.910136 0.371843 0.000000
0.949927 0.372509 0.000000
0.984131 0.373174 0.000000
0.989844 0.373839 0.000000
0.994287 0.374504 0.000000
0.997461 0.375170 0.000000
0.999365 0.375835 0.000000
1.000000 0.376500 0.000000
0.000000 0.398156 0.000000
0.031398 0.398156 0.000000
0.066359 0.398156 0.000000
0.101320 0.398156 0.000000
0.136281 0.398156 0.000000
0.171242 0.398156 0.000000
0.206203 0.398156 0.000000
0.241164 0.398156 0.000000
0.276125 0.398156 0.000000
0.311086 0.398156 0.000000
0.346047 0.398156 0.000000
0.381008 0.398156 0.000000
0.415969 0.398156 0.000000
0.452458 0.398948 0.000000
0.489202 0.399741 0.000000
0.526199 0.400533 0.000000
0.563450 0.401325 0.000000
0.600955 0.402117 0.000000
0.638714 0.402909 0.000000
0.676727 0.403702 0.000000
0.714994 0.404494 0.000000
0.753514 0.405286 0.000000
0.792289 0.406078 0.000000
0.831318 0.406870 0.000000
0.870600 0.407663 0.000000
0.910136 0.408455 0.000000
0.949927 0.409247 0.000000
0.984131 0.410039 0.000000
0.989844 0.410831 0.000000
0.994287 0.411623 0.000000
0.997461 0.412416 0.000000
0.999365 0.413208 0.000000
1.000000 0.414000 0.000000
0.000000 0.434036 0.000000
0.031404 0.434036 0.000000
0.066491 0.434036 0.000000
0.101579 0.434036 0.000000
0.136667 0.434036 0.000000
0.171755 0.434036 0.000000
0.206843 0.434036 0.000000
0.241931 0.434036 0.000000
0.277019 0.434036 0.000000
0.312107 0.434036 0.000000
0.347195 0.434036 0.000000
0.382282 0.434036 0.000000
0.417370 0.434036 0.000000
0.452458 0.434036 0.000000
0.489202 0.434955 0.000000
0.526199 0.435875 0.000000
0.563450 0.436794 0.000000
0.600955 0.437713 0.000000
0.638714 0.438632 0.000000
0.676727 0.439551 0.000000
0.714994 0.440470 0.000000
0.753514 0.441389 0.000000
0.792289 0.442309 0.000000
0.831318 0.443228 0.000000
0.870600 0.444147 0.000000
0.910136 0.445066 0.000000
0.949927 0.445985 0.000000
0.984131 0.446904 0.000000
0.989844 0.447823 0.000000
0.994287 0.448743 0.000000
0.997461 0.449662 0.000000
0.999365 0.450581 0.000000
1.000000 0.451500 0.000000
0.000000 0.470170 0.000000
0.031409 0.470170 0.000000
0.066623 0.470170 0.000000
0.101838 0.470170 0.000000
0.137053 0.470170 0.000000
0.172268 0.470170 0.000000
0.207483 0.470170 0.000000
0.242698 0.470170 0.000000
0.277912 0.470170 0.000000
0.313127 0.470170 0.000000
0.348342 0.470170 0.000000
0.383557 0.470170 0.000000
0.418772 0.470170 0.000000
0.453987 0.470170 0.000000
0.489202 0.470170 0.000000
0.526199 0.471216 0.000000
0.563450 0.472263 0.000000
0.600955 0.473309 0.000000
0.638714 0.474355 0.000000
0.676727 0.475401 0.000000
0.714994 0.476447 0.000000
0.753514 0.477493 0.000000
0.792289 0.478539 0.000000
0.831318 0.479585 0.000000
0.870600 0.480631 0.000000
0.910136 0.481677 0.000000
0.949927 0.482723 0.000000
0.984131 0.483770 0.000000
0.989844 0.484816 0.000000
0.994287 0.485862 0.000000
0.997461 0.486908 0.000000
0.999365 0.487954 0.000000
1.000000 0.489000 0.000000
0.000000 0.506558 0.000000
0.031414 0.506558 0.000000
0.066755 0.506558 0.000000
0.102097 0.506558 0.000000
0.137439 0.506558 0.000000
0.172781 0.506558 0.000000
0.208123 0.506558 0.000000
0.243464 0.506558 0.000000
0.278806 0.506558 0.000000
0.314148 0.506558 0.000000
0.349490 0.506558 0.000000
0.384832 0.506558 0.000000
0.420173 0.506558 0.000000
0.455515 0.506558 0.000000
0.490857 0.506558 0.000000
0.526199 0.506558 0.000000
0.563450 0.507731 0.000000
0.600955 0.508904 0.000000
0.638714 0.510077 0.000000
0.676727 0.511250 0.000000
0.714994 0.512423 0.000000
0.753514 0.513596 0.000000
0.792289 0.514770 0.000000
0.831318 0.515943 0.000000
0.870600 0.517116 0.000000
0.910136 0.518289 0.000000
0.949927 0.519462 0.000000
0.984131 0.520635 0.000000
0.989844 0.521808 0.000000
0.994287 0.522981 0.000000
0.997461 0.524154 0.000000
0.999365 0.525327 0.000000
1.000000 0.526500 0.000000
0.000000 0.543200 0.000000
0.031419 0.543200 0.000000
0.066887 0.543200 0.000000
0.102356 0.543200 0.000000
0.137825 0.543200 0.000000
0.173294 0.543200 0.000000
0.208762 0.543200 0.000000
0.244231 0.543200 0.000000
0.279700 0.543200 0.000000
0.315169 0.543200 0.000000
0.350637 0.543200 0.000000
0.386106 0.543200 0.000000
0.421575 0.543200 0.000000
0.457044 0.543200 0.000000
0.492512 0.543200 0.000000
0.527981 0.543200 0.000000
0.563450 0.543200 0.000000
0.600955 0.544500 0.000000
0.638714 0.545800 0.000000
0.676727 0.547100 0.000000
0.714994 0.548400 0.000000
0.753514 0.549700 0.000000
0.792289 0.551000 0.000000
0.831318 0.552300 0.000000
0.870600 0.553600 0.000000
0.910136 0.554900 0.000000
0.949927 0.556200 0.000000
0.984131 0.557500 0.000000
0.989844 0.558800 0.000000
0.994287 0.560100 0.000000
0.997461 0.561400 0.000000
0.999365 0.562700 0.000000
1.000000 0.564000 0.000000
0.000000 0.580096 0.000000
0.031424 0.580096 0.000000
0.067020 0.580096 0.000000
0.102615 0.580096 0.000000
0.138211 0.580096 0.000000
0.173807 0.580096 0.000000
0.209402 0.580096 0.000000
0.244998 0.580096 0.000000
0.280594 0.580096 0.000000
0.316189 0.580096 0.000000
0.351785 0.580096 0.000000
0.387381 0.580096 0.000000
0.422977 0.580096 0.000000
0.458572 0.580096 0.000000
0.494168 0.580096 0.000000
0.529764 0.580096 0.000000
0.565359 0.580096 0.000000
0.600955 0.580096 0.000000
0.638714 0.581523 0.000000
0.676727 0.582950 0.000000
0.714994 0.584377 0.000000
0.753514 0.585804 0.000000
0.792289 0.587230 0.000000
0.831318 0.588657 0.000000
0.870600 0.590084 0.000000
0.910136 0.591511 0.000000
0.949927 0.592938 0.000000
0.984131 0.594365 0.000000
0.989844 0.595792 0.000000
0.994287 0.597219 0.000000
0.997461 0.598646 0.000000
0.999365 0.600073 0.000000
1.000000 0.601500 0.000000
0.000000 0.617245 0.000000
0.031429 0.617245 0.000000
0.067152 0.617245 0.000000
0.102874 0.617245 0.000000
0.138597 0.617245 0.000000
0.174320 0.617245 0.000000
0.210042 0.617245 0.000000
0.245765 0.617245 0.000000
0.281487 0.617245 0.000000
0.317210 0.617245 0.000000
0.352933 0.617245 0.000000
0.388655 0.617245 0.000000
0.424378 0.617245 0.000000
0.460101 0.617245 0.000000
0.495823 0.617245 0.000000
0.531546 0.617245 0.000000
0.567269 0.617245 0.000000
0.602991 0.617245 0.000000
0.638714 0.617245 0.000000
0.676727 0.618799 0.000000
0.714994 0.620353 0.000000
0.753514 0.621907 0.000000
0.792289 0.623461 0.000000
0.831318 0.625015 0.000000
0.870600 0.626569 0.000000
0.910136 0.628123 0.000000
0.949927 0.629677 0.000000
0.984131 0.631230 0.000000
0.989844 0.632784 0.000000
0.994287 0.634338 0.000000
0.997461 0.635892 0.000000
0.999365 0.637446 0.000000
1.000000 0.639000 0.000000
0.000000 0.654649 0.000000
0.031434 0.654649 0.000000
0.067284 0.654649 0.000000
0.103133 0.654649 0.000000
0.138983 0.654649 0.000000
0.174832 0.654649 0.000000
0.210682 0.654649 0.000000
0.246532 0.654649 0.000000
0.282381 0.654649 0.000000
0.318231 0.654649 0.000000
0.354080 0.654649 0.000000
0.389930 0.654649 0.000000
0.425780 0.654649 0.000000
0.461629 0.654649 0.000000
0.497479 0.654649 0.000000
0.533329 0.654649 0.000000
0.569178 0.654649 0.000000
0.605028 0.654649 0.000000
0.640877 0.654649 0.000000
0.676727 0.654649 0.000000
0.714994 0.656330 0.000000
0.753514 0.658011 0.000000
0.792289 0.659691 0.000000
0.831318 0.661372 0.000000
0.870600 0.663053 0.000000
0.910136 0.664734 0.000000
0.949927 0.666415 0.000000
0.984131 0.668096 0.000000
0.989844 0.669777 0.000000
0.994287 0.671457 0.000000
0.997461 0.673138 0.000000
0.999365 0.674819 0.000000
1.000000 0.676500 0.000000
0.000000 0.692306 0.000000
0.031439 0.692306 0.000000
0.067416 0.692306 0.000000
0.103392 0.692306 0.000000
0.139369 0.692306 0.000000
0.175345 0.692306 0.000000
0.211322 0.692306 0.000000
0.247298 0.692306 0.000000
0.283275 0.692306 0.000000
0.319252 0.692306 0.000000
0.355228 0.692306 0.000000
0.391205 0.692306 0.000000
0.427181 0.692306 0.000000
0.463158 0.692306 0.000000
0.499134 0.692306 0.000000
0.535111 0.692306 0.000000
0.571087 0.692306 0.000000
0.607064 0.692306 0.000000
0.643041 0.692306 0.000000
0.679017 0.692306 0.000000
0.714994 0.692306 0.000000
0.753514 0.694114 0.000000
0.792289 0.695922 0.000000
0.831318 0.697730 0.000000
0.870600 0.699538 0.000000
0.910136 0.701345 0.000000
0.949927 0.703153 0.000000
0.984131 0.704961 0.000000
0.989844 0.706769 0.000000
0.994287 0.708577 0.000000
0.997461 0.710384 0.000000
0.999365 0.712192 0.000000
1.000000 0.714000 0.000000
0.000000 0.730218 0.000000
0.031444 0.730218 0.000000
0.067548 0.730218 0.000000
0.103651 0.730218 0.000000
0.139755 0.730218 0.000000
0.175858 0.730218 0.000000
0.211962 0.730218 0.000000
0.248065 0.730218 0.000000
0.284169 0.730218 0.000000
0.320272 0.730218 0.000000
0.356376 0.730218 0.000000
0.392479 0.730218 0.000000
0.428583 0.730218 0.000000
0.464686 0.730218 0.000000
0.500790 0.730218 0.000000
0.536893 0.730218 0.000000
0.572997 0.730218 0.000000
0.609100 0.730218 0.000000
0.645204 0.730218 0.000000
0.681307 0.730218 0.000000
0.717411 0.730218 0.000000
0.753514 0.730218 0.000000
0.792289 0.732152 0.000000
0.831318 0.734087 0.000000
0.870600 0.736022 0.000000
0.910136 0.737957 0.000000
0.949927 0.739891 0.000000
0.984131 0.741826 0.000000
0.989844 0.743761 0.000000
0.994287 0.745696 0.000000
0.997461 0.747630 0.000000
0.999365 0.749565 0.000000
1.000000 0.751500 0.000000
0.000000 0.768383 0.000000
0.031449 0.768383 0.000000
0.067680 0.768383 0.000000
0.103910 0.768383 0.000000
0.140141 0.768383 0.000000
0.176371 0.768383 0.000000
0.212602 0.768383 0.000000
0.248832 0.768383 0.000000
0.285062 0.768383 0.000000
0.321293 0.768383 0.000000
0.357523 0.768383 0.000000
0.393754 0.768383 0.000000
0.429984 0.768383 0.000000
0.466215 0.768383 0.000000
0.502445 0.768383 0.000000
0.538676 0.768383 0.000000
0.574906 0.768383 0.000000
0.611137 0.768383 0.000000
0.647367 0.768383 0.000000
0.683598 0.768383 0.000000
0.719828 0.768383 0.000000
0.756059 0.768383 0.000000
0.792289 0.768383 0.000000
0.831318 0.770445 0.000000
0.870600 0.772506 0.000000
0.910136 0.774568 0.000000
0.949927 0.776630 0.000000
0.984131 0.778691 0.000000
0.989844 0.780753 0.000000
0.994287 0.782815 0.000000
0.997461 0.784877 0.000000
0.999365 0.786938 0.000000
1.000000 0.789000 0.000000
0.000000 0.806802 0.000000
0.031454 0.806802 0.000000
0.067812 0.806802 0.000000
0.104169 0.806802 0.000000
0.140527 0.806802 0.000000
0.176884 0.806802 0.000000
0.213241 0.806802 0.000000
0.249599 0.806802 0.000000
0.285956 0.806802 0.000000
0.322314 0.806802 0.000000
0.358671 0.806802 0.000000
0.395029 0.806802 0.000000
0.431386 0.806802 0.000000
0.467743 0.806802 0.000000
0.504101 0.806802 0.000000
0.540458 0.806802 0.000000
0.576816 0.806802 0.000000
0.613173 0.806802 0.000000
0.649530 0.806802 0.000000
0.685888 0.806802 0.000000
0.722245 0.806802 0.000000
0.758603 0.806802 0.000000
0.794960 0.806802 0.000000
0.831318 0.806802 0.000000
0.870600 0.808991 0.000000
0.910136 0.811179 0.000000
0.949927 0.813368 0.000000
0.984131 0.815557 0.000000
0.989844 0.817745 0.000000
0.994287 0.819934 0.000000
0.997461 0.822123 0.000000
0.999365 0.824311 0.000000
1.000000 0.826500 0.000000
0.000000 0.845475 0.000000
0.031459 0.845475 0.000000
0.067944 0.845475 0.000000
0.104428 0.845475 0.000000
0.140913 0.845475 0.000000
0.177397 0.845475 0.000000
0.213881 0.845475 0.000000
0.250366 0.845475 0.000000
0.286850 0.845475 0.000000
0.323334 0.845475 0.000000
0.359819 0.845475 0.000000
0.396303 0.845475 0.000000
0.432788 0.845475 0.000000
0.469272 0.845475 0.000000
0.505756 0.845475 0.000000
0.542241 0.845475 0.000000
0.578725 0.845475 0.000000
0.615209 0.845475 0.000000
0.651694 0.845475 0.000000
0.688178 0.845475 0.000000
0.724662 0.845475 0.000000
0.761147 0.845475 0.000000
0.797631 0.845475 0.000000
0.834116 0.845475 0.000000
0.870600 0.845475 0.000000
0.910136 0.847791 0.000000
0.949927 0.850106 0.000000
0.984131 0.852422 0.000000
0.989844 0.854738 0.000000
0.994287 0.857053 0.000000
0.997461 0.859369 0.000000
0.999365 0.861684 0.000000
1.000000 0.864000 0.000000
0.000000 0.884402 0.000000
0.031464 0.884402 0.000000
0.068076 0.884402 0.000000
0.104687 0.884402 0.000000
0.141298 0.884402 0.000000
0.177910 0.884402 0.000000
0.214521 0.884402 0.000000
0.251132 0.884402 0.000000
0.287744 0.884402 0.000000
0.324355 0.884402 0.000000
0.360966 0.884402 0.000000
0.397578 0.884402 0.000000
0.434189 0.884402 0.000000
0.470800 0.884402 0.000000
0.507412 0.884402 0.000000
0.544023 0.884402 0.000000
0.580634 0.884402 0.000000
0.617246 0.884402 0.000000
0.653857 0.884402 0.000000
0.690468 0.884402 0.000000
0.727080 0.884402 0.000000
0.763691 0.884402 0.000000
0.800302 0.884402 0.000000
0.836914 0.884402 0.000000
0.873525 0.884402 0.000000
0.910136 0.884402 0.000000
0.949927 0.886845 0.000000
0.984131 0.889287 0.000000
0.989844 0.891730 0.000000
0.994287 0.894172 0.000000
0.997461 0.896615 0.000000
0.999365 0.899057 0.000000
1.000000 0.901500 0.000000
0.000000 0.923583 0.000000
0.031470 0.923583 0.000000
0.068208 0.923583 0.000000
0.104946 0.923583 0.000000
0.141684 0.923583 0.000000
0.178423 0.923583 0.000000
0.215161 0.923583 0.000000
0.251899 0.923583 0.000000
0.288637 0.923583 0.000000
0.325376 0.923583 0.000000
0.362114 0.923583 0.000000
0.398852 0.923583 0.000000
0.435591 0.923583 0.000000
0.472329 0.923583 0.000000
0.509067 0.923583 0.000000
0.545805 0.923583 0.000000
0.582544 0.923583 0.000000
0.619282 0.923583 0.000000
0.656020 0.923583 0.000000
0.692759 0.923583 0.000000
0.729497 0.923583 0.000000
0.766235 0.923583 0.000000
0.802973 0.923583 0.000000
0.839712 0.923583 0.000000
0.876450 0.923583 0.000000
0.913188 0.923583 0.000000
0.949927 0.923583 0.000000
