luts/original/thumbnail-punch.cube
TITLE "Thumbnail Punch"
LUT_3D_SIZE 5
DOMAIN_MIN 0.0 0.0 0.0
DOMAIN_MAX 1.0 1.0 1.0
0.000000 0.000000 0.000000
0.272550 0.000000 0.000000
0.563450 0.000000 0.000000
0.870600 0.000000 0.000000
1.000000 0.000000 0.000000
0.000000 0.257175 0.000000
0.272550 0.257175 0.000000
0.563450 0.259450 0.000000
0.870600 0.261725 0.000000
1.000000 0.264000 0.000000
0.000000 0.543200 0.000000
0.279700 0.543200 0.000000
0.563450 0.543200 0.000000
0.870600 0.553600 0.000000
1.000000 0.564000 0.000000
0.000000 0.845475 0.000000
0.286850 0.845475 0.000000
0.578725 0.845475 0.000000
0.870600 0.845475 0.000000
1.000000 0.864000 0.000000
0.000000 1.000000 0.000000
0.294000 1.000000 0.000000
0.594000 1.000000 0.000000
0.894000 1.000000 0.000000
1.000000 1.000000 0.000000
0.000000 0.000000 0.241800
0.272550 0.000000 0.241800
0.563450 0.000000 0.239200
0.870600 0.000000 0.236600
1.000000 0.000000 0.234000
0.000000 0.257175 0.241800
0.272550 0.252655 0.232760
0.563450 0.237398 0.215143
0.870600 0.218843 0.191676
1.000000 0.206350 0.174000
0.000000 0.543200 0.239200
0.261011 0.543200 0.216358
0.563450 0.541195 0.215143
0.870600 0.531138 0.191676
1.000000 0.529849 0.174000
0.000000 0.845475 0.236600
0.247569 0.845475 0.193184
0.560118 0.845475 0.193184
0.870600 0.843433 0.191676
1.000000 0.853347 0.174000
0.000000 1.000000 0.234000
0.238700 1.000000 0.174000
0.562198 1.000000 0.174000
0.885697 1.000000 0.174000
1.000000 1.000000 0.174000
0.000000 0.000000 0.522950
0.279700 0.000000 0.522950
0.563450 0.000000 0.522950
0.870600 0.000000 0.528475
1.000000 0.000000 0.534000
0.000000 0.259450 0.522950
0.260476 0.237823 0.522950
0.563450 0.235393 0.518576
0.870600 0.216801 0.502804
1.000000 0.204000 0.496011
0.000000 0.543200 0.522950
0.256858 0.543200 0.520412
0.563450 0.531172 0.498893
0.870600 0.512420 0.483552
1.000000 0.507863 0.474000
0.000000 0.845475 0.528475
0.243434 0.845475 0.503339
0.543203 0.845475 0.485059
0.870600 0.841731 0.483552
1.000000 0.846489 0.474000
0.000000 1.000000 0.534000
0.234000 1.000000 0.494397
0.541725 1.000000 0.474000
0.880352 1.000000 0.474000
1.000000 1.000000 0.474000
0.000000 0.000000 0.820350
0.286850 0.000000 0.820350
0.578725 0.000000 0.820350
0.870600 0.000000 0.820350
1.000000 0.000000 0.834000
0.000000 0.261725 0.820350
0.247147 0.219817 0.820350
0.561079 0.219817 0.820350
0.870600 0.216801 0.816072
1.000000 0.204000 0.820467
0.000000 0.553600 0.820350
0.244942 0.532646 0.820350
0.541473 0.511692 0.820350
0.870600 0.508677 0.812182
1.000000 0.504000 0.811156
0.000000 0.845475 0.820350
0.243434 0.845475 0.818065
0.535309 0.845475 0.815526
0.870600 0.823013 0.775427
1.000000 0.814843 0.774000
0.000000 1.000000 0.834000
0.234000 1.000000 0.819892
0.534000 1.000000 0.809468
0.855687 1.000000 0.774000
1.000000 1.000000 0.774000
0.000000 0.000000 1.000000
0.294000 0.000000 1.000000
0.594000 0.000000 1.000000
0.894000 0.000000 1.000000
1.000000 0.000000 1.000000
0.000000 0.264000 1.000000
0.236446 0.204000 1.000000
0.560902 0.204000 1.000000
0.885359 0.204000 1.000000
1.000000 0.204000 1.000000
0.000000 0.564000 1.000000
0.234000 0.526946 1.000000
0.538128 0.504000 1.000000
0.879413 0.504000 1.000000
1.000000 0.504000 1.000000
0.000000 0.864000 1.000000
0.234000 0.852442 1.000000
0.534000 0.843901 1.000000
0.847235 0.804000 1.000000
1.000000 0.804000 1.000000
0.000000 1.000000 1.000000
0.234000 1.000000 1.000000
0.534000 1.000000 1.000000
0.834000 1.000000 1.000000
1.000000 0.940000 0.940000
