luts/original/urban-punch.cube
TITLE "Urban Punch"
LUT_3D_SIZE 33
DOMAIN_MIN 0.0 0.0 0.0
DOMAIN_MAX 1.0 1.0 1.0
0.006160 0.000000 0.000000
0.039619 0.000000 0.000000
0.073281 0.000000 0.000000
0.107147 0.000000 0.000000
0.141215 0.000000 0.000000
0.175487 0.000000 0.000000
0.209961 0.000000 0.000000
0.244639 0.000000 0.000000
0.279520 0.000000 0.000000
0.314604 0.000000 0.000000
0.349891 0.000000 0.000000
0.385382 0.000000 0.000000
0.421075 0.000000 0.000000
0.456972 0.000000 0.000000
0.493071 0.000000 0.000000
0.529374 0.000000 0.000000
0.565880 0.000000 0.000000
0.602589 0.000000 0.000000
0.639501 0.000000 0.000000
0.676617 0.000000 0.000000
0.713935 0.000000 0.000000
0.751457 0.000000 0.000000
0.789181 0.000000 0.000000
0.827109 0.000000 0.000000
0.865240 0.000000 0.000000
0.903574 0.000000 0.000000
0.942111 0.000000 0.000000
0.980852 0.000000 0.000000
0.989844 0.000000 0.000000
0.994287 0.000000 0.000000
0.997461 0.000000 0.000000
0.999365 0.000000 0.000000
1.000000 0.000000 0.000000
0.006518 0.022437 0.000000
0.039619 0.022437 0.000000
0.073281 0.021953 0.000000
0.107147 0.021470 0.000000
0.141215 0.020986 0.000000
0.175487 0.020503 0.000000
0.209961 0.020019 0.000000
0.244639 0.019536 0.000000
0.279520 0.019052 0.000000
0.314604 0.018569 0.000000
0.349891 0.018086 0.000000
0.385382 0.017602 0.000000
0.421075 0.017119 0.000000
0.456972 0.016635 0.000000
0.493071 0.016152 0.000000
0.529374 0.015668 0.000000
0.565880 0.015185 0.000000
0.602589 0.014702 0.000000
0.639501 0.014218 0.000000
0.676617 0.013735 0.000000
0.713935 0.013251 0.000000
0.751457 0.012768 0.000000
0.789181 0.012284 0.000000
0.827109 0.011801 0.000000
0.865240 0.011317 0.000000
0.903574 0.010834 0.000000
0.942111 0.010351 0.000000
0.980852 0.009867 0.000000
0.989844 0.009384 0.000000
0.994287 0.008900 0.000000
0.997461 0.008417 0.000000
0.999365 0.007933 0.000000
1.000000 0.007450 0.000000
0.006875 0.055156 0.000000
0.040078 0.055156 0.000000
0.073281 0.055156 0.000000
0.107147 0.054774 0.000000
0.141215 0.054393 0.000000
0.175487 0.054011 0.000000
0.209961 0.053629 0.000000
0.244639 0.053247 0.000000
0.279520 0.052865 0.000000
0.314604 0.052483 0.000000
0.349891 0.052101 0.000000
0.385382 0.051719 0.000000
0.421075 0.051337 0.000000
0.456972 0.050956 0.000000
0.493071 0.050574 0.000000
0.529374 0.050192 0.000000
0.565880 0.049810 0.000000
0.602589 0.049428 0.000000
0.639501 0.049046 0.000000
0.676617 0.048664 0.000000
0.713935 0.048283 0.000000
0.751457 0.047901 0.000000
0.789181 0.047519 0.000000
0.827109 0.047137 0.000000
0.865240 0.046755 0.000000
0.903574 0.046373 0.000000
0.942111 0.045991 0.000000
0.980852 0.045609 0.000000
0.989844 0.045228 0.000000
0.994287 0.044846 0.000000
0.997461 0.044464 0.000000
0.999365 0.044082 0.000000
1.000000 0.043700 0.000000
0.007232 0.088079 0.000000
0.040537 0.088079 0.000000
0.073842 0.088079 0.000000
0.107147 0.088079 0.000000
0.141215 0.087799 0.000000
0.175487 0.087518 0.000000
0.209961 0.087238 0.000000
0.244639 0.086958 0.000000
0.279520 0.086677 0.000000
0.314604 0.086397 0.000000
0.349891 0.086117 0.000000
0.385382 0.085837 0.000000
0.421075 0.085556 0.000000
0.456972 0.085276 0.000000
0.493071 0.084996 0.000000
0.529374 0.084715 0.000000
0.565880 0.084435 0.000000
0.602589 0.084155 0.000000
0.639501 0.083874 0.000000
0.676617 0.083594 0.000000
0.713935 0.083314 0.000000
0.751457 0.083033 0.000000
0.789181 0.082753 0.000000
0.827109 0.082473 0.000000
0.865240 0.082193 0.000000
0.903574 0.081912 0.000000
0.942111 0.081632 0.000000
0.980852 0.081352 0.000000
0.989844 0.081071 0.000000
0.994287 0.080791 0.000000
0.997461 0.080511 0.000000
0.999365 0.080230 0.000000
1.000000 0.079950 0.000000
0.007590 0.121205 0.000000
0.040996 0.121205 0.000000
0.074403 0.121205 0.000000
0.107809 0.121205 0.000000
0.141215 0.121205 0.000000
0.175487 0.121026 0.000000
0.209961 0.120848 0.000000
0.244639 0.120669 0.000000
0.279520 0.120490 0.000000
0.314604 0.120311 0.000000
0.349891 0.120132 0.000000
0.385382 0.119954 0.000000
0.421075 0.119775 0.000000
0.456972 0.119596 0.000000
0.493071 0.119418 0.000000
0.529374 0.119239 0.000000
0.565880 0.119060 0.000000
0.602589 0.118881 0.000000
0.639501 0.118703 0.000000
0.676617 0.118524 0.000000
0.713935 0.118345 0.000000
0.751457 0.118166 0.000000
0.789181 0.117987 0.000000
0.827109 0.117809 0.000000
0.865240 0.117630 0.000000
0.903574 0.117451 0.000000
0.942111 0.117273 0.000000
0.980852 0.117094 0.000000
0.989844 0.116915 0.000000
0.994287 0.116736 0.000000
0.997461 0.116558 0.000000
0.999365 0.116379 0.000000
1.000000 0.116200 0.000000
0.007947 0.154534 0.000000
0.041455 0.154534 0.000000
0.074963 0.154534 0.000000
0.108471 0.154534 0.000000
0.141979 0.154534 0.000000
0.175487 0.154534 0.000000
0.209961 0.154457 0.000000
0.244639 0.154380 0.000000
0.279520 0.154302 0.000000
0.314604 0.154225 0.000000
0.349891 0.154148 0.000000
0.385382 0.154071 0.000000
0.421075 0.153994 0.000000
0.456972 0.153917 0.000000
0.493071 0.153839 0.000000
0.529374 0.153762 0.000000
0.565880 0.153685 0.000000
0.602589 0.153608 0.000000
0.639501 0.153531 0.000000
0.676617 0.153453 0.000000
0.713935 0.153376 0.000000
0.751457 0.153299 0.000000
0.789181 0.153222 0.000000
0.827109 0.153145 0.000000
0.865240 0.153067 0.000000
0.903574 0.152990 0.000000
0.942111 0.152913 0.000000
0.980852 0.152836 0.000000
0.989844 0.152759 0.000000
0.994287 0.152682 0.000000
0.997461 0.152604 0.000000
0.999365 0.152527 0.000000
1.000000 0.152450 0.000000
0.008305 0.188066 0.000000
0.041914 0.188066 0.000000
0.075524 0.188066 0.000000
0.109133 0.188066 0.000000
0.142742 0.188066 0.000000
0.176352 0.188066 0.000000
0.209961 0.188066 0.000000
0.244639 0.188091 0.000000
0.279520 0.188115 0.000000
0.314604 0.188139 0.000000
0.349891 0.188164 0.000000
0.385382 0.188188 0.000000
0.421075 0.188212 0.000000
0.456972 0.188237 0.000000
0.493071 0.188261 0.000000
0.529374 0.188286 0.000000
0.565880 0.188310 0.000000
0.602589 0.188334 0.000000
0.639501 0.188359 0.000000
0.676617 0.188383 0.000000
0.713935 0.188407 0.000000
0.751457 0.188432 0.000000
0.789181 0.188456 0.000000
0.827109 0.188481 0.000000
0.865240 0.188505 0.000000
0.903574 0.188529 0.000000
0.942111 0.188554 0.000000
0.980852 0.188578 0.000000
0.989844 0.188603 0.000000
0.994287 0.188627 0.000000
0.997461 0.188651 0.000000
0.999365 0.188676 0.000000
1.000000 0.188700 0.000000
0.008663 0.221802 0.000000
0.042373 0.221802 0.000000
0.076084 0.221802 0.000000
0.109795 0.221802 0.000000
0.143506 0.221802 0.000000
0.177217 0.221802 0.000000
0.210928 0.221802 0.000000
0.244639 0.221802 0.000000
0.279520 0.221927 0.000000
0.314604 0.222053 0.000000
0.349891 0.222179 0.000000
0.385382 0.222305 0.000000
0.421075 0.222431 0.000000
0.456972 0.222557 0.000000
0.493071 0.222683 0.000000
0.529374 0.222809 0.000000
0.565880 0.222935 0.000000
0.602589 0.223061 0.000000
0.639501 0.223187 0.000000
0.676617 0.223313 0.000000
0.713935 0.223439 0.000000
0.751457 0.223565 0.000000
0.789181 0.223691 0.000000
0.827109 0.223817 0.000000
0.865240 0.223943 0.000000
0.903574 0.224068 0.000000
0.942111 0.224194 0.000000
0.980852 0.224320 0.000000
0.989844 0.224446 0.000000
0.994287 0.224572 0.000000
0.997461 0.224698 0.000000
0.999365 0.224824 0.000000
1.000000 0.224950 0.000000
0.009020 0.255740 0.000000
0.042833 0.255740 0.000000
0.076645 0.255740 0.000000
0.110458 0.255740 0.000000
0.144270 0.255740 0.000000
0.178082 0.255740 0.000000
0.211895 0.255740 0.000000
0.245707 0.255740 0.000000
0.279520 0.255740 0.000000
0.314604 0.255967 0.000000
0.349891 0.256195 0.000000
0.385382 0.256422 0.000000
0.421075 0.256650 0.000000
0.456972 0.256878 0.000000
0.493071 0.257105 0.000000
0.529374 0.257333 0.000000
0.565880 0.257560 0.000000
0.602589 0.257787 0.000000
0.639501 0.258015 0.000000
0.676617 0.258242 0.000000
0.713935 0.258470 0.000000
0.751457 0.258698 0.000000
0.789181 0.258925 0.000000
0.827109 0.259153 0.000000
0.865240 0.259380 0.000000
0.903574 0.259607 0.000000
0.942111 0.259835 0.000000
0.980852 0.260062 0.000000
0.989844 0.260290 0.000000
0.994287 0.260518 0.000000
0.997461 0.260745 0.000000
0.999365 0.260972 0.000000
1.000000 0.261200 0.000000
0.009378 0.289882 0.000000
0.043292 0.289882 0.000000
0.077206 0.289882 0.000000
0.111120 0.289882 0.000000
0.145034 0.289882 0.000000
0.178948 0.289882 0.000000
0.212862 0.289882 0.000000
0.246776 0.289882 0.000000
0.280690 0.289882 0.000000
0.314604 0.289882 0.000000
0.349891 0.290211 0.000000
0.385382 0.290540 0.000000
0.421075 0.290869 0.000000
0.456972 0.291198 0.000000
0.493071 0.291527 0.000000
0.529374 0.291856 0.000000
0.565880 0.292185 0.000000
0.602589 0.292514 0.000000
0.639501 0.292843 0.000000
0.676617 0.293172 0.000000
0.713935 0.293501 0.000000
0.751457 0.293830 0.000000
0.789181 0.294159 0.000000
0.827109 0.294488 0.000000
0.865240 0.294818 0.000000
0.903574 0.295147 0.000000
0.942111 0.295476 0.000000
0.980852 0.295805 0.000000
0.989844 0.296134 0.000000
0.994287 0.296463 0.000000
0.997461 0.296792 0.000000
0.999365 0.297121 0.000000
1.000000 0.297450 0.000000
0.009735 0.324226 0.000000
0.043751 0.324226 0.000000
0.077766 0.324226 0.000000
0.111782 0.324226 0.000000
0.145798 0.324226 0.000000
0.179813 0.324226 0.000000
0.213829 0.324226 0.000000
0.247844 0.324226 0.000000
0.281860 0.324226 0.000000
0.315876 0.324226 0.000000
0.349891 0.324226 0.000000
0.385382 0.324657 0.000000
0.421075 0.325087 0.000000
0.456972 0.325518 0.000000
0.493071 0.325949 0.000000
0.529374 0.326379 0.000000
0.565880 0.326810 0.000000
0.602589 0.327241 0.000000
0.639501 0.327671 0.000000
0.676617 0.328102 0.000000
0.713935 0.328532 0.000000
0.751457 0.328963 0.000000
0.789181 0.329394 0.000000
0.827109 0.329824 0.000000
0.865240 0.330255 0.000000
0.903574 0.330686 0.000000
0.942111 0.331116 0.000000
0.980852 0.331547 0.000000
0.989844 0.331977 0.000000
0.994287 0.332408 0.000000
0.997461 0.332839 0.000000
0.999365 0.333269 0.000000
1.000000 0.333700 0.000000
0.010092 0.358774 0.000000
0.044210 0.358774 0.000000
0.078327 0.358774 0.000000
0.112444 0.358774 0.000000
0.146561 0.358774 0.000000
0.180678 0.358774 0.000000
0.214796 0.358774 0.000000
0.248913 0.358774 0.000000
0.283030 0.358774 0.000000
0.317147 0.358774 0.000000
0.351264 0.358774 0.000000
0.385382 0.358774 0.000000
0.421075 0.359306 0.000000
0.456972 0.359838 0.000000
0.493071 0.360371 0.000000
0.529374 0.360903 0.000000
0.565880 0.361435 0.000000
0.602589 0.361967 0.000000
0.639501 0.362499 0.000000
0.676617 0.363032 0.000000
0.713935 0.363564 0.000000
0.751457 0.364096 0.000000
0.789181 0.364628 0.000000
0.827109 0.365160 0.000000
0.865240 0.365692 0.000000
0.903574 0.366225 0.000000
0.942111 0.366757 0.000000
0.980852 0.367289 0.000000
0.989844 0.367821 0.000000
0.994287 0.368353 0.000000
0.997461 0.368886 0.000000
0.999365 0.369418 0.000000
1.000000 0.369950 0.000000
0.010450 0.393525 0.000000
0.044669 0.393525 0.000000
0.078887 0.393525 0.000000
0.113106 0.393525 0.000000
0.147325 0.393525 0.000000
0.181544 0.393525 0.000000
0.215762 0.393525 0.000000
0.249981 0.393525 0.000000
0.284200 0.393525 0.000000
0.318419 0.393525 0.000000
0.352637 0.393525 0.000000
0.386856 0.393525 0.000000
0.421075 0.393525 0.000000
0.456972 0.394159 0.000000
0.493071 0.394792 0.000000
0.529374 0.395426 0.000000
0.565880 0.396060 0.000000
0.602589 0.396694 0.000000
0.639501 0.397328 0.000000
0.676617 0.397961 0.000000
0.713935 0.398595 0.000000
0.751457 0.399229 0.000000
0.789181 0.399862 0.000000
0.827109 0.400496 0.000000
0.865240 0.401130 0.000000
0.903574 0.401764 0.000000
0.942111 0.402398 0.000000
0.980852 0.403031 0.000000
0.989844 0.403665 0.000000
0.994287 0.404299 0.000000
0.997461 0.404932 0.000000
0.999365 0.405566 0.000000
1.000000 0.406200 0.000000
0.010808 0.428479 0.000000
0.045128 0.428479 0.000000
0.079448 0.428479 0.000000
0.113768 0.428479 0.000000
0.148089 0.428479 0.000000
0.182409 0.428479 0.000000
0.216729 0.428479 0.000000
0.251050 0.428479 0.000000
0.285370 0.428479 0.000000
0.319690 0.428479 0.000000
0.354011 0.428479 0.000000
0.388331 0.428479 0.000000
0.422651 0.428479 0.000000
0.456972 0.428479 0.000000
0.493071 0.429214 0.000000
0.529374 0.429950 0.000000
0.565880 0.430685 0.000000
0.602589 0.431420 0.000000
0.639501 0.432156 0.000000
0.676617 0.432891 0.000000
0.713935 0.433626 0.000000
0.751457 0.434362 0.000000
0.789181 0.435097 0.000000
0.827109 0.435832 0.000000
0.865240 0.436567 0.000000
0.903574 0.437303 0.000000
0.942111 0.438038 0.000000
0.980852 0.438773 0.000000
0.989844 0.439509 0.000000
0.994287 0.440244 0.000000
0.997461 0.440979 0.000000
0.999365 0.441715 0.000000
1.000000 0.442450 0.000000
0.011165 0.463636 0.000000
0.045587 0.463636 0.000000
0.080009 0.463636 0.000000
0.114431 0.463636 0.000000
0.148852 0.463636 0.000000
0.183274 0.463636 0.000000
0.217696 0.463636 0.000000
0.252118 0.463636 0.000000
0.286540 0.463636 0.000000
0.320962 0.463636 0.000000
0.355384 0.463636 0.000000
0.389806 0.463636 0.000000
0.424228 0.463636 0.000000
0.458649 0.463636 0.000000
0.493071 0.463636 0.000000
0.529374 0.464473 0.000000
0.565880 0.465310 0.000000
0.602589 0.466147 0.000000
0.639501 0.466984 0.000000
0.676617 0.467821 0.000000
0.713935 0.468657 0.000000
0.751457 0.469494 0.000000
0.789181 0.470331 0.000000
0.827109 0.471168 0.000000
0.865240 0.472005 0.000000
0.903574 0.472842 0.000000
0.942111 0.473679 0.000000
0.980852 0.474516 0.000000
0.989844 0.475352 0.000000
0.994287 0.476189 0.000000
0.997461 0.477026 0.000000
0.999365 0.477863 0.000000
1.000000 0.478700 0.000000
0.011522 0.498997 0.000000
0.046046 0.498997 0.000000
0.080569 0.498997 0.000000
0.115093 0.498997 0.000000
0.149616 0.498997 0.000000
0.184140 0.498997 0.000000
0.218663 0.498997 0.000000
0.253187 0.498997 0.000000
0.287710 0.498997 0.000000
0.322233 0.498997 0.000000
0.356757 0.498997 0.000000
0.391280 0.498997 0.000000
0.425804 0.498997 0.000000
0.460327 0.498997 0.000000
0.494851 0.498997 0.000000
0.529374 0.498997 0.000000
0.565880 0.499935 0.000000
0.602589 0.500873 0.000000
0.639501 0.501812 0.000000
0.676617 0.502750 0.000000
0.713935 0.503689 0.000000
0.751457 0.504627 0.000000
0.789181 0.505566 0.000000
0.827109 0.506504 0.000000
0.865240 0.507442 0.000000
0.903574 0.508381 0.000000
0.942111 0.509319 0.000000
0.980852 0.510258 0.000000
0.989844 0.511196 0.000000
0.994287 0.512135 0.000000
0.997461 0.513073 0.000000
0.999365 0.514012 0.000000
1.000000 0.514950 0.000000
0.011880 0.534560 0.000000
0.046505 0.534560 0.000000
0.081130 0.534560 0.000000
0.115755 0.534560 0.000000
0.150380 0.534560 0.000000
0.185005 0.534560 0.000000
0.219630 0.534560 0.000000
0.254255 0.534560 0.000000
0.288880 0.534560 0.000000
0.323505 0.534560 0.000000
0.358130 0.534560 0.000000
0.392755 0.534560 0.000000
0.427380 0.534560 0.000000
0.462005 0.534560 0.000000
0.496630 0.534560 0.000000
0.531255 0.534560 0.000000
0.565880 0.534560 0.000000
0.602589 0.535600 0.000000
0.639501 0.536640 0.000000
0.676617 0.537680 0.000000
0.713935 0.538720 0.000000
0.751457 0.539760 0.000000
0.789181 0.540800 0.000000
0.827109 0.541840 0.000000
0.865240 0.542880 0.000000
0.903574 0.543920 0.000000
0.942111 0.544960 0.000000
0.980852 0.546000 0.000000
0.989844 0.547040 0.000000
0.994287 0.548080 0.000000
0.997461 0.549120 0.000000
0.999365 0.550160 0.000000
1.000000 0.551200 0.000000
0.012238 0.570327 0.000000
0.046964 0.570327 0.000000
0.081691 0.570327 0.000000
0.116417 0.570327 0.000000
0.151144 0.570327 0.000000
0.185870 0.570327 0.000000
0.220597 0.570327 0.000000
0.255323 0.570327 0.000000
0.290050 0.570327 0.000000
0.324777 0.570327 0.000000
0.359503 0.570327 0.000000
0.394230 0.570327 0.000000
0.428956 0.570327 0.000000
0.463683 0.570327 0.000000
0.498409 0.570327 0.000000
0.533136 0.570327 0.000000
0.567863 0.570327 0.000000
0.602589 0.570327 0.000000
0.639501 0.571468 0.000000
0.676617 0.572610 0.000000
0.713935 0.573751 0.000000
0.751457 0.574893 0.000000
0.789181 0.576034 0.000000
0.827109 0.577176 0.000000
0.865240 0.578318 0.000000
0.903574 0.579459 0.000000
0.942111 0.580601 0.000000
0.980852 0.581742 0.000000
0.989844 0.582884 0.000000
0.994287 0.584025 0.000000
0.997461 0.585167 0.000000
0.999365 0.586308 0.000000
1.000000 0.587450 0.000000
0.012595 0.606296 0.000000
0.047423 0.606296 0.000000
0.082251 0.606296 0.000000
0.117079 0.606296 0.000000
0.151908 0.606296 0.000000
0.186736 0.606296 0.000000
0.221564 0.606296 0.000000
0.256392 0.606296 0.000000
0.291220 0.606296 0.000000
0.326048 0.606296 0.000000
0.360876 0.606296 0.000000
0.395704 0.606296 0.000000
0.430532 0.606296 0.000000
0.465361 0.606296 0.000000
0.500189 0.606296 0.000000
0.535017 0.606296 0.000000
0.569845 0.606296 0.000000
0.604673 0.606296 0.000000
0.639501 0.606296 0.000000
0.676617 0.607539 0.000000
0.713935 0.608782 0.000000
0.751457 0.610026 0.000000
0.789181 0.611269 0.000000
0.827109 0.612512 0.000000
0.865240 0.613755 0.000000
0.903574 0.614998 0.000000
0.942111 0.616241 0.000000
0.980852 0.617484 0.000000
0.989844 0.618728 0.000000
0.994287 0.619971 0.000000
0.997461 0.621214 0.000000
0.999365 0.622457 0.000000
1.000000 0.623700 0.000000
0.012953 0.642469 0.000000
0.047882 0.642469 0.000000
0.082812 0.642469 0.000000
0.117742 0.642469 0.000000
0.152671 0.642469 0.000000
0.187601 0.642469 0.000000
0.222531 0.642469 0.000000
0.257460 0.642469 0.000000
0.292390 0.642469 0.000000
0.327320 0.642469 0.000000
0.362249 0.642469 0.000000
0.397179 0.642469 0.000000
0.432109 0.642469 0.000000
0.467038 0.642469 0.000000
0.501968 0.642469 0.000000
0.536898 0.642469 0.000000
0.571827 0.642469 0.000000
0.606757 0.642469 0.000000
0.641687 0.642469 0.000000
0.676617 0.642469 0.000000
0.713935 0.643814 0.000000
0.751457 0.645158 0.000000
0.789181 0.646503 0.000000
0.827109 0.647848 0.000000
0.865240 0.649193 0.000000
0.903574 0.650537 0.000000
0.942111 0.651882 0.000000
0.980852 0.653227 0.000000
0.989844 0.654571 0.000000
0.994287 0.655916 0.000000
0.997461 0.657261 0.000000
0.999365 0.658605 0.000000
1.000000 0.659950 0.000000
0.013310 0.678845 0.000000
0.048341 0.678845 0.000000
0.083373 0.678845 0.000000
0.118404 0.678845 0.000000
0.153435 0.678845 0.000000
0.188466 0.678845 0.000000
0.223497 0.678845 0.000000
0.258529 0.678845 0.000000
0.293560 0.678845 0.000000
0.328591 0.678845 0.000000
0.363622 0.678845 0.000000
0.398654 0.678845 0.000000
0.433685 0.678845 0.000000
0.468716 0.678845 0.000000
0.503748 0.678845 0.000000
0.538779 0.678845 0.000000
0.573810 0.678845 0.000000
0.608841 0.678845 0.000000
0.643872 0.678845 0.000000
0.678904 0.678845 0.000000
0.713935 0.678845 0.000000
0.751457 0.680291 0.000000
0.789181 0.681737 0.000000
0.827109 0.683184 0.000000
0.865240 0.684630 0.000000
0.903574 0.686076 0.000000
0.942111 0.687522 0.000000
0.980852 0.688969 0.000000
0.989844 0.690415 0.000000
0.994287 0.691861 0.000000
0.997461 0.693308 0.000000
0.999365 0.694754 0.000000
1.000000 0.696200 0.000000
0.013667 0.715424 0.000000
0.048800 0.715424 0.000000
0.083933 0.715424 0.000000
0.119066 0.715424 0.000000
0.154199 0.715424 0.000000
0.189332 0.715424 0.000000
0.224464 0.715424 0.000000
0.259597 0.715424 0.000000
0.294730 0.715424 0.000000
0.329863 0.715424 0.000000
0.364996 0.715424 0.000000
0.400128 0.715424 0.000000
0.435261 0.715424 0.000000
0.470394 0.715424 0.000000
0.505527 0.715424 0.000000
0.540660 0.715424 0.000000
0.575792 0.715424 0.000000
0.610925 0.715424 0.000000
0.646058 0.715424 0.000000
0.681191 0.715424 0.000000
0.716324 0.715424 0.000000
0.751457 0.715424 0.000000
0.789181 0.716972 0.000000
0.827109 0.718520 0.000000
0.865240 0.720068 0.000000
0.903574 0.721615 0.000000
0.942111 0.723163 0.000000
0.980852 0.724711 0.000000
0.989844 0.726259 0.000000
0.994287 0.727807 0.000000
0.997461 0.729354 0.000000
0.999365 0.730902 0.000000
1.000000 0.732450 0.000000
0.014025 0.752206 0.000000
0.049259 0.752206 0.000000
0.084494 0.752206 0.000000
0.119728 0.752206 0.000000
0.154962 0.752206 0.000000
0.190197 0.752206 0.000000
0.225431 0.752206 0.000000
0.260666 0.752206 0.000000
0.295900 0.752206 0.000000
0.331134 0.752206 0.000000
0.366369 0.752206 0.000000
0.401603 0.752206 0.000000
0.436837 0.752206 0.000000
0.472072 0.752206 0.000000
0.507306 0.752206 0.000000
0.542541 0.752206 0.000000
0.577775 0.752206 0.000000
0.613009 0.752206 0.000000
0.648244 0.752206 0.000000
0.683478 0.752206 0.000000
0.718713 0.752206 0.000000
0.753947 0.752206 0.000000
0.789181 0.752206 0.000000
0.827109 0.753856 0.000000
0.865240 0.755505 0.000000
0.903574 0.757154 0.000000
0.942111 0.758804 0.000000
0.980852 0.760453 0.000000
0.989844 0.762102 0.000000
0.994287 0.763752 0.000000
0.997461 0.765401 0.000000
0.999365 0.767051 0.000000
1.000000 0.768700 0.000000
0.014383 0.789192 0.000000
0.049718 0.789192 0.000000
0.085054 0.789192 0.000000
0.120390 0.789192 0.000000
0.155726 0.789192 0.000000
0.191062 0.789192 0.000000
0.226398 0.789192 0.000000
0.261734 0.789192 0.000000
0.297070 0.789192 0.000000
0.332406 0.789192 0.000000
0.367742 0.789192 0.000000
0.403078 0.789192 0.000000
0.438414 0.789192 0.000000
0.473750 0.789192 0.000000
0.509086 0.789192 0.000000
0.544422 0.789192 0.000000
0.579758 0.789192 0.000000
0.615093 0.789192 0.000000
0.650429 0.789192 0.000000
0.685765 0.789192 0.000000
0.721101 0.789192 0.000000
0.756437 0.789192 0.000000
0.791773 0.789192 0.000000
0.827109 0.789192 0.000000
0.865240 0.790942 0.000000
0.903574 0.792693 0.000000
0.942111 0.794444 0.000000
0.980852 0.796195 0.000000
0.989844 0.797946 0.000000
0.994287 0.799697 0.000000
0.997461 0.801448 0.000000
0.999365 0.803199 0.000000
1.000000 0.804950 0.000000
0.014740 0.826380 0.000000
0.050177 0.826380 0.000000
0.085615 0.826380 0.000000
0.121053 0.826380 0.000000
0.156490 0.826380 0.000000
0.191927 0.826380 0.000000
0.227365 0.826380 0.000000
0.262803 0.826380 0.000000
0.298240 0.826380 0.000000
0.333678 0.826380 0.000000
0.369115 0.826380 0.000000
0.404552 0.826380 0.000000
0.439990 0.826380 0.000000
0.475428 0.826380 0.000000
0.510865 0.826380 0.000000
0.546302 0.826380 0.000000
0.581740 0.826380 0.000000
0.617177 0.826380 0.000000
0.652615 0.826380 0.000000
0.688052 0.826380 0.000000
0.723490 0.826380 0.000000
0.758928 0.826380 0.000000
0.794365 0.826380 0.000000
0.829803 0.826380 0.000000
0.865240 0.826380 0.000000
0.903574 0.828233 0.000000
0.942111 0.830085 0.000000
0.980852 0.831937 0.000000
0.989844 0.833790 0.000000
0.994287 0.835643 0.000000
0.997461 0.837495 0.000000
0.999365 0.839347 0.000000
1.000000 0.841200 0.000000
0.015097 0.863772 0.000000
0.050637 0.863772 0.000000
0.086176 0.863772 0.000000
0.121715 0.863772 0.000000
0.157254 0.863772 0.000000
0.192793 0.863772 0.000000
0.228332 0.863772 0.000000
0.263871 0.863772 0.000000
0.299410 0.863772 0.000000
0.334949 0.863772 0.000000
0.370488 0.863772 0.000000
0.406027 0.863772 0.000000
0.441566 0.863772 0.000000
0.477105 0.863772 0.000000
0.512644 0.863772 0.000000
0.548183 0.863772 0.000000
0.583722 0.863772 0.000000
0.619262 0.863772 0.000000
0.654801 0.863772 0.000000
0.690340 0.863772 0.000000
0.725879 0.863772 0.000000
0.761418 0.863772 0.000000
0.796957 0.863772 0.000000
0.832496 0.863772 0.000000
0.868035 0.863772 0.000000
0.903574 0.863772 0.000000
0.942111 0.865726 0.000000
0.980852 0.867680 0.000000
0.989844 0.869634 0.000000
0.994287 0.871588 0.000000
0.997461 0.873542 0.000000
0.999365 0.875496 0.000000
1.000000 0.877450 0.000000
0.015455 0.901366 0.000000
0.051096 0.901366 0.000000
0.086736 0.901366 0.000000
0.122377 0.901366 0.000000
0.158018 0.901366 0.000000
0.193658 0.901366 0.000000
0.229299 0.901366 0.000000
0.264939 0.901366 0.000000
0.300580 0.901366 0.000000
0.336221 0.901366 0.000000
0.371861 0.901366 0.000000
0.407502 0.901366 0.000000
0.443143 0.901366 0.000000
0.478783 0.901366 0.000000
0.514424 0.901366 0.000000
0.550064 0.901366 0.000000
0.585705 0.901366 0.000000
0.621346 0.901366 0.000000
0.656986 0.901366 0.000000
0.692627 0.901366 0.000000
0.728267 0.901366 0.000000
0.763908 0.901366 0.000000
0.799549 0.901366 0.000000
0.835189 0.901366 0.000000
0.870830 0.901366 0.000000
0.906471 0.901366 0.000000
0.942111 0.901366 0.000000
