luts/original/urban-punch.cube
TITLE "Urban Punch"
LUT_3D_SIZE 5
DOMAIN_MIN 0.0 0.0 0.0
DOMAIN_MAX 1.0 1.0 1.0
0.006160 0.000000 0.000000
0.279520 0.000000 0.000000
0.565880 0.000000 0.000000
0.865240 0.000000 0.000000
1.000000 0.000000 0.000000
0.009020 0.255740 0.000000
0.279520 0.255740 0.000000
0.565880 0.257560 0.000000
0.865240 0.259380 0.000000
1.000000 0.261200 0.000000
0.011880 0.534560 0.000000
0.288880 0.534560 0.000000
0.565880 0.534560 0.000000
0.865240 0.542880 0.000000
1.000000 0.551200 0.000000
0.014740 0.826380 0.000000
0.298240 0.826380 0.000000
0.581740 0.826380 0.000000
0.865240 0.826380 0.000000
1.000000 0.841200 0.000000
0.017600 1.000000 0.000000
0.307600 1.000000 0.000000
0.597600 1.000000 0.000000
0.887600 1.000000 0.000000
1.000000 1.000000 0.000000
0.009020 0.000000 0.231960
0.279520 0.000000 0.231960
0.565880 0.000000 0.226240
0.865240 0.000000 0.220520
1.000000 0.000000 0.214800
0.000988 0.255740 0.230430
0.279520 0.251011 0.222501
0.565880 0.236291 0.202037
0.865240 0.217854 0.175918
1.000000 0.204746 0.154800
0.000000 0.534560 0.218750
0.272715 0.534560 0.203916
0.565880 0.531626 0.202037
0.865240 0.520579 0.175918
1.000000 0.516906 0.154800
0.000000 0.826380 0.209309
0.262232 0.826380 0.178250
0.565302 0.826380 0.178250
0.865240 0.823304 0.175918
1.000000 0.829066 0.154800
0.000000 1.000000 0.200733
0.254691 1.000000 0.154800
0.566851 1.000000 0.154800
0.879011 1.000000 0.154800
1.000000 1.000000 0.154800
0.011880 0.000000 0.503240
0.288880 0.000000 0.503240
0.565880 0.000000 0.503240
0.865240 0.000000 0.504020
1.000000 0.000000 0.504800
0.000000 0.251620 0.503240
0.272330 0.237116 0.503240
0.565880 0.233357 0.496563
0.865240 0.214778 0.476763
1.000000 0.201200 0.464583
0.000000 0.534560 0.502207
0.266556 0.534560 0.498988
0.565880 0.522459 0.479037
0.865240 0.503684 0.459418
1.000000 0.496822 0.444800
0.000000 0.826380 0.497999
0.255970 0.826380 0.477371
0.551130 0.826380 0.461750
0.865240 0.820974 0.459418
1.000000 0.821959 0.444800
0.000000 1.000000 0.495928
0.247600 1.000000 0.461888
0.548844 1.000000 0.444800
0.873981 1.000000 0.444800
1.000000 1.000000 0.444800
0.014740 0.000000 0.787520
0.298240 0.000000 0.787520
0.581740 0.000000 0.787520
0.865240 0.000000 0.787520
1.000000 0.000000 0.794800
0.000000 0.249260 0.787520
0.261774 0.219441 0.787520
0.566980 0.219441 0.787520
0.865240 0.214778 0.780912
1.000000 0.201200 0.778135
0.000000 0.538260 0.787520
0.258301 0.522911 0.787520
0.549409 0.502941 0.787520
0.865240 0.498278 0.775216
1.000000 0.491200 0.767367
0.000000 0.826380 0.786690
0.255970 0.826380 0.783844
0.539470 0.826380 0.779469
0.865240 0.804079 0.742918
1.000000 0.794767 0.734800
0.000000 1.000000 0.791124
0.247600 1.000000 0.777018
0.537600 1.000000 0.764204
0.854734 1.000000 0.734800
1.000000 1.000000 0.734800
0.017600 0.000000 1.000000
0.307600 0.000000 1.000000
0.597600 0.000000 1.000000
0.887600 0.000000 1.000000
1.000000 0.000000 1.000000
0.000000 0.247964 1.000000
0.251368 0.201200 1.000000
0.564920 0.201200 1.000000
0.878472 0.201200 1.000000
1.000000 0.201200 1.000000
0.000000 0.543160 1.000000
0.247600 0.512309 1.000000
0.543803 0.491200 1.000000
0.872573 0.491200 1.000000
1.000000 0.491200 1.000000
0.000000 0.838355 1.000000
0.247600 0.827439 1.000000
0.537600 0.817522 1.000000
0.845131 0.781200 1.000000
1.000000 0.781200 1.000000
0.000000 1.000000 1.000000
0.247600 1.000000 1.000000
0.537600 1.000000 1.000000
0.827600 1.000000 1.000000
1.000000 0.940000 0.940000
