luts/original/urban-punch.cube
TITLE "Urban Punch"
LUT_3D_SIZE 9
DOMAIN_MIN 0.0 0.0 0.0
DOMAIN_MAX 1.0 1.0 1.0
0.006160 0.000000 0.000000
0.141215 0.000000 0.000000
0.279520 0.000000 0.000000
0.421075 0.000000 0.000000
0.565880 0.000000 0.000000
0.713935 0.000000 0.000000
0.865240 0.000000 0.000000
0.989844 0.000000 0.000000
1.000000 0.000000 0.000000
0.007590 0.121205 0.000000
0.141215 0.121205 0.000000
0.279520 0.120490 0.000000
0.421075 0.119775 0.000000
0.565880 0.119060 0.000000
0.713935 0.118345 0.000000
0.865240 0.117630 0.000000
0.989844 0.116915 0.000000
1.000000 0.116200 0.000000
0.009020 0.255740 0.000000
0.144270 0.255740 0.000000
0.279520 0.255740 0.000000
0.421075 0.256650 0.000000
0.565880 0.257560 0.000000
0.713935 0.258470 0.000000
0.865240 0.259380 0.000000
0.989844 0.260290 0.000000
1.000000 0.261200 0.000000
0.010450 0.393525 0.000000
0.147325 0.393525 0.000000
0.284200 0.393525 0.000000
0.421075 0.393525 0.000000
0.565880 0.396060 0.000000
0.713935 0.398595 0.000000
0.865240 0.401130 0.000000
0.989844 0.403665 0.000000
1.000000 0.406200 0.000000
0.011880 0.534560 0.000000
0.150380 0.534560 0.000000
0.288880 0.534560 0.000000
0.427380 0.534560 0.000000
0.565880 0.534560 0.000000
0.713935 0.538720 0.000000
0.865240 0.542880 0.000000
0.989844 0.547040 0.000000
1.000000 0.551200 0.000000
0.013310 0.678845 0.000000
0.153435 0.678845 0.000000
0.293560 0.678845 0.000000
0.433685 0.678845 0.000000
0.573810 0.678845 0.000000
0.713935 0.678845 0.000000
0.865240 0.684630 0.000000
0.989844 0.690415 0.000000
1.000000 0.696200 0.000000
0.014740 0.826380 0.000000
0.156490 0.826380 0.000000
0.298240 0.826380 0.000000
0.439990 0.826380 0.000000
0.581740 0.826380 0.000000
0.723490 0.826380 0.000000
0.865240 0.826380 0.000000
0.989844 0.833790 0.000000
1.000000 0.841200 0.000000
0.016170 0.977165 0.000000
0.159545 0.977165 0.000000
0.302920 0.977165 0.000000
0.446295 0.977165 0.000000
0.589670 0.977165 0.000000
0.733045 0.977165 0.000000
0.876420 0.977165 0.000000
0.989844 0.977165 0.000000
1.000000 0.986200 0.000000
0.017600 1.000000 0.000000
0.162600 1.000000 0.000000
0.307600 1.000000 0.000000
0.452600 1.000000 0.000000
0.597600 1.000000 0.000000
0.742600 1.000000 0.000000
0.887600 1.000000 0.000000
1.000000 1.000000 0.000000
1.000000 1.000000 0.000000
0.007590 0.000000 0.101195
0.141215 0.000000 0.101195
0.279520 0.000000 0.096710
0.421075 0.000000 0.092225
0.565880 0.000000 0.087740
0.713935 0.000000 0.083255
0.865240 0.000000 0.078770
0.989844 0.000000 0.074285
1.000000 0.000000 0.069800
0.004583 0.121205 0.099780
0.141215 0.119101 0.096988
0.279520 0.112877 0.087251
0.421075 0.105606 0.076101
0.565880 0.096985 0.063537
0.713935 0.086973 0.049560
0.865240 0.075559 0.034168
0.989844 0.064540 0.019160
1.000000 0.059193 0.009800
0.000988 0.255740 0.090399
0.140132 0.255740 0.088678
0.279520 0.253894 0.087251
0.421075 0.248588 0.076101
0.565880 0.242134 0.063537
0.713935 0.234360 0.049560
0.865240 0.225217 0.034168
0.989844 0.216508 0.019160
1.000000 0.213546 0.009800
0.000000 0.393525 0.083179
0.136846 0.393525 0.077754
0.279959 0.393525 0.077754
0.421075 0.391571 0.076101
0.565880 0.387283 0.063537
0.713935 0.381747 0.049560
0.865240 0.374875 0.034168
0.989844 0.368476 0.019160
1.000000 0.367899 0.009800
0.000000 0.534560 0.077022
0.132360 0.534560 0.065416
0.277584 0.534560 0.065416
0.422808 0.534560 0.065416
0.565880 0.532432 0.063537
0.713935 0.529134 0.049560
0.865240 0.524533 0.034168
0.989844 0.520443 0.019160
1.000000 0.522251 0.009800
0.000000 0.678845 0.070969
0.126525 0.678845 0.051665
0.273962 0.678845 0.051665
0.421400 0.678845 0.051665
0.568837 0.678845 0.051665
0.713935 0.676521 0.049560
0.865240 0.674191 0.034168
0.989844 0.672411 0.019160
1.000000 0.676604 0.009800
0.000000 0.826380 0.064964
0.119305 0.826380 0.036500
0.269000 0.826380 0.036500
0.418696 0.826380 0.036500
0.568392 0.826380 0.036500
0.718087 0.826380 0.036500
0.865240 0.823849 0.034168
0.989844 0.824379 0.019160
1.000000 0.830957 0.009800
0.000000 0.977165 0.058986
0.110686 0.977165 0.019921
0.262663 0.977165 0.019921
0.414640 0.977165 0.019921
0.566617 0.977165 0.019921
0.718594 0.977165 0.019921
0.870571 0.977165 0.019921
0.989844 0.976347 0.019160
1.000000 0.985310 0.009800
0.000000 1.000000 0.053135
0.108586 1.000000 0.009800
0.262939 1.000000 0.009800
0.417291 1.000000 0.009800
0.571644 1.000000 0.009800
0.725997 1.000000 0.009800
0.880350 1.000000 0.009800
1.000000 1.000000 0.009800
1.000000 1.000000 0.009800
0.009020 0.000000 0.231960
0.144270 0.000000 0.231960
0.279520 0.000000 0.231960
0.421075 0.000000 0.229100
0.565880 0.000000 0.226240
0.713935 0.000000 0.223380
0.865240 0.000000 0.220520
0.989844 0.000000 0.217660
1.000000 0.000000 0.214800
0.002415 0.117187 0.231960
0.140773 0.113885 0.231960
0.279520 0.111031 0.227374
0.421075 0.103651 0.217702
0.565880 0.094857 0.206994
0.713935 0.084650 0.194988
0.865240 0.073028 0.181619
0.989844 0.061790 0.168685
1.000000 0.056200 0.161494
0.000988 0.255740 0.230430
0.136238 0.255740 0.228180
0.279520 0.251011 0.222501
0.421075 0.243672 0.212976
0.565880 0.236291 0.202037
0.713935 0.227737 0.189685
0.865240 0.217854 0.175918
0.989844 0.208423 0.162535
1.000000 0.204746 0.154800
0.000000 0.393525 0.223953
0.132854 0.393525 0.217730
0.276745 0.393525 0.214629
0.421075 0.390379 0.212976
0.565880 0.383959 0.202037
0.713935 0.377119 0.189685
0.865240 0.369217 0.175918
0.989844 0.361977 0.162535
1.000000 0.360826 0.154800
0.000000 0.534560 0.218750
0.128056 0.534560 0.206915
0.272715 0.534560 0.203916
0.420837 0.534560 0.203916
0.565880 0.531626 0.202037
0.713935 0.526501 0.189685
0.865240 0.520579 0.175918
0.989844 0.515532 0.162535
1.000000 0.516906 0.154800
0.000000 0.678845 0.213938
0.121845 0.678845 0.194880
0.268060 0.678845 0.191790
0.417700 0.678845 0.191790
0.567340 0.678845 0.191790
0.713935 0.675883 0.189685
0.865240 0.671942 0.175918
0.989844 0.669087 0.162535
1.000000 0.672986 0.154800
0.000000 0.826380 0.209309
0.114220 0.826380 0.181501
0.262232 0.826380 0.178250
0.413767 0.826380 0.178250
0.565302 0.826380 0.178250
0.716836 0.826380 0.178250
0.865240 0.823304 0.175918
0.989844 0.822641 0.162535
1.000000 0.829066 0.154800
0.000000 0.977165 0.204782
0.105181 0.977165 0.166741
0.255096 0.977165 0.163296
0.408690 0.977165 0.163296
0.562283 0.977165 0.163296
0.715877 0.977165 0.163296
0.869471 0.977165 0.163296
0.989844 0.976196 0.162535
1.000000 0.985146 0.154800
0.000000 1.000000 0.200733
0.102600 1.000000 0.158540
0.254691 1.000000 0.154800
0.410771 1.000000 0.154800
0.566851 1.000000 0.154800
0.722931 1.000000 0.154800
0.879011 1.000000 0.154800
1.000000 1.000000 0.154800
1.000000 1.000000 0.154800
0.010450 0.000000 0.365975
0.147325 0.000000 0.365975
0.284200 0.000000 0.365975
0.421075 0.000000 0.365975
0.565880 0.000000 0.364740
0.713935 0.000000 0.363505
0.865240 0.000000 0.362270
0.989844 0.000000 0.361035
1.000000 0.000000 0.359800
0.000000 0.112336 0.365975
0.136949 0.106957 0.365975
0.281453 0.106957 0.365975
0.421075 0.103651 0.361527
0.565880 0.094857 0.352784
0.713935 0.084650 0.342913
0.865240 0.073028 0.331753
0.989844 0.061790 0.321104
1.000000 0.056200 0.316338
0.000000 0.253639 0.365975
0.134507 0.250241 0.365975
0.277414 0.243832 0.365975
0.421075 0.240526 0.358157
0.565880 0.233357 0.347631
0.713935 0.224775 0.336711
0.865240 0.214778 0.324689
0.989844 0.205165 0.313267
1.000000 0.201200 0.307808
0.000000 0.393525 0.364727
0.132854 0.393525 0.363219
0.269729 0.393525 0.359165
0.421075 0.385463 0.349851
0.565880 0.376580 0.340537
0.713935 0.368984 0.329810
0.865240 0.360449 0.317668
0.989844 0.352535 0.305910
1.000000 0.350549 0.299800
0.000000 0.534560 0.360479
0.128056 0.534560 0.353745
0.266556 0.534560 0.347200
0.415880 0.534560 0.342416
0.565880 0.529837 0.340537
0.713935 0.521872 0.329810
0.865240 0.514452 0.317668
0.989844 0.508396 0.305910
1.000000 0.509138 0.299800
0.000000 0.678845 0.356907
0.121845 0.678845 0.343590
0.261970 0.678845 0.336158
0.410809 0.678845 0.331915
0.564551 0.678845 0.331915
0.713935 0.674761 0.329810
0.865240 0.668456 0.317668
0.989844 0.664256 0.305910
1.000000 0.667728 0.299800
0.000000 0.826380 0.353654
0.114220 0.826380 0.332283
0.255970 0.826380 0.324135
0.405868 0.826380 0.320000
0.560350 0.826380 0.320000
0.714832 0.826380 0.320000
0.865240 0.822459 0.317668
0.989844 0.820116 0.305910
1.000000 0.826317 0.299800
0.000000 0.977165 0.350578
0.105181 0.977165 0.319688
0.248556 0.977165 0.310853
0.399985 0.977165 0.306671
0.555944 0.977165 0.306671
0.711903 0.977165 0.306671
0.867863 0.977165 0.306671
0.989844 0.975977 0.305910
1.000000 0.984907 0.299800
0.000000 1.000000 0.348331
0.102600 1.000000 0.313929
0.247600 1.000000 0.304323
0.401297 1.000000 0.299800
0.559887 1.000000 0.299800
0.718476 1.000000 0.299800
0.877066 1.000000 0.299800
1.000000 1.000000 0.299800
1.000000 1.000000 0.299800
0.011880 0.000000 0.503240
0.150380 0.000000 0.503240
0.288880 0.000000 0.503240
0.427380 0.000000 0.503240
0.565880 0.000000 0.503240
0.713935 0.000000 0.503630
0.865240 0.000000 0.504020
0.989844 0.000000 0.504410
1.000000 0.000000 0.504800
0.000000 0.109584 0.503240
0.132377 0.098616 0.503240
0.278505 0.098616 0.503240
0.424634 0.098616 0.503240
0.565880 0.094857 0.498574
0.713935 0.084650 0.490838
0.865240 0.073028 0.481887
0.989844 0.061790 0.473523
1.000000 0.056200 0.471182
0.000000 0.251620 0.503240
0.129936 0.243006 0.503240
0.272330 0.237116 0.503240
0.422999 0.237116 0.503240
0.565880 0.233357 0.496563
0.713935 0.224775 0.486985
0.865240 0.214778 0.476763
0.989844 0.205165 0.467461
1.000000 0.201200 0.464583
0.000000 0.393656 0.503240
0.129936 0.390169 0.503240
0.268436 0.385838 0.503240
0.416557 0.375616 0.503240
0.565880 0.371857 0.491505
0.713935 0.364900 0.479811
0.865240 0.356528 0.468553
0.989844 0.348540 0.458438
1.000000 0.346200 0.454763
0.000000 0.534560 0.502207
0.128056 0.534560 0.500574
0.266556 0.534560 0.498988
0.405056 0.534560 0.492735
0.565880 0.522459 0.479037
0.713935 0.511599 0.469935
0.865240 0.503684 0.459418
0.989844 0.497080 0.449285
1.000000 0.496822 0.444800
0.000000 0.678845 0.499876
0.121845 0.678845 0.492299
0.261970 0.678845 0.488071
0.402095 0.678845 0.478809
0.557536 0.678845 0.472040
0.713935 0.672270 0.469935
0.865240 0.662329 0.459418
0.989844 0.656596 0.449285
1.000000 0.659391 0.444800
0.000000 0.826380 0.497999
0.114220 0.826380 0.483065
0.255970 0.826380 0.477371
0.397720 0.826380 0.467428
0.551130 0.826380 0.461750
0.711100 0.826380 0.461750
0.865240 0.820974 0.459418
0.989844 0.816113 0.449285
1.000000 0.821959 0.444800
0.000000 0.977165 0.496373
0.105181 0.977165 0.472634
0.248556 0.977165 0.465844
0.391931 0.977165 0.455364
0.545786 0.977165 0.450046
0.705535 0.977165 0.450046
0.865285 0.977165 0.450046
0.989844 0.975629 0.449285
1.000000 0.984528 0.444800
0.000000 1.000000 0.495928
0.102600 1.000000 0.469319
0.247600 1.000000 0.461888
0.392600 1.000000 0.450522
0.548844 1.000000 0.444800
0.711413 1.000000 0.444800
0.873981 1.000000 0.444800
1.000000 1.000000 0.444800
1.000000 1.000000 0.444800
0.013310 0.000000 0.643755
0.153435 0.000000 0.643755
0.293560 0.000000 0.643755
0.433685 0.000000 0.643755
0.573810 0.000000 0.643755
0.713935 0.000000 0.643755
0.865240 0.000000 0.645770
0.989844 0.000000 0.647785
1.000000 0.000000 0.649800
0.000000 0.107111 0.643755
0.126514 0.088860 0.643755
0.274651 0.088860 0.643755
0.422789 0.088860 0.643755
0.570926 0.088860 0.643755
0.713935 0.084650 0.638763
0.865240 0.073028 0.632021
0.989844 0.061790 0.625942
1.000000 0.056200 0.626025
0.000000 0.250289 0.643755
0.123950 0.234952 0.643755
0.267596 0.228985 0.643755
0.418723 0.228985 0.643755
0.569849 0.228985 0.643755
0.713935 0.224775 0.637259
0.865240 0.214778 0.628838
0.989844 0.205165 0.621655
1.000000 0.201200 0.621359
0.000000 0.393466 0.643755
0.123950 0.383853 0.643755
0.264075 0.377606 0.643755
0.409816 0.369110 0.643755
0.567492 0.369110 0.643755
0.713935 0.364900 0.634460
0.865240 0.356528 0.623738
0.989844 0.348540 0.615274
1.000000 0.346200 0.614414
0.000000 0.536644 0.643755
0.123950 0.532753 0.643755
0.264075 0.530224 0.643755
0.404200 0.523978 0.643755
0.558200 0.509235 0.643755
0.713935 0.505025 0.627418
0.865240 0.498278 0.614241
0.989844 0.491915 0.604771
1.000000 0.491200 0.602982
0.000000 0.678845 0.642845
0.121845 0.678845 0.641008
0.261970 0.678845 0.639983
0.402095 0.678845 0.637738
0.542220 0.678845 0.628889
0.713935 0.661997 0.610059
0.865240 0.648731 0.601168
0.989844 0.642594 0.592660
1.000000 0.644150 0.589800
0.000000 0.826380 0.642345
0.114220 0.826380 0.633848
0.255970 0.826380 0.630608
0.397720 0.826380 0.624950
0.539470 0.826380 0.612558
0.701714 0.826380 0.603500
0.865240 0.817677 0.601168
0.989844 0.808793 0.592660
1.000000 0.813993 0.589800
0.000000 0.977165 0.642169
0.105181 0.977165 0.625580
0.248556 0.977165 0.620835
0.391931 0.977165 0.613512
0.535306 0.977165 0.600723
0.693678 0.977165 0.593421
0.860486 0.977165 0.593421
0.989844 0.974993 0.592660
1.000000 0.983836 0.589800
0.000000 1.000000 0.643526
0.102600 1.000000 0.624708
0.247600 1.000000 0.619453
0.392600 1.000000 0.611415
0.537600 1.000000 0.597583
0.698500 1.000000 0.589800
0.868342 1.000000 0.589800
1.000000 1.000000 0.589800
1.000000 1.000000 0.589800
0.014740 0.000000 0.787520
0.156490 0.000000 0.787520
0.298240 0.000000 0.787520
0.439990 0.000000 0.787520
0.581740 0.000000 0.787520
0.723490 0.000000 0.787520
0.865240 0.000000 0.787520
0.989844 0.000000 0.791160
1.000000 0.000000 0.794800
0.000000 0.104760 0.787520
0.119282 0.077691 0.787520
0.269566 0.077691 0.787520
0.419850 0.077691 0.787520
0.570134 0.077691 0.787520
0.720418 0.077691 0.787520
0.865240 0.073028 0.782154
0.989844 0.061790 0.778361
1.000000 0.056200 0.780869
0.000000 0.249260 0.787520
0.116551 0.225670 0.787520
0.261774 0.219441 0.787520
0.414377 0.219441 0.787520
0.566980 0.219441 0.787520
0.719583 0.219441 0.787520
0.865240 0.214778 0.780912
0.989844 0.205165 0.775849
1.000000 0.201200 0.778135
0.000000 0.393760 0.787520
0.116551 0.376581 0.787520
0.258301 0.369274 0.787520
0.404820 0.361191 0.787520
0.561473 0.361191 0.787520
0.718125 0.361191 0.787520
0.865240 0.356528 0.778922
0.989844 0.348540 0.772110
1.000000 0.346200 0.774066
0.000000 0.538260 0.787520
0.116551 0.527491 0.787520
0.258301 0.522911 0.787520
0.400051 0.514449 0.787520
0.549409 0.502941 0.787520
0.714932 0.502941 0.787520
0.865240 0.498278 0.775216
0.989844 0.491915 0.765956
1.000000 0.491200 0.767367
0.000000 0.682760 0.787520
0.116551 0.678401 0.787520
0.258301 0.676547 0.787520
0.400051 0.673122 0.787520
0.541801 0.664661 0.787520
0.702346 0.644691 0.787520
0.865240 0.640028 0.765895
0.989844 0.635290 0.753926
1.000000 0.636200 0.754273
0.000000 0.826380 0.786690
0.114220 0.826380 0.784630
0.255970 0.826380 0.783844
0.397720 0.826380 0.782473
0.539470 0.826380 0.779469
0.681220 0.826380 0.767628
0.865240 0.804079 0.742918
0.989844 0.791130 0.736035
1.000000 0.794767 0.734800
0.000000 0.977165 0.787965
0.105181 0.977165 0.778526
0.248556 0.977165 0.775827
0.391931 0.977165 0.771660
0.535306 0.977165 0.764384
0.678681 0.977165 0.748445
0.848414 0.977165 0.736796
0.989844 0.973458 0.736035
1.000000 0.982165 0.734800
0.000000 1.000000 0.791124
0.102600 1.000000 0.780097
0.247600 1.000000 0.777018
0.392600 1.000000 0.772308
0.537600 1.000000 0.764204
0.682600 1.000000 0.746968
0.854734 1.000000 0.734800
1.000000 1.000000 0.734800
1.000000 1.000000 0.734800
0.016170 0.000000 0.934535
0.159545 0.000000 0.934535
0.302920 0.000000 0.934535
0.446295 0.000000 0.934535
0.589670 0.000000 0.934535
0.733045 0.000000 0.934535
0.876420 0.000000 0.934535
0.989844 0.000000 0.934535
1.000000 0.000000 0.939800
0.000000 0.102474 0.934535
0.110657 0.065109 0.934535
0.263153 0.065109 0.934535
0.415649 0.065109 0.934535
0.568145 0.065109 0.934535
0.720641 0.065109 0.934535
0.873137 0.065109 0.934535
0.989844 0.061790 0.930780
1.000000 0.056200 0.935713
0.000000 0.248391 0.934535
0.107739 0.215056 0.934535
0.254656 0.208484 0.934535
0.409101 0.208484 0.934535
0.563545 0.208484 0.934535
0.717990 0.208484 0.934535
0.872435 0.208484 0.934535
0.989844 0.205165 0.930043
1.000000 0.201200 0.934911
0.000000 0.394309 0.934535
0.107739 0.368096 0.934535
0.251114 0.359938 0.934535
0.398993 0.351859 0.934535
0.556446 0.351859 0.934535
0.713899 0.351859 0.934535
0.871352 0.351859 0.934535
0.989844 0.348540 0.928946
1.000000 0.346200 0.933717
0.000000 0.540226 0.934535
0.107739 0.521137 0.934535
0.251114 0.515196 0.934535
0.394489 0.505718 0.934535
0.544049 0.495234 0.934535
0.706755 0.495234 0.934535
0.869461 0.495234 0.934535
0.989844 0.491915 0.927141
1.000000 0.491200 0.931752
0.000000 0.686144 0.934535
0.107739 0.674177 0.934535
0.251114 0.670453 0.934535
0.394489 0.664512 0.934535
0.537864 0.653536 0.934535
0.691106 0.638609 0.934535
0.865319 0.638609 0.934535
0.989844 0.635290 0.923612
1.000000 0.636200 0.927911
0.000000 0.832061 0.934535
0.107739 0.827218 0.934535
0.251114 0.825710 0.934535
0.394489 0.823305 0.934535
0.537864 0.818863 0.934535
0.681239 0.807887 0.934535
0.848993 0.781984 0.934535
0.989844 0.778665 0.913637
1.000000 0.781200 0.917054
0.000000 0.977165 0.933760
0.105181 0.977165 0.931472
0.248556 0.977165 0.930818
0.391931 0.977165 0.929808
0.535306 0.977165 0.928044
0.678681 0.977165 0.924180
0.822056 0.977165 0.908952
0.989844 0.964528 0.879410
1.000000 0.972446 0.879800
0.000000 1.000000 0.938721
0.102600 1.000000 0.935487
0.247600 1.000000 0.934583
0.392600 1.000000 0.933202
0.537600 1.000000 0.930824
0.682600 1.000000 0.925767
0.827600 1.000000 0.907665
1.000000 1.000000 0.879800
1.000000 1.000000 0.879800
0.017600 0.000000 1.000000
0.162600 0.000000 1.000000
0.307600 0.000000 1.000000
0.452600 0.000000 1.000000
0.597600 0.000000 1.000000
0.742600 0.000000 1.000000
0.887600 0.000000 1.000000
1.000000 0.000000 1.000000
1.000000 0.000000 1.000000
0.000000 0.100366 1.000000
0.105750 0.056200 1.000000
0.260594 0.056200 1.000000
0.415438 0.056200 1.000000
0.570282 0.056200 1.000000
0.725125 0.056200 1.000000
0.879969 0.056200 1.000000
1.000000 0.056200 1.000000
1.000000 0.056200 1.000000
0.000000 0.247964 1.000000
0.102600 0.208265 1.000000
0.251368 0.201200 1.000000
0.408144 0.201200 1.000000
0.564920 0.201200 1.000000
0.721696 0.201200 1.000000
0.878472 0.201200 1.000000
1.000000 0.201200 1.000000
1.000000 0.201200 1.000000
0.000000 0.395562 1.000000
0.102600 0.363654 1.000000
0.247600 0.354744 1.000000
0.397288 0.346200 1.000000
0.556940 0.346200 1.000000
0.716591 0.346200 1.000000
0.876243 0.346200 1.000000
1.000000 0.346200 1.000000
1.000000 0.346200 1.000000
0.000000 0.543160 1.000000
0.102600 0.519043 1.000000
0.247600 0.512309 1.000000
0.392600 0.502007 1.000000
0.543803 0.491200 1.000000
0.708188 0.491200 1.000000
0.872573 0.491200 1.000000
1.000000 0.491200 1.000000
1.000000 0.491200 1.000000
0.000000 0.690757 1.000000
0.102600 0.674433 1.000000
0.247600 0.669874 1.000000
0.392600 0.662901 1.000000
0.537600 0.650902 1.000000
0.691764 0.636200 1.000000
0.865401 0.636200 1.000000
1.000000 0.636200 1.000000
1.000000 0.636200 1.000000
0.000000 0.838355 1.000000
0.102600 0.829822 1.000000
0.247600 0.827439 1.000000
0.392600 0.823794 1.000000
0.537600 0.817522 1.000000
0.682600 0.804184 1.000000
0.845131 0.781200 1.000000
1.000000 0.781200 1.000000
1.000000 0.781200 1.000000
0.000000 0.985953 1.000000
0.102600 0.985211 1.000000
0.247600 0.985004 1.000000
0.392600 0.984687 1.000000
0.537600 0.984142 1.000000
0.682600 0.982983 1.000000
0.827600 0.978833 1.000000
1.000000 0.926200 1.000000
1.000000 0.926200 1.000000
0.000000 1.000000 1.000000
0.102600 1.000000 1.000000
0.247600 1.000000 1.000000
0.392600 1.000000 1.000000
0.537600 1.000000 1.000000
0.682600 1.000000 1.000000
0.827600 1.000000 1.000000
1.000000 0.940000 0.940000
1.000000 0.940000 0.940000
